Andreas691667/Digital_Twin_UR/src/controller_monitor/robot_output/case1_noblocks_robot_output.csv
timestamp actual_q_0 actual_q_1 actual_q_2 actual_q_3 actual_q_4 actual_q_5 actual_qd_0 actual_qd_1 actual_qd_2 actual_qd_3 actual_qd_4 actual_qd_5 safety_status output_bit_register_65 output_bit_register_66
24942.217 3.712111473083496 -0.825466052894928 0.8430245558368128 -1.5882498226561488 -1.5707967917071741 2.141267776489258 0.0 0.0 0.0 -0.0 -0.0 -0.0 1 False False
24942.267 3.712095260620117 -0.8254468005946656 0.8429845015155237 -1.5882731876769007 -1.570784870778219 2.1412765979766846 0.0 0.0 0.0 -0.0 -0.0 -0.0 1 False False
24942.317 3.712132453918457 -0.8254719537547608 0.8429878393756312 -1.5883013210692347 -1.5707529226886194 2.141291618347168 0.0 0.0 0.0 -0.0 -0.0 -0.0 1 False False
24942.367 3.712104082107544 -0.8254706424525757 0.8429544607745569 -1.5883332691588343 -1.5707967917071741 2.141258955001831 0.0 0.0 0.0 -0.0 -0.0 -0.0 1 False False
24942.416999999998 3.712066888809204 -0.8254750531962891 0.8429678122149866 -1.588297029534811 -1.5707486311541956 2.141296148300171 0.0 0.0 0.0 -0.0 -0.0 -0.0 1 False False
24942.467 3.7120907306671143 -0.8254795235446473 0.8430007139789026 -1.5882774792113246 -1.5707967917071741 2.1413049697875977 0.0 0.0 0.0 -0.0 -0.0 -0.0 1 False False
24942.517 3.712111473083496 -0.8254452508739014 0.8429930845843714 -1.5882774792113246 -1.570801083241598 2.1413159370422363 0.0 0.0 0.0 -0.0 -0.0 -0.0 1 False False
24942.567 3.7120535373687744 -0.8254125875285645 0.8429759184466761 -1.5883251629271449 -1.5708048979388636 2.141258955001831 0.0 0.0 0.0 -0.0 -0.0 -0.0 1 False False
24942.617 3.7120578289031982 -0.8254794639400025 0.8429678122149866 -1.5882731876769007 -1.5708335081683558 2.141270637512207 0.0 0.0 0.0 -0.0 -0.0 -0.0 1 False False
24942.666999999998 3.7120697498321533 -0.8254676026156922 0.8430007139789026 -1.5882731876769007 -1.5707810560809534 2.141313076019287 0.0 0.0 0.0 -0.0 -0.0 -0.0 1 False False
24942.717 3.712062358856201 -0.8254794639400025 0.8430083433734339 -1.5883094273009242 -1.5707767645465296 2.1413049697875977 0.0 0.0 0.0 -0.0 -0.0 -0.0 1 False False
24942.767 3.7120535373687744 -0.825440840130188 0.8430126349078577 -1.5882774792113246 -1.570801083241598 2.141296148300171 0.0 0.0 0.0 -0.0 -0.0 -0.0 1 False False
24942.817 3.7120697498321533 -0.8254169982722779 0.8429635206805628 -1.588268896142477 -1.5707648436175745 2.141267776489258 0.0 0.0 0.0 -0.0 -0.0 -0.0 1 False False
24942.867 3.712123394012451 -0.8254913848689576 0.8430703322040003 -1.5883170566954554 -1.570801083241598 2.141313076019287 0.0 0.0 0.0 -0.0 -0.0 -0.0 1 False False
24942.916999999998 3.712120771408081 -0.825437919502594 0.8429802099810999 -1.5882650814452113 -1.5708373228656214 2.141313076019287 0.0 0.0 0.0 -0.0 -0.0 -0.0 1 False False
24942.967 3.712071418762207 -0.8255128425410767 0.8430212179767054 -1.5882889233031214 -1.5708168188678187 2.141258955001831 0.0 0.0 0.0 -0.0 -0.0 -0.0 1 False False
24943.017 3.7120532989501953 -0.8254245084575196 0.8429887930499476 -1.588268896142477 -1.570784870778219 2.1412723064422607 0.0 0.0 0.0 -0.0 -0.0 -0.0 1 False False
24943.067 3.7121026515960693 -0.8254423898509522 0.8429887930499476 -1.5882650814452113 -1.5708492437945765 2.141279697418213 0.0 0.0 0.0 -0.0 -0.0 -0.0 1 False False
24943.117 3.712078809738159 -0.8254750531962891 0.8429477850543421 -1.5882569752135218 -1.570784870778219 2.141326427459717 0.0 0.0 0.0 -0.0 -0.0 -0.0 1 False False
24943.166999999998 3.7120490074157715 -0.8254794639400025 0.8430135885821741 -1.5882216892638148 -1.5708168188678187 2.1412453651428223 0.0 0.0 0.0 -0.0 -0.0 -0.0 1 False False
24943.217 3.7120862007141113 -0.8255002659610291 0.8429887930499476 -1.5882331333556117 -1.5707925001727503 2.1413204669952393 0.0 0.0 0.0 -0.0 -0.0 -0.0 1 False False
24943.267 3.7120697498321533 -0.8254496616176148 0.8430169264422815 -1.5882650814452113 -1.5708006064044397 2.1413049697875977 0.0 0.0 0.0 -0.0 -0.0 -0.0 1 False False
24943.317 3.7121188640594482 -0.8255134981921692 0.8429887930499476 -1.5883251629271449 -1.5707925001727503 2.1413414478302 0.0 0.0 0.0 -0.0 -0.0 -0.0 1 False False
24943.367 3.7120742797851562 -0.8254587215236207 0.8430092970477503 -1.5882817707457484 -1.5707767645465296 2.141270637512207 0.0 0.0 0.0 -0.0 -0.0 -0.0 1 False False
24943.416999999998 3.7120697498321533 -0.8254543107799073 0.8429721037494105 -1.5882774792113246 -1.5708168188678187 2.141287088394165 0.0 0.0 0.0 -0.0 -0.0 -0.0 1 False False
24943.467 3.7121400833129883 -0.825495795612671 0.8429477850543421 -1.5882288418211878 -1.5707686583148401 2.141233444213867 0.0 0.0 0.0 -0.0 -0.0 -0.0 1 False False
24943.517 3.7120487689971924 -0.8254914444736023 0.8429477850543421 -1.588245531121725 -1.570784870778219 2.1413049697875977 0.0 0.0 0.0 -0.0 -0.0 -0.0 1 False False
24943.567 3.7120578289031982 -0.8255039614490052 0.8429759184466761 -1.5882650814452113 -1.5707724730121058 2.1412558555603027 0.0 0.0 0.0 -0.0 -0.0 -0.0 1 False False
24943.617 3.7120981216430664 -0.8255409759334107 0.8429845015155237 -1.588280817071432 -1.5707886854754847 2.141267776489258 0.0 0.0 0.0 -0.0 -0.0 -0.0 1 False False
24943.666999999998 3.7120816707611084 -0.8255155843547364 0.8430245558368128 -1.5882774792113246 -1.5707605520831507 2.141296148300171 0.0 0.0 0.0 -0.0 -0.0 -0.0 1 False False
24943.717 3.7120652198791504 -0.8254215878299256 0.8429549376117151 -1.5882770023741664 -1.570784870778219 2.141270637512207 0.0 0.0 0.0 -0.0 -0.0 -0.0 1 False False
24943.767 3.7120816707611084 -0.8254913848689576 0.8429635206805628 -1.5883370838561 -1.5707686583148401 2.141287088394165 -1.78412905109393e-12 0.0 0.0 -0.0 -0.0 -0.0 1 False False
24943.817 3.7120981216430664 -0.8254543107799073 0.8429587523089808 -1.5882817707457484 -1.5707686583148401 2.14127516746521 0.0 0.0 0.0 -0.0 -0.0 -0.0 1 False False
24943.867 3.7121236324310303 -0.8254913848689576 0.8430007139789026 -1.5883094273009242 -1.5707925001727503 2.141279697418213 0.0 0.0 0.0 -0.0 -0.0 -0.0 1 False False
24943.916999999998 3.712144613265991 -0.8254957360080262 0.8430054823504847 -1.5882817707457484 -1.5707929770099085 2.141267776489258 0.0 0.0 0.0 -0.0 -0.0 -0.0 1 False False
24943.967 3.7121267318725586 -0.8254707020572205 0.8429887930499476 -1.5882650814452113 -1.5707724730121058 2.141287088394165 0.0 0.0 0.0 -0.0 -0.0 -0.0 1 False False
24944.017 3.7120490074157715 -0.8254869145205994 0.8429673353778284 -1.5882650814452113 -1.5707805792437952 2.14127516746521 0.0 0.0 0.0 -0.0 -0.0 -0.0 1 False False
24944.067 3.7120981216430664 -0.8255084317973633 0.8429845015155237 -1.5882607899107875 -1.5707925001727503 2.14131760597229 0.0 0.0 0.0 -0.0 -0.0 -0.0 1 False False
24944.117 3.7120606899261475 -0.8254587811282654 0.8430007139789026 -1.5882488689818324 -1.5707686583148401 2.141230583190918 0.0 0.0 0.0 -0.0 -0.0 -0.0 1 False False
24944.166999999998 3.7121191024780273 -0.8254869741252442 0.8429430166827601 -1.5883084736266078 -1.5707605520831507 2.141326427459717 0.0 0.0 0.0 -0.0 -0.0 -0.0 1 False False
24944.217 3.7120816707611084 -0.8254869741252442 0.842971150075094 -1.5882412395873011 -1.570801083241598 2.141267776489258 0.0 0.0 0.0 -0.0 -0.0 -0.0 1 False False
24944.267 3.7120907306671143 -0.8254587215236207 0.8430174032794397 -1.5882412395873011 -1.5708168188678187 2.141336679458618 0.0 0.0 0.0 -0.0 -0.0 -0.0 1 False False
24944.317 3.7120771408081055 -0.8254543107799073 0.8429544607745569 -1.588252683679098 -1.5707891623126429 2.141226053237915 0.0 0.0 0.0 -0.0 -0.0 -0.0 1 False False
24944.367 3.7120816707611084 -0.8254453104785462 0.842987362538473 -1.5883332691588343 -1.5707967917071741 2.141254186630249 0.0 0.0 0.0 -0.0 -0.0 -0.0 1 False False
24944.416999999998 3.7120816707611084 -0.8255083721927186 0.8429673353778284 -1.588297029534811 -1.5708487669574183 2.1412439346313477 -6.159410170747556e-25 0.0 0.0 -0.0 -0.0 -0.0 1 False False
24944.467 3.7120606899261475 -0.8254779738238831 0.8430083433734339 -1.5882846317686976 -1.570784870778219 2.1412765979766846 0.0 0.0 0.0 -0.0 -0.0 -0.0 1 False False
24944.517 3.7120652198791504 -0.825466052894928 0.842987362538473 -1.5882932148375453 -1.5707686583148401 2.141270637512207 0.0 0.0 0.0 -0.0 -0.0 -0.0 1 False False
24944.567 3.7120981216430664 -0.8255083721927186 0.8429349104510706 -1.5882288418211878 -1.570853058491842 2.141282558441162 0.0 0.0 0.0 -0.0 -0.0 -0.0 1 False False
24944.617 3.7120981216430664 -0.8255455058864136 0.8429935614215296 -1.5883251629271449 -1.5707686583148401 2.1413094997406006 0.0 0.0 0.0 -0.0 -0.0 -0.0 1 False False
24944.666999999998 3.712123394012451 -0.8254794639400025 0.842987362538473 -1.588320871392721 -1.5708373228656214 2.141279697418213 0.0 0.0 0.0 -0.0 -0.0 -0.0 1 False False
24944.717 3.712083101272583 -0.8254542511752625 0.8430293242083948 -1.5882889233031214 -1.5708087126361292 2.14131760597229 0.0 0.0 0.0 -0.0 -0.0 -0.0 1 False False
24944.767 3.7120368480682373 -0.8254706424525757 0.8429802099810999 -1.5882932148375453 -1.5707686583148401 2.141282558441162 0.0 0.0 0.0 -0.0 -0.0 -0.0 1 False False
24944.817 3.7120862007141113 -0.8254452508739014 0.842992130910055 -1.588269372979635 -1.5708087126361292 2.141247034072876 0.0 0.0 0.0 -0.0 -0.0 -0.0 1 False False
24944.867 3.712111473083496 -0.8255083721927186 0.8430503050433558 -1.5883094273009242 -1.5707967917071741 2.141291618347168 0.0 0.0 0.0 -0.0 -0.0 -0.0 1 False False
24944.916999999998 3.7120203971862793 -0.825425998573639 0.8430216948138636 -1.5882650814452113 -1.5708211104022425 2.1413204669952393 0.0 0.0 0.0 -0.0 -0.0 -0.0 1 False False
24944.967 3.7120654582977295 -0.8254795235446473 0.8430040518390101 -1.5882488689818324 -1.5707724730121058 2.141287088394165 0.0 0.0 0.0 -0.0 -0.0 -0.0 1 False False
24945.017 3.712029457092285 -0.8255039614490052 0.8429845015155237 -1.588269372979635 -1.5707967917071741 2.141221523284912 0.0 0.0 0.0 -0.0 -0.0 -0.0 1 False False
24945.067 3.7120816707611084 -0.825495795612671 0.8429587523089808 -1.588269372979635 -1.570784870778219 2.141258955001831 0.0 0.0 0.0 -0.0 -0.0 -0.0 1 False False
24945.117 3.7121026515960693 -0.8254587215236207 0.8430245558368128 -1.588252683679098 -1.570801083241598 2.141313076019287 0.0 0.0 0.0 -0.0 -0.0 -0.0 1 False False
24945.166999999998 3.7120401859283447 -0.8255046767047425 0.8429482618915003 -1.5882250271239222 -1.570801083241598 2.141313076019287 0.0 0.0 0.0 -0.0 -0.0 -0.0 1 False False
24945.217 3.712087631225586 -0.8254543107799073 0.8430007139789026 -1.588292738000387 -1.5708373228656214 2.14127516746521 0.0 0.0 0.0 -0.0 -0.0 -0.0 1 False False
24945.267 3.7120654582977295 -0.825425998573639 0.8430216948138636 -1.588273664514059 -1.5707967917071741 2.1412723064422607 0.0 0.0 0.0 -0.0 -0.0 -0.0 1 False False
24945.317 3.7120368480682373 -0.8255291742137452 0.8430216948138636 -1.588269372979635 -1.5707805792437952 2.141263246536255 0.0 0.0 0.0 -0.0 -0.0 -0.0 1 False False
24945.367 3.7120742797851562 -0.8255083721927186 0.8429754416095179 -1.5883051357665003 -1.5707405249225062 2.141296148300171 0.0 0.0 0.0 -0.0 -0.0 -0.0 1 False False
24945.416999999998 3.712099552154541 -0.8254823845675965 0.8429186979876917 -1.5882607899107875 -1.5707886854754847 2.141242504119873 0.0 0.0 0.0 -0.0 -0.0 -0.0 1 False False
24945.467 3.71207857131958 -0.8255172532847901 0.8429392019854944 -1.5882650814452113 -1.570772949849264 2.141263246536255 0.0 0.0 0.0 -0.0 -0.0 -0.0 1 False False
24945.517 3.7120862007141113 -0.8254215282252808 0.8430007139789026 -1.5882817707457484 -1.5707686583148401 2.141313076019287 0.0 0.0 0.0 -0.0 -0.0 -0.0 1 False False
24945.567 3.7121081352233887 -0.8255128425410767 0.8430412451373499 -1.5882774792113246 -1.5708048979388636 2.1412289142608643 0.0 0.0 0.0 -0.0 -0.0 -0.0 1 False False
24945.617 3.7120370864868164 -0.825495795612671 0.8429673353778284 -1.5883614025511683 -1.5708168188678187 2.141296148300171 0.0 0.0 0.0 -0.0 -0.0 -0.0 1 False False
24945.666999999998 3.712045907974243 -0.8254913848689576 0.8429587523089808 -1.5883246860899867 -1.5708087126361292 2.141221523284912 0.0 0.0 0.0 -0.0 -0.0 -0.0 1 False False
24945.717 3.712115526199341 -0.8255046767047425 0.8429935614215296 -1.5883094273009242 -1.5708048979388636 2.1413159370422363 0.0 0.0 0.0 -0.0 -0.0 -0.0 1 False False
24945.767 3.712062358856201 -0.8255379360965271 0.8429935614215296 -1.5882655582823695 -1.5708087126361292 2.141267776489258 0.0 0.0 0.0 -0.0 -0.0 -0.0 1 False False
24945.817 3.712071180343628 -0.8255083721927186 0.8430126349078577 -1.588320871392721 -1.570801083241598 2.1412975788116455 9.355788713194535e-13 0.0 0.0 -0.0 -0.0 -0.0 1 False False
24945.867 3.712099313735962 -0.8254543107799073 0.8429892698871058 -1.5882612667479457 -1.5708044211017054 2.141296148300171 0.0 0.0 0.0 -0.0 -0.0 -0.0 1 False False
24945.916999999998 3.7120773792266846 -0.8254007262042542 0.8430007139789026 -1.5883246860899867 -1.570784870778219 2.141254186630249 0.0 0.0 0.0 -0.0 -0.0 -0.0 1 False False
24945.967 3.712090492248535 -0.8254869741252442 0.8430007139789026 -1.588297506371969 -1.5708211104022425 2.141313076019287 0.0 0.0 0.0 -0.0 -0.0 -0.0 1 False False
24946.017 3.7120699882507324 -0.8254869741252442 0.8429845015155237 -1.5882569752135218 -1.5707724730121058 2.1413087844848633 0.0 0.0 0.0 -0.0 -0.0 -0.0 1 False False
24946.067 3.712094783782959 -0.8254676026156922 0.8430307547198694 -1.5883332691588343 -1.5708449522601526 2.141313076019287 0.0 0.0 0.0 -0.0 -0.0 -0.0 1 False False
24946.117 3.712066650390625 -0.8254913848689576 0.8429282347308558 -1.588292738000387 -1.5707767645465296 2.141296148300171 0.0 0.0 0.0 -0.0 -0.0 -0.0 1 False False
24946.166999999998 3.71207857131958 -0.825524703865387 0.8429887930499476 -1.588285585443014 -1.5708211104022425 2.141313076019287 0.0 0.0 0.0 -0.0 -0.0 -0.0 1 False False
24946.217 3.7120413780212402 -0.8255202931216736 0.8429678122149866 -1.5882889233031214 -1.5708454290973108 2.141308546066284 0.0 0.0 0.0 -0.0 -0.0 -0.0 1 False False
24946.267 3.7120819091796875 -0.8254913848689576 0.8429845015155237 -1.5883175335326136 -1.5708168188678187 2.1413004398345947 0.0 0.0 0.0 -0.0 -0.0 -0.0 1 False False
24946.317 3.7120819091796875 -0.8254542511752625 0.8429630438434046 -1.5883094273009242 -1.5707925001727503 2.1413049697875977 0.0 0.0 0.0 -0.0 -0.0 -0.0 1 False False
24946.367 3.7121143341064453 -0.8255291742137452 0.8429678122149866 -1.588268896142477 -1.5707805792437952 2.1413004398345947 0.0 0.0 0.0 -0.0 -0.0 -0.0 1 False False
24946.416999999998 3.7120537757873535 -0.8254869741252442 0.8430054823504847 -1.5882569752135218 -1.570813004170553 2.141263246536255 0.0 0.0 0.0 -0.0 -0.0 -0.0 1 False False
24946.467 3.712106704711914 -0.8255290550044556 0.8429515997516077 -1.5882932148375453 -1.570772949849264 2.1412513256073 0.0 0.0 0.0 -0.0 -0.0 -0.0 1 False False
24946.517 3.712122917175293 -0.825495795612671 0.8429845015155237 -1.5882889233031214 -1.5708335081683558 2.141296148300171 0.0 0.0 0.0 -0.0 -0.0 -0.0 1 False False
24946.567 3.7120699882507324 -0.825463132267334 0.8429802099810999 -1.5882731876769007 -1.5707886854754847 2.1412930488586426 0.0 0.0 0.0 -0.0 -0.0 -0.0 1 False False
24946.617 3.712090492248535 -0.8254675430110474 0.8429935614215296 -1.5882846317686976 -1.5708168188678187 2.1412513256073 2.8450547992882856e-21 0.0 0.0 -0.0 -0.0 -0.0 1 False False
24946.666999999998 3.7120656967163086 -0.8254869145205994 0.8429845015155237 -1.5882607899107875 -1.5707610289203089 2.141254186630249 0.0 0.0 0.0 -0.0 -0.0 -0.0 1 False False
24946.717 3.7120776176452637 -0.8254838746837159 0.842992130910055 -1.5882412395873011 -1.5707572142230433 2.141267776489258 0.0 0.0 0.0 -0.0 -0.0 -0.0 1 False False
24946.767 3.712085008621216 -0.8254750531962891 0.8429878393756312 -1.5882774792113246 -1.5707443396197718 2.141267776489258 0.0 0.0 0.0 -0.0 -0.0 -0.0 1 False False
24946.817 3.7120981216430664 -0.8254719537547608 0.8430007139789026 -1.588269372979635 -1.5707967917071741 2.1412513256073 0.0 0.0 0.0 -0.0 -0.0 -0.0 1 False False
24946.867 3.7120699882507324 -0.8254949611476441 0.8429759184466761 -1.5882731876769007 -1.5707886854754847 2.141287088394165 0.0 0.0 0.0 -0.0 -0.0 -0.0 1 False False
24946.916999999998 3.71207332611084 -0.8254496616176148 0.842992130910055 -1.5882331333556117 -1.5707648436175745 2.14131760597229 0.0 0.0 0.0 -0.0 -0.0 -0.0 1 False False
24946.967 3.7120981216430664 -0.8255039614490052 0.8429878393756312 -1.5883094273009242 -1.5707648436175745 2.141291618347168 0.0 0.0 0.0 -0.0 -0.0 -0.0 1 False False
24947.017 3.7121100425720215 -0.8254913848689576 0.8430331389056605 -1.588297029534811 -1.570784870778219 2.1412618160247803 0.0 0.0 0.0 -0.0 -0.0 -0.0 1 False False
24947.067 3.7120981216430664 -0.825495795612671 0.8430212179767054 -1.5883056126036585 -1.570772949849264 2.141279697418213 0.0 0.0 0.0 -0.0 -0.0 -0.0 1 False False
24947.117 3.7120862007141113 -0.8255083721927186 0.8430007139789026 -1.5882817707457484 -1.5708006064044397 2.141254186630249 0.0 0.0 0.0 -0.0 -0.0 -0.0 1 False False
24947.166999999998 3.7121264934539795 -0.8255260747722168 0.8429845015155237 -1.5882889233031214 -1.5707572142230433 2.14127516746521 0.0 0.0 0.0 -0.0 -0.0 -0.0 1 False False
24947.217 3.7120742797851562 -0.825463132267334 0.8429930845843714 -1.5883251629271449 -1.570756737385885 2.141267776489258 0.0 0.0 0.0 -0.0 -0.0 -0.0 1 False False
24947.267 3.71207857131958 -0.8254229587367554 0.8429964224444788 -1.588297029534811 -1.5708087126361292 2.141270637512207 -6.866362475191604e-44 0.0 0.0 -0.0 -0.0 -0.0 1 False False
24947.317 3.7120981216430664 -0.8254468601993104 0.8430126349078577 -1.588269372979635 -1.5707929770099085 2.1413004398345947 0.0 0.0 0.0 -0.0 -0.0 -0.0 1 False False
24947.367 3.7120699882507324 -0.8255083721927186 0.842992130910055 -1.588297029534811 -1.5708211104022425 2.141279697418213 0.0 0.0 0.0 -0.0 -0.0 -0.0 1 False False
24947.416999999998 3.7120862007141113 -0.8255171340755005 0.8430135885821741 -1.5882607899107875 -1.5708206335650843 2.141329526901245 0.0 0.0 0.0 -0.0 -0.0 -0.0 1 False False
24947.467 3.7120819091796875 -0.8254496616176148 0.8430169264422815 -1.5883056126036585 -1.5707810560809534 2.141284227371216 0.0 0.0 0.0 -0.0 -0.0 -0.0 1 False False
24947.517 3.712118625640869 -0.8255246442607422 0.8429802099810999 -1.588313718835348 -1.57082444826235 2.1412885189056396 0.0 0.0 0.0 -0.0 -0.0 -0.0 1 False False
24947.567 3.712062358856201 -0.8255083125880738 0.843062702809469 -1.5882607899107875 -1.570784870778219 2.14127516746521 0.0 0.0 0.0 -0.0 -0.0 -0.0 1 False False
24947.617 3.712094783782959 -0.8254497808269043 0.8429887930499476 -1.5882731876769007 -1.5707810560809534 2.141287088394165 0.0 0.0 0.0 -0.0 -0.0 -0.0 1 False False
24947.666999999998 3.7120532989501953 -0.8254957360080262 0.8429887930499476 -1.588268896142477 -1.5707767645465296 2.141254186630249 0.0 0.0 0.0 -0.0 -0.0 -0.0 1 False False
24947.717 3.7120981216430664 -0.825463132267334 0.8429964224444788 -1.588245531121725 -1.570709530507223 2.141258955001831 0.0 0.0 0.0 -0.0 -0.0 -0.0 1 False False
24947.767 3.7120742797851562 -0.8254794639400025 0.8430374304400843 -1.588245531121725 -1.5707529226886194 2.141291618347168 0.0 0.0 0.0 -0.0 -0.0 -0.0 1 False False
24947.817 3.712078809738159 -0.8255453866771241 0.8430050055133265 -1.5882569752135218 -1.570772949849264 2.141230583190918 0.0 0.0 0.0 -0.0 -0.0 -0.0 1 False False
24947.867 3.712095260620117 -0.8254675430110474 0.8429964224444788 -1.5882898769774378 -1.570784870778219 2.141275405883789 0.0 0.0 0.0 -0.0 -0.0 -0.0 1 False False
24947.916999999998 3.7120862007141113 -0.825552837257721 0.8429887930499476 -1.588269372979635 -1.5707491079913538 2.1413049697875977 0.0 0.0 0.0 -0.0 -0.0 -0.0 1 False False
24947.967 3.712092161178589 -0.825524703865387 0.8430288473712366 -1.5882817707457484 -1.5707972685443323 2.141287088394165 0.0 0.0 0.0 -0.0 -0.0 -0.0 1 False False
24948.017 3.712111473083496 -0.8255112332156678 0.8429845015155237 -1.588245531121725 -1.5707572142230433 2.141291618347168 0.0 0.0 0.0 -0.0 -0.0 -0.0 1 False False
24948.067 3.7120697498321533 -0.8254913252643128 0.8429520765887659 -1.5882774792113246 -1.5707686583148401 2.141287088394165 0.0 0.0 0.0 -0.0 -0.0 -0.0 1 False False
24948.117 3.712132453918457 -0.8255039018443604 0.8429887930499476 -1.5882817707457484 -1.5708373228656214 2.1412007808685303 0.0 0.0 0.0 -0.0 -0.0 -0.0 1 False False
24948.166999999998 3.712045669555664 -0.825533465748169 0.8430135885821741 -1.5882817707457484 -1.5707362333880823 2.141235113143921 0.0 0.0 0.0 -0.0 -0.0 -0.0 1 False False
24948.217 3.7120578289031982 -0.8255002063563843 0.8430007139789026 -1.5883413753905238 -1.570813004170553 2.1412723064422607 0.0 0.0 0.0 -0.0 -0.0 -0.0 1 False False
24948.267 3.712111473083496 -0.8254587215236207 0.8429306189166468 -1.5883094273009242 -1.5708048979388636 2.141242504119873 0.0 0.0 0.0 -0.0 -0.0 -0.0 1 False False
24948.317 3.7120697498321533 -0.8254496616176148 0.8429964224444788 -1.5882932148375453 -1.570801083241598 2.141308546066284 0.0 0.0 0.0 -0.0 -0.0 -0.0 1 False False
24948.367 3.7120697498321533 -0.8255002659610291 0.8429673353778284 -1.588268896142477 -1.5708168188678187 2.1412127017974854 0.0 0.0 0.0 -0.0 -0.0 -0.0 1 False False
24948.416999999998 3.712062358856201 -0.8255039018443604 0.8429754416095179 -1.5882569752135218 -1.5707767645465296 2.1413094997406006 0.0 0.0 0.0 -0.0 -0.0 -0.0 1 False False
24948.467 3.7120742797851562 -0.8254794639400025 0.8429392019854944 -1.5882731876769007 -1.570784870778219 2.1412618160247803 -5.483163145703225e-18 0.0 0.0 -0.0 -0.0 -0.0 1 False False
24948.517 3.7120697498321533 -0.8254993718913575 0.8430054823504847 -1.5883332691588343 -1.5707967917071741 2.141270637512207 0.0 0.0 0.0 -0.0 -0.0 -0.0 1 False False
24948.567 3.712083101272583 -0.8254096669009705 0.8429978529559534 -1.5882374248900355 -1.570801083241598 2.1413040161132812 0.0 0.0 0.0 -0.0 -0.0 -0.0 1 False False
24948.617 3.712111473083496 -0.8255089682391663 0.8429563681231897 -1.5882331333556117 -1.5708168188678187 2.141300678253174 0.0 0.0 0.0 -0.0 -0.0 -0.0 1 False False
24948.666999999998 3.7121026515960693 -0.8254972261241456 0.8429892698871058 -1.5882817707457484 -1.5707967917071741 2.141263246536255 0.0 0.0 0.0 -0.0 -0.0 -0.0 1 False False
24948.717 3.7120532989501953 -0.825527624492981 0.8429721037494105 -1.588285585443014 -1.5707805792437952 2.141287088394165 0.0 0.0 0.0 -0.0 -0.0 -0.0 1 False False
24948.767 3.712116003036499 -0.825463132267334 0.8430007139789026 -1.5882650814452113 -1.5707605520831507 2.141235113143921 9.749304696882177e-10 0.0 0.0 -0.0 -0.0 -0.0 1 False False
24948.817 3.7120578289031982 -0.8255247634700318 0.8430126349078577 -1.5882569752135218 -1.5708368460284632 2.141263246536255 0.0 0.0 0.0 -0.0 -0.0 -0.0 1 False False
24948.867 3.712083339691162 -0.8254913848689576 0.8430126349078577 -1.5883170566954554 -1.5707925001727503 2.1413204669952393 0.0 0.0 0.0 -0.0 -0.0 -0.0 1 False False
24948.916999999998 3.7120907306671143 -0.825463132267334 0.8429763952838343 -1.5882817707457484 -1.570784870778219 2.141279697418213 0.0 0.0 0.0 -0.0 -0.0 -0.0 1 False False
24948.967 3.7120697498321533 -0.8255039614490052 0.8429754416095179 -1.588269372979635 -1.5708168188678187 2.141279697418213 0.0 0.0 0.0 -0.0 -0.0 -0.0 1 False False
24949.017 3.7120742797851562 -0.8255291146091004 0.8429845015155237 -1.5883289776244105 -1.570801083241598 2.141291618347168 0.0 0.0 0.0 -0.0 -0.0 -0.0 1 False False
24949.067 3.7121026515960693 -0.8254333299449463 0.8430245558368128 -1.588320871392721 -1.5707767645465296 2.141287088394165 0.0 0.0 0.0 -0.0 -0.0 -0.0 1 False False
24949.117 3.7121071815490723 -0.8255291742137452 0.8429935614215296 -1.5882569752135218 -1.5707891623126429 2.14127516746521 0.0 0.0 0.0 -0.0 -0.0 -0.0 1 False False
24949.166999999998 3.7120697498321533 -0.8254496616176148 0.8430007139789026 -1.5882607899107875 -1.5707805792437952 2.141209840774536 0.0 0.0 0.0 -0.0 -0.0 -0.0 1 False False
24949.217 3.7121026515960693 -0.8254706424525757 0.8429802099810999 -1.588297029534811 -1.5708254019366663 2.141284227371216 0.0 0.0 0.0 -0.0 -0.0 -0.0 1 False False
24949.267 3.7121026515960693 -0.8254839342883606 0.8429964224444788 -1.5883175335326136 -1.5707891623126429 2.141258955001831 0.0 0.0 0.0 -0.0 -0.0 -0.0 1 False False
24949.317 3.7120819091796875 -0.8254542511752625 0.8430293242083948 -1.5882932148375453 -1.570784870778219 2.141324996948242 0.0 0.0 0.0 -0.0 -0.0 -0.0 1 False False
24949.367 3.7120606899261475 -0.8254707020572205 0.8429673353778284 -1.5883413753905238 -1.5707405249225062 2.141313076019287 0.0 0.0 0.0 -0.0 -0.0 -0.0 1 False False
24949.416999999998 3.7120323181152344 -0.8254497808269043 0.8429215590106409 -1.5882774792113246 -1.5707767645465296 2.141308546066284 0.0 0.0 0.0 -0.0 -0.0 -0.0 1 False False
24949.467 3.7121191024780273 -0.8254823845675965 0.8430174032794397 -1.588297029534811 -1.5708416144000452 2.141295909881592 0.0 0.0 0.0 -0.0 -0.0 -0.0 1 False False
24949.517 3.712083339691162 -0.8255335849574585 0.8430007139789026 -1.5882374248900355 -1.5707805792437952 2.141321897506714 7.88739633739188e-36 0.0 0.0 -0.0 -0.0 -0.0 1 False False
24949.567 3.712165594100952 -0.825428919201233 0.8429845015155237 -1.588297029534811 -1.570829216633932 2.141284227371216 0.0 0.0 0.0 -0.0 -0.0 -0.0 1 False False
24949.617 3.7120862007141113 -0.8254869741252442 0.8429892698871058 -1.5882607899107875 -1.5707925001727503 2.141279697418213 0.0 0.0 0.0 -0.0 -0.0 -0.0 1 False False
24949.666999999998 3.7120742797851562 -0.8254706424525757 0.842992130910055 -1.5882898769774378 -1.5707967917071741 2.141258955001831 0.0 0.0 0.0 -0.0 -0.0 -0.0 1 False False
24949.717 3.712078809738159 -0.8255003255656739 0.8429721037494105 -1.5882650814452113 -1.5708168188678187 2.1413092613220215 0.0 0.0 0.0 -0.0 -0.0 -0.0 1 False False
24949.767 3.7120771408081055 -0.8255335849574585 0.8429935614215296 -1.5883013210692347 -1.5708168188678187 2.141296148300171 0.0 0.0 0.0 -0.0 -0.0 -0.0 1 False False
24949.817 3.7120907306671143 -0.8255084317973633 0.8430054823504847 -1.5882135830321253 -1.5708449522601526 2.141291618347168 0.0 0.0 0.0 -0.0 -0.0 -0.0 1 False False
24949.867 3.712095260620117 -0.8254587811282654 0.8429845015155237 -1.5883251629271449 -1.5707772413836878 2.14131760597229 0.0 0.0 0.0 -0.0 -0.0 -0.0 1 False False
24949.916999999998 3.7120816707611084 -0.8254904907992859 0.8429845015155237 -1.588297029534811 -1.570756737385885 2.141333818435669 0.0 0.0 0.0 -0.0 -0.0 -0.0 1 False False
24949.967 3.712106943130493 -0.8254750531962891 0.8430383841144007 -1.5883251629271449 -1.570829216633932 2.141313076019287 0.0 0.0 0.0 -0.0 -0.0 -0.0 1 False False
24950.017 3.7120862007141113 -0.8255039614490052 0.8430216948138636 -1.588245531121725 -1.5708044211017054 2.141321897506714 0.0 0.0 0.0 -0.0 -0.0 -0.0 1 False False
24950.067 3.7121191024780273 -0.8254304689219971 0.8429673353778284 -1.588280817071432 -1.5707929770099085 2.1412723064422607 0.0 0.0 0.0 -0.0 -0.0 -0.0 1 False False
24950.117 3.7120981216430664 -0.8255128425410767 0.8429473082171839 -1.5882846317686976 -1.5707648436175745 2.141296148300171 -7.681101266143742e-08 0.0 0.0 -0.0 -0.0 -0.0 1 False False
24950.166999999998 3.7121312618255615 -0.8254869741252442 0.8430007139789026 -1.5882774792113246 -1.5708492437945765 2.141296148300171 0.0 0.0 0.0 -0.0 -0.0 -0.0 1 False False
24950.217 3.7120907306671143 -0.825437919502594 0.8430174032794397 -1.5883094273009242 -1.5708211104022425 2.141329526901245 0.0 0.0 0.0 -0.0 -0.0 -0.0 1 False False
24950.267 3.712078809738159 -0.8254423898509522 0.8429802099810999 -1.5883165798582972 -1.5707805792437952 2.1413278579711914 0.0 0.0 0.0 -0.0 -0.0 -0.0 1 False False
24950.317 3.7120907306671143 -0.8254794639400025 0.8429515997516077 -1.5882817707457484 -1.5707686583148401 2.14131760597229 0.0 0.0 0.0 -0.0 -0.0 -0.0 1 False False
24950.367 3.7120907306671143 -0.8254750531962891 0.8429802099810999 -1.5883165798582972 -1.5707967917071741 2.141313076019287 0.0 0.0 0.0 -0.0 -0.0 -0.0 1 False False
24950.416999999998 3.712106943130493 -0.825428919201233 0.8429721037494105 -1.588269372979635 -1.5707925001727503 2.1413004398345947 0.0 0.0 0.0 -0.0 -0.0 -0.0 1 False False
24950.467 3.712083101272583 -0.8254913848689576 0.8429887930499476 -1.5882851086058558 -1.5707686583148401 2.141291618347168 0.0 0.0 0.0 -0.0 -0.0 -0.0 1 False False
24950.517 3.7120490074157715 -0.8254496616176148 0.8429668585406702 -1.5883246860899867 -1.5708087126361292 2.141270637512207 0.0 0.0 0.0 -0.0 -0.0 -0.0 1 False False
24950.567 3.712062358856201 -0.8254675430110474 0.8429878393756312 -1.5882569752135218 -1.570801083241598 2.141296148300171 0.0 0.0 0.0 -0.0 -0.0 -0.0 1 False False
24950.617 3.7121026515960693 -0.8255128425410767 0.8430007139789026 -1.5882569752135218 -1.5707405249225062 2.1413159370422363 0.0 0.0 0.0 -0.0 -0.0 -0.0 1 False False
24950.666999999998 3.7120862007141113 -0.8254304689219971 0.8429878393756312 -1.588280817071432 -1.570784870778219 2.141284227371216 0.0 0.0 0.0 -0.0 -0.0 -0.0 1 False False
24950.717 3.7120816707611084 -0.8254794639400025 0.8429678122149866 -1.588297029534811 -1.5707967917071741 2.1412973403930664 0.0 0.0 0.0 -0.0 -0.0 -0.0 1 False False
24950.767 3.7120249271392822 -0.8254750531962891 0.8430169264422815 -1.5883094273009242 -1.570801083241598 2.141267776489258 -3.710970419845694e-10 0.0 0.0 -0.0 -0.0 -0.0 1 False False
24950.817 3.7120368480682373 -0.8254245084575196 0.8429587523089808 -1.588273664514059 -1.570813004170553 2.141235113143921 0.0 0.0 0.0 -0.0 -0.0 -0.0 1 False False
24950.867 3.7120862007141113 -0.8255202931216736 0.8429845015155237 -1.5882894001402796 -1.570784870778219 2.141247034072876 0.0 0.0 0.0 -0.0 -0.0 -0.0 1 False False
24950.916999999998 3.712033748626709 -0.8254905504039307 0.8430054823504847 -1.588245531121725 -1.570813004170553 2.141258955001831 0.0 0.0 0.0 -0.0 -0.0 -0.0 1 False False
24950.967 3.712106943130493 -0.8255335849574585 0.8429830710040491 -1.5882612667479457 -1.5708211104022425 2.1412930488586426 0.0 0.0 0.0 -0.0 -0.0 -0.0 1 False False
24951.017 3.712066888809204 -0.8255203527263184 0.8429845015155237 -1.5882450542845667 -1.5708335081683558 2.1412885189056396 0.0 0.0 0.0 -0.0 -0.0 -0.0 1 False False
24951.067 3.7120535373687744 -0.825437919502594 0.8430216948138636 -1.5883132419981898 -1.5707967917071741 2.141345739364624 0.0 0.0 0.0 -0.0 -0.0 -0.0 1 False False
24951.117 3.712090492248535 -0.8254794639400025 0.8429587523089808 -1.5882774792113246 -1.5707967917071741 2.1412930488586426 0.0 0.0 0.0 -0.0 -0.0 -0.0 1 False False
24951.166999999998 3.7120580673217773 -0.8255291742137452 0.8429802099810999 -1.5882932148375453 -1.570784870778219 2.1413004398345947 0.0 0.0 0.0 -0.0 -0.0 -0.0 1 False False
24951.217 3.7120370864868164 -0.825524703865387 0.8429845015155237 -1.5882569752135218 -1.570813004170553 2.141291618347168 0.0 0.0 0.0 -0.0 -0.0 -0.0 1 False False
24951.267 3.7120370864868164 -0.825463132267334 0.8429563681231897 -1.588273664514059 -1.570756737385885 2.141296148300171 0.0 0.0 0.0 -0.0 -0.0 -0.0 1 True False
24951.317 3.7121024131774902 -0.8254869145205994 0.842959229146139 -1.588280817071432 -1.5708087126361292 2.141284227371216 0.0 0.0 0.0 -0.0 -0.0 -0.0 1 True False
24951.367 3.7122583389282227 -0.8255886000445862 0.8430922667132776 -1.5883451900877894 -1.570784870778219 2.1412484645843506 0.014831030741333961 -0.006062482949346304 0.014868427999317646 -0.0018098738510161638 -0.0 -0.0072113084606826305 1 True False
24951.416999999998 3.713224172592163 -0.8260788482478638 0.8440354506122034 -1.5885998211302699 -1.570772949849264 2.140568971633911 0.030243972316384315 -0.02036256156861782 0.02792966552078724 -0.011907393112778664 -0.0 -0.020957868546247482 1 True False
24951.467 3.7156333923339844 -0.8276122969440003 0.8463118712054651 -1.589445253411764 -1.570772949849264 2.1390249729156494 0.07159149646759033 -0.04443475604057312 0.06811533123254776 -0.020469631999731064 -0.0 -0.04345026984810829 1 True False
24951.517 3.720576524734497 -0.8307864230922242 0.8511737028705042 -1.5908972225584925 -1.5708168188678187 2.13601016998291 0.12504078447818756 -0.08309017866849899 0.1172313392162323 -0.042116306722164154 -0.0 -0.07584381103515625 1 True False
24951.567 3.7286198139190674 -0.8362301749042054 0.8588746229754847 -1.5934611759581507 -1.5707524458514612 2.1308982372283936 0.20254063606262207 -0.13459913432598114 0.18878231942653656 -0.054511163383722305 -0.0 -0.12391979247331619 1 True False
24951.617 3.7410097122192383 -0.8441037696651001 0.870678726826803 -1.5971418819823207 -1.5708254019366663 2.123300313949585 0.2797187268733978 -0.17908956110477448 0.27405494451522827 -0.08876407146453857 -0.0 -0.16957291960716248 1 True False
24951.666999999998 3.7567808628082275 -0.8545113366893311 0.8859446684466761 -1.6021377048888148 -1.5708211104022425 2.113401174545288 0.3493882715702057 -0.22905848920345306 0.338355153799057 -0.10944423079490662 0.00011643553443718702 -0.2208496481180191 1 True False
24951.717 3.776310920715332 -0.8670845788768311 0.9046028296100062 -1.608194490472311 -1.5708168188678187 2.1012613773345947 0.42165935039520264 -0.27515873312950134 0.40669023990631104 -0.1243404746055603 7.963732059579343e-05 -0.2644103467464447 1 True False
24951.767 3.7989375591278076 -0.8819377583316346 0.9264853636371058 -1.6153599224486292 -1.570829216633932 2.0869455337524414 0.4920355975627899 -0.32057711482048035 0.4725271463394165 -0.14914025366306305 -0.00017491233302280307 -0.3061487674713135 1 True False
24951.817 3.8255491256713867 -0.8990641397288819 0.951878849660055 -1.623453756371969 -1.5708168188678187 2.0705838203430176 0.5558702945709229 -0.36051055788993835 0.5378739833831787 -0.1694384515285492 8.835654443828389e-05 -0.35586628317832947 1 True False
24951.867 3.8555266857147217 -0.9185049694827576 0.9804948011981409 -1.6326567135252894 -1.5707686583148401 2.0518763065338135 0.6400098204612732 -0.4140123724937439 0.6017045378684998 -0.1945032924413681 0.0007303517777472734 -0.3926052153110504 1 True False
24951.916999999998 3.8886728286743164 -0.9400851887515564 1.0125611464129847 -1.6431695423521937 -1.5707805792437952 2.0308852195739746 0.7007460594177246 -0.4526190757751465 0.6649308800697327 -0.21442821621894836 9.607374522602186e-07 -0.4319254159927368 1 True False
24951.967 3.925678253173828 -0.9639961284450074 1.047905747090475 -1.6544224224486292 -1.570784870778219 2.0081257820129395 0.7678607702255249 -0.4935522675514221 0.74163818359375 -0.23417550325393677 1.4593621062987945e-25 -0.48779985308647156 1 True False
24952.017 3.965921401977539 -0.990094856624939 1.0864155928241175 -1.6670924625792445 -1.5707891623126429 1.9828506708145142 0.8394145369529724 -0.5462861657142639 0.8089112639427185 -0.2673634886741638 1.3143765045242617e-06 -0.5269863605499268 1 True False
24952.067 4.009896278381348 -1.0186349910548707 1.1284878889666956 -1.6807400188841761 -1.5707810560809534 1.9555604457855225 0.9129039645195007 -0.5894976854324341 0.8708168268203735 -0.28024822473526 1.9965408840135686e-25 -0.5678575038909912 1 True False
24952.117 4.057190418243408 -1.0492754739573975 1.1739829222308558 -1.6953121624388636 -1.5708492437945765 1.9259657859802246 0.9769760966300964 -0.6404523253440857 0.9407757520675659 -0.2917284667491913 5.652063583337264e-17 -0.6065263152122498 1 True False
24952.166999999998 4.107950210571289 -1.0822193187526246 1.222569767628805 -1.7112142048277796 -1.5707891623126429 1.8942265510559082 1.0531177520751953 -0.6784848570823669 1.0019224882125854 -0.3499912917613983 -1.8887759267727233e-07 -0.6529123187065125 1 True False
24952.217 4.160303115844727 -1.116192327146866 1.2728551069842737 -1.7274447880186976 -1.5707805792437952 1.861635684967041 1.044084906578064 -0.6816965341567993 1.0076297521591187 -0.3054217994213104 -0.0013421856565400958 -0.6515042781829834 1 True False
24952.267 4.212727069854736 -1.1501835149577637 1.3230298201190394 -1.7438284359373988 -1.570801083241598 1.8289629220962524 1.0411394834518433 -0.6759862899780273 0.9951668381690979 -0.3353450894355774 1.6541585523555113e-07 -0.6532343626022339 1 True False
24952.317 4.265129089355469 -1.1840570730021973 1.3732026259051722 -1.759883543054098 -1.5707891623126429 1.79623281955719 1.0504297018051147 -0.6767566800117493 1.00735604763031 -0.33168596029281616 0.00034122567740269005 -0.6541843414306641 1 True False
24952.367 4.316834926605225 -1.2177202862552186 1.422903839741842 -1.776024957696432 -1.570756737385885 1.7640007734298706 1.0067753791809082 -0.6509523391723633 0.9685853123664856 -0.2996162176132202 -4.522745911117454e-08 -0.6323363780975342 1 True False
24952.416999999998 4.365417957305908 -1.2490835350802918 1.4693587462054651 -1.7909842930235804 -1.5707805792437952 1.7336463928222656 0.9393683671951294 -0.6062546372413635 0.9040154218673706 -0.28581637144088745 -0.00021882874716538936 -0.588139533996582 1 True False
24952.467 4.410386085510254 -1.2783758801272889 1.5126622358905237 -1.8051220379271449 -1.5707362333880823 1.7055219411849976 0.868539571762085 -0.5605360269546509 0.8323546051979065 -0.26140302419662476 -5.312354187481105e-05 -0.5418498516082764 1 True False
24952.517 4.451990604400635 -1.3054166001132508 1.5524361769305628 -1.8179294071593226 -1.5708406607257288 1.679574728012085 0.7948082089424133 -0.5204923748970032 0.7659898400306702 -0.2232479453086853 8.394899487029761e-05 -0.4951239824295044 1 True False
24952.567 4.49016809463501 -1.3300716143897553 1.5889070669757288 -1.8297954998412074 -1.5707925001727503 1.65570068359375 0.7270700335502625 -0.4727887213230133 0.6959352493286133 -0.23703746497631073 -2.931927297515971e-14 -0.4514542520046234 1 True False
24952.617 4.52470064163208 -1.3525787156871338 1.6221044699298304 -1.8405386410155238 -1.570801083241598 1.6341705322265625 0.6566657423973083 -0.42432019114494324 0.6259194016456604 -0.2242993712425232 -4.453602793800093e-33 -0.41339948773384094 1 True False
24952.666999999998 4.555823802947998 -1.372603104715683 1.6521623770343226 -1.850194593469137 -1.5708211104022425 1.6148513555526733 0.5842177271842957 -0.3783082962036133 0.563429594039917 -0.18819338083267212 5.8866289620596035e-09 -0.36952564120292664 1 True False
24952.717 4.583315849304199 -1.390563966040947 1.6784127394305628 -1.8586975536742152 -1.5708087126361292 1.5974959135055542 0.5190855264663696 -0.33295464515686035 0.4996502697467804 -0.15561330318450928 8.941800953403361e-28 -0.3255990147590637 1 True False
24952.767 4.607409954071045 -1.406372220521309 1.7016823927508753 -1.8662792644896449 -1.5708816687213343 1.5825021266937256 0.4459279179573059 -0.29242825508117676 0.428072065114975 -0.13083413243293762 -0.0010425022337585688 -0.2814124822616577 1 True False
24952.817 4.628173828125 -1.419638143186905 1.7213318983661097 -1.87262024501943 -1.5707605520831507 1.569693684577942 0.3729182779788971 -0.24555189907550812 0.36764028668403625 -0.12053073942661285 0.00021751188614871353 -0.23791289329528809 1 True False
24952.867 4.645453929901123 -1.4307321918061753 1.7379768530475062 -1.8779779873290003 -1.570784870778219 1.5589152574539185 0.30899325013160706 -0.20335400104522705 0.2903517484664917 -0.09752168506383896 7.472719689711428e-23 -0.19113808870315552 1 True False
24952.916999999998 4.6589531898498535 -1.4396261137774964 1.7509081999408167 -1.8822323284544886 -1.5708048979388636 1.5503958463668823 0.2387862652540207 -0.14966411888599396 0.2328018844127655 -0.07846517115831375 1.1350517561031018e-41 -0.15315879881381989 1 True False
24952.967 4.669127464294434 -1.4462290865233918 1.7608121077166956 -1.885357519189352 -1.5707686583148401 1.5440752506256104 0.17390599846839905 -0.10598977655172348 0.16198690235614777 -0.052984993904829025 -2.134348869731184e-05 -0.10629156231880188 1 True False
24953.017 4.675818920135498 -1.4504704561880608 1.7670272032367151 -1.8874646625914515 -1.570784870778219 1.5399022102355957 0.09971663355827332 -0.067439965903759 0.09480270743370056 -0.036227256059646606 -4.6583839418660156e-21 -0.06319277733564377 1 True False
24953.067 4.679013252258301 -1.4525227335146447 1.7702348867999476 -1.8884502849974574 -1.5708449522601526 1.5378881692886353 0.030200080946087837 -0.019513756036758423 0.02801983430981636 -0.009751800447702408 -7.076094816347099e-40 -0.01971052773296833 1 True False
24953.117 4.6791181564331055 -1.4526122745922585 1.7708624045001429 -1.8892809353270472 -1.5708044211017054 1.5376992225646973 -0.0003493000112939626 0.011127299629151821 0.026680832728743553 -0.036953575909137726 -0.0 0.0002457293448969722 1 True False
24953.166999999998 4.679240703582764 -1.4513356399587174 1.773254696522848 -1.8929821453490199 -1.5708211104022425 1.5377528667449951 0.00028130426653660834 0.0443711057305336 0.06873278319835663 -0.1105874627828598 -2.041898857604752e-18 -0.000435012043453753 1 True False
24953.217 4.679231643676758 -1.4484791842154046 1.777862850819723 -1.900254865685934 -1.570801083241598 1.5377964973449707 0.0005193224060349166 0.06952967494726181 0.11102598160505295 -0.1694205403327942 -3.101648594440579e-37 -0.0005291358684189618 1 True False
24953.267 4.679233551025391 -1.4443802249482651 1.7846773306476038 -1.9110127888121546 -1.5708044211017054 1.537718415260315 0.00031401313026435673 0.09535596519708633 0.1587626338005066 -0.24953243136405945 -0.0 -0.00034097619936801493 1 True False
24953.317 4.6793694496154785 -1.4390020680478592 1.7936375776873987 -1.9252196751036585 -1.570801083241598 1.5376884937286377 0.00020088830206077546 0.1193823590874672 0.19495448470115662 -0.3316046893596649 2.516505992389284e-05 -0.00017643104365561157 1 True False
24953.367 4.679330825805664 -1.4323866826346894 1.8045018354998987 -1.9431373081602992 -1.5707281271563929 1.537718415260315 0.00011392173473723233 0.14385592937469482 0.24434174597263336 -0.3783376216888428 3.822579344124931e-24 -0.00010940321953967214 1 True False
24953.416999999998 4.679357528686523 -1.4243354064277192 1.8179009596454065 -1.9642883739867152 -1.5708254019366663 1.5377634763717651 7.458490290446207e-05 0.17063908278942108 0.290572851896286 -0.4523952901363373 5.801375642304743e-43 -2.9324155548238195e-05 1 True False
24953.467 4.6793107986450195 -1.4150304359248658 1.8333805243121546 -1.9889294109740199 -1.5708373228656214 1.5377094745635986 1.860877825173035e-18 0.20004230737686157 0.32664480805397034 -0.5351018905639648 1.7843755983903975e-07 -4.454345699819325e-24 1 True False
24953.517 4.679254055023193 -1.404510499244072 1.850809399281637 -2.0169383488097132 -1.5708254019366663 1.5376588106155396 2.2122237940554287e-29 0.20857273042201996 0.3499125838279724 -0.5542563796043396 2.710470295408207e-26 -2.8716142439759136e-21 1 True False
24953.567 4.679262161254883 -1.394725279217102 1.8669965902911585 -2.0433417759337367 -1.5707762877093714 1.5377426147460938 0.0 0.18273040652275085 0.30545464158058167 -0.49972814321517944 5.236352564977219e-21 -4.361989885719577e-40 1 True False
24953.617 4.679332256317139 -1.386139304643013 1.8813989798175257 -2.066111227075094 -1.5707967917071741 1.5376588106155396 1.3153430700185709e-05 0.15757490694522858 0.26380282640457153 -0.4219069182872772 7.954036330215883e-40 -0.0 1 True False
24953.666999999998 4.679295063018799 -1.3787727814963837 1.8933938185321253 -2.085342069665426 -1.570784870778219 1.5377470254898071 2.933043044550665e-11 0.13040992617607117 0.22305026650428772 -0.36045345664024353 0.0 -0.0 1 True False
24953.717 4.6792778968811035 -1.3729587358287354 1.9031761328326624 -2.1011320553221644 -1.570772949849264 1.5376931428909302 0.0 0.10717632621526718 0.17911064624786377 -0.2675553858280182 0.0 -0.0 1 True False
24953.767 4.6793107986450195 -1.368393526678421 1.9108956495868128 -2.113547464410299 -1.5707886854754847 1.5377216339111328 0.0 0.07936447113752365 0.1308509111404419 -0.20828910171985626 0.0 2.7138949008076452e-05 1 True False
24953.817 4.679368019104004 -1.3649719518474122 1.9165595213519495 -2.1222077808775843 -1.5708048979388636 1.5377558469772339 0.0 0.05221808701753616 0.08481361716985703 -0.14168013632297516 0.0 7.943283890199382e-06 1 True False
24953.867 4.6793060302734375 -1.3629690122655411 1.9198039213763636 -2.127620359460348 -1.570784870778219 1.5378172397613525 0.0 0.0283256396651268 0.04685625061392784 -0.07430810481309891 0.0 1.206586321755081e-24 1 True False
24953.916999999998 4.679327964782715 -1.3622448307326813 1.9209793249713343 -2.1294452152647914 -1.570784870778219 1.5377049446105957 0.0 8.858315680981832e-08 -0.000972603214904666 -0.004840594716370106 0.0 1.8357009882655104e-43 1 True False
24953.967 4.679332256317139 -1.3623107236674805 1.920983616505758 -2.129392286340231 -1.5708449522601526 1.5377261638641357 0.0 0.000164499826496467 -4.506266778996071e-14 1.877536493077423e-19 0.0 0.0 1 True False
24954.017 4.679306507110596 -1.3623406302979966 1.9210041205035608 -2.129432817498678 -1.5708211104022425 1.5376826524734497 0.0 0.00017629405192565173 -1.064986832886861e-43 -0.0003073294647037983 0.0 0.0 1 True False
24954.067 4.679286003112793 -1.362249271278717 1.920999828969137 -2.129472394982809 -1.5708087126361292 1.5376840829849243 0.0 0.0006316574872471392 8.132246875902638e-05 -0.0005163170280866325 0.0 0.0 1 True False
24954.117 4.679301738739014 -1.3622955840877076 1.9209793249713343 -2.1295725307860316 -1.5708254019366663 1.5377470254898071 -8.690767255967093e-15 0.0004727206251118332 7.839629688533023e-05 -0.0004537621862255037 0.0 0.0 1 True False
24954.166999999998 4.679323196411133 -1.3622791928103943 1.9210084120379847 -2.129540582696432 -1.5707925001727503 1.5377261638641357 0.0 0.00019095797324553132 -1.1249733071110036e-21 -0.00014539570838678628 0.0 1.8147556486959257e-16 1 True False
24954.217 4.679365158081055 -1.362250880604126 1.9210041205035608 -2.129536291162008 -1.5707367102252405 1.5377305746078491 0.0 0.00012415660603437573 -0.0 -8.689593960298225e-05 0.0 2.756618339554434e-35 1 True False
24954.267 4.679319858551025 -1.362262801533081 1.9209912459002894 -2.1295319996275843 -1.5708373228656214 1.5377004146575928 0.0 7.745146285742521e-05 -0.0 -6.196615868248045e-05 0.0 0.0 1 True False
24954.317 4.679299354553223 -1.3622059387019654 1.920999828969137 -2.129556795159811 -1.570853058491842 1.5376931428909302 -1.4079454199615178e-33 6.49816429358907e-05 0.00010442729399073869 -2.5363029713559407e-21 0.0 0.0 1 True False
24954.367 4.679290294647217 -1.362241954808571 1.9210031668292444 -2.1295529804625453 -1.5708487669574183 1.5377005338668823 0.0 3.8725163321309185e-40 8.437906217295676e-05 -3.8526459199067926e-40 0.0 0.0 1 True False
24954.416999999998 4.679295063018799 -1.36224319160495 1.921039883290426 -2.129580637017721 -1.5708048979388636 1.5377261638641357 0.0 -8.558951958548278e-05 7.042917422950268e-05 -0.0 0.0 0.0 1 True False
24954.467 4.679299354553223 -1.3622463953546067 1.9209674040423792 -2.1295486889281214 -1.5707724730121058 1.5377470254898071 0.0 -2.5439118189751753e-07 2.386052074143663e-05 -0.0 0.0 0.0 1 True False
24954.517 4.679299354553223 -1.3622058641961594 1.921016041432516 -2.1295486889281214 -1.570784870778219 1.5377470254898071 0.0 0.0 5.614630528501353e-35 -0.0 0.0 0.0 1 True False
24954.567 4.6793532371521 -1.362208829527237 1.921011749898092 -2.1295200786986292 -1.5707886854754847 1.5376884937286377 0.0 0.0 0.0 -0.0 0.0 0.0 1 True False
24954.617 4.679384231567383 -1.3622387212565918 1.9210041205035608 -2.129540582696432 -1.570784870778219 1.5377172231674194 0.0 0.0 0.0 -0.0 0.0 0.0 1 True False
24954.666999999998 4.679344177246094 -1.3622881782105942 1.9209955374347132 -2.129508157769674 -1.5708087126361292 1.5376683473587036 0.0 0.0 0.0 -0.0 0.0 0.0 1 True False
24954.717 4.679323196411133 -1.3622836631587525 1.920999828969137 -2.1295072040953578 -1.570772949849264 1.5377627611160278 0.0 0.0 0.0 -0.0 0.0 0.0 1 True False
24954.767 4.679330825805664 -1.36220137894664 1.9209793249713343 -2.129573484460348 -1.5708087126361292 1.5376845598220825 0.0 0.0 0.0 -0.0 0.0 0.0 1 True False
24954.817 4.679332256317139 -1.3622177851251145 1.9209430853473108 -2.1295114956297816 -1.570784870778219 1.5376391410827637 0.0 -7.780395832307538e-39 0.0 -9.197497093365453e-15 1.2505804392048958e-08 4.1704195652414455e-10 1 True False
24954.867 4.679339408874512 -1.362208829527237 1.920983616505758 -2.129584928552145 -1.5707648436175745 1.537700891494751 0.0 -2.3194564330257518e-33 0.0 1.8865830497816205e-06 1.8996346450775336e-27 8.144225175981887e-15 1 True False
24954.916999999998 4.6792826652526855 -1.3623258781484147 1.9210041205035608 -2.129585405389303 -1.5707767645465296 1.5377540588378906 0.0 0.0 0.0 2.865723606604184e-25 0.0 1.2371095402595686e-33 1 True False
24954.967 4.6792778968811035 -1.3622763317874451 1.9209583441363733 -2.1295277080931605 -1.5708168188678187 1.537717342376709 0.0 0.0 0.0 4.344025239406933e-44 0.0 0.0 1 True False
24955.017 4.679258346557617 -1.3621801894954224 1.9210236708270472 -2.1295157871642054 -1.5708168188678187 1.5377702713012695 0.0 0.0 0.0 0.0 0.0 -1.1740690364359097e-10 1 True False
24955.067 4.6793107986450195 -1.3622554701617737 1.9209912459002894 -2.129573484460348 -1.5708125273333948 1.5377216339111328 0.0 0.0 0.0 0.0 0.0 -1.783413234988457e-29 1 True False
24955.117 4.679262161254883 -1.3622463953546067 1.921011749898092 -2.129569192925924 -1.5707572142230433 1.537742257118225 0.0 0.0 0.0 0.0 1.127170565712939e-15 6.52892670482963e-13 1 True False
24955.166999999998 4.679319858551025 -1.362196908598282 1.9210074583636683 -2.1294719181456507 -1.5708654562579554 1.5376964807510376 0.0 0.0 0.0 0.0 1.7121749062679677e-34 9.917454232308456e-32 1 True False
24955.217 4.6792826652526855 -1.362267256980278 1.9210041205035608 -2.129524370233053 -1.5708330313311976 1.5376683473587036 0.0 6.898001447552815e-05 0.0 0.0 0.0 0.0 1 True False
24955.267 4.679356098175049 -1.3622341466001053 1.9210313002215784 -2.12948002437734 -1.5707767645465296 1.537733554840088 0.0 9.388699710976274e-44 0.0 0.0 0.0 0.0 1 True False
24955.317 4.6793084144592285 -1.3622387063554307 1.9209707419024866 -2.129569192925924 -1.5707405249225062 1.5377007722854614 0.0 0.0 0.0 0.0 0.0 0.0 1 True False
24955.367 4.67927360534668 -1.362280787234642 1.9210456053363245 -2.1295319996275843 -1.5707929770099085 1.5377628803253174 0.0 0.0 0.0 0.0 0.0 0.0 1 True False
24955.416999999998 4.679335117340088 -1.3622508657029648 1.9210193792926233 -2.129500528375143 -1.570784870778219 1.5376801490783691 0.0 0.0 0.0 0.0 0.0 0.0 1 True False
24955.467 4.679299354553223 -1.362192378645279 1.9209912459002894 -2.129500528375143 -1.5707648436175745 1.537717342376709 0.0 0.0 0.0 0.0 0.0 0.0 1 True False
24955.517 4.679315090179443 -1.3622251910022278 1.921011749898092 -2.1295000515379847 -1.570841137562887 1.537733554840088 0.0 0.0 0.0 0.0 0.0 0.0 1 True False
24955.567 4.679340839385986 -1.3622718465379258 1.9210074583636683 -2.1294967136778773 -1.570784870778219 1.5376802682876587 0.0 0.0 0.0 0.0 0.0 0.0 1 True False
24955.617 4.679348468780518 -1.3622373950532456 1.9210484663592737 -2.1295443973936976 -1.5708006064044397 1.5377180576324463 0.0 0.0 0.0 0.0 0.0 0.0 1 True False
24955.666999999998 4.679327487945557 -1.3623214227012177 1.9209912459002894 -2.1295482120909632 -1.5708006064044397 1.5376694202423096 0.0 0.0 0.0 0.0 0.0 0.0004895427846349776 1 True False
24955.717 4.679319858551025 -1.362250880604126 1.920999828969137 -2.129540105859274 -1.5707367102252405 1.5377274751663208 0.0 0.0 0.0 0.0 0.0 0.0031681160908192396 1 True False
24955.767 4.6793107986450195 -1.3622493010810395 1.9209869543658655 -2.1294924221434535 -1.5708168188678187 1.537746548652649 0.0 0.0 0.0 0.0 0.0 0.0008042283589020371 1 True False
24955.817 4.679319858551025 -1.3622673016837616 1.9210322538958948 -2.129536291162008 -1.5707691351519983 1.5377346277236938 0.0 0.0 0.0 0.0 0.0 -2.5749649634754235e-10 1 True False
24955.867 4.6792826652526855 -1.3622927826694031 1.9209955374347132 -2.1295443973936976 -1.5708087126361292 1.5377616882324219 0.0 0.0 0.0 0.0 0.0 -3.911378346293329e-29 1 True False
24955.916999999998 4.679344177246094 -1.362436668281891 1.9206917921649378 -2.12894930462026 -1.570756737385885 1.5377216339111328 0.0 -0.015040574595332146 -0.02425265498459339 0.03550661355257034 0.0 -0.0 1 True False
24955.967 4.679372310638428 -1.3637831521085282 1.9183161894427698 -2.1250750027098597 -1.5707362333880823 1.537696361541748 0.0 -0.04133770242333412 -0.06982162594795227 0.11117719858884811 0.0 -0.0 1 True False
24956.017 4.679327487945557 -1.3666062665036698 1.9135802427874964 -2.1177011928954066 -1.5707605520831507 1.5377378463745117 0.0 -0.0683148056268692 -0.11426657438278198 0.18317218124866486 0.0 -0.0 1 True False
24956.067 4.679306507110596 -1.3707876366427918 1.9066827932940882 -2.1067668400206507 -1.570829216633932 1.5377260446548462 0.0 -0.09689176827669144 -0.1574532687664032 0.2546919584274292 0.0 -0.0 1 True False
24956.117 4.679339408874512 -1.3761762839606781 1.8978236357318323 -2.092440267602438 -1.570829216633932 1.5376845598220825 0.0 -0.1203683614730835 -0.20404011011123657 0.3233088552951813 0.0 -0.0 1 True False
24956.166999999998 4.679286956787109 -1.3829769504121323 1.8868210951434534 -2.0747043095030726 -1.570801083241598 1.5377466678619385 0.0 -0.14670023322105408 -0.23819568753242493 0.3794575035572052 0.0 -0.0 1 True False
24956.217 4.679323673248291 -1.3909199696830292 1.8732436339007776 -2.0532833538451136 -1.5707967917071741 1.5376888513565063 0.0 -0.17498452961444855 -0.283352792263031 0.45483148097991943 0.0 -0.0 1 True False
24956.267 4.679290294647217 -1.4002650094083329 1.8578665892230433 -2.0285026035704554 -1.5708044211017054 1.5377260446548462 0.0 -0.20053362846374512 -0.3336331248283386 0.5253185629844666 0.0 -0.0 1 True False
24956.317 4.679318904876709 -1.4107871514609833 1.8404176870929163 -2.0005699596800746 -1.570784870778219 1.5377541780471802 0.0 -0.2111581414937973 -0.3541358709335327 0.5563966631889343 0.0 -0.0 1 True False
24956.367 4.679335117340088 -1.4204041820815583 1.8242514769183558 -1.9742962322630824 -1.57074481645693 1.5377249717712402 0.0 -0.18331441283226013 -0.29534193873405457 0.4959321618080139 0.0 -0.0 1 True False
24956.416999999998 4.679385185241699 -1.4291680318168183 1.8097875753985804 -1.951635023156637 -1.5708373228656214 1.5377007722854614 0.0 -0.15997107326984406 -0.2604917585849762 0.42003175616264343 0.0 -0.0 1 True False
24956.467 4.679299354553223 -1.4363155525973816 1.7979000250445765 -1.9322930775084437 -1.570772949849264 1.5377411842346191 0.0 -0.1333412379026413 -0.22382985055446625 0.3453516364097595 0.0 -0.0 1 True False
24956.517 4.6793437004089355 -1.44221983969722 1.7882564703570765 -1.9165545902647914 -1.5707925001727503 1.5377248525619507 0.0 -0.10212185233831406 -0.17163041234016418 0.27119606733322144 0.0 -0.0 1 True False
24956.567 4.67927360534668 -1.4468948629549523 1.780463997517721 -1.9042579136290492 -1.570784870778219 1.5377216339111328 0.0 -0.07913418114185333 -0.1295040100812912 0.2126588374376297 0.0 -0.0 1 True False
24956.617 4.679290771484375 -1.450158679192402 1.775092903767721 -1.8956171474852503 -1.570772949849264 1.5377367734909058 0.0 -0.05487986281514168 -0.09056127071380615 0.1375519186258316 0.0 -0.0 1 True False
24956.666999999998 4.679290771484375 -1.45206272721801 1.7716406027423304 -1.8903972111144007 -1.5707891623126429 1.5377137660980225 0.0 -0.028815416619181633 -0.046532999724149704 0.07233553379774094 0.0 -0.0 1 True False
24956.717 4.679302215576172 -1.4527745184353371 1.7706201712237757 -1.8886462650694789 -1.570784870778219 1.537733554840088 0.0 -1.4379219464899506e-05 0.0010486714309081435 0.003020406933501363 0.0 -0.0 1 False False
24956.767 4.679286479949951 -1.4527222228101273 1.7706077734576624 -1.8885861835875453 -1.570801083241598 1.5377137660980225 0.0 -0.0001839347678469494 -0.0001853926369221881 -0.00015253806486725807 0.0 -0.0 1 False False
24956.817 4.679323673248291 -1.4527788919261475 1.7705839315997522 -1.8885776005186976 -1.570829216633932 1.5377215147018433 0.0 -7.139564695535228e-05 -0.0007613860652782023 7.591643225168809e-05 0.0 -0.0 1 False False
24956.867 4.6792826652526855 -1.4527296659401436 1.7706330458270472 -1.8885694942870082 -1.5708211104022425 1.537717342376709 0.0 -1.3300419889983915e-37 -0.0011154599487781525 0.00045844324631616473 0.0 -0.0 1 False False
24956.916999999998 4.679318904876709 -1.4527788621238251 1.770543400441305 -1.8885942898192347 -1.5707925001727503 1.5377379655838013 0.0 -0.0006858464330434799 -0.0008220031741075218 0.0003237563360016793 0.0 -0.0 1 False False
24956.967 4.679306507110596 -1.4528115105680008 1.770531956349508 -1.888578554193014 -1.570784870778219 1.53773033618927 0.0 -0.00016448025417048484 -0.0003437387349549681 0.0001593651541043073 0.0 -0.0 1 False False
24957.017 4.679318904876709 -1.4527732220343132 1.770543400441305 -1.8885628185667933 -1.5707886854754847 1.537697672843933 0.0 -0.00016896573652047664 -0.00019156951748300344 0.00013055549061391503 0.0 -0.0 1 False False
24957.067 4.679335117340088 -1.4528027337840577 1.7705686728106897 -1.888510366479391 -1.570801083241598 1.5377216339111328 0.0 -0.00013438714086078107 -0.00012437911937013268 8.285598596557975e-05 0.0 -0.0 1 False False
24957.117 4.679299354553223 -1.4528277975371857 1.770499054585592 -1.888538499871725 -1.5707886854754847 1.5376888513565063 0.0 -8.861023525241762e-05 -6.254573963815346e-05 6.808521720813587e-05 0.0 -0.0 1 False False
24957.166999999998 4.679286956787109 -1.4527864021113892 1.7705891768084925 -1.8885342083373011 -1.5707362333880823 1.5376932621002197 0.0 -7.125535194063559e-05 -9.849229721733965e-13 1.7310845165562842e-15 0.0 -0.0 1 False False
24957.217 4.679315090179443 -1.452827827339508 1.7705848852740687 -1.888538499871725 -1.5708087126361292 1.5376888513565063 0.0 -4.649167029100072e-25 -2.3177476599932474e-42 2.6295211697169545e-34 0.0 -0.0 1 False False
24957.267 4.679290771484375 -1.4528356504491349 1.770543400441305 -1.8885218105711878 -1.5707605520831507 1.5377094745635986 0.0 0.0 -0.0 0.0 0.0 -0.0 1 False False
24957.317 4.679278373718262 -1.452826814060547 1.770531956349508 -1.8885184727110804 -1.570784870778219 1.5376876592636108 0.0 0.0 -0.0 0.0 0.0 -0.0 1 False False
24957.367 4.6793437004089355 -1.4528146547130127 1.7705686728106897 -1.8885342083373011 -1.570813004170553 1.5376801490783691 0.0 0.0 -0.0 0.0 0.0 -0.0 1 False False
24957.416999999998 4.6793036460876465 -1.4528769937208672 1.7705405394183558 -1.8885299168028773 -1.5708168188678187 1.5377628803253174 -3.257249330987295e-30 0.0 -0.0 0.0 0.0 -0.0 1 False False
24957.467 4.679323673248291 -1.4527820658734818 1.7705405394183558 -1.8885261021056117 -1.570813004170553 1.537717342376709 0.0 0.0 -0.0 0.0 0.0 -0.0 1 False False
24957.517 4.6793317794799805 -1.4527908128551026 1.7705648581134241 -1.8885661564269007 -1.5707686583148401 1.5377137660980225 0.0 0.0 -0.0 0.0 0.0 -0.0 1 False False
24957.567 4.679295063018799 -1.4528682467392464 1.7705686728106897 -1.888538499871725 -1.5708254019366663 1.537717342376709 0.0 0.0 -0.0 0.0 0.0 -0.0 1 False False
24957.617 4.679315090179443 -1.4528312769583245 1.7705147902118128 -1.8885218105711878 -1.5708044211017054 1.5377050638198853 0.0 0.0 -0.0 0.0 0.0 -0.0 1 False False
24957.666999999998 4.679339408874512 -1.4527938973954697 1.7705100218402308 -1.8885261021056117 -1.5707891623126429 1.5377466678619385 0.0 0.0 -0.0 0.0 0.0 -0.0 1 False False
24957.717 4.679286956787109 -1.4527701151422043 1.7705562750445765 -1.8885418377318324 -1.5708168188678187 1.5377508401870728 0.0 0.0 -0.0 3.1983103665478296e-11 0.0 -0.0 1 False False
24957.767 4.679274082183838 -1.4527732220343132 1.7705448309527796 -1.8885261021056117 -1.5708087126361292 1.5377378463745117 0.0 0.0 -0.0 4.8582384064117545e-30 0.0 -0.0 1 False False
24957.817 4.679315090179443 -1.4528321784785767 1.7705476919757288 -1.8885022602477015 -1.570824925099508 1.5376888513565063 0.0 0.0 -1.2791396996207494e-21 0.0 0.0 -0.0 1 False False
24957.867 4.6793036460876465 -1.452807107274868 1.7704981009112757 -1.888538499871725 -1.570756737385885 1.5377216339111328 0.0 0.0 -0.0 0.0 0.0 -0.0 1 False False
24957.916999999998 4.6793107986450195 -1.4527578738382836 1.770560089741842 -1.888470312158102 -1.5707724730121058 1.537729263305664 0.0 0.0 -0.0 0.0 0.0 -0.0 1 False False
24957.967 4.6792826652526855 -1.4527701002410431 1.770536247883932 -1.8885423145689906 -1.570824925099508 1.5377541780471802 0.0 0.0 -0.0 0.0 0.0 -0.0 1 False False
24958.017 4.679323196411133 -1.4528071221760293 1.77053147951235 -1.8885184727110804 -1.5707925001727503 1.5377181768417358 0.0 0.0 -0.0 0.0 0.0 -0.0 1 False False
24958.067 4.679319381713867 -1.452826776807644 1.7705190817462366 -1.8885342083373011 -1.5708487669574183 1.5377216339111328 0.0 0.0 -0.0 0.0 0.0 -0.0 1 False False
24958.117 4.679290771484375 -1.452840046291687 1.7705100218402308 -1.8885828457274378 -1.5708335081683558 1.537733554840088 0.0 0.0 -0.0 0.0 0.0 -0.0 1 False False
24958.166999999998 4.679315090179443 -1.4527788919261475 1.7705519835101526 -1.8885542354979457 -1.5708211104022425 1.5377094745635986 0.0 0.0 -0.0 0.0 -6.741208325418895e-17 -0.0 1 False False
24958.217 4.679299354553223 -1.4528519001654168 1.770536247883932 -1.8885299168028773 -1.5707686583148401 1.5376932621002197 0.0 0.0 -0.0 0.0 -1.0239910369230455e-35 -0.0 1 False False
24958.267 4.679328441619873 -1.4528160107186814 1.7705405394183558 -1.8885299168028773 -1.5707605520831507 1.5377552509307861 0.0 0.0 -0.0 0.0 -0.0 -0.0 1 False False
24958.317 4.679328441619873 -1.4527951788953324 1.770536247883932 -1.8885137043394984 -1.570801083241598 1.5377304553985596 0.0 0.0 -0.0 0.0 -0.0 -0.0 1 False False
24958.367 4.6792755126953125 -1.4527209189585228 1.7705476919757288 -1.8885137043394984 -1.5708449522601526 1.537717342376709 0.0 0.0 -0.0 0.0 -0.0 -0.0 1 False False
24958.416999999998 4.6792826652526855 -1.4527745631388207 1.7705519835101526 -1.888517519036764 -1.5708449522601526 1.5377050638198853 0.0 0.0 1.1524835784694689e-23 0.0 -0.0 -0.0 1 False False
24958.467 4.6793060302734375 -1.4528189835003396 1.7705777327166956 -1.88855042080068 -1.5707925001727503 1.5377129316329956 0.0 0.0 0.0 0.0 -0.0 -0.0 1 False False
24958.517 4.6793975830078125 -1.4528160107186814 1.77053147951235 -1.8884979687132777 -1.5707925001727503 1.537729263305664 0.0 0.0 0.0 0.0 -0.0 -0.0 1 False False
24958.567 4.679299354553223 -1.452749179010727 1.7705610434161585 -1.8885060749449671 -1.570813004170553 1.53773033618927 0.0 0.0 0.0 0.0 -0.0 -0.0 1 False False
24958.617 4.679315090179443 -1.452786498968937 1.770581070576803 -1.8885022602477015 -1.5708211104022425 1.5377216339111328 0.0 0.0 0.0 0.0 -0.0 -0.0 1 False False
24958.666999999998 4.679290294647217 -1.4527491641095658 1.7704981009112757 -1.88855042080068 -1.570801083241598 1.5377094745635986 0.0 0.0 0.0 0.0 -0.0 -0.0 1 False False
24958.717 4.679290294647217 -1.4528234016946335 1.7705853621112269 -1.8885299168028773 -1.5708416144000452 1.537684440612793 0.0 0.0 0.0 0.0 -0.0 -0.0 1 False False
24958.767 4.679327964782715 -1.4527657938054581 1.7705510298358362 -1.888538499871725 -1.570801083241598 1.5377378463745117 0.0 0.0 0.0 0.0 -0.0 -0.0 1 False False
24958.817 4.6793107986450195 -1.4528322604349633 1.7705429236041468 -1.8884979687132777 -1.5707967917071741 1.5377007722854614 0.0 0.0 0.0 0.0 -0.0 -0.0 1 False False
24958.867 4.679339408874512 -1.4527983528426667 1.7705853621112269 -1.8885828457274378 -1.5707805792437952 1.5376975536346436 0.0 0.0 0.0 0.0 -0.0 -0.0 1 False False
24958.916999999998 4.679332256317139 -1.4527776029757042 1.7705190817462366 -1.8885342083373011 -1.5708087126361292 1.53773033618927 0.0 0.0 0.0 0.0 -0.0 -0.0 1 False False
24958.967 4.6792778968811035 -1.4528563258102913 1.7705686728106897 -1.888517519036764 -1.5707605520831507 1.5376975536346436 0.0 0.0 0.0 0.0 -0.0 -0.0 1 False False
24959.017 4.679348468780518 -1.4528431084803124 1.7705429236041468 -1.8885218105711878 -1.5707648436175745 1.537770390510559 0.0 0.0 0.0 0.0 -0.0 -0.0 1 False False
24959.067 4.6793036460876465 -1.4527983602932473 1.770564381276266 -1.8885342083373011 -1.5707886854754847 1.5377086400985718 0.0 0.0 0.0 0.0 -0.0 -0.0 1 False False
24959.117 4.679344177246094 -1.4528190282038231 1.7705562750445765 -1.8884817562498988 -1.5707891623126429 1.5376920700073242 0.0 0.0 0.0 0.0 -0.0 -0.0 1 False False
24959.166999999998 4.679295063018799 -1.4527908128551026 1.7705734411822718 -1.8885909519591273 -1.570768181477682 1.53773033618927 0.0 0.0 0.0 0.0 -0.0 -0.0 1 False False
24959.217 4.679281234741211 -1.4528356504491349 1.770564381276266 -1.888538499871725 -1.5707767645465296 1.537717342376709 0.0 0.0 0.0 0.0 -0.0 -0.0 1 False False
24959.267 4.6793036460876465 -1.4528444048813363 1.770527187977926 -1.8885022602477015 -1.570801083241598 1.5377627611160278 0.0 0.0 0.0 0.0 -0.0 -0.0 1 False False
24959.317 4.679339408874512 -1.4527983975461503 1.7706063429461878 -1.888578554193014 -1.5707925001727503 1.5377347469329834 0.0 0.0 0.0 0.0 -0.0 -0.0 1 False False
24959.367 4.679339408874512 -1.4528519448689003 1.7705429236041468 -1.8885218105711878 -1.5707891623126429 1.5377050638198853 0.0 0.0 0.0 0.0 -0.0 -0.0 1 False False
24959.416999999998 4.6792778968811035 -1.452823394244053 1.7706015745746058 -1.8884741268553675 -1.570824925099508 1.5377051830291748 0.0 -2.0558816231641686e-06 0.0 0.0 -0.0 -0.0 1 False False
24959.467 4.679332256317139 -1.4528563258102913 1.7705519835101526 -1.8885342083373011 -1.5707805792437952 1.537696361541748 0.0 0.0 0.0 0.0 -0.0 -0.0 1 False False
24959.517 4.679327964782715 -1.452807107274868 1.770613972340719 -1.8885060749449671 -1.5708048979388636 1.5377129316329956 0.0 0.0 0.0 0.0 -0.0 -0.0 1 False False
24959.567 4.679344177246094 -1.4527938973954697 1.77053147951235 -1.8885542354979457 -1.570813004170553 1.5377378463745117 0.0 0.0 0.0 0.0 -0.0 -0.0 1 False False
24959.617 4.679327964782715 -1.452798345392086 1.7705853621112269 -1.8885261021056117 -1.570801083241598 1.537684440612793 0.0 0.0 0.0 0.0 -0.0 -0.0 1 False False
24959.666999999998 4.679327964782715 -1.4527820658734818 1.770597283040182 -1.888538499871725 -1.570813004170553 1.537656307220459 0.0 0.0 0.0 0.0 -0.0 -0.0 1 False False
24959.717 4.679323196411133 -1.4528190058520813 1.7705429236041468 -1.8885427914061488 -1.5707605520831507 1.5377529859542847 0.0 0.0 0.0 0.0 -0.0 -0.0 1 False False
24959.767 4.679299354553223 -1.4528563258102913 1.770536247883932 -1.8885461292662562 -1.5707486311541956 1.537742257118225 0.0 0.0 0.0 0.0 -0.0 -0.0 1 False False
24959.817 4.679295063018799 -1.4528101322105904 1.7705925146686 -1.8884808025755824 -1.570784870778219 1.5377130508422852 0.0 0.0 0.0 0.0 -0.0 -0.0 1 False False
24959.867 4.679290294647217 -1.4528532561710854 1.770538632069723 -1.8885580501952113 -1.570772949849264 1.5376975536346436 0.0 0.0 0.0 0.0 -0.0 -0.0 1 False False
24959.916999999998 4.679281234741211 -1.4527951937964936 1.770560089741842 -1.8885389767088832 -1.5708087126361292 1.5377466678619385 0.0 0.0 0.0 0.0 -0.0 -0.0 1 False False
24959.967 4.679335117340088 -1.4527776178768654 1.7705734411822718 -1.8885704479613246 -1.5707929770099085 1.5377378463745117 0.0 0.0 0.0 0.0 -0.0 -0.0 1 False False
24960.017 4.6792778968811035 -1.4528027337840577 1.77053147951235 -1.888538499871725 -1.5707967917071741 1.5377748012542725 0.0 0.0 0.0 0.0 -0.0 -0.0 1 False False
24960.067 4.67927360534668 -1.45284757137809 1.770527187977926 -1.8885218105711878 -1.570784870778219 1.5377260446548462 0.0 0.0 0.0 0.0 -0.0 -0.0 1 False False
24960.117 4.67927360534668 -1.4527701449445267 1.7705429236041468 -1.888517519036764 -1.5707686583148401 1.5377541780471802 0.0 0.0 0.0 0.0 -0.0 -0.0 1 False False
24960.166999999998 4.6793036460876465 -1.4527877283147355 1.770527187977926 -1.8885303936400355 -1.570829216633932 1.5377050638198853 0.0 0.0 0.0 0.0 -0.0 -0.0 1 False False
24960.217 4.679299354553223 -1.45284757137809 1.7705491224872034 -1.8885299168028773 -1.5708087126361292 1.5377748012542725 0.0 0.0 0.0 0.0 -0.0 -0.0 1 False False
24960.267 4.679332256317139 -1.4527938973954697 1.7705853621112269 -1.8885427914061488 -1.570784870778219 1.5377497673034668 0.0 0.0 0.0 0.0 -0.0 -0.0 1 False False
24960.317 4.679327964782715 -1.45284757137809 1.770564381276266 -1.8885585270323695 -1.5707772413836878 1.5377216339111328 0.0 0.0 0.0 0.0 -0.0 -0.0 1 False False
24960.367 4.6793107986450195 -1.452811450963356 1.7704852263080042 -1.8885299168028773 -1.570768181477682 1.5377659797668457 0.0 0.0 0.0 0.0 -0.0 -0.0 1 False False
24960.416999999998 4.6793107986450195 -1.4528190282038231 1.7705982367144983 -1.8885218105711878 -1.5707967917071741 1.5376888513565063 0.0 0.0 0.0 0.0 -0.0 -0.0 1 False False
24960.467 4.679291248321533 -1.4527622696808358 1.770560089741842 -1.8885342083373011 -1.570784870778219 1.5377378463745117 0.0 0.0 0.0 0.0 -0.0 -0.0 1 False False
24960.517 4.679332256317139 -1.452782118027546 1.770560089741842 -1.8885146580138148 -1.570784870778219 1.5377205610275269 0.0 0.0 0.0 0.0 -0.0 -0.0 1 False False
24960.567 4.679360389709473 -1.452753522699215 1.770560089741842 -1.888538499871725 -1.5707886854754847 1.5377216339111328 0.0 0.0 0.0 0.0 -0.0 -0.0 1 False False
24960.617 4.679327487945557 -1.452728384440281 1.7705805937396448 -1.8885461292662562 -1.570813004170553 1.5376770496368408 0.0 0.0 0.0 0.0 -0.0 -0.0 1 False False
24960.666999999998 4.679299354553223 -1.4528114807656785 1.7705147902118128 -1.8885137043394984 -1.5707929770099085 1.5377216339111328 0.0 0.0 0.0 0.0 -0.0 -0.0 1 False False
24960.717 4.679360389709473 -1.4528234016946335 1.770560089741842 -1.8885580501952113 -1.5708168188678187 1.5377702713012695 0.0 0.0 0.0 0.0 -0.0 -0.0 1 False False
24960.767 4.679295063018799 -1.4527745184353371 1.7705476919757288 -1.8885179958739222 -1.570784870778219 1.537746548652649 0.0 0.0 0.0 0.0 -0.0 -0.0 1 False False
24960.817 4.679240703582764 -1.4528519448689003 1.7705968062030237 -1.8885628185667933 -1.5707891623126429 1.537704348564148 0.0 0.0 0.0 0.0 -0.0 -0.0 1 False False
24960.867 4.679327487945557 -1.452815943663456 1.7705228964435022 -1.8885261021056117 -1.5708168188678187 1.537770390510559 0.0 0.0 0.0 0.0 -0.0 -0.0 1 False False
24960.916999999998 4.679278373718262 -1.4528606993011017 1.770543400441305 -1.8885299168028773 -1.570801083241598 1.537746548652649 0.0 0.0 0.0 0.0 -0.0 -0.0 1 False False
24960.967 4.679327487945557 -1.4527657640031357 1.7705686728106897 -1.888517519036764 -1.5707805792437952 1.5377378463745117 0.0 0.0 0.0 0.0 -0.0 -0.0 1 False False
24961.017 4.679344177246094 -1.4527578961900254 1.7705557982074183 -1.8885542354979457 -1.570784870778219 1.5377007722854614 0.0 0.0 0.0 0.0 -0.0 -0.0 1 False False
24961.067 4.679339408874512 -1.4527788919261475 1.7705562750445765 -1.8885261021056117 -1.5707891623126429 1.5377050638198853 0.0 0.0 0.0 0.0 -0.0 -0.0 1 False False
24961.117 4.679290294647217 -1.4528190207532425 1.7705686728106897 -1.888517519036764 -1.5707686583148401 1.5376651287078857 0.0 0.0 0.0 0.0 -0.0 -0.0 1 False False
24961.166999999998 4.679347038269043 -1.45273411393676 1.770560089741842 -1.8885628185667933 -1.570756737385885 1.537717342376709 0.0 0.0 0.0 0.0 -0.0 -0.0 1 False False
24961.217 4.679319381713867 -1.4528234016946335 1.7705195585833948 -1.8885585270323695 -1.5708168188678187 1.53773033618927 0.0 0.0 0.0 0.0 -0.0 -0.0 1 False False
24961.267 4.6793107986450195 -1.452793875043728 1.7705729643451136 -1.8885661564269007 -1.5707686583148401 1.5377007722854614 0.0 0.0 0.0 0.0 -0.0 -0.0 1 False False
24961.317 4.679323196411133 -1.4527788919261475 1.770543400441305 -1.8885261021056117 -1.5708449522601526 1.5376845598220825 0.0 0.0 0.0 0.0 -0.0 -0.0 1 False False
24961.367 4.679327487945557 -1.452827812438347 1.7705476919757288 -1.8885218105711878 -1.5708254019366663 1.537717342376709 0.0 0.0 0.0 0.0 -0.0 -0.0 1 False False
24961.416999999998 4.679318904876709 -1.452827812438347 1.7705805937396448 -1.888510366479391 -1.570813004170553 1.5377007722854614 0.0 0.0 0.0 0.0 -0.0 -0.0 1 False False
24961.467 4.679306507110596 -1.4528114807656785 1.7705805937396448 -1.888562341729635 -1.5707967917071741 1.537745475769043 0.0 0.0 0.0 0.0 -0.0 -0.0 1 False False
24961.517 4.679315090179443 -1.4528356504491349 1.770560089741842 -1.8885299168028773 -1.5707967917071741 1.5377627611160278 0.0 0.0 0.0 0.0 -0.0 -0.0 1 False False
24961.567 4.679352760314941 -1.4528607738069077 1.7705848852740687 -1.8885261021056117 -1.5708211104022425 1.5377216339111328 0.0 0.0 0.0 0.0 -0.0 -0.0 1 False False
24961.617 4.6793107986450195 -1.4527938973954697 1.7705186049090784 -1.8884812794127406 -1.570756737385885 1.5377007722854614 0.0 0.0 0.0 0.0 -0.0 -0.0 1 False False
24961.666999999998 4.679278373718262 -1.4527951639941712 1.770588223134176 -1.8885423145689906 -1.5707486311541956 1.5377347469329834 0.0 0.0 0.0 0.0 -0.0 -0.0 1 False False
24961.717 4.6793036460876465 -1.452811413710453 1.7705686728106897 -1.8885342083373011 -1.5708087126361292 1.5376596450805664 0.0 0.0 0.0 0.0 -0.0 -0.0 1 False False
24961.767 4.679318904876709 -1.452827827339508 1.7705186049090784 -1.888538499871725 -1.570784870778219 1.5376877784729004 0.0 0.0 0.0 0.0 -0.0 -0.0 1 False False
24961.817 4.679278373718262 -1.4528027337840577 1.7705476919757288 -1.8885137043394984 -1.5708087126361292 1.5377050638198853 0.0 0.0 0.0 0.0 -0.0 -0.0 1 False False
24961.867 4.679336071014404 -1.4528070998242875 1.7705686728106897 -1.8885704479613246 -1.5708087126361292 1.5376769304275513 0.0 0.0 0.0 0.0 -0.0 -0.0 1 False False
24961.916999999998 4.679306507110596 -1.4527907830527802 1.7705233732806605 -1.8885461292662562 -1.5707767645465296 1.5377748012542725 0.0 0.0 0.0 0.0 -0.0 -0.0 1 False False
24961.967 4.679323196411133 -1.4527775657228013 1.770560089741842 -1.888517519036764 -1.5707767645465296 1.5377086400985718 0.0 0.0 0.0 0.0 -0.0 -0.0 1 False False
24962.017 4.679339408874512 -1.4527658012560387 1.770564381276266 -1.8885585270323695 -1.5707891623126429 1.537745475769043 0.0 0.0 0.0 0.0 -0.0 -0.0 1 False False
24962.067 4.679323196411133 -1.4527745258859177 1.770564381276266 -1.8885418377318324 -1.5707691351519983 1.5377050638198853 0.0 0.0 0.0 0.0 -0.0 -0.0 1 False False
24962.117 4.679282188415527 -1.4527864468148728 1.7705896536456507 -1.8885184727110804 -1.5707572142230433 1.5376845598220825 0.0 0.0 0.0 0.0 -0.0 -0.0 1 False False
24962.166999999998 4.679376125335693 -1.45282335699115 1.770560089741842 -1.8885261021056117 -1.5707967917071741 1.5377540588378906 0.0 0.0 0.0 0.0 -0.0 -0.0 1 False False
24962.217 4.679323196411133 -1.4527951788953324 1.770538632069723 -1.8884855709471644 -1.5708335081683558 1.537742257118225 0.0 0.0 0.0 0.0 -0.0 -0.0 1 False False
24962.267 4.679323196411133 -1.4528102067163964 1.770522419606344 -1.8885828457274378 -1.5707572142230433 1.5377086400985718 0.0 0.0 0.0 0.0 -0.0 -0.0 1 False False
24962.317 4.679339408874512 -1.4527895239046593 1.770576302205221 -1.8885423145689906 -1.5707810560809534 1.5377260446548462 0.0 0.0 0.0 0.0 -0.0 -0.0 1 False False
24962.367 4.679323196411133 -1.4527789589813729 1.7705476919757288 -1.8885094128050746 -1.5708206335650843 1.5376931428909302 0.0 0.0 0.0 0.0 -0.0 -0.0 1 False False
24962.416999999998 4.679291248321533 -1.4528443378261109 1.7705686728106897 -1.8885542354979457 -1.5707686583148401 1.5377378463745117 0.0 0.0 0.0 0.0 -0.0 -0.0 1 False False
24962.467 4.679274082183838 -1.4527865138700982 1.770564381276266 -1.888538499871725 -1.5707767645465296 1.5377094745635986 0.0 0.0 0.0 0.0 -0.0 -0.0 1 False False
24962.517 4.679335117340088 -1.4528400388411065 1.7705519835101526 -1.8885218105711878 -1.5707686583148401 1.5376888513565063 0.0 0.0 0.0 0.0 -0.0 -0.0 1 False False
24962.567 4.679271221160889 -1.452757017021515 1.7705686728106897 -1.8884936771788539 -1.5707491079913538 1.5376975536346436 0.0 0.0 0.0 0.0 -0.0 -0.0 1 False False
24962.617 4.6793107986450195 -1.4528146547130127 1.770564381276266 -1.888566633264059 -1.5708006064044397 1.5377260446548462 0.0 0.0 0.0 0.0 -0.0 -0.0 1 False False
24962.666999999998 4.679295063018799 -1.4528322604349633 1.7705519835101526 -1.8885542354979457 -1.5707843939410608 1.5377094745635986 0.0 0.0 0.0 0.0 -0.0 -0.0 1 False False
24962.717 4.679323196411133 -1.4527983602932473 1.7705562750445765 -1.8885704479613246 -1.5708006064044397 1.537742257118225 0.0 0.0 0.0 0.0 -0.0 -0.0 1 False False
24962.767 4.679376125335693 -1.452765831058361 1.7705686728106897 -1.8885342083373011 -1.570784870778219 1.5377260446548462 0.0 0.0 0.0 0.0 -0.0 -0.0 1 False False
24962.817 4.679302215576172 -1.452748180632927 1.770597283040182 -1.8885342083373011 -1.570728603993551 1.5377260446548462 0.0 0.0 0.0 0.0 -0.0 -0.0 1 False False
24962.867 4.679295063018799 -1.4528233793428917 1.77053147951235 -1.8885342083373011 -1.5708006064044397 1.537733554840088 0.0 0.0 0.0 0.0 -0.0 -0.0 1 False False
24962.916999999998 4.679318904876709 -1.4528312620571633 1.7705610434161585 -1.8885218105711878 -1.5707886854754847 1.537717342376709 0.0 0.0 0.0 0.0 -0.0 -0.0 1 False False
24962.967 4.679229736328125 -1.4528101918152352 1.7705805937396448 -1.8884979687132777 -1.5707691351519983 1.537717342376709 -2.6274850748517716e-28 0.0 0.0 0.0 -0.0 -0.0 1 False False
24963.017 4.679299354553223 -1.4527951788953324 1.7705686728106897 -1.8885423145689906 -1.5707491079913538 1.537742257118225 0.0 0.0 0.0 0.0 -0.0 -0.0 1 False False
24963.067 4.679323196411133 -1.452860639696457 1.770564381276266 -1.8885342083373011 -1.5707810560809534 1.537729263305664 0.0 0.0 0.0 0.0 -0.0 -0.0 1 False False
24963.117 4.6793365478515625 -1.4527776104262848 1.7706096808062952 -1.8884731731810511 -1.5707452932940882 1.5377541780471802 0.0 0.0 0.0 0.0 -0.0 -0.0 1 False False
24963.166999999998 4.679286956787109 -1.4527983677438279 1.7706015745746058 -1.8884979687132777 -1.5708287397967737 1.5377833843231201 0.0 0.0 0.0 0.0 -0.0 -0.0 1 False False
24963.217 4.679332256317139 -1.4528114584139367 1.7705686728106897 -1.888538499871725 -1.5707648436175745 1.537656307220459 0.0 0.0 0.0 0.0 -0.0 -0.0 1 False False
24963.267 4.679335117340088 -1.4528562736562272 1.7705720106707972 -1.8885704479613246 -1.5707491079913538 1.5377378463745117 0.0 0.0 0.0 0.0 -0.0 -0.0 1 False False
24963.317 4.6793107986450195 -1.4528027337840577 1.770597283040182 -1.8885585270323695 -1.5707767645465296 1.5376801490783691 0.0 0.0 0.0 0.0 -0.0 -0.0 1 False False
24963.367 4.679357528686523 -1.4528431010297318 1.770564381276266 -1.888538499871725 -1.5707929770099085 1.537717342376709 0.0 0.0 0.0 0.0 -0.0 -0.0 1 False False
24963.416999999998 4.679301738739014 -1.4527613532594223 1.7705476919757288 -1.888538499871725 -1.5708048979388636 1.5377541780471802 0.0 0.0 0.0 0.0 -0.0 -0.0 1 False False
24963.467 4.679295063018799 -1.4528070998242875 1.770618740712301 -1.8885542354979457 -1.5707967917071741 1.537684440612793 0.0 0.0 0.0 0.0 -0.0 -0.0 1 False False
24963.517 4.679286003112793 -1.4528158840588112 1.7705519835101526 -1.8885585270323695 -1.5707810560809534 1.5376975536346436 0.0 0.0 0.0 0.0 -0.0 -0.0 1 False False
24963.567 4.679330825805664 -1.4528070998242875 1.770536247883932 -1.8884979687132777 -1.570801083241598 1.5377130508422852 0.0 0.0 0.0 0.0 -0.0 -0.0 1 False False
24963.617 4.679327487945557 -1.4528224480203171 1.77055532137026 -1.8885542354979457 -1.5708168188678187 1.5377094745635986 0.0 0.0 0.0 0.0 -0.0 -0.0 1 False False
24963.666999999998 4.679339408874512 -1.4527865213206788 1.770576302205221 -1.888466020623678 -1.570813004170553 1.537733554840088 0.0 0.0 0.0 0.0 -0.0 -0.0 1 False False
24963.717 4.679356098175049 -1.4528474894217034 1.7705686728106897 -1.8885218105711878 -1.5708087126361292 1.5377007722854614 0.0 0.0 0.0 0.0 -0.0 -0.0 1 False False
24963.767 4.679286003112793 -1.4527613830617447 1.770564381276266 -1.888538499871725 -1.570829216633932 1.5377129316329956 0.0 0.0 0.0 0.0 -0.0 -0.0 1 False False
24963.817 4.679276943206787 -1.452783354823925 1.770560089741842 -1.8885342083373011 -1.5708254019366663 1.5377216339111328 0.0 0.0 0.0 0.0 -0.0 -0.0 1 False False
24963.867 4.679315090179443 -1.4527658608606835 1.7705472151385706 -1.8885261021056117 -1.5707767645465296 1.537742257118225 0.0 0.0 0.0 0.0 -0.0 -0.0 1 False False
24963.916999999998 4.6793365478515625 -1.4527447757175942 1.7705596129046839 -1.8884936771788539 -1.5708335081683558 1.5377205610275269 0.0 0.0 0.0 0.0 -0.0 -0.0 1 False False
24963.967 4.6793532371521 -1.4528355684927483 1.7705734411822718 -1.8884784183897914 -1.5707929770099085 1.5377390384674072 0.0 0.0 0.0 0.0 -0.0 -0.0 1 False False
24964.017 4.679299354553223 -1.452831209903099 1.7705686728106897 -1.888494154016012 -1.5707805792437952 1.5376639366149902 0.0 0.0 0.0 0.0 -0.0 -0.0 1 False False
24964.067 4.67937707901001 -1.4528277677348633 1.770536247883932 -1.8885261021056117 -1.5708373228656214 1.5377790927886963 0.0 0.0 0.0 0.0 -0.0 -0.0 1 False False
24964.117 4.679344177246094 -1.4528593581965943 1.770618740712301 -1.888538499871725 -1.5707805792437952 1.5377050638198853 0.0 0.0 0.0 -1.6843732964931697e-15 -0.0 -0.0 1 False False
24964.166999999998 4.679339408874512 -1.4527492386153718 1.7705777327166956 -1.888538499871725 -1.5708254019366663 1.5377748012542725 0.0 0.0 0.0 -2.558565851142925e-34 -0.0 -0.0 1 False False
24964.217 4.679323196411133 -1.4528158766082306 1.770581070576803 -1.8885423145689906 -1.5707686583148401 1.5377216339111328 0.0 0.0 2.5075066689607438e-27 -0.0 -0.0 -0.0 1 False False
24964.267 4.679315090179443 -1.452838734989502 1.7705686728106897 -1.8885299168028773 -1.5708168188678187 1.5376887321472168 0.0 0.0 0.0 -0.0 -0.0 -0.0 1 False False
24964.317 4.679344177246094 -1.452810176914074 1.770613972340719 -1.8885342083373011 -1.5707967917071741 1.5377260446548462 0.0 0.0 0.0 -0.0 -0.0 -0.0 1 False False
24964.367 4.679315090179443 -1.4528190058520813 1.7705805937396448 -1.8885466061034144 -1.570813004170553 1.5377006530761719 0.0 0.0 0.0 -0.0 -0.0 -0.0 1 False False
24964.416999999998 4.679295063018799 -1.4528517958572884 1.7705519835101526 -1.8885218105711878 -1.570756737385885 1.5376887321472168 0.0 0.0 0.0 -0.0 -0.0 -0.0 1 False False
24964.467 4.6792778968811035 -1.4528114286116143 1.7705734411822718 -1.888517519036764 -1.5708168188678187 1.5377086400985718 0.0 0.0 0.0 -0.0 -0.0 -0.0 1 False False
24964.517 4.679301738739014 -1.452798382644989 1.7705562750445765 -1.8885752163329066 -1.5707486311541956 1.5377216339111328 0.0 0.0 0.0 -0.0 -0.0 -0.0 1 False False
24964.567 4.679301738739014 -1.4527776700309296 1.7705181280719202 -1.8885060749449671 -1.5708325544940394 1.537729263305664 0.0 0.0 0.0 -0.0 -0.0 -0.0 1 False False
24964.617 4.679319858551025 -1.452786461716034 1.7705228964435022 -1.8885661564269007 -1.5707648436175745 1.5377466678619385 0.0 0.0 0.0 -0.0 -0.0 -0.0 1 False False
24964.666999999998 4.6793060302734375 -1.45282335699115 1.7705805937396448 -1.8885752163329066 -1.570784870778219 1.5376975536346436 0.0 0.0 0.0 -0.0 -0.0 -0.0 1 False False
24964.717 4.679330825805664 -1.4528070849231263 1.770536247883932 -1.888538499871725 -1.5707967917071741 1.5377050638198853 0.0 0.0 0.0 -0.0 -0.0 -0.0 1 False False
24964.767 4.67929744720459 -1.4527776700309296 1.7705429236041468 -1.8885137043394984 -1.5708168188678187 1.537713885307312 0.0 0.0 0.0 -0.0 -0.0 -0.0 1 False False
24964.817 4.6792826652526855 -1.4527570468238373 1.7705476919757288 -1.8885704479613246 -1.5708487669574183 1.5377181768417358 0.0 0.0 0.0 -0.0 -0.0 -0.0 1 False False
24964.867 4.679290294647217 -1.4527701896480103 1.7705429236041468 -1.8885423145689906 -1.5707891623126429 1.537684440612793 0.0 0.0 0.0 -0.0 -0.0 -0.0 1 False False
24964.916999999998 4.6793060302734375 -1.452798382644989 1.7705557982074183 -1.8885342083373011 -1.5707925001727503 1.5377390384674072 0.0 0.0 0.0 -0.0 -0.0 -0.0 1 False False
24964.967 4.679344177246094 -1.4527895909598847 1.770560089741842 -1.8885470829405726 -1.5707648436175745 1.537746787071228 0.0 0.0 0.0 -0.0 -0.0 -0.0 1 False False
24965.017 4.679317474365234 -1.4527733486941834 1.7705686728106897 -1.8885218105711878 -1.5708048979388636 1.5376769304275513 0.0 0.0 0.0 -0.0 -0.0 -0.0 1 False False
24965.067 4.679268836975098 -1.4528321486762543 1.770531956349508 -1.8885828457274378 -1.5708416144000452 1.537729263305664 0.0 0.0 0.0 -0.0 -0.0 -0.0 1 False False
24965.117 4.679228782653809 -1.4527776700309296 1.7705686728106897 -1.8885747394957484 -1.570756737385885 1.5377761125564575 0.0 0.0 0.0 -0.0 -0.0 -0.0 1 False False
24965.166999999998 4.679268836975098 -1.452770211999752 1.770531956349508 -1.8885065517821253 -1.570829216633932 1.5376474857330322 0.0 0.0 0.0 -0.0 -0.0 -0.0 1 False False
24965.217 4.679318904876709 -1.4527908128551026 1.7705476919757288 -1.8885146580138148 -1.5708087126361292 1.5377085208892822 0.0 0.0 0.0 -0.0 -0.0 -0.0 1 False False
24965.267 4.6792778968811035 -1.4527570468238373 1.7705968062030237 -1.8885499439635218 -1.5708335081683558 1.5376887321472168 0.0 0.0 0.0 -0.0 -0.0 -0.0 1 False False
24965.317 4.6793107986450195 -1.4528812032989045 1.770543400441305 -1.888594766656393 -1.570801083241598 1.5377260446548462 0.0 0.0 0.0 -0.0 -0.0 -0.0 1 False False
24965.367 4.679299354553223 -1.452832156126835 1.770536247883932 -1.8885141811766566 -1.5707605520831507 1.537733554840088 0.0 0.0 0.0 -0.0 -0.0 -0.0 1 False False
24965.416999999998 4.6793365478515625 -1.4528430563262482 1.7706053892718714 -1.8885747394957484 -1.5707891623126429 1.537770390510559 0.0 0.0 0.0 -0.0 -0.0 -0.0 1 False False
24965.467 4.679309844970703 -1.4527877283147355 1.770564381276266 -1.888517519036764 -1.5707686583148401 1.5377085208892822 0.0 0.0 0.0 -0.0 -0.0 -0.0 1 False False
24965.517 4.679295063018799 -1.4527701896480103 1.770576302205221 -1.8885218105711878 -1.5707405249225062 1.5377497673034668 0.0 0.0 0.0 -0.0 -0.0 -0.0 1 False False
24965.567 4.679323196411133 -1.4528355461410065 1.7705276648150843 -1.8885423145689906 -1.5707967917071741 1.5377410650253296 0.0 0.0 0.0 -0.0 -0.0 -0.0 1 False False
24965.617 4.679344177246094 -1.4527733710459252 1.7705238501178187 -1.8885542354979457 -1.5707967917071741 1.5377050638198853 0.0 0.0 0.0 -0.0 -0.0 -0.0 1 False False
24965.666999999998 4.679306507110596 -1.4528101992658158 1.770536247883932 -1.8885303936400355 -1.5708168188678187 1.5377050638198853 0.0 0.0 0.0 -0.0 -0.0 -0.0 1 False False
24965.717 4.6792826652526855 -1.4527821329287072 1.7705405394183558 -1.8885661564269007 -1.5707967917071741 1.5377129316329956 0.0 0.0 0.0 -0.0 -0.0 -0.0 1 False False
24965.767 4.679340839385986 -1.4527864766171952 1.7705515066729944 -1.8885537586607875 -1.570813004170553 1.5377498865127563 0.0 0.0 0.0 -0.0 -0.0 -0.0 1 False False
24965.817 4.679295063018799 -1.4528027337840577 1.7705519835101526 -1.8885218105711878 -1.5708406607257288 1.537697672843933 0.0 0.0 0.0 -0.0 -0.0 -0.0 1 False False
24965.867 4.679327487945557 -1.45279514909301 1.770564381276266 -1.888482233087057 -1.5707929770099085 1.5377181768417358 0.0 0.0 0.0 -0.0 -0.0 -0.0 1 False False
24965.916999999998 4.679360389709473 -1.4527821329287072 1.770560089741842 -1.8885466061034144 -1.5707805792437952 1.5377216339111328 0.0 0.0 0.0 -0.0 -0.0 -0.0 1 False False
24965.967 4.6792826652526855 -1.4528312397054215 1.7705195585833948 -1.8885218105711878 -1.570813004170553 1.537733554840088 0.0 0.0 0.0 -0.0 -0.0 -0.0 1 False False
24966.017 4.679318904876709 -1.4528224778226395 1.7705805937396448 -1.88855042080068 -1.5708211104022425 1.5377050638198853 0.0 0.0 0.0 -0.0 -0.0 -0.0 1 False False
24966.067 4.67929744720459 -1.4527939719012757 1.7705968062030237 -1.88855042080068 -1.5707767645465296 1.537733554840088 0.0 0.0 0.0 -0.0 -0.0 -0.0 1 False False
24966.117 4.679335117340088 -1.452847496872284 1.7705686728106897 -1.8884898624815882 -1.5707605520831507 1.5377261638641357 0.0 0.0 0.0 -0.0 -0.0 -0.0 1 False False
24966.166999999998 4.679339408874512 -1.4527983975461503 1.770543400441305 -1.8885628185667933 -1.5707891623126429 1.5377423763275146 0.0 -1.7274339726780777e-19 0.0 -0.0 -0.0 -0.0 1 False False
24966.217 4.679293155670166 -1.4528189909509202 1.770560089741842 -1.8885137043394984 -1.5708254019366663 1.537651777267456 0.0 0.0 0.0 -0.0 -0.0 -0.0 1 False False
24966.267 4.679355621337891 -1.4528233346394082 1.7705686728106897 -1.88855042080068 -1.5708368460284632 1.5377705097198486 0.0 0.0 0.0 -0.0 -0.0 -0.0 1 False False
24966.317 4.679278373718262 -1.4528027337840577 1.770531956349508 -1.8885065517821253 -1.5707891623126429 1.5377304553985596 0.0 0.0 0.0 -0.0 -0.0 -0.0 1 False False
24966.367 4.679352760314941 -1.4527896282127877 1.7705772558795374 -1.888517519036764 -1.5708048979388636 1.5377216339111328 0.0 0.0 0.0 -0.0 -0.0 -0.0 1 False False
24966.416999999998 4.679327487945557 -1.452811413710453 1.7705190817462366 -1.888477464715475 -1.570813004170553 1.5377085208892822 0.0 0.0 0.0 -0.0 -0.0 -0.0 1 False False
24966.467 4.679295063018799 -1.452807070021965 1.7705510298358362 -1.8885094128050746 -1.570801083241598 1.5377006530761719 0.0 0.0 0.0 -1.5199606089857097e-18 -0.0 -0.0 1 False False
24966.517 4.6793365478515625 -1.4527996119907876 1.7706015745746058 -1.8885261021056117 -1.570784870778219 1.5377705097198486 0.0 0.0 0.0 -2.3088237429569184e-37 -0.0 -0.0 1 False False
24966.567 4.679278373718262 -1.4528517586043854 1.770527187977926 -1.888562341729635 -1.5707529226886194 1.537684440612793 0.0 0.0 0.0 -0.0 -0.0 -0.0 1 False False
24966.617 4.679318904876709 -1.4528592687896271 1.770564381276266 -1.8885299168028773 -1.5707891623126429 1.5377006530761719 0.0 0.0 0.0 -0.0 -0.0 -0.0 1 False False
24966.666999999998 4.6793317794799805 -1.4527702194503327 1.7705562750445765 -1.8885137043394984 -1.570784870778219 1.5377129316329956 0.0 0.0 0.0 -0.0 -0.0 -0.0 1 False False
24966.717 4.679330825805664 -1.4527658757618447 1.7705686728106897 -1.8884898624815882 -1.5707686583148401 1.5377181768417358 0.0 0.0 0.0 -0.0 -0.0 -0.0 1 False False
24966.767 4.679355621337891 -1.4527579930475731 1.770522419606344 -1.888538499871725 -1.5707648436175745 1.537746787071228 0.0 0.0 0.0 -0.0 -0.0 -0.0 1 False False
24966.817 4.679340362548828 -1.4528027486852189 1.7705805937396448 -1.8885585270323695 -1.5707925001727503 1.5377378463745117 0.0 0.0 0.0 -0.0 -0.0 -0.0 1 False False
24966.867 4.67930793762207 -1.452765868311264 1.770560089741842 -1.8884855709471644 -1.5707805792437952 1.5377379655838013 0.0 0.0 0.0 -0.0 -0.0 -0.0 1 False False
24966.916999999998 4.679291248321533 -1.4528027486852189 1.7705734411822718 -1.8885423145689906 -1.5708368460284632 1.5377006530761719 0.0 0.0 0.0 -0.0 -0.0 -0.0 1 False False
24966.967 4.679319381713867 -1.4527789291790505 1.770536247883932 -1.888466020623678 -1.5707805792437952 1.5377049446105957 0.0 0.0 0.0 -0.0 -0.0 -0.0 1 False False
24967.017 4.679327487945557 -1.4528233122876664 1.7705805937396448 -1.8885461292662562 -1.5708168188678187 1.5377050638198853 0.0 0.0 0.0 -0.0 -0.0 -0.0 1 False False
24967.067 4.679306507110596 -1.4527623441866417 1.7705734411822718 -1.8884979687132777 -1.5707605520831507 1.5377006530761719 0.0 0.0 0.0 -0.0 -0.0 -0.0 1 False False
24967.117 4.679315090179443 -1.4527658832124253 1.770536247883932 -1.8885218105711878 -1.570801083241598 1.5377216339111328 0.0 0.0 0.0 -0.0 -0.0 -0.0 1 False False
24967.166999999998 4.679315090179443 -1.452827700679638 1.7705777327166956 -1.8885261021056117 -1.5707686583148401 1.5376724004745483 0.0 0.0 0.0 -0.0 -0.0 -0.0 1 False False
24967.217 4.679271221160889 -1.4527168583920975 1.7705190817462366 -1.8885051212706507 -1.5707891623126429 1.537758708000183 0.0 0.0 0.0 -0.0 -0.0 -0.0 1 False False
24967.267 4.679278373718262 -1.4528268289617081 1.7706182638751429 -1.8885137043394984 -1.570784870778219 1.537701964378357 0.0 0.0 0.0 -0.0 -0.0 -0.0 1 False False
24967.317 4.679336071014404 -1.4528189835003396 1.7705734411822718 -1.8885261021056117 -1.5707891623126429 1.5377094745635986 0.0 0.0 0.0 -0.0 -0.0 -0.0 1 False False
24967.367 4.679269790649414 -1.4527579930475731 1.770536247883932 -1.8885218105711878 -1.570857350026266 1.5377379655838013 0.0 0.0 0.0 -0.0 -0.0 -0.0 1 False False
24967.416999999998 4.679323196411133 -1.4527984273484726 1.7705472151385706 -1.8885585270323695 -1.5707843939410608 1.5377050638198853 0.0 0.0 0.0 -0.0 -0.0 -0.0 1 False False
24967.467 4.6793718338012695 -1.45282248527322 1.7705896536456507 -1.8885747394957484 -1.570824925099508 1.5377006530761719 0.0 0.0 0.0 -0.0 -0.0 -0.0 1 False False
24967.517 4.67932653427124 -1.4527702343514939 1.7705805937396448 -1.8884784183897914 -1.5708168188678187 1.537745475769043 0.0 0.0 0.0 -0.0 -0.0 -0.0 1 False False
24967.567 4.679254531860352 -1.4528474521688004 1.770564381276266 -1.8885060749449671 -1.570853058491842 1.537713885307312 0.0 0.0 0.0 -0.0 -0.0 -0.0 1 False False
24967.617 4.6792826652526855 -1.452782155280449 1.770564381276266 -1.8884855709471644 -1.570801083241598 1.5377094745635986 0.0 0.0 0.0 -0.0 -0.0 -0.0 1 False False
24967.666999999998 4.679352283477783 -1.4527702641538163 1.7706063429461878 -1.8885342083373011 -1.5708168188678187 1.5377172231674194 0.0 0.0 0.0 -0.0 -0.0 -0.0 1 False False
24967.717 4.679323673248291 -1.4528070625713845 1.770613972340719 -1.8885094128050746 -1.5707605520831507 1.5377216339111328 0.0 0.0 0.0 -0.0 -0.0 -0.0 1 False False
24967.767 4.6793437004089355 -1.4527745631388207 1.7705562750445765 -1.8885299168028773 -1.570784870778219 1.5377172231674194 0.0 0.0 0.0 -0.0 -0.0 -0.0 1 False False
24967.817 4.679286479949951 -1.4528027337840577 1.770576302205221 -1.8885146580138148 -1.5707805792437952 1.5377261638641357 0.0 0.0 0.0 -0.0 -0.0 -0.0 1 False False
24967.867 4.679237365722656 -1.4527614948204537 1.77053147951235 -1.888517519036764 -1.5707967917071741 1.5377094745635986 0.0 0.0 0.0 -0.0 -0.0 -0.0 1 False False
24967.916999999998 4.679269790649414 -1.4527745631388207 1.770581070576803 -1.8885704479613246 -1.5708211104022425 1.5376724004745483 0.0 0.0 0.0 -0.0 -0.0 -0.0 1 False False
24967.967 4.6792778968811035 -1.4528027337840577 1.770564381276266 -1.8885585270323695 -1.570784870778219 1.5377660989761353 0.0 0.0 0.0 -0.0 -0.0 -0.0 1 False False
24968.017 4.679299354553223 -1.4527745631388207 1.7705476919757288 -1.8885342083373011 -1.5707805792437952 1.5377216339111328 0.0 0.0 0.0 -0.0 -0.0 -0.0 1 False False
24968.067 4.679323196411133 -1.4527777445367356 1.770564381276266 -1.8885542354979457 -1.5708211104022425 1.5377005338668823 0.0 0.0 0.0 -0.0 -0.0 -0.0 1 False False
24968.117 4.679356098175049 -1.4527734157494088 1.770576302205221 -1.8884817562498988 -1.57074481645693 1.5377005338668823 0.0 0.0 0.0 -0.0 -0.0 -0.0 1 False False
24968.166999999998 4.679327964782715 -1.4527623218349 1.7705734411822718 -1.8885342083373011 -1.5708211104022425 1.537758708000183 0.0 0.0 0.0 -0.0 -0.0 -0.0 1 False False
24968.217 4.679319858551025 -1.4528561320951958 1.770560089741842 -1.8885137043394984 -1.5707686583148401 1.5376636981964111 0.0 0.0 0.0 -0.0 -0.0 -0.0 1 False False
24968.267 4.679335117340088 -1.4527939942530175 1.7705686728106897 -1.8885218105711878 -1.5707648436175745 1.537734866142273 0.0 0.0 0.0 -0.0 -0.0 -0.0 1 False False
24968.317 4.679299354553223 -1.4527951416424294 1.7705472151385706 -1.8885871372618617 -1.5708048979388636 1.5377424955368042 0.0 0.0 0.0 -0.0 -0.0 -0.0 1 False False
24968.367 4.679327964782715 -1.4528146472624321 1.770560089741842 -1.8885342083373011 -1.570813004170553 1.5377291440963745 0.0 0.0 0.0 -0.0 -0.0 -0.0 1 False False
24968.416999999998 4.679319858551025 -1.4527789068273087 1.7705519835101526 -1.888562341729635 -1.5707767645465296 1.5376843214035034 0.0 0.0 0.0 -0.0 -0.0 -0.0 1 False False
24968.467 4.6793365478515625 -1.4528114286116143 1.770536247883932 -1.8885704479613246 -1.570813004170553 1.5377182960510254 0.0 0.0 0.0 -0.0 -0.0 -0.0 1 False False
24968.517 4.679295063018799 -1.4528312248042603 1.7705734411822718 -1.8885828457274378 -1.570801083241598 1.5377511978149414 0.0 0.0 0.0 -0.0 -0.0 -0.0 1 False False
24968.567 4.679348468780518 -1.4527788919261475 1.77055532137026 -1.8885828457274378 -1.5707529226886194 1.537712812423706 0.0 0.0 0.0 -0.0 -0.0 -0.0 1 False False
24968.617 4.679315090179443 -1.4528027337840577 1.7705720106707972 -1.8885380230345667 -1.570784870778219 1.5377049446105957 0.0 0.0 0.0 -0.0 -0.0 -0.0 1 False False
24968.666999999998 4.6793107986450195 -1.4528233048370858 1.7705472151385706 -1.8885342083373011 -1.5707529226886194 1.5376843214035034 0.0 0.0 0.0 -0.0 -0.0 -0.0 1 False False
24968.717 4.679286003112793 -1.4527623441866417 1.7705686728106897 -1.888538499871725 -1.5708611647235315 1.5377049446105957 0.0 0.0 0.0 -0.0 -0.0 -0.0 1 False False
24968.767 4.6792778968811035 -1.4527659577182312 1.7705686728106897 -1.8885022602477015 -1.570784870778219 1.5376962423324585 0.0 0.0 0.0 -0.0 -0.0 -0.0 1 False False
24968.817 4.6793084144592285 -1.4528275740197678 1.7705805937396448 -1.8885146580138148 -1.5708211104022425 1.5377084016799927 0.0 0.0 0.0 -0.0 -0.0 -0.0 1 False False
24968.867 4.6792826652526855 -1.4527864915183564 1.77055532137026 -1.888538499871725 -1.5707805792437952 1.53767991065979 0.0 0.0 0.0 -0.0 -0.0 -0.0 1 False False
24968.916999999998 4.679276943206787 -1.4528441590121766 1.77055532137026 -1.888494154016012 -1.5708044211017054 1.5376636981964111 0.0 0.0 0.0 -0.0 -0.0 -0.0 1 False False
24968.967 4.679360389709473 -1.4528474372676392 1.770560089741842 -1.8885423145689906 -1.5708335081683558 1.5377261638641357 0.0 0.0 0.0 -0.0 -0.0 -0.0 1 False False
24969.017 4.6793107986450195 -1.4528679859689255 1.770564381276266 -1.8885299168028773 -1.5707810560809534 1.537713885307312 0.0 0.0 0.0 -0.0 -0.0 -0.0 1 False False
24969.067 4.679332256317139 -1.4527702641538163 1.7705510298358362 -1.888470312158102 -1.5708168188678187 1.537746787071228 0.0 0.0 0.0 -0.0 -0.0 -0.0 1 False False
24969.117 4.679332256317139 -1.4527572256377717 1.7705448309527796 -1.888562341729635 -1.570813004170553 1.5377498865127563 0.0 0.0 0.0 -0.0 -0.0 -0.0 1 False False
24969.166999999998 4.679301738739014 -1.4527821850827713 1.7705610434161585 -1.8885508976378382 -1.5707925001727503 1.5377379655838013 0.0 0.0 0.0 -0.0 -0.0 -0.0 1 False False
24969.217 4.679357528686523 -1.4527897399714966 1.7705686728106897 -1.8885299168028773 -1.5707929770099085 1.5377005338668823 0.0 0.0 0.0 -0.0 -0.0 -0.0 1 False False
24969.267 4.679291248321533 -1.4528113392046471 1.7705720106707972 -1.888477464715475 -1.570813004170553 1.5376842021942139 0.0 0.0 0.0 -0.0 -0.0 -0.0 1 False False
24969.317 4.679335117340088 -1.4528440845063706 1.7705476919757288 -1.8885461292662562 -1.570801083241598 1.5377469062805176 0.0 0.0 0.0 -0.0 -0.0 -0.0 1 False False
24969.367 4.679299354553223 -1.4527702716043969 1.7705562750445765 -1.8885790310301722 -1.570813004170553 1.5377498865127563 0.0 0.0 0.0 -0.0 -0.0 -0.0 1 False False
24969.416999999998 4.6793107986450195 -1.4527494695833703 1.770564381276266 -1.88855042080068 -1.5707610289203089 1.537713885307312 0.0 0.0 0.0 -0.0 -0.0 -0.0 1 False False
