Andreas691667/Digital_Twin_UR/src/controller_monitor/robot_output/case1_robot_output.csv
timestamp actual_q_0 actual_q_1 actual_q_2 actual_q_3 actual_q_4 actual_q_5 actual_qd_0 actual_qd_1 actual_qd_2 actual_qd_3 actual_qd_4 actual_qd_5 safety_status output_bit_register_65 output_bit_register_66
2410.187 3.712062358856201 -0.8254823845675965 0.8429716269122522 -1.5882569752135218 -1.57074481645693 2.14127516746521 0.0 0.0 0.0 -0.0 -0.0 -0.0 1 False False
2410.237 3.712111234664917 -0.8254496616176148 0.8429802099810999 -1.5882774792113246 -1.5707610289203089 2.141279697418213 0.0 0.0 0.0 -0.0 -0.0 -0.0 1 False False
2410.287 3.7120368480682373 -0.8254215282252808 0.8429802099810999 -1.588252683679098 -1.5707805792437952 2.14127516746521 0.0 0.0 0.0 -0.0 -0.0 -0.0 1 False False
2410.337 3.7121024131774902 -0.8254543107799073 0.8430617491351526 -1.588268896142477 -1.570784870778219 2.141333818435669 0.0 0.0 0.0 -0.0 -0.0 -0.0 1 False False
2410.3869999999997 3.712106943130493 -0.8254096072963257 0.842992130910055 -1.5882817707457484 -1.5707767645465296 2.141254186630249 0.0 0.0 0.0 -0.0 -0.0 -0.0 1 False False
2410.437 3.7120413780212402 -0.8254586619189759 0.8429477850543421 -1.588269372979635 -1.5708048979388636 2.141267776489258 0.0 0.0 0.0 -0.0 -0.0 -0.0 1 False False
2410.487 3.7120413780212402 -0.8254913848689576 0.8429845015155237 -1.5883332691588343 -1.5707967917071741 2.14131760597229 0.0 0.0 0.0 -0.0 -0.0 -0.0 1 False False
2410.537 3.7120699882507324 -0.8254587215236207 0.8429353872882288 -1.5882817707457484 -1.5708335081683558 2.1412930488586426 0.0 0.0 0.0 -0.0 -0.0 -0.0 1 False False
2410.587 3.71207857131958 -0.8255068820765992 0.8429477850543421 -1.5882932148375453 -1.5707891623126429 2.14127516746521 0.0 0.0 0.0 -0.0 -0.0 -0.0 1 False False
2410.6369999999997 3.7120981216430664 -0.825495795612671 0.8430374304400843 -1.5882607899107875 -1.5707686583148401 2.1412994861602783 0.0 0.0 0.0 -0.0 -0.0 -0.0 1 False False
2410.687 3.7120938301086426 -0.8255039614490052 0.842959229146139 -1.5882774792113246 -1.570784870778219 2.14131760597229 0.0 0.0 0.0 -0.0 -0.0 -0.0 1 False False
2410.737 3.7120699882507324 -0.8255409759334107 0.842959229146139 -1.5882889233031214 -1.5707529226886194 2.141296148300171 0.0 0.0 0.0 -0.0 -0.0 -0.0 1 False False
2410.787 3.712127447128296 -0.8255083721927186 0.8429606596576136 -1.5882650814452113 -1.5708211104022425 2.1413040161132812 0.0 0.0 0.0 -0.0 -0.0 -0.0 1 False False
2410.837 3.7120370864868164 -0.8254913848689576 0.8429973761187952 -1.588285585443014 -1.5708254019366663 2.141329526901245 0.0 0.0 0.0 -0.0 -0.0 -0.0 1 False False
2410.8869999999997 3.7120862007141113 -0.8254543107799073 0.8430126349078577 -1.588245531121725 -1.570784870778219 2.14131760597229 0.0 0.0 0.0 -0.0 -0.0 -0.0 1 False False
2410.937 3.7120862007141113 -0.8255453866771241 0.8429763952838343 -1.588285585443014 -1.5707967917071741 2.141226053237915 0.0 0.0 0.0 -0.0 -0.0 -0.0 1 False False
2410.987 3.7120449542999268 -0.8255001467517395 0.8429845015155237 -1.588313718835348 -1.5708168188678187 2.14127516746521 0.0 0.0 0.0 -0.0 -0.0 -0.0 1 False False
2411.037 3.712045669555664 -0.8254913848689576 0.8429515997516077 -1.5883013210692347 -1.5708373228656214 2.14131760597229 0.0 0.0 0.0 -0.0 -0.0 -0.0 1 False False
2411.087 3.7120656967163086 -0.8254261177829285 0.842971150075094 -1.5883456669249476 -1.5708168188678187 2.14131760597229 0.0 0.0 0.0 -0.0 -0.0 -0.0 1 False False
2411.1369999999997 3.7120862007141113 -0.825495795612671 0.8429845015155237 -1.5882207355894984 -1.5707929770099085 2.1412723064422607 0.0 0.0 0.0 -0.0 -0.0 -0.0 1 False False
2411.187 3.7120773792266846 -0.8254838746837159 0.8430336157428187 -1.5882774792113246 -1.570784870778219 2.141329526901245 0.0 0.0 0.0 -0.0 -0.0 -0.0 1 False False
2411.237 3.712106704711914 -0.8254913252643128 0.8429721037494105 -1.5883094273009242 -1.5707605520831507 2.141279697418213 0.0 0.0 0.0 -0.0 -0.0 -0.0 1 False False
2411.287 3.712094783782959 -0.8254838150790711 0.8430383841144007 -1.5882412395873011 -1.5708048979388636 2.141324996948242 0.0 0.0 0.0 -0.0 -0.0 -0.0 1 False False
2411.337 3.7120776176452637 -0.8254869741252442 0.8430097738849085 -1.588252683679098 -1.5707805792437952 2.1413040161132812 0.0 0.0 0.0 -0.0 -0.0 -0.0 1 False False
2411.3869999999997 3.7120862007141113 -0.8255039614490052 0.8429802099810999 -1.5882774792113246 -1.5707686583148401 2.141279697418213 0.0 0.0 0.0 -0.0 -0.0 -0.0 1 False False
2411.437 3.7121353149414062 -0.8255039018443604 0.8430007139789026 -1.5882817707457484 -1.5707767645465296 2.1412558555603027 0.0 0.0 0.0 -0.0 -0.0 -0.0 1 False False
2411.487 3.7120656967163086 -0.8254693311503907 0.8430174032794397 -1.5882817707457484 -1.5708172957049769 2.141230583190918 0.0 0.0 0.0 -0.0 -0.0 -0.0 1 False False
2411.537 3.7120416164398193 -0.8255083721927186 0.8429539839373987 -1.588252683679098 -1.5707886854754847 2.141266107559204 0.0 0.0 0.0 -0.0 -0.0 -0.0 1 False False
2411.587 3.7120211124420166 -0.8254498404315491 0.8430216948138636 -1.5882607899107875 -1.5708454290973108 2.141287088394165 0.0 0.0 0.0 -0.0 -0.0 -0.0 1 False False
2411.6369999999997 3.7120742797851562 -0.8255365651896973 0.8429587523089808 -1.5882569752135218 -1.5707967917071741 2.141296148300171 0.0 0.0 0.0 -0.0 -0.0 -0.0 1 False False
2411.687 3.7121024131774902 -0.8254380983165284 0.8429892698871058 -1.5883218250670375 -1.5707362333880823 2.14127516746521 0.0 0.0 0.0 -0.0 -0.0 -0.0 1 False False
2411.737 3.7120862007141113 -0.8254661124995728 0.8429978529559534 -1.588269372979635 -1.5707367102252405 2.141291618347168 0.0 0.0 0.0 -0.0 -0.0 -0.0 1 False False
2411.787 3.7120656967163086 -0.8255156439593812 0.8429892698871058 -1.588269372979635 -1.5708168188678187 2.141270637512207 0.0 0.0 0.0 -0.0 -0.0 -0.0 1 False False
2411.837 3.7121024131774902 -0.8254869741252442 0.8429935614215296 -1.588320871392721 -1.5707481543170374 2.141267776489258 0.0 0.0 0.0 -0.0 -0.0 -0.0 1 False False
2411.8869999999997 3.7120492458343506 -0.8254838150790711 0.8429539839373987 -1.5882731876769007 -1.5707686583148401 2.141334056854248 0.0 0.0 0.0 -0.0 -0.0 -0.0 1 False False
2411.937 3.7121024131774902 -0.8254707020572205 0.8429845015155237 -1.588269372979635 -1.5707691351519983 2.1412975788116455 0.0 0.0 0.0 -0.0 -0.0 -0.0 1 False False
2411.987 3.712127447128296 -0.8254869741252442 0.8429964224444788 -1.5882412395873011 -1.5708168188678187 2.141296148300171 0.0 0.0 0.0 -0.0 -0.0 -0.0 1 False False
2412.037 3.71201229095459 -0.8254218262485047 0.8429673353778284 -1.588245531121725 -1.5708006064044397 2.141267776489258 0.0 0.0 0.0 -0.0 -0.0 -0.0 1 False False
2412.087 3.712122917175293 -0.8254957360080262 0.8430174032794397 -1.5882817707457484 -1.570813004170553 2.141296148300171 0.0 0.0 0.0 -0.0 -0.0 -0.0 1 False False
2412.1369999999997 3.712090492248535 -0.825454370384552 0.8429902235614222 -1.5882374248900355 -1.5707767645465296 2.141279697418213 0.0 0.0 0.0 -0.0 -0.0 -0.0 1 False False
2412.187 3.712094783782959 -0.8255039018443604 0.8429425398456019 -1.5882731876769007 -1.5707691351519983 2.141291618347168 0.0 0.0 0.0 -0.0 -0.0 -0.0 1 False False
2412.237 3.7120494842529297 -0.8254587811282654 0.8429845015155237 -1.5883165798582972 -1.5708330313311976 2.141266107559204 0.0 0.0 0.0 -0.0 -0.0 -0.0 1 False False
2412.287 3.712115526199341 -0.8254950207522889 0.842987362538473 -1.5882774792113246 -1.570801083241598 2.1412765979766846 0.0 0.0 0.0 -0.0 -0.0 -0.0 1 False False
2412.337 3.712110996246338 -0.8254869741252442 0.842992130910055 -1.5883375606932582 -1.5707810560809534 2.141284227371216 0.0 0.0 0.0 -0.0 -0.0 -0.0 1 False False
2412.3869999999997 3.7120580673217773 -0.8255288761905213 0.8429802099810999 -1.5882498226561488 -1.5708044211017054 2.141284227371216 0.0 0.0 0.0 -0.0 -0.0 -0.0 1 False False
2412.437 3.7120699882507324 -0.8254661721042176 0.8430054823504847 -1.5882250271239222 -1.57074481645693 2.14123797416687 0.0 0.0 0.0 -0.0 -0.0 -0.0 1 False False
2412.487 3.7120580673217773 -0.8255039018443604 0.8429721037494105 -1.5882569752135218 -1.5708168188678187 2.141258955001831 0.0 0.0 0.0 -0.0 -0.0 -0.0 1 False False
2412.537 3.7120490074157715 -0.8254780930331727 0.8430126349078577 -1.5883008442320765 -1.5708125273333948 2.141249895095825 0.0 0.0 0.0 -0.0 -0.0 -0.0 1 False False
2412.587 3.712078809738159 -0.8255156439593812 0.8430336157428187 -1.5883170566954554 -1.5707925001727503 2.141230583190918 0.0 0.0 0.0 -0.0 -0.0 -0.0 1 False False
2412.6369999999997 3.7121100425720215 -0.8254824441722413 0.8429630438434046 -1.588245531121725 -1.5708048979388636 2.141279697418213 0.0 0.0 0.0 -0.0 -0.0 -0.0 1 False False
2412.687 3.712078809738159 -0.8254499000361939 0.8430054823504847 -1.588273664514059 -1.5708006064044397 2.141242504119873 0.0 0.0 0.0 -0.0 -0.0 -0.0 1 False False
2412.737 3.7120816707611084 -0.8254382175258179 0.8429515997516077 -1.588292738000387 -1.570784870778219 2.14131760597229 0.0 0.0 0.0 -0.0 -0.0 -0.0 1 False False
2412.787 3.712099552154541 -0.8254499596408387 0.8429845015155237 -1.5882774792113246 -1.5707810560809534 2.1413004398345947 0.0 0.0 0.0 -0.0 -0.0 -0.0 1 False False
2412.837 3.7120535373687744 -0.825508252983429 0.8429802099810999 -1.588280817071432 -1.5708125273333948 2.1412885189056396 0.0 0.0 0.0 -0.0 -0.0 -0.0 1 False False
2412.8869999999997 3.7120609283447266 -0.825545148258545 0.8429258505450647 -1.5883246860899867 -1.570841137562887 2.1413092613220215 0.0 0.0 0.0 -0.0 -0.0 -0.0 1 False False
2412.937 3.7120907306671143 -0.8254707020572205 0.8429964224444788 -1.588297029534811 -1.5707810560809534 2.141242504119873 0.0 0.0 0.0 -0.0 -0.0 -0.0 1 False False
2412.987 3.7121071815490723 -0.8254544895938416 0.8429935614215296 -1.5883013210692347 -1.570772949849264 2.1412723064422607 0.0 0.0 0.0 -0.0 -0.0 -0.0 1 False False
2413.037 3.7120368480682373 -0.8254263562015076 0.8430097738849085 -1.5883165798582972 -1.570836369191305 2.1413047313690186 0.0 0.0 0.0 -0.0 -0.0 -0.0 1 False False
2413.087 3.7121071815490723 -0.8254738014987488 0.8430054823504847 -1.5882889233031214 -1.5707929770099085 2.1412513256073 0.0 0.0 0.0 -0.0 -0.0 -0.0 1 False False
2413.1369999999997 3.712083101272583 -0.825482503776886 0.8429845015155237 -1.5882650814452113 -1.570801083241598 2.141279697418213 0.0 0.0 0.0 -0.0 -0.0 -0.0 1 False False
2413.187 3.7120742797851562 -0.8254262965968628 0.8429349104510706 -1.5882607899107875 -1.570784870778219 2.141317367553711 0.0 0.0 0.0 -0.0 -0.0 -0.0 1 False False
2413.237 3.7120907306671143 -0.8254456681064148 0.8429721037494105 -1.588292738000387 -1.5707929770099085 2.1413047313690186 0.0 0.0 0.0 -0.0 -0.0 -0.0 1 False False
2413.287 3.7120532989501953 -0.8254412573627015 0.8429678122149866 -1.5882774792113246 -1.5707724730121058 2.1412997245788574 0.0 0.0 0.0 -0.0 -0.0 -0.0 1 False False
2413.337 3.7120368480682373 -0.8254661721042176 0.8429964224444788 -1.5882569752135218 -1.5708048979388636 2.1412601470947266 0.0 0.0 0.0 -0.0 -0.0 -0.0 1 False False
2413.3869999999997 3.7121071815490723 -0.8255449694446106 0.8430245558368128 -1.5882817707457484 -1.5707529226886194 2.141254425048828 0.0 0.0 0.0 -0.0 -0.0 -0.0 1 False False
2413.437 3.7120535373687744 -0.8254382771304627 0.8429887930499476 -1.588320871392721 -1.570829216633932 2.14133358001709 0.0 0.0 0.0 -0.0 -0.0 -0.0 1 False False
2413.487 3.71205472946167 -0.8254750531962891 0.8429887930499476 -1.5883013210692347 -1.5708048979388636 2.141296148300171 0.0 0.0 0.0 -0.0 -0.0 -0.0 1 False False
2413.537 3.712024688720703 -0.8255492609790345 0.8429978529559534 -1.5883251629271449 -1.5708254019366663 2.141279697418213 0.0 0.0 0.0 -0.0 -0.0 -0.0 1 False False
2413.587 3.7121267318725586 -0.8254950803569336 0.8429878393756312 -1.588245531121725 -1.570829216633932 2.141247034072876 0.0 0.0 0.0 -0.0 -0.0 -0.0 1 False False
2413.6369999999997 3.7120652198791504 -0.8254869741252442 0.8429520765887659 -1.5883413753905238 -1.5707925001727503 2.1412885189056396 0.0 0.0 0.0 -0.0 -0.0 -0.0 1 False False
2413.687 3.71209979057312 -0.8254295152476807 0.8430259863482874 -1.5883499584593714 -1.5707405249225062 2.1412839889526367 0.0 0.0 0.0 -0.0 -0.0 -0.0 1 False False
2413.737 3.7120487689971924 -0.8254545491984864 0.8430169264422815 -1.588245531121725 -1.570813004170553 2.141329288482666 0.0 0.0 0.0 -0.0 -0.0 -0.0 1 False False
2413.787 3.71209979057312 -0.8254956167987366 0.8430050055133265 -1.588280817071432 -1.5708168188678187 2.141266345977783 0.0 0.0 0.0 -0.0 -0.0 -0.0 1 False False
2413.837 3.7121071815490723 -0.825463132267334 0.8429759184466761 -1.5882498226561488 -1.5708335081683558 2.1412558555603027 0.0 0.0 0.0 -0.0 -0.0 -0.0 1 False False
2413.8869999999997 3.7120487689971924 -0.8254955571940918 0.8429759184466761 -1.5882731876769007 -1.5707686583148401 2.1412501335144043 0.0 0.0 0.0 -0.0 -0.0 -0.0 1 False False
2413.937 3.7120490074157715 -0.8254993718913575 0.8429716269122522 -1.5882536373534144 -1.5708091894732874 2.141279697418213 5.1988173026450713e-42 0.0 0.0 -0.0 -0.0 -0.0 1 False False
2413.987 3.7120862007141113 -0.825491265659668 0.8429763952838343 -1.5882817707457484 -1.570801083241598 2.141238212585449 0.0 0.0 0.0 -0.0 -0.0 -0.0 1 False False
2414.037 3.7120742797851562 -0.825482503776886 0.8429802099810999 -1.5882932148375453 -1.5707767645465296 2.1412839889526367 0.0 0.0 0.0 -0.0 -0.0 -0.0 1 False False
2414.087 3.7121026515960693 -0.8254878681949158 0.8430536429034632 -1.5882932148375453 -1.5707767645465296 2.141287088394165 0.0 0.0 0.0 -0.0 -0.0 -0.0 1 False False
2414.1369999999997 3.7120862007141113 -0.8254500788501282 0.8429845015155237 -1.5883094273009242 -1.5708087126361292 2.1413040161132812 0.0 0.0 0.0 -0.0 -0.0 -0.0 1 False False
2414.187 3.7120981216430664 -0.8254295152476807 0.8429716269122522 -1.5882374248900355 -1.570756737385885 2.141275405883789 0.0 0.0 0.0 -0.0 -0.0 -0.0 1 False False
2414.237 3.7120652198791504 -0.8255112928203125 0.8430092970477503 -1.5882374248900355 -1.5707686583148401 2.1412882804870605 0.0 0.0 0.0 -0.0 -0.0 -0.0 1 False False
2414.287 3.7121191024780273 -0.825434998875 0.8430092970477503 -1.588269372979635 -1.5708211104022425 2.1412265300750732 0.0 0.0 0.0 -0.0 -0.0 -0.0 1 False False
2414.337 3.7120652198791504 -0.8255155843547364 0.8429678122149866 -1.588320871392721 -1.5707929770099085 2.141267776489258 0.0 0.0 0.0 -0.0 -0.0 -0.0 1 False False
2414.3869999999997 3.7120981216430664 -0.8254750531962891 0.8429549376117151 -1.5883251629271449 -1.5707886854754847 2.141251564025879 0.0 0.0 0.0 -0.0 -0.0 -0.0 1 False False
2414.437 3.7120935916900635 -0.8254793447307129 0.8430169264422815 -1.588285585443014 -1.570829216633932 2.141291618347168 0.0 0.0 0.0 -0.0 -0.0 -0.0 1 False False
2414.487 3.7120816707611084 -0.8255208891681214 0.8429887930499476 -1.5883251629271449 -1.5707929770099085 2.141279697418213 0.0 0.0 0.0 -0.0 -0.0 -0.0 1 False False
2414.537 3.7120907306671143 -0.825482503776886 0.8429549376117151 -1.5883013210692347 -1.5707648436175745 2.14125919342041 0.0 0.0 0.0 -0.0 -0.0 -0.0 1 False False
2414.587 3.712083339691162 -0.8254545491984864 0.8430169264422815 -1.5883175335326136 -1.570829216633932 2.141295909881592 0.0 0.0 0.0 -0.0 -0.0 -0.0 1 False False
2414.6369999999997 3.7121403217315674 -0.8254620593837281 0.8430374304400843 -1.588269372979635 -1.5707925001727503 2.1412839889526367 0.0 0.0 0.0 -0.0 -0.0 -0.0 1 False False
2414.687 3.712062358856201 -0.8255285781672974 0.8430083433734339 -1.588297029534811 -1.570813004170553 2.141267776489258 0.0 0.0 0.0 -0.0 -0.0 -0.0 1 False False
2414.737 3.7120981216430664 -0.8254954975894471 0.842992130910055 -1.5882135830321253 -1.5708091894732874 2.141295909881592 0.0 0.0 0.0 -0.0 -0.0 -0.0 1 False False
2414.787 3.712111473083496 -0.8254223030856629 0.8429759184466761 -1.5883175335326136 -1.5707724730121058 2.1412839889526367 0.0 0.0 0.0 -0.0 -0.0 -0.0 1 False False
2414.837 3.7121026515960693 -0.825451211338379 0.8429845015155237 -1.5882817707457484 -1.5708254019366663 2.141279697418213 0.0 0.0 0.0 -0.0 -0.0 -0.0 1 False False
2414.8869999999997 3.7120862007141113 -0.8254674238017579 0.8429606596576136 -1.588245531121725 -1.5708168188678187 2.1412267684936523 0.0 0.0 0.0 -0.0 -0.0 -0.0 1 True False
2414.937 3.712083339691162 -0.8254145544818421 0.8429434935199183 -1.5883056126036585 -1.5707648436175745 2.1412925720214844 0.0 0.0 0.0 -0.0 -0.0 -0.0 1 True False
2414.987 3.712123394012451 -0.8254222434810181 0.8429845015155237 -1.5882412395873011 -1.5707886854754847 2.141267776489258 0.0 0.0 0.0 -0.0 -0.0 -0.0 1 True False
2415.037 3.7120862007141113 -0.8254620593837281 0.8429887930499476 -1.588320871392721 -1.5708335081683558 2.1412546634674072 0.0 0.0 0.0 -0.0 -0.0 -0.0 1 True False
2415.087 3.712106943130493 -0.8254998487285157 0.8430126349078577 -1.588273664514059 -1.570813004170553 2.141267776489258 0.0 0.0 0.0 -0.0 -0.0 -0.0 1 True False
2415.1369999999997 3.7121145725250244 -0.825491265659668 0.8429630438434046 -1.588269372979635 -1.570801083241598 2.1411943435668945 0.0 0.0 0.0 -0.0 -0.0 -0.0 1 True False
2415.187 3.7120816707611084 -0.8254383963397522 0.8430097738849085 -1.588229318658346 -1.5707805792437952 2.1412839889526367 0.0 0.0 0.0 -0.0 -0.0 -0.0 1 True False
2415.237 3.712078809738159 -0.8254707616618653 0.8429392019854944 -1.5882817707457484 -1.5707929770099085 2.141263484954834 0.0 0.0 0.0 -0.0 -0.0 -0.0 1 True False
2415.287 3.7120535373687744 -0.825463132267334 0.8429802099810999 -1.5882774792113246 -1.570813004170553 2.141279697418213 0.0 0.0 0.0 -0.0 -0.0 -0.0 1 True False
2415.337 3.7120654582977295 -0.8254500788501282 0.8430054823504847 -1.5883094273009242 -1.570824925099508 2.141296863555908 0.0 0.0 0.0 -0.0 -0.0 -0.0 1 True False
2415.3869999999997 3.7120981216430664 -0.8254535359195252 0.8429430166827601 -1.588320871392721 -1.5707686583148401 2.141191005706787 -7.280261760521682e-38 0.0 0.0 -0.0 -0.0 -0.0 1 True False
2415.437 3.7120697498321533 -0.825450138454773 0.8429802099810999 -1.588285585443014 -1.5707967917071741 2.1413159370422363 0.0 0.0 0.0 -0.0 -0.0 0.0028921884950250387 1 True False
2415.487 3.7121188640594482 -0.8254825633815308 0.8430007139789026 -1.5882894001402796 -1.5707686583148401 2.1412601470947266 0.0 0.0 0.0 -0.0 -0.0006119578029029071 -0.0005103432922624052 1 True False
2415.537 3.71207857131958 -0.8254717153361817 0.8429630438434046 -1.5883132419981898 -1.5707481543170374 2.1413087844848633 0.0 0.0 0.0 -0.0 -1.7844899957708549e-06 -9.74909562501125e-05 1 True False
2415.587 3.7120580673217773 -0.8255284589580079 0.8429845015155237 -1.588280817071432 -1.5707886854754847 2.141279697418213 0.0 0.0 0.0 -0.0 -2.710643659918081e-25 -7.792719538192521e-23 1 True False
2415.6369999999997 3.7121012210845947 -0.8255081337741395 0.8429754416095179 -1.5883332691588343 -1.5707686583148401 2.141279697418213 0.03568293899297714 -0.008326873183250427 0.009490393102169037 -7.675236020077136e-07 -4.0637655465419695e-44 -0.002645335393026471 1 True False
2415.687 3.714439868927002 -0.8264778417399903 0.8447378317462366 -1.5888596973814906 -1.5707886854754847 2.1402268409729004 0.07946639508008957 -0.03919988498091698 0.06386329233646393 -0.019134804606437683 0.00021442610886879265 -0.033333148807287216 1 True False
2415.737 3.7204127311706543 -0.8295867604068299 0.8494299093829554 -1.5904742679991664 -1.5708368460284632 2.137667655944824 0.15678472816944122 -0.08248091489076614 0.12435336410999298 -0.039546143263578415 0.00013108110579196364 -0.06853678822517395 1 True False
2415.787 3.729862689971924 -0.834540919666626 0.8567808310138147 -1.5930267773070277 -1.5708044211017054 2.1334683895111084 0.2205372005701065 -0.12008456140756607 0.17301537096500397 -0.054560303688049316 0.00010633331839926541 -0.09698992222547531 1 True False
2415.837 3.742856025695801 -0.841163770561554 0.8668845335589808 -1.5963160000243128 -1.570801083241598 2.127803325653076 0.28999510407447815 -0.1448400765657425 0.22731377184391022 -0.06772860139608383 0.00012030315701849759 -0.1275460422039032 1 True False
2415.8869999999997 3.75903058052063 -0.8495426338962098 0.8796055952655237 -1.6007539234557093 -1.5707891623126429 2.120534896850586 0.3574427664279938 -0.18649668991565704 0.2769125998020172 -0.09024029970169067 0.0002255052822874859 -0.15959610044956207 1 True False
2415.937 3.7790889739990234 -0.8597999972156067 0.8949559370623987 -1.6059252224364222 -1.5708454290973108 2.1118433475494385 0.43221381306648254 -0.2218203991651535 0.33332526683807373 -0.12717027962207794 0.00012646548566408455 -0.19009266793727875 1 True False
2415.987 3.80226731300354 -0.8717276018908997 0.9132369200335901 -1.61198153118276 -1.5708254019366663 2.1014695167541504 0.5012115836143494 -0.2533831000328064 0.389062762260437 -0.14298073947429657 -8.980722486739978e-05 -0.2217847853899002 1 True False
2416.037 3.829087018966675 -0.8855537337115784 0.9338634649859827 -1.6191312275328578 -1.5707925001727503 2.089719772338867 0.5644022822380066 -0.2942865490913391 0.44754621386528015 -0.15638002753257751 -0.00028994539752602577 -0.24899360537528992 1 True False
2416.087 3.8595306873321533 -0.9010057610324402 0.9576023260699671 -1.6272174320616664 -1.5707362333880823 2.076355218887329 0.644826352596283 -0.3202231824398041 0.49559178948402405 -0.18919242918491364 -1.1558233753775071e-12 -0.28298869729042053 1 True False
2416.1369999999997 3.8932974338531494 -0.9183450502208252 0.9837201277362269 -1.6362182102599085 -1.5707805792437952 2.0613012313842773 0.7129900455474854 -0.3633311092853546 0.5518253445625305 -0.18284110724925995 -0.00010185268183704466 -0.30933716893196106 1 True False
2416.187 3.930692195892334 -0.9375094932368775 1.01284104982485 -1.6459604702391566 -1.5708487669574183 2.0449907779693604 0.7740343809127808 -0.39997443556785583 0.6012879014015198 -0.19247625768184662 -3.7784123160973515e-13 -0.3453718423843384 1 True False
2416.237 3.9713709354400635 -0.9585650724223633 1.044466797505514 -1.6567231617369593 -1.5708168188678187 2.0269429683685303 0.848829984664917 -0.4337751567363739 0.6635915040969849 -0.21742141246795654 -5.739418758814991e-32 -0.365308552980423 1 True False
2416.287 4.015804767608643 -0.9812506598285218 1.0788229147540491 -1.6683761082091273 -1.5707925001727503 2.0074946880340576 0.9195687174797058 -0.476972758769989 0.7121847867965698 -0.24815447628498077 -2.0991492419852875e-05 -0.41341713070869446 1 True False
2416.337 4.0635666847229 -1.0056201380542298 1.115955654774801 -1.680979391137594 -1.570784870778219 1.9864059686660767 0.9866014122962952 -0.49987953901290894 0.7695425748825073 -0.26621583104133606 -5.083350697532296e-05 -0.4336561858654022 1 True False
2416.3869999999997 4.114789962768555 -1.0318589967540284 1.1557114760028284 -1.6945582828917445 -1.5707967917071741 1.9637458324432373 1.0355682373046875 -0.5273315906524658 0.8169035911560059 -0.26860877871513367 -4.4878102926304564e-05 -0.4520949423313141 1 True False
2416.437 4.167049407958984 -1.058650628929474 1.1963709036456507 -1.708344121972555 -1.5707686583148401 1.9407726526260376 1.0517209768295288 -0.5362446308135986 0.8137142658233643 -0.27181318402290344 -0.00043848450877703726 -0.4666985273361206 1 True False
2416.487 4.219455242156982 -1.0855533641627808 1.2369445005999964 -1.7222868404784144 -1.5707886854754847 1.9177088737487793 1.041903018951416 -0.5384320020675659 0.8173716068267822 -0.2592754065990448 -0.0008982114377431571 -0.46244072914123535 1 True False
2416.537 4.271820068359375 -1.1123041969588776 1.277633015309469 -1.736061235467428 -1.570784870778219 1.894586205482483 1.0448901653289795 -0.5368568897247314 0.8081324100494385 -0.28200143575668335 -1.73129399705374e-10 -0.45869970321655273 1 True False
2416.587 4.324182987213135 -1.139244632130005 1.318207089100973 -1.7499376736082972 -1.5707362333880823 1.8714163303375244 1.0508021116256714 -0.5413652062416077 0.8084307312965393 -0.27084627747535706 3.1368948839372024e-05 -0.45721733570098877 1 True False
2416.6369999999997 4.376481533050537 -1.1661252242377778 1.358929459248678 -1.7636500797667445 -1.5708006064044397 1.8484158515930176 1.04520845413208 -0.5383937358856201 0.8090429306030273 -0.2657204568386078 7.309939519473119e-06 -0.4624679982662201 1 True False
2416.687 4.428649425506592 -1.1927703779986878 1.3995006720172327 -1.7772613964476527 -1.5707209745990198 1.8255014419555664 1.028175711631775 -0.5170969367027283 0.7934479713439941 -0.2665722966194153 1.1103809872740788e-24 -0.45281755924224854 1 True False
2416.737 4.477898120880127 -1.2180233758739014 1.4376543203936976 -1.7903901539244593 -1.5708211104022425 1.8036866188049316 0.9594173431396484 -0.4834781289100647 0.7441914677619934 -0.24465005099773407 -0.00029403730877675116 -0.41644105315208435 1 True False
2416.787 4.523741722106934 -1.2414981883815308 1.4731648604022425 -1.8026658497252406 -1.5707805792437952 1.7834751605987549 0.8792397379875183 -0.4538235664367676 0.6897367238998413 -0.2260066121816635 4.730033147792986e-16 -0.389652281999588 1 True False
2416.837 4.566198825836182 -1.263380692606308 1.5061147848712366 -1.8138610325255335 -1.5707281271563929 1.7649104595184326 0.8068233728408813 -0.42120251059532166 0.6322425603866577 -0.2285967916250229 0.0001324482582276687 -0.36249837279319763 1 True False
2416.8869999999997 4.605031967163086 -1.283182219868042 1.5364111105548304 -1.8239881000914515 -1.570716683064596 1.7476489543914795 0.7453866600990295 -0.38109391927719116 0.573988676071167 -0.20040075480937958 1.3633617347054428e-13 -0.31933698058128357 1 True False
2416.937 4.640328407287598 -1.3012651962092896 1.563822094594137 -1.833158632318014 -1.5708335081683558 1.7321572303771973 0.6773577928543091 -0.3446384072303772 0.5297075510025024 -0.16805526614189148 6.612734432565048e-05 -0.29546698927879333 1 True False
2416.987 4.672277450561523 -1.317777858381607 1.5885613600360315 -1.84190096477651 -1.570801083241598 1.718003273010254 0.6020286083221436 -0.3076421618461609 0.46648213267326355 -0.17394424974918365 9.637818584451452e-05 -0.2604409456253052 1 True False
2417.037 4.700700759887695 -1.3321618300727387 1.6108186880694788 -1.8491808376707972 -1.5707925001727503 1.7055867910385132 0.5343216061592102 -0.2705787718296051 0.4182935655117035 -0.13964687287807465 0.00013018872414249927 -0.23867599666118622 1 True False
2417.087 4.725621223449707 -1.3451531392386933 1.6297901312457483 -1.8559543095030726 -1.5707929770099085 1.69463312625885 0.4658118188381195 -0.2335987091064453 0.36527058482170105 -0.12665703892707825 2.0120743229517546e-17 -0.2064214050769806 1 True False
2417.1369999999997 4.7470831871032715 -1.355915219788887 1.6466200987445276 -1.861476560632223 -1.5707805792437952 1.6851624250411987 0.3948334753513336 -0.20537835359573364 0.30492866039276123 -0.1225925087928772 -1.4429592454234808e-07 -0.17276759445667267 1 True False
2417.187 4.764788627624512 -1.365054727797844 1.6605308691607874 -1.8660470447936 -1.5707925001727503 1.6772797107696533 0.3272559344768524 -0.16486573219299316 0.2549123466014862 -0.08258310705423355 -2.1918581910995455e-26 -0.14511799812316895 1 True False
2417.237 4.779257774353027 -1.3725823622993012 1.6716697851764124 -1.8701030216612757 -1.5708087126361292 1.6709004640579224 0.25195980072021484 -0.13204318284988403 0.19635768234729767 -0.06177053228020668 -2.802596928649634e-45 -0.11303774267435074 1 True False
2417.287 4.790143013000488 -1.378063679938652 1.6801326910602015 -1.8728577099242152 -1.5708044211017054 1.6661525964736938 0.18687234818935394 -0.09618152678012848 0.14736604690551758 -0.05015042424201965 -0.0 -0.08031125366687775 1 True False
2417.337 4.797633171081543 -1.381966994409897 1.6859872976886194 -1.87500061611318 -1.5708087126361292 1.6627840995788574 0.11332667618989944 -0.06002659723162651 0.09148414433002472 -0.030723491683602333 1.3777951608062722e-05 -0.05121040716767311 1 True False
2417.3869999999997 4.801565647125244 -1.3839575809291382 1.6891182104693812 -1.8758470020689906 -1.5707767645465296 1.66102933883667 0.04419388249516487 -0.023746810853481293 0.035961803048849106 -0.014030453749001026 9.992951683783619e-23 -0.020091727375984192 1 True False
2417.437 4.802182197570801 -1.3842495393804093 1.689784351979391 -1.8763724766173304 -1.5708454290973108 1.6608245372772217 -0.006905082613229752 0.011088269762694836 0.020631974563002586 -0.03991938754916191 2.5317824110970832e-05 0.0006654595490545034 1 True False
2417.487 4.802268028259277 -1.3831996780684968 1.6918004194842737 -1.8793469868102015 -1.5708535353290003 1.6607884168624878 0.0005308344843797386 0.03303557261824608 0.059656210243701935 -0.09458436816930771 1.4759252807225827e-21 -7.344025652855635e-05 1 True False
2417.537 4.802316188812256 -1.3808759611896058 1.6959493795977991 -1.8858968220152796 -1.5708325544940394 1.6607481241226196 0.0005643058684654534 0.06456881016492844 0.10134217143058777 -0.16139854490756989 2.241937413073275e-40 -0.0006859945715405047 1 True False
2417.587 4.802302837371826 -1.3770998430303116 1.7022560278521937 -1.8958493671812953 -1.5708373228656214 1.6607242822647095 0.0005801411462016404 0.08711914718151093 0.14434371888637543 -0.23619702458381653 0.0 -0.0002635458658915013 1 True False
2417.6369999999997 4.802326679229736 -1.3721639674953003 1.7106884161578577 -1.909436365167135 -1.570768181477682 1.660740613937378 0.00037178469938226044 0.11346254497766495 0.1911981850862503 -0.29736778140068054 5.276217052596621e-05 -0.00011987852485617623 1 True False
2417.687 4.802341938018799 -1.365940437918045 1.721431080495016 -1.9263612232603968 -1.5708368460284632 1.6607943773269653 0.00011672876280499622 0.13645906746387482 0.24033883213996887 -0.3875487744808197 5.271504429057098e-20 -8.634328696643934e-05 1 True False
2417.737 4.802358150482178 -1.3582929533771058 1.73464280763735 -1.9467979870238246 -1.570784870778219 1.6606953144073486 8.497124508721754e-05 0.16321507096290588 0.28020352125167847 -0.445077121257782 8.007427203005123e-39 9.648557723184598e-14 1 True False
2417.787 4.80232048034668 -1.349569023852684 1.7495597044574183 -1.9708453617491664 -1.5708087126361292 1.6607028245925903 6.0982110881013796e-05 0.19080106914043427 0.33336105942726135 -0.5040939450263977 0.0 1.465618405422324e-32 1 True False
2417.837 4.802341938018799 -1.339454249744751 1.767029110585348 -1.9981285534300746 -1.5708168188678187 1.660757064819336 0.0 0.19710789620876312 0.34094518423080444 -0.5556604266166687 3.6953896819112486e-18 0.0 1 True False
2417.8869999999997 4.802350997924805 -1.3300084483674546 1.78325063387026 -2.0243760548033656 -1.5707686583148401 1.660757064819336 0.0 0.18209166824817657 0.3116292655467987 -0.4878729283809662 5.613304348603026e-37 0.0 1 True False
2417.937 4.8023552894592285 -1.3216951799443741 1.7976987997638147 -2.0467711887755335 -1.5707886854754847 1.6608017683029175 8.202719580717193e-22 0.15451079607009888 0.2649112045764923 -0.4129371643066406 0.0 0.0 1 True False
2417.987 4.802379131317139 -1.3145469588092347 1.8097103277789515 -2.0660420856871546 -1.5708006064044397 1.6607869863510132 2.7087204216513783e-05 0.12949222326278687 0.2233354151248932 -0.33863064646720886 0.0 0.0 1 True False
2418.037 4.802310466766357 -1.3088696759990235 1.8196452299701136 -2.0815679035582484 -1.5707610289203089 1.6607451438903809 0.0 0.0995655506849289 0.17315152287483215 -0.27338361740112305 0.0 0.0 1 True False
2418.087 4.802383899688721 -1.3044177156737824 1.8274434248553675 -2.093836923638815 -1.5708048979388636 1.6607615947723389 0.0 0.07727991044521332 0.12472087889909744 -0.20426058769226074 0.0 0.0 1 True False
2418.1369999999997 4.802350997924805 -1.3012122076800843 1.8328421751605433 -2.1022969684996546 -1.5707929770099085 1.6607451438903809 0.0 0.050922323018312454 0.0893779993057251 -0.14026515185832977 0.0 0.0 1 True False
2418.187 4.802362442016602 -1.299336240892746 1.8360450903521937 -2.1075431309142054 -1.5707767645465296 1.6607286930084229 0.0 0.025025393813848495 0.045704785734415054 -0.06467198580503464 0.0 0.0 1 True False
2418.237 4.802374839782715 -1.298721120958664 1.837217156087057 -2.1092916927733363 -1.5707686583148401 1.6607362031936646 0.0 2.2378529584976548e-11 -0.002258241642266512 0.0032925161067396402 0.0 0.0 1 True False
2418.287 4.802350997924805 -1.2987030905536194 1.8371909300433558 -2.1092006168761195 -1.570784870778219 1.6607451438903809 0.0 -2.4297787572107433e-24 0.0001223503495566547 7.730622019153088e-05 0.0 0.0 1 True False
2418.337 4.8023295402526855 -1.2988317769816895 1.837191406880514 -2.1092168293394984 -1.5707810560809534 1.6608107089996338 0.0 0.00022810992959421128 0.00010361514432588592 1.8636954337125644e-05 0.0 0.0 1 True False
2418.3869999999997 4.8023881912231445 -1.2987201076797028 1.8372152487384241 -2.1092125378050746 -1.5707529226886194 1.660768985748291 0.0 0.0007701367139816284 3.455570682656039e-25 2.4456325111349474e-15 0.0 0.0 1 True False
2418.437 4.8023176193237305 -1.2987635296634217 1.8371837774859827 -2.1092969379820765 -1.570784870778219 1.6607451438903809 0.0 0.00032857636688277125 0.0001232221256941557 3.7149212253884063e-34 0.0 0.0 1 True False
2418.487 4.8023552894592285 -1.2987211805633088 1.837151352559225 -2.109272619287008 -1.5708006064044397 1.6607526540756226 0.0 0.0001595820504007861 0.00010258941620122641 0.0 0.0 0.0 1 True False
2418.537 4.802347660064697 -1.2987047892859955 1.8371709028827112 -2.109276433984274 -1.5708048979388636 1.6608226299285889 0.0 0.00013534149911720306 0.00010416949953651056 -0.00011249382805544883 0.0 0.0 1 True False
2418.587 4.802375793457031 -1.298672006731369 1.837219540272848 -2.1092564068236292 -1.5708087126361292 1.6607407331466675 -3.8246602343861014e-05 7.918570918263867e-05 9.370240877615288e-05 -8.916947263060138e-05 0.0 0.0 1 True False
2418.6369999999997 4.8023600578308105 -1.2987047594836731 1.8371699492083948 -2.1092645130553187 -1.5707767645465296 1.660740613937378 -1.9057659114817512e-43 6.59920260659419e-05 7.930325955385342e-05 -8.26240866445005e-05 0.0 0.0 1 True False
2418.687 4.802346706390381 -1.2987181407264252 1.8371709028827112 -2.109248777429098 -1.5707686583148401 1.6607288122177124 0.0 1.4736892066802057e-37 3.891177129844436e-06 -6.97356736054644e-05 0.0 0.0 1 True False
2418.737 4.8023600578308105 -1.2986853879741211 1.8371909300433558 -2.109312196771139 -1.570784870778219 1.6607496738433838 0.0 0.0 9.156346219921571e-36 -1.0592866044935723e-23 0.0 0.0 1 True False
2418.787 4.802310466766357 -1.2987181109241028 1.837219540272848 -2.109328409234518 -1.5707605520831507 1.6607824563980103 0.0 0.0 0.0 -1.1506670460903479e-07 0.0 0.0 1 True False
2418.837 4.802346706390381 -1.2988712948611756 1.8370712439166468 -2.1094752750792445 -1.5707605520831507 1.6607511043548584 0.0 -0.0019877958111464977 -0.0009947679936885834 -0.007459180895239115 2.2965962898774395e-12 1.378163627663298e-08 1 True False
2418.8869999999997 4.802334308624268 -1.298810974960663 1.837055508290426 -2.1095153294005335 -1.5707529226886194 1.6607943773269653 0.0 0.00047378288581967354 -1.0156142269354087e-25 -7.824738713679835e-05 3.4885348034381368e-31 -4.574006104429706e-13 1 True False
2418.937 4.802346706390381 -1.2987440091422577 1.8370712439166468 -2.1094871960081996 -1.570845905934469 1.6607942581176758 0.0 0.0005672640982083976 0.0008281276095658541 0.0009740095119923353 0.0 -6.947925105238596e-32 1 True True
2418.987 4.80229377746582 -1.2988860768130799 1.8368476072894495 -2.108492990533346 -1.5707767645465296 1.6607242822647095 0.0 -0.011972486041486263 -0.019505582749843597 0.045665279030799866 0.0 -0.0 1 True True
2419.037 4.802380561828613 -1.299999402170517 1.8348730246173304 -2.1047007046141566 -1.570772949849264 1.6607645750045776 0.0 -0.047281742095947266 -0.0826200544834137 0.10059008002281189 -0.00020806679094675928 -0.0 1 True True
2419.087 4.8023552894592285 -1.3029664915851136 1.8298428694354456 -2.0972563229002894 -1.5708335081683558 1.660757064819336 0.0 -0.06651686877012253 -0.11667635291814804 0.1805972158908844 -9.650641732150689e-05 -0.0 1 True True
2419.1369999999997 4.802301406860352 -1.3071007889560242 1.8226712385760706 -2.086369653741354 -1.570784870778219 1.660768985748291 0.0 -0.09233003854751587 -0.16261787712574005 0.2655337452888489 -6.282192043727264e-05 -0.0 1 True True
2419.187 4.802313327789307 -1.3123267453959961 1.8134782950030726 -2.072071214715475 -1.570813004170553 1.6607496738433838 0.0 -0.11592057347297668 -0.20875923335552216 0.33003121614456177 -9.829268510230804e-10 -1.0002917836915819e-21 1 True True
2419.237 4.802326679229736 -1.318921760921814 1.802333180104391 -2.0541020832457484 -1.5708373228656214 1.6607316732406616 0.0 -0.14174838364124298 -0.24354487657546997 0.37886518239974976 -1.4930682819602118e-28 -1.5194419378520424e-40 1 True True
2419.287 4.802375793457031 -1.326794685130455 1.7888363043414515 -2.0328389606871546 -1.5707524458514612 1.6607242822647095 0.0 -0.17200236022472382 -0.2878858149051666 0.45724284648895264 -0.0 -2.3061298634274863e-05 1 True True
2419.337 4.802358150482178 -1.3358891320279618 1.7731240431415003 -2.0079075298705042 -1.5707967917071741 1.6607751846313477 0.0 -0.1954503059387207 -0.3313838839530945 0.5235802531242371 -1.1301343538477165e-17 -2.163043522074304e-09 1 True True
2419.3869999999997 4.802350997924805 -1.3461334717324753 1.7555063406573694 -1.980352064172262 -1.570813004170553 1.6607242822647095 0.0 -0.19684827327728271 -0.3403611481189728 0.5422133207321167 -1.7166768042586507e-36 -3.2856680222274637e-28 1 True True
2419.437 4.802346706390381 -1.3552736204913636 1.7398164908038538 -1.955066820184225 -1.5708006064044397 1.6607706546783447 0.0 -0.16881375014781952 -0.29484158754348755 0.4722308814525604 -0.0 -0.0 1 True True
2419.487 4.802366733551025 -1.363369734292366 1.7258880774127405 -1.9333144627013148 -1.5707805792437952 1.6607898473739624 0.0 -0.14997896552085876 -0.2507309019565582 0.4016556441783905 -0.0 -0.0 1 True True
2419.537 4.802343368530273 -1.3700865072062989 1.714447323475973 -1.9151455364623011 -1.5707891623126429 1.6607526540756226 0.0 -0.11923960596323013 -0.20399241149425507 0.33059263229370117 -0.0 -0.0 1 True True
2419.587 4.802350997924805 -1.3754314643195649 1.7052276770221155 -1.900370260278219 -1.5707767645465296 1.6607378721237183 0.0 -0.09568443149328232 -0.16837972402572632 0.2760879099369049 -0.0 -0.0 1 True True
2419.6369999999997 4.802341938018799 -1.3795705002597352 1.6980603376971644 -1.8890229664244593 -1.5707886854754847 1.6607407331466675 0.0 -0.06993024051189423 -0.12286864221096039 0.186786949634552 -0.0 -0.0 1 True True
2419.687 4.802334308624268 -1.3824884009412308 1.692977253590719 -1.8813802204527796 -1.570801083241598 1.6607332229614258 0.0 -0.044608380645513535 -0.07644174247980118 0.1288658231496811 -0.0 -0.0 1 True True
2419.737 4.80239725112915 -1.3839848798564454 1.6902545134173792 -1.8770343265929164 -1.5707686583148401 1.6607288122177124 0.0 -0.021754778921604156 -0.03495343402028084 0.053724125027656555 -0.0 -0.0 1 True True
2419.787 4.802156448364258 -1.3842922312072297 1.6896875540362757 -1.8761607609190882 -1.5707247892962855 1.6607286930084229 -0.026762768626213074 0.0005935524823144078 6.093473814416939e-08 -0.0003126256924588233 -0.0 -1.659308395574044e-06 1 True True
2419.837 4.799685478210449 -1.3843223613551636 1.6896632353412073 -1.8761331043639125 -1.5707891623126429 1.6602972745895386 -0.08656094968318939 0.0018406849121674895 -0.0007662017596885562 0.002784878248348832 -0.0 -0.010884051211178303 1 True True
2419.8869999999997 4.793271541595459 -1.3842277389815827 1.6894810835467737 -1.876077791253561 -1.5707362333880823 1.6595786809921265 -0.15490180253982544 0.0036061701830476522 -0.0057297684252262115 0.0016140545485541224 -0.0 -0.02035730704665184 1 True True
2419.937 4.783743381500244 -1.3840220731547852 1.6891515890704554 -1.8760096035399378 -1.5707891623126429 1.658311367034912 -0.23016412556171417 0.006041246931999922 -0.0076558152213692665 0.0007586706196889281 -0.0 -0.02926056459546089 1 True True
2419.987 4.770431041717529 -1.3836773198894043 1.688798729573385 -1.8759223423399867 -1.570813004170553 1.6565669775009155 -0.29639458656311035 0.008149681612849236 -0.009900610893964767 0.0015908031491562724 -0.0 -0.038200490176677704 1 True True
2420.037 4.753907680511475 -1.3833129864982148 1.6882055441485804 -1.875803133050436 -1.5707686583148401 1.6545084714889526 -0.36636900901794434 0.009234057739377022 -0.010785487480461597 0.0031557101756334305 -1.5957000261065946e-12 -0.04729990288615227 1 True True
2420.087 4.7336273193359375 -1.3828015488437195 1.6877597014056605 -1.8756925068297328 -1.5707686583148401 1.6518510580062866 -0.43621930480003357 0.011628439649939537 -0.012023132294416428 0.002490597777068615 -2.423872172581999e-31 -0.056429311633110046 1 True True
2420.1369999999997 4.710056304931641 -1.3823006761125107 1.687080208455221 -1.875540395776266 -1.570784870778219 1.648807168006897 -0.5080421566963196 0.012386435642838478 -0.013544748537242413 0.0032529584132134914 -0.0 -0.06409372389316559 1 True True
2420.187 4.683028697967529 -1.3816504639438172 1.686293903981344 -1.8754259548582972 -1.570772949849264 1.645361065864563 -0.5768784880638123 0.01238434948027134 -0.018208801746368408 0.005367951933294535 -2.634559450598317e-06 -0.07584559917449951 1 True True
2420.237 4.652389049530029 -1.3809170883945008 1.6853755156146448 -1.8752309284605921 -1.5707853476153772 1.641360878944397 -0.6435506343841553 0.0151597261428833 -0.0175484549254179 0.005398406181484461 2.147218765458092e-05 -0.08399055153131485 1 True True
2420.287 4.618280410766602 -1.3801386666348954 1.6843474547015589 -1.8750072918333949 -1.5708168188678187 1.6370103359222412 -0.7129827737808228 0.015576502308249474 -0.01968497969210148 0.005514115560799837 0.00023791741114109755 -0.0918339267373085 1 True True
2420.337 4.580566883087158 -1.3792692732862015 1.6832593123065394 -1.874812742272848 -1.570784870778219 1.6321319341659546 -0.7813482880592346 0.016277337446808815 -0.021307997405529022 0.0043623908422887325 0.0012782681733369827 -0.10165476053953171 1 True True
2420.3869999999997 4.539409160614014 -1.3783051383546372 1.6820948759662073 -1.874646326104635 -1.5707843939410608 1.6268166303634644 -0.850713312625885 0.020405501127243042 -0.02292036823928356 0.003964130766689777 -2.222905193249858e-09 -0.11110497266054153 1 True True
2420.437 4.494949817657471 -1.3772616398385544 1.6809151808368128 -1.8743239841856898 -1.5708368460284632 1.6211057901382446 -0.9296916723251343 0.020662538707256317 -0.02509869635105133 0.004190264269709587 -3.3765981563980335e-28 -0.12175270915031433 1 True True
2420.487 4.446804046630859 -1.376222775583603 1.6795757452594202 -1.8740130863585414 -1.5707529226886194 1.6148310899734497 -0.9946969151496887 0.022481923922896385 -0.03134123235940933 0.007127884775400162 -2.7025401989027583e-19 -0.13127897679805756 1 True True
2420.537 4.395383834838867 -1.3750606340220948 1.677957836781637 -1.8737513027586878 -1.5708325544940394 1.6082321405410767 -1.043319582939148 0.023781752213835716 -0.030160071328282356 0.006642554886639118 -2.4457669496769086e-05 -0.1322055459022522 1 True True
2420.587 4.343109130859375 -1.373811886911728 1.676478687916891 -1.8734728298582972 -1.570801083241598 1.6013953685760498 -1.0505675077438354 0.023500440642237663 -0.030299505218863487 0.0054589202627539635 -3.3797617482456133e-12 -0.13470466434955597 1 True True
2420.6369999999997 4.290716171264648 -1.3726709646037598 1.6749733130084437 -1.8731996021666468 -1.570801083241598 1.5946719646453857 -1.045447587966919 0.024193836376070976 -0.028300277888774872 0.00600165780633688 -5.133865312527026e-31 -0.1333562135696411 1 True True
2420.687 4.238318920135498 -1.371400998239853 1.6736028830157679 -1.8728682003416957 -1.5707805792437952 1.5879415273666382 -1.0472691059112549 0.021525388583540916 -0.0271929781883955 0.006793254520744085 -0.0 -0.13678018748760223 1 True True
2420.737 4.18599796295166 -1.3702342820218583 1.672077480946676 -1.87266268352651 -1.5707805792437952 1.5812007188796997 -1.053266167640686 0.02537042275071144 -0.03244336321949959 0.00531251123175025 6.594854494323954e-05 -0.1379690170288086 1 True True
2420.787 4.133604526519775 -1.3690260809711 1.6705063025103968 -1.8722878895201625 -1.570813004170553 1.5745011568069458 -1.0436476469039917 0.02371026575565338 -0.03130607679486275 0.005617002956569195 1.5170219614567066e-23 -0.1369592249393463 1 True True
2420.837 4.081237316131592 -1.367805765276291 1.669034783040182 -1.8720303974547328 -1.5707805792437952 1.567691445350647 -1.0482356548309326 0.02527519315481186 -0.029872918501496315 0.007848338223993778 1.882362532512616e-08 -0.13859088718891144 1 True True
2420.8869999999997 4.028852939605713 -1.366643877034523 1.6675270239459437 -1.8717724285521449 -1.5708773771869105 1.560897707939148 -1.0520048141479492 0.02484743855893612 -0.0301046222448349 0.0070990524254739285 2.9699208425881807e-06 -0.13081741333007812 1 True True
2420.937 3.9764697551727295 -1.3653633010438462 1.6661432425128382 -1.871437212029928 -1.5707805792437952 1.5541805028915405 -1.04554283618927 0.023999685421586037 -0.02984939143061638 0.004923073574900627 -4.3513962139148464e-20 -0.13396607339382172 1 True True
2420.987 3.9241909980773926 -1.3641834121993561 1.6645177046405237 -1.8711639843382777 -1.5707486311541956 1.547342300415039 -1.048022985458374 0.023753270506858826 -0.031072266399860382 0.007545244414359331 -6.609779121179872e-39 -0.13527892529964447 1 True True
2421.037 3.871908187866211 -1.3630542916110535 1.6629894415484827 -1.8708087406554164 -1.5708368460284632 1.54067862033844 -1.0527656078338623 0.024620121344923973 -0.028805553913116455 0.007258458528667688 -0.0 -0.13691526651382446 1 True True
2421.087 3.8194892406463623 -1.3617634636214753 1.6615031401263636 -1.8705116711058558 -1.5708168188678187 1.5338642597198486 -1.046132206916809 0.024526001885533333 -0.029408598318696022 0.004069270566105843 -0.0 -0.13279429078102112 1 True True
2421.1369999999997 3.767160177230835 -1.3606479477933426 1.6600220839129847 -1.8701569042601527 -1.570772949849264 1.5270553827285767 -1.04645836353302 0.022616863250732422 -0.02802937664091587 0.007389809936285019 -0.0 -0.13620994985103607 1 True True
2421.187 3.7147412300109863 -1.3593495947173615 1.6586068312274378 -1.869922777215475 -1.5708087126361292 1.5203558206558228 -1.0492666959762573 0.02475995197892189 -0.031066397204995155 0.007264751475304365 -0.0 -0.13491190969944 1 True True
2421.237 3.6623213291168213 -1.358216108088829 1.6570428053485315 -1.8696328602232875 -1.57074481645693 1.5136271715164185 -1.0454249382019043 0.024054545909166336 -0.03123241662979126 0.007136181928217411 -0.0 -0.13817010819911957 1 True True
2421.287 3.609985828399658 -1.3570214074901124 1.655511204396383 -1.8693701229491175 -1.570784870778219 1.506895661354065 -1.0458177328109741 0.02632334642112255 -0.029940756037831306 0.005935305263847113 -0.0 -0.13462181389331818 1 True True
2421.337 3.557669162750244 -1.3557557475617905 1.6540082136737269 -1.8690363369383753 -1.5708325544940394 1.500091552734375 -1.0513752698898315 0.022911934182047844 -0.030953241512179375 0.004413532093167305 -0.0 -0.13753904402256012 1 True True
2421.3869999999997 3.505297899246216 -1.3546102803996583 1.652597729359762 -1.8687383137144984 -1.5707929770099085 1.4933425188064575 -1.045982003211975 0.023788752034306526 -0.027439875528216362 0.0064947763457894325 -0.0 -0.13571672141551971 1 True True
2421.437 3.4529247283935547 -1.3534200948527833 1.6511457602130335 -1.868460317651266 -1.5707967917071741 1.486581802368164 -1.0484267473220825 0.022310204803943634 -0.03278797119855881 0.0070993308909237385 -0.0 -0.13596734404563904 1 True True
2421.487 3.4005961418151855 -1.3522237104228516 1.649560276662008 -1.868117471734518 -1.5708168188678187 1.4798091650009155 -1.0504860877990723 0.023606564849615097 -0.0318111814558506 0.007636966183781624 -0.0 -0.13570016622543335 1 True True
2421.537 3.3494811058044434 -1.3509670358947297 1.6480854193316858 -1.8678280315794886 -1.5708087126361292 1.4733015298843384 -0.9865604043006897 0.02155197225511074 -0.02710712142288685 0.006809213198721409 -1.5615458437423513e-07 -0.12759888172149658 1 True True
2421.587 3.301642656326294 -1.3498709958842774 1.6467435995685022 -1.8676091633238734 -1.5708087126361292 1.467118740081787 -0.920114278793335 0.022783461958169937 -0.02628672495484352 0.005476254038512707 3.9783901173429115e-10 -0.11619877815246582 1 True True
2421.6369999999997 3.2574286460876465 -1.3488818270019074 1.6454904715167444 -1.8673316440977992 -1.5707929770099085 1.4613953828811646 -0.8525648713111877 0.018944235518574715 -0.02349763736128807 0.005521703977137804 9.220021456712857e-05 -0.10786687582731247 1 True True
2421.687 3.2167258262634277 -1.3479822886041184 1.6443036238299769 -1.8671323261656703 -1.5707967917071741 1.4561480283737183 -0.7875413298606873 0.01660962775349617 -0.02535500004887581 0.0034844742622226477 0.00010895190644077957 -0.10387453436851501 1 True True
2421.737 3.179506301879883 -1.3471020025065918 1.6431954542743128 -1.8669382534422816 -1.570801083241598 1.4513530731201172 -0.7110838294029236 0.016177359968423843 -0.021810857579112053 0.002654009498655796 9.647654265140664e-22 -0.09436185657978058 1 True True
2421.787 3.1457810401916504 -1.3462892335704346 1.6421955267535608 -1.8667589626707972 -1.5707767645465296 1.4470138549804688 -0.6412108540534973 0.015893667936325073 -0.016322266310453415 0.004809782840311527 1.4654779339908937e-40 -0.08495215326547623 1 True True
2421.837 3.115450859069824 -1.3456234496882935 1.6414602438556116 -1.8665839634337367 -1.5708087126361292 1.44306218624115 -0.5720621943473816 0.01186454389244318 -0.01638765074312687 0.003537240205332637 -0.00012037034321110696 -0.071999691426754 1 True True
2421.8869999999997 3.088602304458618 -1.3449681860259552 1.6406267325030726 -1.8663965664305628 -1.5707891623126429 1.439642071723938 -0.5026611685752869 0.01159956119954586 -0.011912479065358639 0.00495815509930253 -0.0003383839502930641 -0.06357237696647644 1 True True
2421.937 3.0651967525482178 -1.3444467198899765 1.6399453322040003 -1.8663093052306117 -1.5708211104022425 1.4365448951721191 -0.43033185601234436 0.009388578124344349 -0.01398968230932951 0.0029011613223701715 -0.0006047873757779598 -0.05357217788696289 1 True True
2421.987 3.045415163040161 -1.344096065764763 1.639477554951803 -1.8661986790099085 -1.5708335081683558 1.4339821338653564 -0.36669644713401794 0.009076377376914024 -0.011002259328961372 0.0014665109338238835 0.00022458480088971555 -0.04481817036867142 1 True True
2422.037 3.029313802719116 -1.3436657649329682 1.639066521321432 -1.866091867486471 -1.5707805792437952 1.4319639205932617 -0.2953740954399109 0.0059616416692733765 -0.008180694654583931 0.0017465547425672412 1.0681208211128709e-22 -0.03876709192991257 1 True True
2422.087 3.016422986984253 -1.3433895421079178 1.6386707464801233 -1.8659430942931117 -1.5707648436175745 1.4302926063537598 -0.22045698761940002 0.005234823562204838 -0.0060544987209141254 0.0011605178005993366 1.6224233619952732e-41 -0.028674710541963577 1 True True
2422.1369999999997 3.007079839706421 -1.3432277005961915 1.6384080092059534 -1.8659473858275355 -1.5707967917071741 1.4290341138839722 -0.14925067126750946 0.0036167302168905735 -0.0033699795603752136 0.0012806730810552835 -2.2781294319429435e-05 -0.01953650452196598 1 True True
2422.187 3.001225471496582 -1.3430357736400147 1.6381643454181116 -1.8659678898253382 -1.5708168188678187 1.4283156394958496 -0.08206244558095932 0.0025046844966709614 -0.003482135245576501 0.0005884523852728307 -1.2562421943584923e-05 -0.01058364287018776 1 True True
2422.237 2.998792886734009 -1.3429997724345704 1.6381047407733362 -1.8659035168089808 -1.5707767645465296 1.4281246662139893 -0.01458673644810915 0.0005407270509749651 -0.0008732267306186259 0.0003324590215925127 -1.9655807537155567e-10 -0.0005771512514911592 1 True True
2422.287 2.998778820037842 -1.3423911196044465 1.6386316458331507 -1.8669425449767054 -1.570772949849264 1.4280856847763062 -0.0027227436657994986 0.024540303274989128 0.03571686893701553 -0.05925857275724411 7.472390279872343e-05 -0.0034691584296524525 1 True True
2422.337 2.9988322257995605 -1.3408846122077485 1.6413658300982874 -1.8717695675291957 -1.5708048979388636 1.428001880645752 -0.0002700888435356319 0.04540438577532768 0.08098970353603363 -0.12577438354492188 1.1350583510479515e-23 -0.00034230962046422064 1 True True
2422.3869999999997 2.9988298416137695 -1.337903918032982 1.6469200293170374 -1.8798190555968226 -1.5707967917071741 1.4279731512069702 -0.00035729314549826086 0.06914306432008743 0.12559886276721954 -0.1906874179840088 1.723597111119525e-42 -0.0001613062631804496 1 True True
2422.437 2.9987800121307373 -1.3337162298015137 1.654410187398092 -1.8914715252318324 -1.5707805792437952 1.4279654026031494 -0.001269741216674447 0.0960613265633583 0.17393767833709717 -0.26021549105644226 -7.473945879610255e-05 2.1539106848012017e-16 1 True True
2422.487 2.998760461807251 -1.3283019673875351 1.6642268339740198 -1.9065948925414027 -1.5708211104022425 1.4279241561889648 -0.00023231981322169304 0.12194880098104477 0.214384064078331 -0.3380486071109772 -3.75587255740939e-10 3.27179538398598e-35 1 True True
2422.537 2.9988179206848145 -1.3215566140464325 1.6759374777423304 -1.9251247845091761 -1.570857350026266 1.427948236465454 -0.00010129941802006215 0.14655184745788574 0.25529745221138 -0.41539016366004944 -6.216346810106188e-05 0.0 1 True True
2422.587 2.998793840408325 -1.3135085564902802 1.6901763121234339 -1.9472490749754847 -1.5708254019366663 1.4279803037643433 -9.07473367988132e-05 0.1722593456506729 0.3040001094341278 -0.4697258174419403 -3.203232401549627e-10 0.0 1 True True
2422.6369999999997 2.9987690448760986 -1.3043068212321778 1.7065156141864222 -1.9728461704649867 -1.5707486311541956 1.4279968738555908 -2.2893473141522014e-12 0.19719147682189941 0.3478614091873169 -0.5481311082839966 -4.8657175597485223e-29 0.0 1 True True
2422.687 2.9987778663635254 -1.2945885521224518 1.7237418333636683 -1.999962945977682 -1.5708373228656214 1.4280790090560913 -4.1901421354850754e-05 0.18661604821681976 0.3313083052635193 -0.5191752314567566 -0.0 0.0 1 True True
2422.737 2.9987568855285645 -1.2858942312053223 1.7391136328326624 -2.023980279962057 -1.5707805792437952 1.4279524087905884 -6.046636953140238e-37 0.16324010491371155 0.28310269117355347 -0.4440153241157532 -2.624657783809652e-19 0.0 1 True True
2422.787 2.9987807273864746 -1.2785309714129944 1.7520678679095667 -2.044490476647848 -1.570801083241598 1.428005576133728 0.0 0.13629478216171265 0.2425258606672287 -0.3786412477493286 -3.9868600447422806e-38 0.0 1 True True
2422.837 2.9987688064575195 -1.2723577481559296 1.7630513350116175 -2.0614153347411097 -1.5708211104022425 1.428005576133728 0.0 0.10979506373405457 0.19464519619941711 -0.3000950217247009 -0.0 1.3418666068502997e-19 1 True True
2422.8869999999997 2.9987940788269043 -1.267546371822693 1.7715771834002894 -2.0749217472472132 -1.5707686583148401 1.4279731512069702 0.0 0.08614213764667511 0.15039917826652527 -0.23382435739040375 -0.0 2.3153912217385135e-21 1 True True
2422.937 2.9987688064575195 -1.2639666062644501 1.777984921132223 -2.08499874691152 -1.5707686583148401 1.4279803037643433 0.0 0.05991864949464798 0.10253581404685974 -0.16170044243335724 -0.0 3.517090989639572e-40 1 True True
2422.987 2.9987406730651855 -1.2615701121142884 1.78217059770693 -2.091513773004049 -1.5707686583148401 1.4279931783676147 0.0 0.03728815168142319 0.06383586674928665 -0.09284231811761856 -0.0 0.0 1 True True
2423.037 2.9987940788269043 -1.2608865958503266 1.7835271994220179 -2.0946561298766078 -1.570853058491842 1.4280140399932861 0.0 0.010496214963495731 0.01710939221084118 -0.02431880310177803 2.23344613914378e-05 2.05762389668962e-05 1 True True
2423.087 2.9988138675689697 -1.260830895309784 1.783675495778219 -2.09491028408193 -1.5708730856524866 1.427984595298767 0.0 0.005765325389802456 0.005721341818571091 0.0005220439634285867 3.392610707734218e-24 3.560438498737273e-22 1 True True
2423.1369999999997 2.9987733364105225 -1.2600605350783844 1.7845433394061487 -2.094639917413229 -1.5708053747760218 1.4280011653900146 0.0 0.017083045095205307 0.025088829919695854 0.026577986776828766 0.0025196848437190056 5.4609834478469566e-05 1 True True
2423.187 2.9987523555755615 -1.2601108712008973 1.7846334616290491 -2.094496866265768 -1.5707815329181116 1.4279831647872925 0.0 -0.008938493207097054 -0.019020505249500275 -0.02771616540849209 7.202785491244867e-05 -0.004493214190006256 1 True False
2423.237 2.9988138675689697 -1.2601665717414399 1.7845972220050257 -2.094553133050436 -1.570704762135641 1.4279476404190063 0.0 -0.007732722908258438 -0.007143681403249502 -0.0003070143284276128 2.045627713359886e-16 0.00394087890163064 1 True False
2423.287 2.9987645149230957 -1.2603596311858674 1.7844937483416956 -2.094664236108297 -1.570784870778219 1.4279800653457642 0.0 -0.002563843037933111 -0.0029711180832237005 -0.00045686011435464025 -0.00028976507019251585 0.00030280358623713255 1 True False
2423.337 2.9987852573394775 -1.2604083877852936 1.7843669096576136 -2.0947114429869593 -1.5707643667804163 1.428017497062683 0.0 1.6978679407570832e-29 -0.00013403517368715256 -0.00036180857568979263 -0.00039005832513794303 7.788302778578577e-15 1 True False
2423.3869999999997 2.9987897872924805 -1.2603662771037598 1.7843063513385218 -2.0947519741454066 -1.5707929770099085 1.428017497062683 0.0 0.0 -0.00015753509069327265 -0.00015773494669701904 -0.00013941426004748791 1.1830444224679244e-33 1 True False
2423.437 2.9988017082214355 -1.2610681814006348 1.7833364645587366 -2.0934139690794886 -1.570801083241598 1.4280056953430176 0.0 -0.022983066737651825 -0.04004702344536781 0.06368401646614075 -0.00011189109500264749 0.0 1 True False
2423.487 2.9987778663635254 -1.262640581732132 1.7802193800555628 -2.088332792321676 -1.5707686583148401 1.4279890060424805 0.0 -0.046785950660705566 -0.08939652144908905 0.13655082881450653 -7.212931814137846e-05 0.0 1 True False
2423.537 2.9988017082214355 -1.265642301445343 1.774860684071676 -2.07989039043569 -1.5707610289203089 1.4280011653900146 0.0 -0.07364804297685623 -0.12527713179588318 0.21533535420894623 -1.9206188705007975e-21 0.0 1 True False
2423.587 2.9987733364105225 -1.2700771552375336 1.7671979109393519 -2.0681573353209437 -1.5708406607257288 1.4280427694320679 0.0 -0.0997246727347374 -0.17722187936306 0.27613458037376404 -9.232820593751967e-05 0.0 1 True False
2423.6369999999997 2.9987971782684326 -1.275561974649765 1.7573354879962366 -2.052574773828024 -1.5707648436175745 1.4279922246932983 0.0 -0.12414401769638062 -0.21966369450092316 0.3428616225719452 -6.467989442171529e-05 0.0 1 True False
2423.687 2.9987897872924805 -1.2823521655849 1.7453597227679651 -2.0337068043150843 -1.5708006064044397 1.4279967546463013 0.0 -0.14592702686786652 -0.26170361042022705 0.4142371416091919 -1.095317825556992e-18 0.0 1 True False
2423.737 2.998804807662964 -1.2905608278563996 1.7309840361224573 -2.0113188229002894 -1.5707648436175745 1.4279639720916748 1.7678959787674587e-34 -0.1734066903591156 -0.31058597564697266 0.4767782390117645 -1.6637907015970361e-37 0.0 1 True False
2423.787 2.9988105297088623 -1.299813525085785 1.7143834272967737 -1.9853626690306605 -1.5707886854754847 1.4280143976211548 0.0 -0.1993088275194168 -0.3508380949497223 0.5464286208152771 -0.0 0.0 1 True False
2423.837 2.9987881183624268 -1.309582696562149 1.6973074118243616 -1.9583832226195277 -1.5707929770099085 1.4279978275299072 0.0 -0.18339841067790985 -0.32870543003082275 0.5083200931549072 -0.0 0.0 1 True False
2423.8869999999997 2.9987971782684326 -1.318141059284546 1.6819799582110804 -1.9347225628294886 -1.5707610289203089 1.4280056953430176 0.0 -0.1566050499677658 -0.27896228432655334 0.4476293921470642 -0.0 0.0 1 True False
2423.937 2.9987480640411377 -1.3253653806499024 1.6692999045001429 -1.9146038494505824 -1.5708325544940394 1.4279755353927612 0.0 -0.13357210159301758 -0.23572920262813568 0.3756905496120453 -0.0 0.0 1 True False
2423.987 2.9987807273864746 -1.3313764047673722 1.6584904829608362 -1.8978215656676234 -1.5707929770099085 1.4279487133026123 0.0 -0.10880771279335022 -0.186820849776268 0.29792356491088867 -0.0 0.0 1 True False
2424.037 2.9987971782684326 -1.3362270158580323 1.6501458326922815 -1.8847066364684046 -1.570824925099508 1.4280353784561157 0.0 -0.08443153649568558 -0.1498190462589264 0.2329660952091217 -0.0 0.0 1 True False
2424.087 2.998767375946045 -1.3397068691304703 1.6440485159503382 -1.875021596948141 -1.5708168188678187 1.427944302558899 0.0 -0.056053198873996735 -0.1031314954161644 0.1558455228805542 -0.0 0.0 1 True False
2424.1369999999997 2.9987523555755615 -1.3418875348619004 1.6399605909930628 -1.8688084087767542 -1.5708206335650843 1.4279844760894775 0.0 -0.03393854573369026 -0.05911458656191826 0.09085404127836227 -0.0 0.0 1 True False
2424.187 2.9988226890563965 -1.3429292750409623 1.6383493582354944 -1.8659240208067835 -1.5707529226886194 1.4279844760894775 0.0 -0.005048180464655161 -0.013326838612556458 0.01935412362217903 -0.0 -1.8059550166080185e-12 1 True False
2424.237 2.9988181591033936 -1.3429184418967743 1.6382330099688929 -1.8658834896483363 -1.5707891623126429 1.4279639720916748 0.0 0.00010924152593361214 -1.3618978484206728e-25 -0.00039469869807362556 -0.0 -2.7432485804264005e-31 1 False False
2424.287 2.9987761974334717 -1.3428440403989335 1.6381686369525355 -1.8658958874144496 -1.5708168188678187 1.4279844760894775 0.0 -0.0001604719291208312 -0.001772470073774457 -0.0001537525822641328 -0.0 -0.0 1 False False
2424.337 2.9987599849700928 -1.3429249239018937 1.638043228779928 -1.8659078083434046 -1.570784870778219 1.4279966354370117 0.0 -0.00047753259423188865 -0.0006567806121893227 -9.548729576636106e-05 -0.0 -0.0 1 False False
2424.3869999999997 2.998771905899048 -1.3430053901723404 1.6380866209613245 -1.8658958874144496 -1.5707805792437952 1.4279683828353882 0.0 -0.0005835823831148446 -0.00032670091604813933 -1.9030279872822575e-05 -0.0 -0.0 1 False False
2424.437 2.9987599849700928 -1.3429596436074753 1.6380985418902796 -1.865915437737936 -1.5707891623126429 1.4280056953430176 0.0 -0.00019466711091808975 -0.00012472497473936528 -2.993408299012401e-11 -0.0 -0.0 1 False False
2424.487 2.998771905899048 -1.3429605227759858 1.6380537191974085 -1.8659116230406703 -1.5708416144000452 1.4279799461364746 1.7658618629557533e-18 -0.00011945468577323481 -7.906762039056048e-05 -4.54699533802024e-30 -0.0 -0.0 1 False False
2424.537 2.9987642765045166 -1.3429399144700547 1.6380165258990687 -1.8659116230406703 -1.570801083241598 1.428026556968689 -9.294796182723886e-11 -9.261730883736163e-05 -2.7366080956880978e-08 -0.0 -0.0 -0.0 1 False False
2424.587 2.9987852573394775 -1.3429562014392395 1.6380656401263636 -1.8659078083434046 -1.5707605520831507 1.4279844760894775 0.0 -5.903698105129131e-29 -6.439528083997036e-38 -0.0 -0.0 -0.0 1 False False
2424.6369999999997 2.9987852573394775 -1.3429728013328095 1.6380236784564417 -1.8658997021117152 -1.5707524458514612 1.4280221462249756 0.0 -1.6878937546866408e-25 -0.0 -0.0 -0.0 -0.0 1 False False
2424.687 2.9987943172454834 -1.342943088417389 1.6380913893329065 -1.865903993646139 -1.5708449522601526 1.4280011653900146 0.0 0.0 -0.0 -0.0 -0.0 -0.0 1 False False
2424.737 2.9987897872924805 -1.3429802817157288 1.6380584875689905 -1.8659001789488734 -1.5707925001727503 1.4280086755752563 0.0 0.0 -0.0 -0.0 -0.0 -0.0 1 False False
2424.787 2.9987478256225586 -1.3429605227759858 1.6380327383624476 -1.8659445248045863 -1.570824925099508 1.4279890060424805 0.0 0.0 -0.0 -0.0 -0.0 -0.0 1 False False
2424.837 2.9987761974334717 -1.3429770779660721 1.6380189100848597 -1.8659278355040492 -1.5707324186908167 1.4280146360397339 0.0 0.0 -0.0 -0.0 -0.0 -0.0 1 False False
2424.8869999999997 2.9987852573394775 -1.3429474246552964 1.6380451361285608 -1.8659001789488734 -1.570813004170553 1.4279654026031494 0.0 0.0 -0.0 -0.0 -0.0 -0.0 1 False False
2424.937 2.9987971782684326 -1.3429356080344697 1.638068977986471 -1.8659082851805628 -1.570784870778219 1.4279978275299072 0.0 0.0 -2.657036617103787e-25 -0.0 -0.0 -0.0 1 False False
2424.987 2.9988017082214355 -1.3429727417281647 1.6380823294269007 -1.8659283123412074 -1.570784870778219 1.4279520511627197 0.0 0.0 -0.0 -0.0 -0.0 -0.0 1 False False
2425.037 2.9988062381744385 -1.3429553222707291 1.6380537191974085 -1.86588778118276 -1.5708211104022425 1.4280011653900146 0.0 0.0 -0.0 -0.0 -0.0 -0.0 1 False False
2425.087 2.9987435340881348 -1.342919410472252 1.6380613485919397 -1.8658958874144496 -1.5707724730121058 1.428054928779602 0.0 0.0 -0.0 -0.0 -0.0 -0.0 1 False False
2425.1369999999997 2.9987809658050537 -1.3429193806699296 1.6380537191974085 -1.8659278355040492 -1.570772949849264 1.4280130863189697 0.0 0.0 -0.0 -0.0 -0.0 -0.0 1 False False
2425.187 2.998771905899048 -1.3429031831077118 1.6380327383624476 -1.8658887348570765 -1.5708254019366663 1.4279729127883911 0.0 0.0 -0.0 -0.0 -0.0 -0.0 1 True False
2425.237 2.9987807273864746 -1.3429356825402756 1.6380999724017542 -1.86588778118276 -1.5707891623126429 1.4280011653900146 0.0 0.0 2.1742542356651113e-29 -0.0 -0.0 -0.0 1 True False
2425.287 2.998776435852051 -1.3429311674884339 1.6380656401263636 -1.8658515415587367 -1.5707929770099085 1.428017497062683 0.0 0.0 0.0 -0.0 -0.0 -0.0 1 True False
2425.337 2.998739242553711 -1.342956156735756 1.6380732695208948 -1.8658844433226527 -1.5708048979388636 1.4279594421386719 0.0 0.0 0.0 -0.0 -0.0 -0.0 1 True False
2425.3869999999997 2.9987599849700928 -1.342931182389595 1.6380494276629847 -1.8659359417357386 -1.5707891623126429 1.4279890060424805 0.0 0.0 0.0 -0.0 -1.4221124672050107e-16 -0.0 1 True False
2425.437 2.998804807662964 -1.3429399293712159 1.6381061712848108 -1.8658958874144496 -1.5707767645465296 1.4279520511627197 0.0 0.0 0.0 -0.0 -2.1601907008548815e-35 -0.0 1 True False
2425.487 2.998804807662964 -1.3429237020066758 1.6380613485919397 -1.8658434353270472 -1.5707805792437952 1.4279967546463013 0.0 0.0 0.0 -0.0 -0.0 -0.0 1 True False
2425.537 2.9987852573394775 -1.3429224801114579 1.6380894819842737 -1.8658596477904261 -1.570784870778219 1.4280011653900146 0.0 0.0 0.0 -0.0 -0.0 -0.0 1 True False
2425.587 2.9987971782684326 -1.3429074448398133 1.638057057057516 -1.8659116230406703 -1.5707605520831507 1.4280668497085571 0.0 0.0 1.0841615149040362e-12 -0.0 -0.0 -0.0 1 True False
2425.6369999999997 2.998828649520874 -1.3429356080344697 1.6381223837481897 -1.8658558330931605 -1.5707648436175745 1.4279890060424805 0.0 0.0 2.551764503535492e-42 -0.0 -0.0 0.00044952266034670174 1 True False
2425.687 2.998809337615967 -1.342977063064911 1.638064209614889 -1.8658925495543421 -1.5708044211017054 1.4280011653900146 0.0 0.0 0.0 -0.0 -0.0 0.00032644893508404493 1 True False
2425.737 2.9987852573394775 -1.3429356080344697 1.6380894819842737 -1.8658887348570765 -1.570829216633932 1.4279755353927612 0.0 0.0 0.0 -0.0 -3.4161770634533184e-11 -0.002582407556474209 1 True False
2425.787 2.9988181591033936 -1.3429355782321473 1.6381028334247034 -1.8658677540221156 -1.5707886854754847 1.4279922246932983 0.0 0.0 0.0 -0.0 5.0909587669836574e-18 7.152512360164565e-09 1 True False
2425.837 2.9988181591033936 -1.3429399144700547 1.6380732695208948 -1.8659078083434046 -1.5707886854754847 1.428017497062683 0.0 0.0 0.0 -0.0 7.733179248707929e-37 3.158616957132439e-20 1 True False
2425.8869999999997 2.998809337615967 -1.3429312121919175 1.638057057057516 -1.8658887348570765 -1.5707405249225062 1.428038477897644 0.025864724069833755 0.0 0.0 -0.0 0.0 4.797945048358742e-39 1 True False
2425.937 3.0010182857513428 -1.343025804763176 1.6381924788104456 -1.8659445248045863 -1.5708254019366663 1.4281501770019531 0.07704721391201019 -0.006606745067983866 0.007050927262753248 7.819201952585786e-10 -1.5179788093178104e-08 0.006261681672185659 1 True False
2425.987 3.006913423538208 -1.3434994679740448 1.6386426130877894 -1.8659435711302699 -1.5708487669574183 1.428500771522522 0.15056294202804565 -0.012176275253295898 0.011347423307597637 -0.0021949508227407932 0.0005353520973585546 0.011141780763864517 1 True False
2426.037 3.016162633895874 -1.3440959465554734 1.6393488089190882 -1.866138597527975 -1.5707767645465296 1.4291397333145142 0.2210414558649063 -0.013720735907554626 0.01784217730164528 -0.00285529438406229 0.00013457734894473106 0.014268377795815468 1 True False
2426.087 3.0288326740264893 -1.3449396354011078 1.6403005758868616 -1.866349836389059 -1.5708044211017054 1.429919958114624 0.2880079448223114 -0.0186300091445446 0.023946506902575493 -0.0050345822237432 0.00010779938020277768 0.018572231754660606 1 True False
2426.1369999999997 3.045051097869873 -1.3460116696408768 1.6415990034686487 -1.8665043316283167 -1.5708449522601526 1.4310731887817383 0.35942068696022034 -0.023359494283795357 0.03129833564162254 -0.006371519528329372 7.897331670392305e-05 0.02360415644943714 1 True False
2426.187 3.0647995471954346 -1.3472654980472107 1.6433075110064905 -1.86674227337026 -1.5707686583148401 1.4322965145111084 0.427071213722229 -0.027033822610974312 0.03490257263183594 -0.009105926379561424 0.00010971424489980564 0.02643524296581745 1 True False
2426.237 3.088191270828247 -1.3487211030772706 1.6451461950885218 -1.8671008549132289 -1.5707529226886194 1.433798909187317 0.49650445580482483 -0.031760334968566895 0.0416482612490654 -0.006366752088069916 4.101706144865602e-05 0.03251692280173302 1 True False
2426.287 3.1147420406341553 -1.350488768225052 1.64711839357485 -1.8675137958922328 -1.570784870778219 1.4355701208114624 0.5702336430549622 -0.03870946168899536 0.04682134836912155 -0.004714407958090305 -1.9533808881533332e-05 0.0345303900539875 1 True False
2426.337 3.1448092460632324 -1.3524078738740464 1.6495698134051722 -1.8679553471007289 -1.570853058491842 1.4375513792037964 0.635015070438385 -0.040530748665332794 0.049820736050605774 -0.009948248974978924 -0.000712034001480788 0.04099845513701439 1 True False
2426.3869999999997 3.178558111190796 -1.3546560865691681 1.6521948019610804 -1.8683887920775355 -1.5708449522601526 1.4397722482681274 0.7015333771705627 -0.04627630487084389 0.05468878522515297 -0.012804782949388027 -0.0025254518259316683 0.045013677328825 1 True False
2426.437 3.2157914638519287 -1.3570823979428788 1.6550963560687464 -1.8688656292357386 -1.5708611647235315 1.4421517848968506 0.7708250284194946 -0.05159289389848709 0.061731044203042984 -0.010332368314266205 -0.0007927832193672657 0.04974031075835228 1 True False
2426.487 3.2564218044281006 -1.3597854536822815 1.658410374318258 -1.8693868122496546 -1.570801083241598 1.4447959661483765 0.8497105836868286 -0.05597630515694618 0.06736245006322861 -0.008467542007565498 0.0002230251266155392 0.05557476729154587 1 True False
2426.537 3.30057430267334 -1.3626893770745774 1.6619237104998987 -1.8699671230711878 -1.5707891623126429 1.447754144668579 0.9156745076179504 -0.060812365263700485 0.06913269311189651 -0.011788761243224144 0.0001408556563546881 0.06063717231154442 1 True False
2426.587 3.3482444286346436 -1.3657904875329514 1.665750805531637 -1.870535512963766 -1.570784870778219 1.4508130550384521 0.988599956035614 -0.0640624389052391 0.07908602058887482 -0.011588788591325283 8.893352788197533e-22 0.06566719710826874 1 True False
2426.6369999999997 3.399364709854126 -1.3691682827523728 1.6695845762835901 -1.8713442287840785 -1.5707925001727503 1.4541268348693848 1.0348196029663086 -0.0662822499871254 0.08089224249124527 -0.015778761357069016 1.3509077715476966e-40 0.06768437474966049 1 True False
2426.687 3.451647996902466 -1.3725440365127106 1.6737287680255335 -1.8719870052733363 -1.5707929770099085 1.4575564861297607 1.0527435541152954 -0.0658494159579277 0.08009064197540283 -0.01659761369228363 -0.00028042565099895 0.07011950016021729 1 True False
2426.737 3.5040183067321777 -1.3759779346040268 1.6778696219073694 -1.8726941547789515 -1.5707648436175745 1.461064100265503 1.047179937362671 -0.06773316860198975 0.08456621319055557 -0.012125544250011444 -0.00032395729795098305 0.06795664876699448 1 True False
2426.787 3.556462526321411 -1.3794331115535279 1.6820219198810022 -1.8733536205687464 -1.5707724730121058 1.4643949270248413 1.0446287393569946 -0.06690818071365356 0.08014816790819168 -0.014071861281991005 1.8002406250161584e-06 0.06998907774686813 1 True False
2426.837 3.6086649894714355 -1.3828341525844117 1.6861985365497034 -1.8741895161070765 -1.5707605520831507 1.4678542613983154 1.0514854192733765 -0.06944236159324646 0.08341583609580994 -0.014752770774066448 -0.00018456760153640062 0.0681367889046669 1 True False
2426.8869999999997 3.6610546112060547 -1.3862471741488953 1.690289322529928 -1.8748442135252894 -1.5707605520831507 1.4711848497390747 1.0511575937271118 -0.0712634027004242 0.08279594779014587 -0.014172008261084557 3.904983003621965e-09 0.06681513041257858 1 True False
2426.937 3.7134666442871094 -1.3896268022111435 1.694564167653219 -1.8754970035948695 -1.5708044211017054 1.47463059425354 1.0420383214950562 -0.06833047419786453 0.07898557931184769 -0.013552321121096611 5.9316754875781365e-28 0.0699271410703659 1 True False
2426.987 3.7658910751342773 -1.3930669587901612 1.6986478010760706 -1.876244684258932 -1.5708091894732874 1.4780536890029907 1.0475826263427734 -0.06687241047620773 0.08200441300868988 -0.013696571812033653 -4.732105263194342e-10 0.07014288008213043 1 True False
2427.037 3.8182034492492676 -1.3965374392322083 1.7026451269732874 -1.876883169213766 -1.5707767645465296 1.4814976453781128 1.0490367412567139 -0.07105522602796555 0.08034570515155792 -0.012234686873853207 -7.188077312769781e-29 0.06952788680791855 1 True False
2427.087 3.870699882507324 -1.3999806356481095 1.706817928944723 -1.8776012859740199 -1.570772949849264 1.4848830699920654 1.0438045263290405 -0.06787967681884766 0.08684809505939484 -0.011762693524360657 -5.3135900088818744e-05 0.06778214126825333 1 True False
2427.1369999999997 3.9229116439819336 -1.4034097802690049 1.7108357588397425 -1.8783279858031214 -1.5708044211017054 1.4883761405944824 1.0509157180786133 -0.06950116902589798 0.08377037197351456 -0.014416505582630634 9.599422819139836e-12 0.06876400858163834 1 True False
2427.187 3.975173234939575 -1.4067815852216263 1.7150657812701624 -1.87901033977651 -1.570756737385885 1.4917502403259277 1.0528393983840942 -0.06899946928024292 0.07986544817686081 -0.014225907623767853 1.4581536283814667e-30 0.06668752431869507 1 True False
2427.237 4.027646541595459 -1.4102918070605774 1.7191217581378382 -1.879749437371725 -1.570784870778219 1.4951258897781372 1.0408318042755127 -0.06665807962417603 0.08523083478212357 -0.013703174889087677 0.0 0.06848423182964325 1 True False
2427.287 4.079948425292969 -1.4136330497315903 1.7233570257769983 -1.8804718456664027 -1.5708087126361292 1.4986320734024048 1.0492804050445557 -0.06612055003643036 0.08141657710075378 -0.018592972308397293 4.665492815547623e-05 0.06947384029626846 1 True False
2427.337 4.1323370933532715 -1.417066605096199 1.7275665442096155 -1.881113191644186 -1.5707648436175745 1.501961588859558 1.0488051176071167 -0.07027030736207962 0.0845886617898941 -0.010968414135277271 6.969193055570222e-22 0.06761009991168976 1 True False
2427.3869999999997 4.184818744659424 -1.4204533112100144 1.7316458860980433 -1.8819161854186 -1.5708006064044397 1.505411148071289 1.0393837690353394 -0.0702514722943306 0.07922740280628204 -0.013257446698844433 1.0586249378588263e-40 0.06763586401939392 1 True False
2427.437 4.23713493347168 -1.4238886398128052 1.7357285658465784 -1.8826033077635707 -1.5708091894732874 1.5088355541229248 1.0504711866378784 -0.06969320774078369 0.07799714803695679 -0.017900602892041206 0.0 0.06942587345838547 1 True False
2427.487 4.289463996887207 -1.4273584199002762 1.7397835890399378 -1.8832775555052699 -1.570784870778219 1.5122184753417969 1.0496678352355957 -0.07131335884332657 0.08360271900892258 -0.009796397760510445 8.451951138965796e-09 0.07104039192199707 1 True False
2427.537 4.339845657348633 -1.4305410546115418 1.7437875906573694 -1.8839637241759242 -1.570857350026266 1.5155107975006104 0.9719593524932861 -0.06392689794301987 0.0726524367928505 -0.014287878759205341 -0.00010118546197190881 0.06610675901174545 1 True False
2427.587 4.386692523956299 -1.433702291255333 1.747436825429098 -1.8845912418761195 -1.5707886854754847 1.5186046361923218 0.9100295901298523 -0.0564655065536499 0.07334558665752411 -0.011475872248411179 -2.1712131401385092e-19 0.05584795027971268 1 True False
2427.6369999999997 4.430210113525391 -1.4365222764066239 1.750836197529928 -1.8851810894408167 -1.5708048979388636 1.5214747190475464 0.8304502964019775 -0.05303656682372093 0.06618978083133698 -0.01151465903967619 -5.861219688085839e-05 0.052085455507040024 1 True False
2427.687 4.470167636871338 -1.439159245496132 1.7540929953204554 -1.8857084713377894 -1.570756737385885 1.5240727663040161 0.7652195692062378 -0.048259951174259186 0.0635913535952568 -0.01012074202299118 -0.0003789514594245702 0.04905403405427933 1 True False
2427.737 4.506626605987549 -1.4415879857591172 1.75706655183901 -1.8861304722227992 -1.5707405249225062 1.526449203491211 0.6992477774620056 -0.047159966081380844 0.0519586019217968 -0.009323873557150364 -1.7070790449753224e-21 0.045855749398469925 1 True False
2427.787 4.539678573608398 -1.4436862629703064 1.7596495787249964 -1.8865415058531703 -1.5707572142230433 1.528603196144104 0.628239631652832 -0.04133610799908638 0.051223814487457275 -0.005544209387153387 -7.739571206144547e-10 0.04008406400680542 1 True False
2427.837 4.569138526916504 -1.445588232283928 1.7619217077838343 -1.88700594524526 -1.57074481645693 1.5305548906326294 0.5582831501960754 -0.03736748918890953 0.04612237587571144 -0.006133503746241331 -1.1756426474280053e-28 0.035697318613529205 1 True False
2427.8869999999997 4.595271587371826 -1.4473276895335694 1.763935391102926 -1.8873006306090296 -1.5707653204547327 1.5321648120880127 0.485877126455307 -0.03247608616948128 0.03746037930250168 -0.0060426644049584866 -0.0 0.0313190221786499 1 True False
2427.937 4.617778778076172 -1.4488443446210404 1.7656806151019495 -1.8876921139159144 -1.570756737385885 1.5337367057800293 0.4193200170993805 -0.02971464954316616 0.03473934903740883 -0.003044138429686427 0.0010310852667316794 0.025757690891623497 1 True False
2427.987 4.636534690856934 -1.4499773991158982 1.7671473662005823 -1.8879958591856898 -1.5707514921771448 1.5349112749099731 0.35449090600013733 -0.022294271737337112 0.02896217815577984 -0.004394063726067543 -6.685756670776755e-05 0.022475171834230423 1 True False
2428.037 4.652174472808838 -1.4510411781123658 1.7684534231769007 -1.8881870708861292 -1.5708254019366663 1.535979151725769 0.2738480865955353 -0.017584018409252167 0.022279074415564537 -0.00405992241576314 -7.4781806115133455e-19 0.01717274822294712 1 True False
2428.087 4.664046764373779 -1.4517837327769776 1.769308869038717 -1.8882256946959437 -1.570813004170553 1.5367038249969482 0.20715393126010895 -0.013855425640940666 0.016050994396209717 -0.0048012579791247845 -1.1359373767325551e-37 0.012229496613144875 1 True False
2428.1369999999997 4.672641277313232 -1.452314832513668 1.7700369993792933 -1.888458868066305 -1.570801083241598 1.537294864654541 0.13515275716781616 -0.008832091465592384 0.009557279758155346 -0.0018148603849112988 -0.0 0.008249128237366676 1 True False
2428.187 4.677739143371582 -1.45261104524646 1.7703154722796839 -1.8885146580138148 -1.5707925001727503 1.5375335216522217 0.06825555860996246 -0.004083885811269283 0.004092986695468426 -0.0010910488199442625 -0.0 0.0038175901863723993 1 True False
2428.237 4.679286956787109 -1.452702672486641 1.7704413572894495 -1.8884855709471644 -1.5708087126361292 1.5376007556915283 -0.007016160059720278 -0.0005911266198381782 0.0005941349663771689 -0.0003579052281565964 -0.0 0.0005677721346728504 1 True False
2428.287 4.679321765899658 -1.4522110533765336 1.7718241850482386 -1.8904739818968714 -1.570796314870016 1.5377224683761597 -0.00025106564862653613 0.02352435328066349 0.04621877893805504 -0.06255365908145905 -0.0 0.0006847670883871615 1 True False
2428.337 4.679255485534668 -1.4502037403038521 1.7751949469195765 -1.8959604702391566 -1.570768181477682 1.537758469581604 -2.3652760089593545e-34 0.057861845940351486 0.09116607159376144 -0.14926362037658691 -0.0 0.00026967900339514017 1 True False
2428.3869999999997 4.679272174835205 -1.4468145233443757 1.7807171980487269 -1.9049016437926234 -1.5708087126361292 1.5377260446548462 0.00042569663492031395 0.08199365437030792 0.13257946074008942 -0.21864870190620422 -0.0 0.00013989742728881538 1 True False
2428.437 4.679286956787109 -1.4419725698283692 1.7886412779437464 -1.9171682796873988 -1.5708172957049769 1.537742257118225 0.00045816556666977704 0.10660827159881592 0.1756339818239212 -0.28986358642578125 6.531139661092311e-05 8.995506505016237e-05 1 True False
2428.487 4.6793365478515625 -1.435981185441353 1.798453156148092 -1.9332109890379847 -1.5708048979388636 1.5377216339111328 0.00022060589981265366 0.12915754318237305 0.2196023166179657 -0.35296380519866943 6.185331125100501e-18 1.8544568547440576e-08 1 True False
2428.537 4.6793036460876465 -1.4288347226432343 1.8104899565326136 -1.952428480187887 -1.570768181477682 1.537742257118225 0.00017253962869290262 0.15878790616989136 0.26308977603912354 -0.42083975672721863 0.00013476541789714247 2.816924262710064e-27 1 True False
2428.587 4.679290294647217 -1.4202360969832917 1.8250168005572718 -1.975462099114889 -1.5707319418536585 1.5377260446548462 0.00010750033106887713 0.18704548478126526 0.30424919724464417 -0.48911601305007935 7.03631667420268e-05 8.654290120906766e-14 1 True False
2428.6369999999997 4.679301738739014 -1.410300837164261 1.8411372343646448 -2.00176539043569 -1.5708377997027796 1.537746548652649 8.076553058344871e-05 0.20877759158611298 0.3481726348400116 -0.5690330266952515 4.26034202973824e-05 1.3145885402399748e-32 1 True False
2428.687 4.679306507110596 -1.3997600090554734 1.8589280287372034 -2.0295139751830042 -1.5708254019366663 1.537733554840088 2.4361742134715314e-07 0.195822611451149 0.32637712359428406 -0.5409040451049805 3.0551283998647705e-05 0.0 1 True False
2428.737 4.679290294647217 -1.3905529987863083 1.8739398161517542 -2.054254194299215 -1.5707691351519983 1.5377628803253174 5.580795186688192e-05 0.17548030614852905 0.2948058247566223 -0.45481786131858826 1.4532635409696667e-22 0.0 1 True False
2428.787 4.679286956787109 -1.3825666320374985 1.8873136679278772 -2.075507780114645 -1.570784870778219 1.537733554840088 4.117057900201896e-35 0.14575357735157013 0.24200356006622314 -0.3841593563556671 2.2074654708508843e-41 0.0 1 True False
2428.837 4.679339408874512 -1.3759396237185975 1.8980806509601038 -2.0932752094664515 -1.5708211104022425 1.537770390510559 -2.6024579084620025e-15 0.11816787719726562 0.2010331153869629 -0.32185009121894836 0.0 0.0 1 True False
2428.8869999999997 4.679299354553223 -1.3705318880132218 1.907095734273092 -2.1073299847044886 -1.5708006064044397 1.5377378463745117 0.0 0.09242750704288483 0.1611429750919342 -0.24889308214187622 0.0 0.0 1 True False
2428.937 4.6792826652526855 -1.3665824991515656 1.9139278570758265 -2.1180950603880824 -1.5708444754229944 1.5377248525619507 0.0 0.06830861419439316 0.1189260184764862 -0.1896720975637436 0.0 0.0 1 True False
2428.987 4.6793036460876465 -1.3638401341489335 1.9183562437640589 -2.1253534756102503 -1.5707691351519983 1.5377260446548462 0.0 0.040443383157253265 0.06642887741327286 -0.11219685524702072 0.0 0.0 1 True False
2429.037 4.6793107986450195 -1.3624755901149292 1.9207537809955042 -2.128873964349264 -1.5707767645465296 1.537770390510559 0.0 0.016138775274157524 0.026733282953500748 -0.04112457484006882 4.5554158211736895e-23 0.0 1 True False
2429.087 4.6793365478515625 -1.3623647105744858 1.9209397474872034 -2.1294571361937464 -1.5707686583148401 1.537742257118225 0.0 -0.0007599007221870124 5.1670220185817684e-11 9.944600606104359e-05 6.919611816835947e-42 0.0 1 True False
2429.1369999999997 4.679330825805664 -1.3622988623431702 1.9209721724139612 -2.1294690571227015 -1.5707967917071741 1.537672519683838 0.0 9.790272451937199e-05 -1.2051523698446155e-24 -0.0009707955759949982 0.0 0.0001103661343222484 1 True False
2429.187 4.679323196411133 -1.362265722160675 1.920983616505758 -2.1295372448363246 -1.570784870778219 1.5377347469329834 0.0 7.978108038981689e-17 5.179097570362501e-05 -0.0013442131457850337 0.0 2.7118188882013783e-05 1 True False
2429.237 4.679323196411133 -1.3623062831214447 1.9210131804095667 -2.1295200786986292 -1.5708406607257288 1.5376888513565063 0.0 0.00023311484255827963 6.370268238242716e-05 -0.002642457839101553 0.0 1.5466028344235383e-05 1 True False
2429.287 4.679315090179443 -1.3622820687345047 1.9209583441363733 -2.129536291162008 -1.570784870778219 1.5376975536346436 0.0 0.00015438238915521652 3.0106371923466213e-05 -0.0005819356301799417 0.0 1.0818200280482415e-05 1 True False
2429.337 4.679286003112793 -1.3622554254582901 1.9209793249713343 -2.1295162640013636 -1.5707967917071741 1.5377130508422852 0.0 0.00022489998082164675 4.2458847019588575e-05 -0.0001931794686242938 0.0 2.8170209617043316e-19 1 True False
2429.3869999999997 4.679301738739014 -1.362205908899643 1.920987908040182 -2.12951197246694 -1.5707572142230433 1.537696361541748 0.0 0.00011997472756775096 6.104281662536495e-28 -0.00010934398596873507 0.0 4.2790607623411415e-38 1 True False
2429.437 4.679327964782715 -1.362271861439087 1.9210541884051722 -2.1295319996275843 -1.5708006064044397 1.5376888513565063 0.0 7.713264494668692e-05 6.014329846948385e-05 -7.625478610862046e-05 0.0 0.0 1 True False
2429.487 4.67927360534668 -1.3622627717307587 1.9209955374347132 -2.1295200786986292 -1.5708254019366663 1.537746548652649 0.0 -2.406668865577571e-21 1.0865902437016594e-33 -6.780648498195749e-14 0.0 0.0 1 True False
2429.537 4.6793107986450195 -1.3622223299792786 1.9210484663592737 -2.1295682392516078 -1.5707529226886194 1.5376845598220825 0.0 0.0 0.0 2.0398767446749844e-05 0.0 0.0 1 True False
2429.587 4.679315090179443 -1.3622178000262757 1.9210408369647425 -2.1295443973936976 -1.5707572142230433 1.53773033618927 0.0 0.0 3.8951172609590426e-14 2.3706077627139166e-05 0.0 0.0 1 True False
2429.6369999999997 4.6793060302734375 -1.3622775834849854 1.9209721724139612 -2.1295887432494105 -1.5707767645465296 1.537750005722046 0.0 -0.00035382650094106793 6.546201234414184e-07 6.613275482791892e-10 0.0 4.9906757340068e-06 1 True False
2429.687 4.6793532371521 -1.362303377395012 1.9209116140948694 -2.1295510731139125 -1.570813004170553 1.53773033618927 0.0 0.0002897047670558095 -2.1342309775267773e-26 1.0045572950872939e-28 0.0 1.2191338385591091e-18 1 True False
2429.737 4.6792778968811035 -1.3623570513776322 1.9209354559527796 -2.129592081109518 -1.570784870778219 1.5376802682876587 0.0 0.000262889894656837 0.00030644098296761513 1.688262273091823e-05 0.0 1.8518673762848558e-37 1 True True
2429.787 4.679323196411133 -1.3623390358737488 1.9208267370807093 -2.129364629785055 -1.570801083241598 1.537733554840088 0.0 -0.007802007254213095 -0.013074090704321861 0.0217010248452425 0.0 0.0 1 True True
2429.837 4.679365158081055 -1.3631190073541184 1.9193618933307093 -2.1263848743834437 -1.570813004170553 1.537717342376709 0.0 -0.038695137947797775 -0.06610991805791855 0.08464706689119339 0.0 0.0 1 True True
2429.8869999999997 4.679357528686523 -1.3657726508430024 1.915119473134176 -2.119777341882223 -1.570813004170553 1.5377007722854614 0.0 -0.06057675927877426 -0.09580116719007492 0.1582525223493576 0.0 0.0 1 True True
2429.937 4.679290294647217 -1.3696559232524415 1.9085853735553187 -2.1099564037718714 -1.5708006064044397 1.5377551317214966 0.0 -0.08990383893251419 -0.1451665312051773 0.23158226907253265 0.0 0.0 1 True True
2429.987 4.6792778968811035 -1.3746394377997895 1.9002998510943812 -2.0965496502318324 -1.5707724730121058 1.5376840829849243 0.0 -0.11289044469594955 -0.1818355768918991 0.29462385177612305 0.0 0.0 1 True True
2430.037 4.679360389709473 -1.3811134558967133 1.8899028936969202 -2.0794769726195277 -1.570784870778219 1.5377424955368042 0.0 -0.13972404599189758 -0.23313283920288086 0.38231292366981506 0.0 0.0 1 True True
2430.087 4.679299354553223 -1.388746277695038 1.8768799940692347 -2.0590201816954554 -1.570784870778219 1.5376721620559692 0.0 -0.16676022112369537 -0.27901631593704224 0.4419703483581543 0.0 0.0 1 True True
2430.1369999999997 4.679344177246094 -1.3977799278548737 1.8620737234698694 -2.0350481472411097 -1.5707805792437952 1.5377094745635986 0.0 -0.19278083741664886 -0.32727542519569397 0.5110895037651062 0.0 0.0 1 True True
2430.187 4.679315090179443 -1.408035935168602 1.8448403517352503 -2.007698198358053 -1.5708087126361292 1.5377172231674194 0.0 -0.2147950530052185 -0.3551933467388153 0.5766249299049377 0.0 0.0 1 True True
2430.237 4.679301738739014 -1.4181227546981354 1.8281152884112757 -1.980558534661764 -1.5708406607257288 1.537691593170166 0.0 -0.18925021588802338 -0.3171607553958893 0.5079048871994019 0.0 0.0 1 True True
2430.287 4.679315090179443 -1.4271516811898728 1.81317645708193 -1.9569927654662074 -1.5707886854754847 1.5377172231674194 0.0 -0.16619355976581573 -0.277474582195282 0.4359182119369507 0.0 0.0 1 True True
2430.337 4.6793107986450195 -1.4345770192197342 1.8008654753314417 -1.9368306599059046 -1.5708087126361292 1.5376886129379272 0.0 -0.13691279292106628 -0.23376888036727905 0.35868409276008606 0.0 0.0 1 True True
2430.3869999999997 4.679332256317139 -1.4408442986062546 1.7904399077044886 -1.9202033481993617 -1.570772949849264 1.5377589464187622 0.0 -0.10935676842927933 -0.1799854040145874 0.30840396881103516 0.0 0.0 1 True True
2430.437 4.679295063018799 -1.4458678376725693 1.7821219603167933 -1.9072443447508753 -1.5708168188678187 1.5377261638641357 0.0 -0.08671830594539642 -0.14319323003292084 0.24388667941093445 0.0 0.0 1 True True
2430.487 4.679348468780518 -1.4493704748204728 1.7762821356402796 -1.8974210224547328 -1.570801083241598 1.537679672241211 0.0 -0.06483133137226105 -0.09677696973085403 0.15349026024341583 0.0 0.0 1 True True
2430.537 4.679301738739014 -1.4516832020929833 1.7723730246173304 -1.8913432560362757 -1.5707925001727503 1.5377126932144165 0.0 -0.03539128229022026 -0.05754855275154114 0.08176553249359131 0.0 0.0 1 True True
2430.587 4.6792778968811035 -1.4527416688254853 1.770639721547262 -1.8887330494322718 -1.5707805792437952 1.5376603603363037 0.0 -0.005381634458899498 -0.011556273326277733 0.021285146474838257 0.0 0.0 1 True True
2430.6369999999997 4.678326606750488 -1.4527622771314164 1.7706363836871546 -1.8885861835875453 -1.5707805792437952 1.536771297454834 -0.05016906559467316 -0.001082918024621904 -1.0108641739404305e-17 -0.00020568053878378123 -1.813980348851392e-15 -0.04896651953458786 1 True True
2430.687 4.674132347106934 -1.4529392954758187 1.7707245985614222 -1.888606687585348 -1.570829216633932 1.5324355363845825 -0.12467744946479797 -0.006803609896451235 0.001885289791971445 0.0003140755870845169 -2.7554411806852437e-34 -0.11905409395694733 1 True True
2430.737 4.6662468910217285 -1.453213245873787 1.7709301153766077 -1.8885499439635218 -1.5707925001727503 1.5246381759643555 -0.1884121596813202 -0.007135509978979826 0.007347857113927603 0.0001241753634531051 -2.4284381652250886e-05 -0.18779008090496063 1 True True
2430.787 4.6548967361450195 -1.453645074074604 1.7713826338397425 -1.8886386356749476 -1.5707772413836878 1.5133739709854126 -0.262980192899704 -0.009096190333366394 0.01098583359271288 7.347817154368386e-05 -1.9453706045169383e-05 -0.2612074911594391 1 True True
2430.837 4.640078067779541 -1.4542116832784195 1.7719548384295862 -1.8886457882323207 -1.5707805792437952 1.498518943786621 -0.3250688910484314 -0.010234595276415348 0.012106808833777905 -0.0011428471188992262 -4.70360137114767e-05 -0.3237859904766083 1 True True
2430.8869999999997 4.621944904327393 -1.4547467467239876 1.772623364125387 -1.888682027856344 -1.5707405249225062 1.4802790880203247 -0.4041299819946289 -0.012891236692667007 0.015138167887926102 -0.0014038101071491838 -1.214369826918471e-09 -0.39972248673439026 1 True True
2430.937 4.600096702575684 -1.4554901358536263 1.7734621206866663 -1.8888098202147425 -1.5708406607257288 1.4585349559783936 -0.4658282697200775 -0.015330832451581955 0.018098998814821243 -0.001448016962967813 -5.1072969638188415e-12 -0.46875301003456116 1 True True
2430.987 4.574679374694824 -1.4562695261887093 1.7743471304522913 -1.8889247379698695 -1.5708449522601526 1.4332292079925537 -0.5370590090751648 -0.01719021052122116 0.021054508164525032 -0.003750135190784931 -0.0005750686977989972 -0.5351694822311401 1 True True
2431.037 4.545918941497803 -1.4572930049947281 1.7754901091205042 -1.8890053234496058 -1.570813004170553 1.4044771194458008 -0.611584484577179 -0.018861303105950356 0.021009912714362144 -0.004341521300375462 8.479268581140786e-05 -0.6084448099136353 1 True True
2431.087 4.513786792755127 -1.4584021654776116 1.7767537275897425 -1.889108797112936 -1.5708168188678187 1.3722466230392456 -0.6814382672309875 -0.024339281022548676 0.024894213303923607 -0.002910429611802101 0.0004227920435369015 -0.6766963005065918 1 True True
2431.1369999999997 4.478058815002441 -1.4595697236112137 1.7779963652240198 -1.8892165623106898 -1.5707805792437952 1.3364700078964233 -0.7503608465194702 -0.02475135214626789 0.026921702548861504 -0.004008646588772535 0.0001727924682199955 -0.7432841062545776 1 True True
2431.187 4.4389328956604 -1.4607955676368256 1.7794740835772913 -1.8893281422057093 -1.5708335081683558 1.2972910404205322 -0.8222827911376953 -0.02648085728287697 0.031647298485040665 -0.0020798949990421534 -0.0001234034134540707 -0.8173245191574097 1 True True
2431.237 4.396183490753174 -1.4622539591840287 1.7809661070453089 -1.889547964135641 -1.5708048979388636 1.2547380924224854 -0.8901703953742981 -0.03084736131131649 0.03428312763571739 -0.0019523805240169168 -1.248485006698864e-16 -0.8928928971290588 1 True True
2431.287 4.349987506866455 -1.4637645345977326 1.782849136983053 -1.8897158108153285 -1.5707686583148401 1.2083173990249634 -0.9572933912277222 -0.0319821871817112 0.035233549773693085 -0.003478540573269129 -1.887610734385703e-09 -0.9547872543334961 1 True True
2431.337 4.300271034240723 -1.465555564766266 1.7845996061908167 -1.8898793659605921 -1.5707610289203089 1.1586893796920776 -1.0279754400253296 -0.03451322019100189 0.03691525012254715 -0.0024316906929016113 -2.0678811852962997e-14 -1.0272376537322998 1 True True
2431.3869999999997 4.248132705688477 -1.4671818551472207 1.7865050474749964 -1.890054842034811 -1.5708282629596155 1.1064293384552002 -1.049721121788025 -0.03552701324224472 0.03779686614871025 -0.003444116562604904 -3.1411163313329764e-33 -1.0510610342025757 1 True True
2431.437 4.195628643035889 -1.4689876672676583 1.7885435263263147 -1.890226503411764 -1.5708211104022425 1.0540190935134888 -1.0435009002685547 -0.03488465026021004 0.04012949764728546 -0.0033213780261576176 5.435284384028294e-13 -1.0459858179092407 1 True True
2431.487 4.1432414054870605 -1.4706770193627854 1.7905390898333948 -1.8904262981810511 -1.5707967917071741 1.0017940998077393 -1.046656847000122 -0.03636381775140762 0.039258379489183426 -0.0034446355421096087 -0.00016206363216042519 -1.0553345680236816 1 True True
2431.537 4.0910115242004395 -1.4724766922048111 1.7923014799701136 -1.8906213245787562 -1.5708087126361292 0.9494176506996155 -1.0506153106689453 -0.034830834716558456 0.03776998817920685 -0.004580247215926647 4.43820608779788e-05 -1.043529987335205 1 True True
2431.587 4.038565158843994 -1.4742229145816346 1.7942989508258265 -1.8908254108824671 -1.5707605520831507 0.8969087600708008 -1.0467503070831299 -0.03368809446692467 0.03934637829661369 -0.005361610092222691 0.00021438168187160045 -1.0459227561950684 1 True True
2431.6369999999997 3.9862096309661865 -1.4760376077941437 1.7962191740619105 -1.8910209141173304 -1.570772949849264 0.8446242213249207 -1.0464046001434326 -0.0367719903588295 0.0409749411046505 -0.0026473423931747675 3.975305946837968e-20 -1.0433070659637451 1 True True
2431.687 3.9339840412139893 -1.4777327936938782 1.798180882130758 -1.891151567498678 -1.5708006064044397 0.792258620262146 -1.0534725189208984 -0.033235907554626465 0.037461910396814346 -0.003929412458091974 -4.252744803447811e-13 -1.047255516052246 1 True True
2431.737 3.881488800048828 -1.47949834287677 1.800072971974508 -1.8914114437498988 -1.5708087126361292 0.7399497628211975 -1.0463155508041382 -0.036508165299892426 0.03849588707089424 -0.0037929867394268513 -6.459929792691056e-32 -1.0466089248657227 1 True True
2431.787 3.8291854858398438 -1.4812321004322548 1.802026096974508 -1.8916036091246546 -1.5708048979388636 0.6875883340835571 -1.045055627822876 -0.03571761026978493 0.04066487029194832 -0.0021697876509279013 -0.0 -1.0443065166473389 1 True True
2431.837 3.7768969535827637 -1.48301154494796 1.8039749304400843 -1.8917867145934046 -1.5708368460284632 0.635277271270752 -1.050491452217102 -0.03544894605875015 0.03983162343502045 -0.004587133880704641 -0.0 -1.047658920288086 1 True True
2431.8869999999997 3.724428176879883 -1.4847571191242714 1.805887524281637 -1.8920146427550257 -1.570784870778219 0.5828554630279541 -1.0459849834442139 -0.035416290163993835 0.03802783787250519 -0.005254034884274006 -0.0 -1.0491721630096436 1 True True
2431.937 3.6720027923583984 -1.4865123492530365 1.8078649679767054 -1.8921505413451136 -1.570813004170553 0.5304993391036987 -1.0456228256225586 -0.036715634167194366 0.04037678241729736 -0.0025409446097910404 -0.0 -1.0443984270095825 1 True True
2431.987 3.6197850704193115 -1.488196925526001 1.8098600546466272 -1.8923984966673792 -1.5708325544940394 0.4780496060848236 -1.0523459911346436 -0.0326891653239727 0.04002895578742027 -0.003633614629507065 -0.0 -1.0451111793518066 1 True True
2432.037 3.567340612411499 -1.4900135707906266 1.8118041197406214 -1.892461439172262 -1.5707805792437952 0.4257875978946686 -1.0438785552978516 -0.03715233877301216 0.03902217000722885 -0.003969768062233925 -0.0 -1.0483375787734985 1 True True
2432.087 3.5149967670440674 -1.4917834040573617 1.8136852423297327 -1.8927294216551722 -1.5707324186908167 0.3734264671802521 -1.046384334564209 -0.035241980105638504 0.038256753236055374 -0.002688091481104493 -0.0 -1.0461866855621338 1 True True
2432.1369999999997 3.4627065658569336 -1.493525081580021 1.8157032171832483 -1.8928801021971644 -1.5707925001727503 0.321014404296875 -1.0541188716888428 -0.034928325563669205 0.03866277635097504 -0.003618372604250908 -0.0 -1.0452189445495605 1 True True
2432.187 3.410301446914673 -1.4952559632113953 1.8176758925067347 -1.893104692498678 -1.570784870778219 0.2686876654624939 -1.0444899797439575 -0.034662846475839615 0.03938335180282593 -0.0031932585407048464 -0.0 -1.0481390953063965 1 True True
