Andreas691667/Digital_Twin_UR/src/controller_monitor/robot_output/DUM_robot_output.csv
timestamp actual_q_0 actual_q_1 actual_q_2 actual_q_3 actual_q_4 actual_q_5 actual_qd_0 actual_qd_1 actual_qd_2 actual_qd_3 actual_qd_4 actual_qd_5 safety_status output_bit_register_65 output_bit_register_66
25250.941 3.712062358856201 -0.8254308265498658 0.8429845015155237 -1.5882650814452113 -1.5707805792437952 2.141324996948242 0.0 0.0 0.0 0.0 -0.0 7.133488938437793e-11 1 False False
25250.990999999998 3.7121024131774902 -0.8255685132792969 0.8429964224444788 -1.5883289776244105 -1.5708087126361292 2.1412930488586426 0.0 0.0 0.0 0.0 -0.0 1.0835783662151068e-29 1 False False
25251.040999999997 3.71207857131958 -0.82550402105365 0.8430169264422815 -1.588280817071432 -1.5708087126361292 2.141338348388672 0.0 0.0 0.0 0.0 -0.0 0.0 1 False False
25251.091 3.712106943130493 -0.8254708212665101 0.8429964224444788 -1.5883251629271449 -1.570813004170553 2.1412994861602783 0.0 0.0 0.0 0.0 -0.0 0.0 1 False False
25251.141 3.7120535373687744 -0.8255080741694947 0.8430331389056605 -1.5882569752135218 -1.570801083241598 2.141308546066284 0.0 0.0 0.0 0.0 -0.0 0.0 1 False False
25251.191 3.712127447128296 -0.8254350584796448 0.8430007139789026 -1.5882607899107875 -1.5707648436175745 2.141313076019287 0.0 -3.018330289705773e-06 0.0 0.0 -0.0 0.0 1 False False
25251.240999999998 3.7120862007141113 -0.825463132267334 0.8430050055133265 -1.5882727108397425 -1.5707891623126429 2.14127516746521 0.0 0.0 0.0 0.0 -0.0 0.0 1 False False
25251.290999999997 3.71207857131958 -0.8254428070834656 0.842959229146139 -1.5882288418211878 -1.5707925001727503 2.141308546066284 0.0 0.0 0.0 0.0 -0.0 -4.548001633069879e-24 1 False False
25251.341 3.7121188640594482 -0.8254502576640625 0.8429964224444788 -1.5882731876769007 -1.5708254019366663 2.14131760597229 0.0 1.0532110536587425e-05 0.0 0.0 -0.0 -6.908401429121348e-43 1 False False
25251.391 3.712115526199341 -0.8255037826350708 0.8430288473712366 -1.5882655582823695 -1.570784870778219 2.141242504119873 0.0 0.0 0.0 0.0 -0.0 -0.0 1 False False
25251.441 3.7120862007141113 -0.8254546088031312 0.8430212179767054 -1.5882374248900355 -1.570801083241598 2.141263246536255 0.0 0.0 0.0 0.0 -0.0 -0.0 1 False False
25251.490999999998 3.712099313735962 -0.8254427474788208 0.8430092970477503 -1.5882445774474085 -1.5708211104022425 2.141279697418213 0.0 0.0 0.0 0.0 -0.0 -0.0 1 False False
25251.540999999997 3.712106704711914 -0.825458900337555 0.8429802099810999 -1.5882569752135218 -1.5707967917071741 2.141322135925293 0.0 0.0 0.0 0.0 -0.0 -0.0 1 False False
25251.591 3.7120416164398193 -0.8254954975894471 0.8429845015155237 -1.5883170566954554 -1.5708134810077112 2.141324996948242 0.0 0.0 0.0 0.0 -0.0 -0.0 1 False False
25251.641 3.7120413780212402 -0.8255037826350708 0.8430212179767054 -1.5882774792113246 -1.5707886854754847 2.141270637512207 5.64831750981768e-20 0.0 0.0 0.0 -0.0 -3.9897331965965677e-11 1 False False
25251.691 3.712090492248535 -0.8254911464503785 0.8429477850543421 -1.5883289776244105 -1.570784870778219 2.141263246536255 0.0 0.0 0.0 0.0 -0.0 -6.0604144101276505e-30 1 False False
25251.740999999998 3.712106704711914 -0.825519935493805 0.8430331389056605 -1.588285585443014 -1.570756737385885 2.1413040161132812 0.0 0.0 0.0 0.0 -0.0 -0.0 1 False False
25251.790999999997 3.712066650390625 -0.825458900337555 0.8430050055133265 -1.588280817071432 -1.570784870778219 2.141329526901245 0.0 0.0 0.0 0.0 -0.0 -0.0 1 False False
25251.841 3.7120981216430664 -0.825430766945221 0.8430460135089319 -1.5882731876769007 -1.570784870778219 2.141313076019287 0.0 0.0 0.0 0.0 -0.0 -0.0 1 False False
25251.891 3.7120862007141113 -0.8255124253085633 0.8429887930499476 -1.5882846317686976 -1.5707724730121058 2.14127516746521 0.0 0.0 0.0 0.0 -0.0 -0.0 1 False False
25251.941 3.7120819091796875 -0.8254621189883729 0.8430169264422815 -1.588320871392721 -1.5707925001727503 2.141267776489258 9.528829557408756e-43 0.0 0.0 0.0 -0.0 -0.0 1 False False
25251.990999999998 3.7121024131774902 -0.8254673641971131 0.8429716269122522 -1.588201185266012 -1.5707686583148401 2.141254186630249 0.0 0.0 0.0 0.0 -0.0 -0.0 1 False False
25252.040999999997 3.7120656967163086 -0.825463132267334 0.842992130910055 -1.5882817707457484 -1.570784870778219 2.141279697418213 0.0 0.0 0.0 0.0 -0.0 -0.0 1 False False
25252.091 3.7120981216430664 -0.8254993718913575 0.8429759184466761 -1.5882846317686976 -1.5708044211017054 2.141313076019287 0.0 0.0 0.0 0.0 -0.0 -0.0 1 False False
25252.141 3.7120893001556396 -0.825451211338379 0.8430007139789026 -1.5882817707457484 -1.5707767645465296 2.141233444213867 0.0 0.0 0.0 0.0 -0.0 -0.0 1 False False
25252.191 3.7120938301086426 -0.8254588407329102 0.8429845015155237 -1.5882889233031214 -1.5707967917071741 2.1412723064422607 0.0 0.0 0.0 0.0 -0.0 -0.0 1 False False
25252.240999999998 3.712123155593872 -0.825491265659668 0.8430040518390101 -1.588269372979635 -1.5707967917071741 2.1413204669952393 0.0 0.0 0.0 0.0 -0.0 -0.0 1 False False
25252.290999999997 3.7121198177337646 -0.8255123060992737 0.8429392019854944 -1.588269372979635 -1.5708373228656214 2.141279697418213 0.0 0.0 0.0 0.0 -0.0 -0.0 1 False False
25252.341 3.7120494842529297 -0.8255037826350708 0.8429964224444788 -1.5882889233031214 -1.570813004170553 2.14131760597229 0.0 0.0 0.0 0.0 -0.0 -0.0 1 False False
25252.391 3.7120656967163086 -0.8254501980594178 0.8430169264422815 -1.5882932148375453 -1.5707362333880823 2.141308546066284 0.0 0.0 0.0 0.0 -0.0 -0.0 1 False False
25252.441 3.7121152877807617 -0.8254469794085999 0.8429759184466761 -1.5883494816222132 -1.5708087126361292 2.1413040161132812 0.0 0.0 0.0 0.0 -0.0 -0.0 1 False False
25252.490999999998 3.7120656967163086 -0.8254909080317994 0.8430050055133265 -1.5882731876769007 -1.570772949849264 2.141284227371216 0.0 0.0 0.0 0.0 -0.0 -0.0 1 False False
25252.540999999997 3.7121353149414062 -0.8254589599421998 0.842959229146139 -1.5882774792113246 -1.5707686583148401 2.141296148300171 0.0 0.0 0.0 0.0 -0.0 -0.0 1 False False
25252.591 3.71207857131958 -0.8254664105227967 0.8429878393756312 -1.5883251629271449 -1.5708335081683558 2.141313076019287 0.0 0.0 0.0 0.0 -0.0 -0.0 1 False False
25252.641 3.712094783782959 -0.8254792851260682 0.8430169264422815 -1.5882932148375453 -1.5707686583148401 2.141326427459717 0.0 0.0 0.0 0.0 -0.0 -0.0 1 False False
25252.691 3.712090492248535 -0.8254631918719788 0.8429964224444788 -1.5882412395873011 -1.5707686583148401 2.141263246536255 0.0 0.0 0.0 0.0 -0.0 -0.0 1 False False
25252.740999999998 3.7120981216430664 -0.8254954975894471 0.8430054823504847 -1.588252683679098 -1.570829216633932 2.14131760597229 0.0 0.0 0.0 0.0 -0.0 -0.0 1 False False
25252.790999999997 3.712090492248535 -0.8254792851260682 0.8429935614215296 -1.588341852227682 -1.5707929770099085 2.141267776489258 0.0 0.0 0.0 0.0 -0.0 -0.0 1 False False
25252.841 3.7120449542999268 -0.8254469198039551 0.8430007139789026 -1.5883094273009242 -1.5707967917071741 2.1413004398345947 -1.2274515455117432e-34 0.0 0.0 0.0 -0.0 -0.0 1 False False
25252.891 3.7120656967163086 -0.825483576660492 0.8429935614215296 -1.5882607899107875 -1.5708044211017054 2.1413049697875977 0.0 0.0 0.0 0.0 -0.0 -0.0 1 False False
25252.941 3.7120699882507324 -0.8254416745952149 0.8429215590106409 -1.588252683679098 -1.5707805792437952 2.141287088394165 0.0 0.0 0.0 0.0 -0.0 -0.0 1 False False
25252.990999999998 3.712106704711914 -0.8255037230304261 0.8429802099810999 -1.5882817707457484 -1.5707967917071741 2.1413204669952393 0.0 0.0 0.0 0.0 -0.0 -0.0 1 False False
25253.040999999997 3.7120699882507324 -0.8254664105227967 0.8429845015155237 -1.588252683679098 -1.5707967917071741 2.1413040161132812 0.0 0.0 0.0 0.0 -0.0 -0.0 1 False False
25253.091 3.712110996246338 -0.8254750531962891 0.8429802099810999 -1.5882889233031214 -1.5707929770099085 2.1412930488586426 0.0 0.0 0.0 0.0 -0.0 -0.0 1 False False
25253.141 3.712062358856201 -0.8254469794085999 0.8430216948138636 -1.5883289776244105 -1.5708168188678187 2.141287088394165 0.0 0.0 0.0 0.0 -0.0 -0.0 1 False False
25253.191 3.7120656967163086 -0.8254427474788208 0.8429473082171839 -1.5882569752135218 -1.5707648436175745 2.141308546066284 0.0 0.0 0.0 0.0 -0.0 -0.0 1 False False
25253.240999999998 3.7120819091796875 -0.8254751128009339 0.8429349104510706 -1.588297029534811 -1.570813004170553 2.141233444213867 0.0 0.0 0.0 0.0 -0.0 -0.0 1 False False
25253.290999999997 3.712062358856201 -0.8254750531962891 0.8430293242083948 -1.588320871392721 -1.5707686583148401 2.1413159370422363 0.0 0.0 0.0 0.0 -0.0 -0.0 1 False False
25253.341 3.7120656967163086 -0.8254792851260682 0.8430054823504847 -1.588297029534811 -1.5708254019366663 2.141282558441162 0.0 0.0 0.0 0.0 -0.0 -0.0 1 False False
25253.391 3.7121264934539795 -0.8254587215236207 0.8430007139789026 -1.5883013210692347 -1.5707362333880823 2.141286849975586 0.0 0.0 0.0 0.0 -0.0 -0.0 1 False False
25253.441 3.712095260620117 -0.8255365651896973 0.8430455366717737 -1.588297029534811 -1.5707772413836878 2.141214370727539 0.0 0.0 0.0 0.0 -0.0 -0.0 1 False False
25253.490999999998 3.712078809738159 -0.8255126637271424 0.8429802099810999 -1.5882607899107875 -1.5708211104022425 2.141296148300171 0.0 0.0 0.0 0.0 -0.0 -0.0 1 False False
25253.540999999997 3.7120742797851562 -0.8254750531962891 0.8429964224444788 -1.5882731876769007 -1.570772949849264 2.1412723064422607 0.0 0.0 0.0 0.0 -0.0 -0.0 1 False False
25253.591 3.7120742797851562 -0.8254706424525757 0.8430426756488245 -1.5883289776244105 -1.5707925001727503 2.141266107559204 0.0 0.0 0.0 0.0 -0.0 -0.0 1 False False
25253.641 3.7120323181152344 -0.825495795612671 0.8429845015155237 -1.588297029534811 -1.5707967917071741 2.141267776489258 0.0 0.0 0.0 0.0 -0.0 -0.0 1 False False
25253.691 3.7120907306671143 -0.8254587215236207 0.8430174032794397 -1.588285585443014 -1.5707805792437952 2.141334056854248 0.0 0.0 0.0 0.0 -0.0 -0.0 1 False False
25253.740999999998 3.7120323181152344 -0.8254217070392151 0.8429964224444788 -1.5882331333556117 -1.570813004170553 2.141261577606201 0.0 -1.16939555261375e-10 0.0 0.0 -0.0 -0.0 1 False False
25253.790999999997 3.712127923965454 -0.8255083721927186 0.8429473082171839 -1.5882774792113246 -1.5707281271563929 2.141291618347168 0.0 0.0 0.0 0.0 -0.0 -0.0 1 False False
25253.841 3.7120490074157715 -0.8255001467517395 0.8429845015155237 -1.5882412395873011 -1.570784870778219 2.141237735748291 0.0 0.0 0.0 0.0 -0.0 -0.0 1 False False
25253.891 3.7120728492736816 -0.8255290550044556 0.8430126349078577 -1.5882846317686976 -1.5707281271563929 2.141233444213867 0.0 0.0 3.3920373222793705e-18 0.0 -0.0 -0.0 1 False False
25253.941 3.7121071815490723 -0.8254380387118836 0.8430216948138636 -1.5882660351195277 -1.5708449522601526 2.1412885189056396 0.0 0.0 0.0 0.0 -0.0 -0.0 1 False False
25253.990999999998 3.7120444774627686 -0.8255083721927186 0.842971150075094 -1.5882765255370082 -1.5708044211017054 2.1413040161132812 0.0 0.0 0.0 0.0 -0.0 -0.0 1 False False
25254.040999999997 3.7121188640594482 -0.8255320352366944 0.8429845015155237 -1.5883013210692347 -1.5707886854754847 2.141266107559204 0.0 0.0 0.0 0.0 -0.0 -0.0 1 False False
25254.091 3.712095022201538 -0.8254794639400025 0.8430007139789026 -1.588353773156637 -1.5708377997027796 2.141279697418213 0.0 0.0 0.0 0.0 -0.0 -0.0 1 False False
25254.141 3.712062358856201 -0.8254869741252442 0.8429935614215296 -1.5883056126036585 -1.5707648436175745 2.1413049697875977 0.0 0.0 0.0 0.0 -0.0 -0.0 1 False False
25254.191 3.712062358856201 -0.8254305285266419 0.8429673353778284 -1.5882731876769007 -1.570772949849264 2.141308546066284 0.0 0.0 0.0 0.0 -1.2200611597245694e-19 -0.0 1 False False
25254.240999999998 3.7121188640594482 -0.8254661124995728 0.8430517355548304 -1.5882846317686976 -1.570784870778219 2.141313076019287 0.0 0.0 0.0 0.0 -1.8532749525663008e-38 -0.0 1 False False
25254.290999999997 3.712078809738159 -0.8254838746837159 0.8429721037494105 -1.588269372979635 -1.5707686583148401 2.1412906646728516 0.0 0.0 0.0 0.0 -0.0 -0.0 1 False False
25254.341 3.7120578289031982 -0.8254675430110474 0.8430083433734339 -1.5883289776244105 -1.5708335081683558 2.141247034072876 0.0 0.0 0.0 0.0 -0.0 -0.0 1 False False
25254.391 3.7120773792266846 -0.8254750531962891 0.8429802099810999 -1.5883332691588343 -1.570772949849264 2.141279697418213 -3.0828566215145976e-44 0.0 0.0 0.0 -0.0 -0.0 1 False False
25254.441 3.712078809738159 -0.8254453104785462 0.8429630438434046 -1.5882817707457484 -1.5707767645465296 2.141296148300171 0.0 0.0 0.0 -9.775619549956538e-12 -0.0 -0.0 1 False False
25254.490999999998 3.7120697498321533 -0.8254823845675965 0.8429964224444788 -1.588297029534811 -1.570801083241598 2.141279697418213 0.0 0.0 0.0 -1.4849190705124018e-30 -0.0 -0.0 1 False False
25254.540999999997 3.712095022201538 -0.8254823845675965 0.8430245558368128 -1.588297029534811 -1.5707891623126429 2.141296148300171 0.0 0.0 0.0 -0.0 -0.0 -0.0 1 False False
25254.591 3.712111473083496 -0.8254348796657105 0.8429721037494105 -1.5883413753905238 -1.5707686583148401 2.141270637512207 0.0 0.0 0.0 -0.0 -0.0 -0.0 1 False False
25254.641 3.712111473083496 -0.8255498570254822 0.8429215590106409 -1.588320871392721 -1.570772949849264 2.141296148300171 0.0 0.0 0.0 -0.0 -0.0 -0.0 1 False False
25254.691 3.7120742797851562 -0.825463132267334 0.8429721037494105 -1.5883094273009242 -1.5707843939410608 2.141291618347168 0.0 0.0 0.0 -0.0 -0.0 -0.0 1 False False
25254.740999999998 3.7120578289031982 -0.8254617017558594 0.8430216948138636 -1.5882817707457484 -1.5708254019366663 2.1413040161132812 0.0 0.0 0.0 -0.0 -0.0 -0.0 1 False False
25254.790999999997 3.7121071815490723 -0.8254305285266419 0.8429892698871058 -1.5882932148375453 -1.570784870778219 2.1413004398345947 0.0 0.0 0.0 -0.0 -0.0 -0.0 1 False False
25254.841 3.7121071815490723 -0.8255127233317872 0.8430007139789026 -1.5883056126036585 -1.570824925099508 2.1413040161132812 0.0 0.0 0.0 -0.0 -0.0 -0.0 1 True False
25254.891 3.712083101272583 -0.825491265659668 0.8429892698871058 -1.5882607899107875 -1.5707925001727503 2.1413004398345947 0.0 0.0 0.0 -0.0 -0.0 -2.2883310258187355e-20 1 True False
25254.941 3.712132453918457 -0.8254380983165284 0.8430083433734339 -1.588252683679098 -1.570784870778219 2.1412930488586426 0.0 0.0 0.0 -0.0 -0.0 -3.4759796952932104e-39 1 True False
25254.990999999998 3.7120490074157715 -0.8254750531962891 0.842992130910055 -1.5883013210692347 -1.5708449522601526 2.141270637512207 0.0 0.0 0.0 -0.0 -0.0 -0.0 1 True False
25255.040999999997 3.712095260620117 -0.8255039614490052 0.8429802099810999 -1.588280817071432 -1.5707529226886194 2.141200542449951 4.203895392974451e-45 0.0 0.0 -0.0 -0.0 -0.0 1 True False
25255.091 3.7120728492736816 -0.8254706424525757 0.8429763952838343 -1.5883246860899867 -1.5707805792437952 2.141270637512207 0.0 0.0 0.0 -0.0 -0.0 -0.0 1 True False
25255.141 3.7120697498321533 -0.8254823845675965 0.8430216948138636 -1.5882569752135218 -1.570857350026266 2.1413159370422363 0.0 0.0 0.0 -0.0 -0.0 -0.0 1 True False
25255.191 3.7120862007141113 -0.8254869741252442 0.8429802099810999 -1.588285585443014 -1.570784870778219 2.1413040161132812 0.0 0.0 0.0 -0.0 -0.0 -0.0 1 True False
25255.240999999998 3.7120981216430664 -0.8255039614490052 0.8429148832904261 -1.5883532963194789 -1.570857350026266 2.141279697418213 0.0 0.0 0.0 -0.0 -0.0 0.001636764733120799 1 True False
25255.290999999997 3.712066888809204 -0.8254779738238831 0.8429759184466761 -1.5882655582823695 -1.570857350026266 2.141329526901245 0.0 0.0 0.0 -0.0 -0.0 0.0012864277232438326 1 True False
25255.341 3.7120816707611084 -0.8254497808269043 0.8429935614215296 -1.5882817707457484 -1.5708373228656214 2.141221284866333 0.0 0.0 0.0 -0.0 -0.0 0.0001888187398435548 1 True False
25255.391 3.7120697498321533 -0.8254869741252442 0.8429148832904261 -1.5882932148375453 -1.5707529226886194 2.141267776489258 0.0 0.0 0.0 -0.0 -0.0 -5.774368764832616e-05 1 True False
25255.441 3.7121026515960693 -0.8254913848689576 0.8430083433734339 -1.5882817707457484 -1.5707605520831507 2.1412887573242188 0.019099701195955276 -0.008449414744973183 5.801438192065689e-07 -0.0 -0.0 -6.07619367656298e-05 1 True False
25255.490999999998 3.7141659259796143 -0.8264556688121338 0.8444770018206995 -1.588815828362936 -1.5707762877093714 2.1403005123138428 0.07518579810857773 -0.03720569983124733 0.05850302055478096 -0.014357767067849636 -4.7010664275148883e-05 -0.03146327659487724 1 True False
25255.540999999997 3.719804048538208 -0.829216794376709 0.8489239851581019 -1.590278764764303 -1.5707719961749476 2.137845516204834 0.15028353035449982 -0.0778985247015953 0.12137914448976517 -0.03592165932059288 -1.4220279808796477e-05 -0.06578512489795685 1 True False
25255.591 3.7289581298828125 -0.8340236705592652 0.8561142126666468 -1.592847009698385 -1.570784870778219 2.1338818073272705 0.2156553417444229 -0.11556777358055115 0.1699049472808838 -0.05293648689985275 -8.537819138721205e-19 -0.0975789949297905 1 True False
25255.641 3.7416563034057617 -0.8406059306911011 0.8659408728228968 -1.5960613689818324 -1.5707967917071741 2.1282174587249756 0.28294768929481506 -0.14306949079036713 0.22317814826965332 -0.07102964073419571 -1.2968963477465152e-37 -0.12369006872177124 1 True False
25255.691 3.757632255554199 -0.8489124339869996 0.8783887068377894 -1.6004234753050746 -1.5708168188678187 2.121184825897217 0.3548620939254761 -0.18232160806655884 0.27647665143013 -0.09403114765882492 -0.0 -0.1534809023141861 1 True False
25255.740999999998 3.777312994003296 -0.8589015168002625 0.8936141172992151 -1.605528017083639 -1.570829216633932 2.112581253051758 0.42490288615226746 -0.22074565291404724 0.3284013271331787 -0.12191041558980942 -0.0 -0.19159206748008728 1 True False
25255.790999999997 3.8002266883850098 -0.8707659405520936 0.9116500059710901 -1.6114918194212855 -1.5708735624896448 2.1023712158203125 0.49397531151771545 -0.25559017062187195 0.38366004824638367 -0.1325227916240692 7.358335278695449e-05 -0.22321398556232452 1 True False
25255.841 3.8268845081329346 -0.8844301861575623 0.9321115652667444 -1.6185294590392054 -1.5707925001727503 2.090668201446533 0.5602657794952393 -0.2919589579105377 0.4368685781955719 -0.14741136133670807 0.00013780934386886656 -0.24438132345676422 1 True False
25255.891 3.857081651687622 -0.8997217577746888 0.9555824438678187 -1.6265083752074183 -1.570756737385885 2.0774357318878174 0.6370254158973694 -0.32032540440559387 0.49585357308387756 -0.18670272827148438 1.6596991870349825e-17 -0.2828291356563568 1 True False
25255.941 3.890429973602295 -0.917076126938202 0.9815476576434534 -1.6354042492308558 -1.570784870778219 2.062549114227295 0.7091652750968933 -0.35991260409355164 0.5508880615234375 -0.18359176814556122 -9.370319457957521e-05 -0.3098214864730835 1 True False
25255.990999999998 3.927565097808838 -0.9358854454806824 1.0104549566852015 -1.6451264820494593 -1.5708254019366663 2.0463480949401855 0.7720353007316589 -0.3971853256225586 0.6001303195953369 -0.19347713887691498 -5.016709110350348e-05 -0.3484106659889221 1 True False
25256.040999999997 3.968003988265991 -0.9568296831897278 1.0418909231769007 -1.655931135217184 -1.5707805792437952 2.028468132019043 0.8445777297019958 -0.43295103311538696 0.654086709022522 -0.22651737928390503 -8.210897794924676e-05 -0.36130428314208984 1 True False
25256.091 4.012121677398682 -0.9793030184558411 1.075996224080221 -1.6674958668150843 -1.570772949849264 2.0091450214385986 0.9159659743309021 -0.47421368956565857 0.701958179473877 -0.24118679761886597 -1.9333538148202933e-05 -0.40930160880088806 1 True False
25256.141 4.059598922729492 -1.0036572974971314 1.1129515806781214 -1.6799575291075648 -1.5708296934710901 1.9881181716918945 0.9776723980903625 -0.49503540992736816 0.7664538025856018 -0.24971073865890503 -5.1151066145394e-05 -0.4324977695941925 1 True False
25256.191 4.11050271987915 -1.0297681850245972 1.152494255696432 -1.693533559838766 -1.5707486311541956 1.9656171798706055 1.0394299030303955 -0.5258374214172363 0.8090424537658691 -0.27417248487472534 2.8199575378799746e-13 -0.4529772400856018 1 True False
25256.240999999998 4.162796497344971 -1.0565264982036133 1.1931360403644007 -1.707287450829977 -1.5708053747760218 1.9425219297409058 1.0472090244293213 -0.5374062657356262 0.8117044568061829 -0.2631784677505493 4.283522279421143e-32 -0.46511343121528625 1 True False
25256.290999999997 4.215295791625977 -1.0834043783000489 1.2336691061602991 -1.7212125263609828 -1.5707967917071741 1.9195373058319092 1.0412192344665527 -0.5388090014457703 0.8144457340240479 -0.25806206464767456 -0.00013388706429395825 -0.4647867977619171 1 True False
25256.341 4.267673969268799 -1.1101879936507721 1.2743824164019983 -1.734866281548971 -1.5708254019366663 1.8965046405792236 1.0484596490859985 -0.5375441908836365 0.8093961477279663 -0.27649834752082825 -0.00011682387412292883 -0.4606649577617645 1 True False
25256.391 4.319994926452637 -1.1371480983546753 1.3149593512164515 -1.7488047085204066 -1.5707610289203089 1.8732260465621948 1.0515519380569458 -0.5364294648170471 0.812084972858429 -0.2669386863708496 -4.79281043226365e-05 -0.45920854806900024 1 True False
25256.441 4.372292518615723 -1.163956032400467 1.355720345173971 -1.762609144250387 -1.570829216633932 1.8502836227416992 1.0418812036514282 -0.5347698926925659 0.8128597140312195 -0.27345532178878784 -1.3791775188565225e-07 -0.4643510580062866 1 True False
25256.490999999998 4.424505233764648 -1.1906563204577942 1.396435562764303 -1.7761136494078578 -1.5708168188678187 1.8273191452026367 1.0257811546325684 -0.522638738155365 0.7994831800460815 -0.2531493902206421 -2.0949735919123656e-26 -0.4571465849876404 1 True False
25256.540999999997 4.474062442779541 -1.2160541874221344 1.4347155729876917 -1.789377351800436 -1.570719067250387 1.8054369688034058 0.9598249793052673 -0.4851840138435364 0.7421755790710449 -0.2564747631549835 -0.00038598862010985613 -0.4201681315898895 1 True False
25256.591 4.520200252532959 -1.2397558254054566 1.4704697767840784 -1.8017646274962367 -1.5707724730121058 1.785014033317566 0.8896684050559998 -0.45682188868522644 0.6906339526176453 -0.23481105268001556 -2.3779407262725094e-12 -0.38975614309310913 1 True False
25256.641 4.562936305999756 -1.261648343210556 1.5035422484027308 -1.812847753564352 -1.5707882086383265 1.766357183456421 0.811644971370697 -0.42127013206481934 0.6304166316986084 -0.2220352441072464 -0.0001691567595116794 -0.3672071695327759 1 True False
25256.691 4.602123737335205 -1.2816518408111115 1.5340798536883753 -1.8231679401793421 -1.5707405249225062 1.748966097831726 0.7517855167388916 -0.38210564851760864 0.5867327451705933 -0.19381672143936157 -6.406659373282995e-23 -0.32898372411727905 1 True False
25256.740999999998 4.637699604034424 -1.2998679739287873 1.5616353193866175 -1.8325230083861292 -1.570784870778219 1.7333108186721802 0.6853470802307129 -0.3488091230392456 0.5366344451904297 -0.16932982206344604 0.0005425006966106594 -0.3018273115158081 1 True False
25256.790999999997 4.669850826263428 -1.3164794009974976 1.5867260138141077 -1.841165681878561 -1.570772949849264 1.7190680503845215 0.6102582812309265 -0.31090429425239563 0.47211048007011414 -0.17970827221870422 -4.8960178133938825e-09 -0.2686176002025604 1 True False
25256.841 4.698537826538086 -1.3310522151044388 1.609152619038717 -1.8486033878722132 -1.5707572142230433 1.7065809965133667 0.5397602915763855 -0.27287614345550537 0.42089754343032837 -0.14044104516506195 -7.437066110063781e-28 -0.24017636477947235 1 True False
25256.891 4.723840236663818 -1.3442052465728302 1.628260914479391 -1.8554374180235804 -1.5707610289203089 1.695380687713623 0.4742581844329834 -0.23916058242321014 0.36403608322143555 -0.134147509932518 2.964953863871157e-16 -0.2101615071296692 1 True False
25256.941 4.745423316955566 -1.3550466162017365 1.6454647223102015 -1.8609792194762171 -1.5708168188678187 1.6857885122299194 0.4033207595348358 -0.20911996066570282 0.3101695775985718 -0.1226084753870964 -7.688257028348744e-05 -0.17211075127124786 1 True False
25256.990999999998 4.763501167297363 -1.3644249451211472 1.6594446341144007 -1.8657814464964808 -1.5708044211017054 1.677884578704834 0.33227190375328064 -0.16842953860759735 0.26443880796432495 -0.08235836774110794 3.1105369998840615e-05 -0.1467975527048111 1 True False
25257.040999999997 4.778323650360107 -1.372003511791565 1.6709173361407679 -1.8697802029051722 -1.5707925001727503 1.6713690757751465 0.25737735629081726 -0.13271082937717438 0.19587808847427368 -0.063674695789814 7.146951247705147e-05 -0.11309885233640671 1 True False
25257.091 4.78944730758667 -1.3776936692050477 1.6795900503741663 -1.8726312122740687 -1.5707767645465296 1.666447639465332 0.19187410175800323 -0.09698987007141113 0.15161147713661194 -0.05229470133781433 -2.8960481358808465e-05 -0.08929634094238281 1 True False
25257.141 4.797252655029297 -1.3817219746163865 1.6856582800494593 -1.8748661480345667 -1.5707925001727503 1.6629995107650757 0.11991740018129349 -0.06270821392536163 0.09518685936927795 -0.03325004503130913 -1.6048181350925006e-05 -0.05020035058259964 1 True False
25257.191 4.8014397621154785 -1.3838450622609635 1.6889751593219202 -1.875826974908346 -1.5707805792437952 1.6611851453781128 0.050180450081825256 -0.026716185733675957 0.039229556918144226 -0.015111755579710007 -1.1099835319328122e-05 -0.023345939815044403 1 True False
25257.240999999998 4.80228328704834 -1.3842428189567109 1.6896846930133265 -1.876260896722311 -1.5707967917071741 1.6608182191848755 -0.004191727377474308 0.0069052679464221 0.018454253673553467 -0.033588722348213196 -1.3892468609326048e-17 0.0003375816741026938 1 True False
25257.290999999997 4.80228328704834 -1.3833659154227753 1.6915538946734827 -1.8789316616454066 -1.5707810560809534 1.6607600450515747 0.000302484433632344 0.031700942665338516 0.054277583956718445 -0.09131070971488953 -2.1102683152983058e-36 -0.0005083047435618937 1 True False
25257.341 4.802311420440674 -1.3810974073461075 1.6955421606646937 -1.8852306805052699 -1.5707929770099085 1.660785436630249 0.0009081298485398293 0.06165637448430061 0.09531759470701218 -0.15600043535232544 -0.0 -0.0004957814235240221 1 True False
25257.391 4.802302837371826 -1.3774297696403046 1.7017315069781702 -1.8948947391905726 -1.5707967917071741 1.6607763767242432 0.00014144832675810903 0.08496373891830444 0.14079223573207855 -0.21918651461601257 -0.0 -0.00041027492261491716 1 True False
25257.441 4.802346706390381 -1.3725973230651398 1.7099154631244105 -1.9082194767394007 -1.570772949849264 1.6607072353363037 8.598401473136619e-05 0.11101659387350082 0.19018249213695526 -0.2873091995716095 -0.0 -0.00016684457659721375 1 True False
25257.490999999998 4.802350997924805 -1.3664726328900834 1.7204445044146937 -1.9248529873290003 -1.5708006064044397 1.6607898473739624 0.0001168447925010696 0.13539758324623108 0.23684585094451904 -0.38368234038352966 -0.0 -0.000100378216302488 1 True False
25257.540999999997 4.802401065826416 -1.3589375031045456 1.7335169951068323 -1.9450160465636195 -1.570768181477682 1.6607379913330078 0.00012915754632558674 0.16100050508975983 0.27214011549949646 -0.4352732002735138 5.243983105174266e-05 3.418234140184495e-09 1 True False
25257.591 4.8023834228515625 -1.350334421997406 1.7482684294330042 -1.9688192806639613 -1.5708125273333948 1.6607117652893066 8.981311839306727e-05 0.18810199201107025 0.32631856203079224 -0.49790260195732117 1.8464661675532533e-20 5.192304722655557e-28 1 True False
25257.641 4.80232572555542 -1.3402397495559235 1.765578571950094 -1.9959527454771937 -1.5707691351519983 1.6607288122177124 6.538022716995329e-05 0.1986122578382492 0.3416022062301636 -0.5741657018661499 2.8047857568509095e-39 0.0 1 True False
25257.691 4.802374839782715 -1.3307067614844819 1.7820318380938929 -2.022369524041647 -1.5707724730121058 1.6607064008712769 6.021832814440131e-05 0.18395452201366425 0.3133910894393921 -0.5001052021980286 3.0387178412638605e-05 0.0 1 True False
25257.740999999998 4.80238676071167 -1.322309137587883 1.7966907660113733 -2.045131345788473 -1.5708373228656214 1.6607451438903809 5.307722676661797e-05 0.15690922737121582 0.2680875360965729 -0.42756184935569763 -1.7625966464152043e-08 3.8453401162048817e-13 1 True False
25257.790999999997 4.8023834228515625 -1.3150571149638672 1.8088744322406214 -2.064691206017965 -1.570813004170553 1.6607526540756226 3.0968696061578457e-43 0.12957550585269928 0.22828863561153412 -0.356722891330719 -2.6773883271232753e-27 5.84107962450433e-32 1 True False
25257.841 4.802338600158691 -1.309348539715149 1.8189614454852503 -2.080527444879049 -1.5707967917071741 1.660768985748291 0.0 0.10058534890413284 0.17774483561515808 -0.2801169157028198 -0.0 0.0 1 True False
25257.891 4.80232572555542 -1.3047338289073487 1.8269603888141077 -2.092970987359518 -1.570784870778219 1.6607928276062012 0.0 0.07678380608558655 0.12715750932693481 -0.21187672019004822 -0.0 0.0 1 True False
25257.941 4.802346706390381 -1.3014333111098786 1.8324993292437952 -2.1017424068846644 -1.5707767645465296 1.6607898473739624 0.0 0.05420001223683357 0.09371604770421982 -0.14240886270999908 -0.0 0.0 1 True False
25257.990999999998 4.802375316619873 -1.2994898122600098 1.8357742468463343 -2.107311864892477 -1.5708048979388636 1.6607362031936646 1.0249178794898875e-19 0.028067491948604584 0.04742775484919548 -0.07192777097225189 -0.0 0.0 1 True False
25258.040999999997 4.802338600158691 -1.2987047594836731 1.8371289412127894 -2.1093489132323207 -1.5707529226886194 1.6607615947723389 0.0 -0.0006387073080986738 0.0011845282278954983 -0.009367532096803188 -0.0 0.0 1 True False
25258.091 4.80239200592041 -1.2987030905536194 1.8372038046466272 -2.1092525921263636 -1.5707805792437952 1.660740613937378 0.0 -5.648552683768567e-23 2.1548193227066724e-26 0.00012348887685220689 -0.0 0.0 1 True False
25258.141 4.802399635314941 -1.298754559164383 1.8372038046466272 -2.1092287502684535 -1.5708168188678187 1.6607615947723389 0.0 0.0 0.0001182603373308666 -2.0308021703385748e-05 -0.0 7.212240245128843e-13 1 True False
25258.191 4.802347183227539 -1.2987335485270997 1.8372038046466272 -2.10924830059194 -1.5707643667804163 1.6607897281646729 0.0 0.0001562917314004153 8.04928204161115e-05 -2.5939401893992908e-05 -0.0 1.0955411042107132e-31 1 True False
25258.240999999998 4.802281379699707 -1.2987000209144135 1.837175194417135 -2.109272619287008 -1.570801083241598 1.660757064819336 0.0 0.0005602854071184993 0.00010894932347582653 -2.9125745371061385e-08 -0.0 0.0 1 True False
25258.290999999997 4.802334308624268 -1.2987062495997925 1.83722430864443 -2.109272619287008 -1.5707405249225062 1.6607733964920044 0.0 0.0002579691354185343 0.0001173857890535146 -4.4242073644614816e-27 -0.0 0.0 1 True False
25258.341 4.802359580993652 -1.2987381976893921 1.8372066656695765 -2.109276433984274 -1.5708449522601526 1.6608182191848755 -5.190590309211984e-05 0.0001555342460051179 0.00011368274863343686 -7.681612758473692e-17 -0.0 0.0 1 True False
25258.391 4.802335262298584 -1.2987300914577027 1.8372367064105433 -2.1093083820738734 -1.570813004170553 1.6607242822647095 -1.145505673823266e-12 0.00010112524614669383 8.506831363774836e-05 -1.1668379943516204e-35 -0.0 0.0 1 True False
25258.441 4.802305221557617 -1.2987062495997925 1.8371904532061976 -2.109244485894674 -1.5708048979388636 1.6607451438903809 -1.3951056644145865e-05 7.769906369503587e-05 6.932063843123615e-05 -0.0 -0.0 0.0 1 True False
25258.490999999998 4.802400588989258 -1.2987426680377503 1.8371995131122034 -2.1092645130553187 -1.5707772413836878 1.6607288122177124 -3.3440918922877927e-09 2.0014595449729944e-12 4.012522185803391e-05 -5.036192305851728e-05 -4.24836761725226e-22 0.0 1 True False
25258.540999999997 4.802350997924805 -1.2987062197974701 1.8371952215777796 -2.1093083820738734 -1.5708335081683558 1.6607117652893066 0.0 0.0 2.5149529392365366e-07 -4.281193886566934e-23 -6.453259687908648e-41 0.0 1 True False
25258.591 4.802338600158691 -1.2987226408771058 1.8372324148761194 -2.109288831750387 -1.5707891623126429 1.6608198881149292 0.0 0.0 5.917949773655801e-37 -6.503426172931476e-42 -0.0 0.0 1 True False
25258.641 4.802270412445068 -1.2987256211093445 1.8371995131122034 -2.109293123284811 -1.5707486311541956 1.6607615947723389 0.0 0.0 0.0 -0.0 -0.0 0.0 1 True False
25258.691 4.802342414855957 -1.2986147862723847 1.8372276465045374 -2.10927214244985 -1.5708087126361292 1.6607481241226196 0.0 0.0 0.0 -0.0 -0.0 0.0 1 True False
25258.740999999998 4.802313804626465 -1.2987062197974701 1.8371618429767054 -2.1092683277525843 -1.570813004170553 1.6607242822647095 0.0 0.0 0.0 -0.0 -0.0 0.0 1 True False
25258.790999999997 4.8023223876953125 -1.2986644965461274 1.8372018972979944 -2.109276433984274 -1.5708168188678187 1.6607451438903809 0.0 0.0 0.0 -0.0 -0.0 0.0 1 True False
25258.841 4.802387714385986 -1.2987226408771058 1.8372038046466272 -2.10927214244985 -1.5707200209247034 1.6607733964920044 0.0 0.0 6.435500640737463e-25 -0.0 -0.0 0.0 1 True False
25258.891 4.802359580993652 -1.29868836820636 1.8372233549701136 -2.109288831750387 -1.5707529226886194 1.6607362031936646 0.0 0.0 0.0 -0.0 -0.0 0.0 1 True False
25258.941 4.80233097076416 -1.298668996696808 1.8372233549701136 -2.10929598430776 -1.5708044211017054 1.6608136892318726 0.0 3.0514935440132195e-37 -0.00016512986621819437 -0.00044451438589021564 -7.827424125528282e-11 0.0012359347892925143 1 True False
25258.990999999998 4.802318096160889 -1.2986943584731598 1.8372605482684534 -2.1093250713744105 -1.5708335081683558 1.6607108116149902 0.0 -2.2054211513022892e-05 -1.5493173289537257e-27 1.4433293698667277e-13 -1.1889875213369583e-29 -4.0438749571158894e-11 1 True False
25259.040999999997 4.80230188369751 -1.2987435919097443 1.8371952215777796 -2.1093198261656703 -1.5708087126361292 1.660801887512207 0.0 -1.367609638691647e-05 -0.0 2.1924206850639902e-32 -0.0 -6.142653875702139e-30 1 True False
25259.091 4.8023552894592285 -1.2986437243274231 1.8371604124652308 -2.1093365154662074 -1.5708487669574183 1.6607706546783447 0.0 -6.246982593438588e-06 -0.0 0.0 -0.0 -0.0 1 True False
25259.141 4.802334308624268 -1.298673467045166 1.8372233549701136 -2.109300275842184 -1.5708211104022425 1.660740613937378 0.0 0.0 -0.0 7.819425809429958e-05 -0.0 -0.0 1 True False
25259.191 4.802371501922607 -1.2986853879741211 1.8372066656695765 -2.109312673608297 -1.570784870778219 1.6607660055160522 0.0 0.0 -1.116179197679923e-12 -4.1102954780004516e-14 -0.0 -0.0 1 True False
25259.240999999998 4.8023552894592285 -1.2987092298320313 1.8371995131122034 -2.1092921696104945 -1.5708211104022425 1.660773515701294 0.0 0.0 -2.6260333221447072e-42 -6.24354787826436e-33 -0.0 -0.0 1 True False
25259.290999999997 4.802350997924805 -1.298680917625763 1.8372066656695765 -2.1093045673766078 -1.5707724730121058 1.6607989072799683 0.0 6.809378202894315e-19 -0.0 -0.0 -0.0 -0.0 1 True False
25259.341 4.802383899688721 -1.298652635221817 1.8372066656695765 -2.10927214244985 -1.5708006064044397 1.6607288122177124 0.0 0.0 -0.0 5.2814491937169805e-05 -0.0 -0.0 1 True False
25259.391 4.8023176193237305 -1.298689828520157 1.8371995131122034 -2.109328409234518 -1.5708168188678187 1.6607072353363037 0.0 0.0 -7.158205205256312e-26 6.76590572580159e-20 -0.0 -6.177536704399245e-08 1 True False
25259.441 4.802350997924805 -1.2986555856517334 1.8372233549701136 -2.1092640362181605 -1.570784870778219 1.6607706546783447 0.0 0.0 -0.0 1.0277429821721896e-38 -0.0 -3.255564297433011e-05 1 True False
25259.490999999998 4.802325248718262 -1.2986318332007905 1.8371861616717737 -2.10927214244985 -1.5707605520831507 1.6607645750045776 0.0 0.0 -0.0 0.0 -0.0 -2.2585420931323933e-22 1 True False
25259.540999999997 4.8022847175598145 -1.2987389427474518 1.8371737639056605 -2.1092807255186976 -1.5707686583148401 1.660763144493103 0.0 0.0 -0.0 3.700577255787369e-15 -0.0 -3.4307990302064496e-41 1 True False
25259.591 4.802368640899658 -1.2986764472774048 1.8372109572040003 -2.109276433984274 -1.5708087126361292 1.6607407331466675 0.0 0.0 -0.0 5.621187353338293e-34 -0.0 -0.0 1 True False
25259.641 4.802338600158691 -1.2987061899951478 1.8372276465045374 -2.1092807255186976 -1.5707891623126429 1.6607632637023926 0.0 0.0 -0.0 0.0 -0.0 -0.0 1 True False
25259.691 4.802313327789307 -1.2986720365336915 1.8372109572040003 -2.1092564068236292 -1.570813004170553 1.6608152389526367 0.0 0.0 -8.263338107828879e-33 0.0 -0.0 -0.0 1 True False
25259.740999999998 4.802343368530273 -1.2986853581717988 1.8372109572040003 -2.1093207798399867 -1.5707605520831507 1.6607481241226196 0.0 -2.91462937258484e-20 -0.0 0.0 -0.0 -0.0 1 True False
25259.790999999997 4.802305698394775 -1.2986838084510346 1.837219540272848 -2.1092683277525843 -1.5708254019366663 1.6607422828674316 0.0 0.0 -0.0 0.0 -0.0 -2.840328306774609e-06 1 True False
25259.841 4.802351951599121 -1.298661546116211 1.837217156087057 -2.1092564068236292 -1.5708368460284632 1.660773515701294 0.0 0.0 -0.0 0.0 -0.0 0.0017740532057359815 1 True False
25259.891 4.802341938018799 -1.2986511153033753 1.8372109572040003 -2.109276433984274 -1.5708211104022425 1.6607660055160522 0.0 0.0 -0.0 2.4489323902088245e-09 -0.0 -4.054639066453092e-05 1 True False
25259.941 4.802362442016602 -1.2987344425967713 1.8371909300433558 -2.1093245945372523 -1.5707967917071741 1.6607332229614258 0.0 0.0 -0.0 3.719933687583946e-28 -0.0 -9.431541778663178e-20 1 True False
25259.990999999998 4.802301406860352 -1.2987604302218934 1.837092701588766 -2.1088983021178187 -1.5708087126361292 1.6607362031936646 0.0 -0.009762153960764408 -0.01556327659636736 0.028732148930430412 -0.0 -1.432653218113317e-38 1 True False
25260.040999999997 4.802334308624268 -1.2998240751079102 1.8351882139789026 -2.106049200097555 -1.5708168188678187 1.6607660055160522 0.0 -0.03392026200890541 -0.05999958887696266 0.09181901067495346 -0.0 -0.0 1 True False
25260.091 4.802392959594727 -1.30227683604274 1.8310588041888636 -2.099384923974508 -1.5707724730121058 1.6607208251953125 0.0 -0.06195036321878433 -0.10522124916315079 0.1576269567012787 -0.0 -0.0 1 True False
25260.141 4.80239725112915 -1.3060171765140076 1.824611012135641 -2.0894366703429164 -1.5707805792437952 1.6607117652893066 0.0 -0.08773898333311081 -0.1445906013250351 0.2234533280134201 -0.0 -0.0 1 True False
25260.191 4.8023552894592285 -1.3109933000854035 1.8158376852618616 -2.075899740258688 -1.5708044211017054 1.6607208251953125 0.0 -0.11317243427038193 -0.19284474849700928 0.2991001307964325 -0.0 -0.0 1 True False
25260.240999999998 4.802337646484375 -1.3172322374633332 1.8052461783038538 -2.0586377582945765 -1.5708006064044397 1.6607942581176758 0.0 -0.13476380705833435 -0.2329711765050888 0.37476789951324463 -0.0 -0.0 1 True False
25260.290999999997 4.802366733551025 -1.3248132032207032 1.7922657171832483 -2.0382424793639125 -1.5707648436175745 1.6607823371887207 0.0 -0.16565217077732086 -0.27791696786880493 0.4540453851222992 -0.0 -0.0 1 True False
25260.341 4.802343368530273 -1.3336154085448761 1.7769225279437464 -2.014186521569723 -1.5708335081683558 1.6607751846313477 0.0 -0.19199194014072418 -0.3220187723636627 0.5100851058959961 -0.0 3.134371945634484e-05 1 True False
25260.391 4.802395820617676 -1.3436915141395112 1.7598593870746058 -1.9867741070189417 -1.5708087126361292 1.6607496738433838 0.0 -0.19697627425193787 -0.35035908222198486 0.5524596571922302 -0.0 7.176636765968541e-21 1 True False
25260.441 4.802338600158691 -1.3532949399999161 1.7433436552630823 -1.9607016048827113 -1.5707648436175745 1.6607614755630493 0.0 -0.17582257091999054 -0.3038681447505951 0.49921900033950806 -0.0 1.0901317325307055e-39 1 True False
25260.490999999998 4.802338600158691 -1.361516849403717 1.7290075461017054 -1.938272615472311 -1.570829216633932 1.6607526540756226 0.0 -0.15552932024002075 -0.26668474078178406 0.41886305809020996 -0.0 0.0 1 True False
25260.540999999997 4.802313327789307 -1.3685575288585206 1.7169378439532679 -1.9191061458983363 -1.5708087126361292 1.6607871055603027 0.0 -0.12902982532978058 -0.22342009842395782 0.35298946499824524 -0.0 0.0 1 True False
25260.591 4.802350997924805 -1.374240131383278 1.7071555296527308 -1.903605123559469 -1.5708048979388636 1.6607451438903809 0.0 -0.09918530285358429 -0.17232663929462433 0.27073100209236145 -0.0 0.0 1 True False
25260.641 4.802321910858154 -1.3786616933396836 1.6995490233050745 -1.8913794956602992 -1.570784870778219 1.6607614755630493 0.0 -0.07873783260583878 -0.1297246366739273 0.2032344490289688 -0.0 0.0 1 True False
25260.691 4.802310466766357 -1.3818954986384888 1.6939471403705042 -1.8828746281065882 -1.570784870778219 1.660775065422058 0.0 -0.051492318511009216 -0.08382853865623474 0.13750861585140228 -0.0 0.0 1 True False
25260.740999999998 4.802334308624268 -1.383725182419159 1.6906922499286097 -1.8777467213072718 -1.5707891623126429 1.6607823371887207 0.0 -0.02470136247575283 -0.04665328562259674 0.06495998054742813 -0.0 0.0 1 True False
25260.790999999997 4.802334308624268 -1.3842989963344117 1.6896279493915003 -1.8762289486327113 -1.5707925001727503 1.6607117652893066 0.0 -4.287437604943989e-07 0.0020923467818647623 -0.0027122267056256533 -0.0 0.0 1 True False
25260.841 4.8022966384887695 -1.3843493175557633 1.6896069685565394 -1.8762208424010218 -1.5708377997027796 1.6607317924499512 0.0 0.0 5.018532829126343e-05 -3.703495531226508e-05 -0.0 0.0 1 True False
25260.891 4.8023552894592285 -1.3843448919108887 1.6896474997149866 -1.8762208424010218 -1.5707967917071741 1.6607496738433838 0.0 -0.00017584931629244238 2.0960727852070704e-05 0.0003948394733015448 -0.0 0.0 1 True False
25260.941 4.802280426025391 -1.384349302654602 1.689664665852682 -1.8761335812010707 -1.5707805792437952 1.6606788635253906 0.0 -0.00017811708676163107 1.324723689322127e-05 0.0007582345278933644 -0.0 0.0 1 True False
25260.990999999998 4.802321910858154 -1.3843480807593842 1.6896675268756312 -1.8760653934874476 -1.5708168188678187 1.6606909036636353 0.0 -0.0010877036256715655 1.084056755473739e-08 0.00043171405559405684 -0.0 0.0 1 True False
25261.040999999997 4.802343368530273 -1.3844636541656037 1.6896017233477991 -1.8760696850218714 -1.5707648436175745 1.6607823371887207 0.0 -0.0002362235391046852 2.550900743162082e-38 0.00018065120093524456 -0.0 0.0 1 True False
25261.091 4.802326679229736 -1.3843774658492585 1.6896632353412073 -1.876077791253561 -1.5707925001727503 1.6607288122177124 0.0 -0.00012258696369826794 0.0 0.00012024594616377726 -0.0 0.0 1 True False
25261.141 4.802304267883301 -1.3843414646438141 1.6896322409259241 -1.8760410747923792 -1.570772949849264 1.6607362031936646 0.0 -0.0001042722215061076 0.0 8.482742123305798e-05 -0.0 0.0 1 True False
25261.191 4.802350997924805 -1.3843229574016114 1.6896589438067835 -1.8760572872557582 -1.5707925001727503 1.6607332229614258 0.0 -5.7757188187679276e-05 0.0 1.670643241488396e-19 -0.0 0.0 1 True False
25261.240999999998 4.8023552894592285 -1.3843762290528794 1.6896432081805628 -1.876113077203268 -1.5707524458514612 1.6607972383499146 0.0 -1.1606328672674403e-29 0.0 2.537711161496471e-38 -0.0 0.0 1 True False
25261.290999999997 4.8023600578308105 -1.3843481254628678 1.6896961371051233 -1.8760377369322718 -1.5707529226886194 1.660736083984375 0.0 -2.795595173665788e-05 0.0 0.0 -0.0 1.37035513107669e-17 1 True False
25261.341 4.802338600158691 -1.384363205437996 1.6896517912494105 -1.8760177097716273 -1.5707967917071741 1.6607779264450073 0.0 0.0 0.0 0.0 -0.0 2.0815733100730022e-36 1 True False
25261.391 4.802326679229736 -1.384331853394844 1.6896022001849573 -1.8760415516295375 -1.5708449522601526 1.6607451438903809 0.0 0.0 0.0 0.0 -0.0 0.0 1 True False
25261.441 4.802346706390381 -1.384384961133339 1.6896303335772913 -1.876089712182516 -1.5707929770099085 1.6607153415679932 0.0 0.0 0.0 0.0 -0.0 0.0 1 True False
25261.490999999998 4.8023600578308105 -1.3843231064132233 1.6896351019488733 -1.8760534725584925 -1.5708211104022425 1.6607495546340942 0.0 0.0 0.0 0.0 -0.0 0.0 1 True False
25261.540999999997 4.802301406860352 -1.384327383046486 1.6896260420428675 -1.8760653934874476 -1.5707925001727503 1.6607706546783447 0.0 0.0 0.0 0.0 -0.0 0.0 1 True False
25261.591 4.802334308624268 -1.384359971886017 1.6896589438067835 -1.8760301075377406 -1.5707967917071741 1.6607614755630493 0.0 0.0 0.0 0.0 -0.0 0.0 1 True False
25261.641 4.8023223876953125 -1.3844024998000641 1.6896632353412073 -1.8760258160033167 -1.570784870778219 1.660757064819336 0.0 0.0 0.0 0.0 -0.0 0.0 1 True False
25261.691 4.802326679229736 -1.3843762290528794 1.6897295157061976 -1.8760377369322718 -1.5708006064044397 1.6607332229614258 0.0 0.0 0.0 0.0 -0.0 0.0 1 True False
25261.740999999998 4.802259922027588 -1.384364367728569 1.6896169821368616 -1.876073499719137 -1.5708087126361292 1.660719871520996 0.0 0.0 0.0 0.0 -0.0 0.0 1 True False
25261.790999999997 4.802321910858154 -1.3843687337687989 1.6896474997149866 -1.8760572872557582 -1.5708006064044397 1.6606907844543457 0.0 0.0 0.0 0.0 -0.0 0.0 1 True False
25261.841 4.802347660064697 -1.3843818765929718 1.6896889845477503 -1.8760816059508265 -1.5707362333880823 1.6607242822647095 0.0 0.0 0.0 0.0 -0.0 0.0 1 True False
25261.891 4.802326679229736 -1.3844340455583115 1.6896966139422815 -1.8760696850218714 -1.57074481645693 1.6607660055160522 0.0 0.0 0.0 0.0 -0.0 0.0 1 True False
25261.941 4.802342414855957 -1.3843240600875397 1.6896589438067835 -1.876089712182516 -1.5708048979388636 1.6607437133789062 0.0 0.0 0.0 0.0 -0.0 0.0 1 True False
25261.990999999998 4.802364349365234 -1.3843893122724076 1.6897009054767054 -1.876089712182516 -1.5708087126361292 1.660752534866333 0.0 0.0 0.0 0.0 -0.0 0.0 1 True False
25262.040999999997 4.8023223876953125 -1.3843437147191544 1.6896875540362757 -1.8760339222350062 -1.5707319418536585 1.6607072353363037 0.0 0.0 0.0 0.0 -0.0 0.0 1 True False
25262.091 4.8023176193237305 -1.3843730849078675 1.6896846930133265 -1.8760739765562953 -1.570801083241598 1.660764455795288 0.0 0.0 1.5484460416245605e-17 0.0 -0.0 0.0 1 True False
25262.141 4.802366733551025 -1.3843524617007752 1.6896832625018519 -1.8760491810240687 -1.5708211104022425 1.6607286930084229 0.0 0.0 0.0 7.554806086274013e-11 -0.0 0.0 1 True False
25262.191 4.802310466766357 -1.3843318235925217 1.6897009054767054 -1.8760572872557582 -1.570813004170553 1.6607779264450073 0.0 0.0 0.0 1.1475763411823486e-29 -0.0 0.0 1 True False
25262.240999999998 4.802347660064697 -1.3843849760345002 1.6896632353412073 -1.8760491810240687 -1.5707805792437952 1.6607496738433838 0.0 0.0 0.0 0.0 -0.0 0.0 1 True False
25262.290999999997 4.802338600158691 -1.3844102633050461 1.6896827856646937 -1.876129766503805 -1.5708211104022425 1.660757064819336 0.0 0.0 0.0 0.0 -0.0 0.0 1 True False
25262.341 4.802362442016602 -1.3843849760345002 1.6896889845477503 -1.8760491810240687 -1.5707925001727503 1.6607898473739624 0.0 4.584847908527478e-20 0.0 0.0 -0.0 0.0 1 True False
25262.391 4.802309036254883 -1.384380654697754 1.6897056738482874 -1.8761097393431605 -1.5707767645465296 1.660752534866333 0.0 -2.8087808459531516e-05 0.0 0.0 -0.0 0.0 1 True False
25262.441 4.802326679229736 -1.384437234406807 1.6896846930133265 -1.8761173687376917 -1.5708091894732874 1.6607943773269653 0.0 0.0 0.0 0.0 -0.0 0.0 1 True False
25262.490999999998 4.802282333374023 -1.384377421145775 1.6896384398089808 -1.8760739765562953 -1.5707810560809534 1.6607615947723389 0.0 0.0 0.0 0.0 -0.0 0.0 1 True False
25262.540999999997 4.802310466766357 -1.3843773913434525 1.6896541754352015 -1.876033445397848 -1.570824925099508 1.6607614755630493 0.0 0.0 0.0 0.0 -0.0 0.0 1 True False
25262.591 4.802347660064697 -1.3843437892249604 1.6897009054767054 -1.8760696850218714 -1.570829216633932 1.6607109308242798 0.0 0.0 0.0 0.0 -0.0 0.0 1 True False
25262.641 4.8023223876953125 -1.3843362045339127 1.6896632353412073 -1.8760696850218714 -1.570813004170553 1.6607451438903809 0.0 0.0 0.0 0.0 -0.0 0.0 1 True False
25262.691 4.802371025085449 -1.384384961133339 1.6896713415728968 -1.8760534725584925 -1.5708044211017054 1.6607242822647095 0.0 0.0 0.0 0.0 -0.0 0.0 1 True False
25262.740999999998 4.802342891693115 -1.3843481701663514 1.6897128264056605 -1.8760572872557582 -1.570813004170553 1.660785436630249 0.0 0.0 0.0 0.0 -0.0 0.0 1 True False
25262.790999999997 4.802310466766357 -1.3843448770097275 1.6896427313434046 -1.8761059246458949 -1.5708211104022425 1.66071617603302 0.0 0.0 0.0 0.0 -0.0 0.0 1 True False
25262.841 4.802342414855957 -1.384347067480423 1.6896474997149866 -1.8761140308775843 -1.5707648436175745 1.660740613937378 0.0 0.0 0.0 0.0 -0.0 0.0 1 True False
25262.891 4.802358150482178 -1.3844090563109894 1.6896675268756312 -1.876101633111471 -1.570772949849264 1.6607496738433838 0.0 0.0 0.0 0.0 -0.0 0.0 1 True False
25262.941 4.802350997924805 -1.3843078178218384 1.6896451155291956 -1.8760491810240687 -1.570845905934469 1.660719871520996 0.0 0.0 0.0 0.0 -0.0 0.0 1 True False
25262.990999999998 4.802342891693115 -1.3843556952527543 1.6896427313434046 -1.8760816059508265 -1.5707767645465296 1.6607362031936646 0.0 0.0 0.0 0.0 -0.0 0.0 1 True False
25263.040999999997 4.802031517028809 -1.384456918840744 1.6898234526263636 -1.876073499719137 -1.5708211104022425 1.660421371459961 -0.01584050804376602 -0.008002014830708504 0.010242029093205929 0.0 -0.0 -0.016553007066249847 1 True False
25263.091 4.800838470458984 -1.3851421040347596 1.690523926411764 -1.876096864739889 -1.570784870778219 1.6591691970825195 -0.03780391812324524 -0.01823154278099537 0.019027885049581528 -0.002431650646030903 -0.0 -0.0369158498942852 1 True False
25263.141 4.797983646392822 -1.3865263921073456 1.692068878804342 -1.876303335229391 -1.5707805792437952 1.656320571899414 -0.08057357370853424 -0.03946613520383835 0.045018017292022705 -0.008335191756486893 -0.0 -0.07836844027042389 1 True False
25263.191 4.792540073394775 -1.3890227985433121 1.6950472036944788 -1.8767911396422328 -1.570813004170553 1.6508986949920654 -0.135000079870224 -0.06634241342544556 0.07607363909482956 -0.00872841477394104 -0.0 -0.13548313081264496 1 True False
25263.240999999998 4.78378438949585 -1.3932634604028244 1.6999734083758753 -1.8773657284178675 -1.5707405249225062 1.642113447189331 -0.21960201859474182 -0.1039682924747467 0.12057904899120331 -0.015652764588594437 -0.0 -0.21885652840137482 1 True False
25263.290999999997 4.770566940307617 -1.3996067953160782 1.7070310751544397 -1.878388067285055 -1.5707610289203089 1.6290518045425415 -0.29494938254356384 -0.14312216639518738 0.16528093814849854 -0.022533604875206947 -0.0 -0.29557472467422485 1 True False
25263.341 4.75410270690918 -1.4074717325023194 1.716297451649801 -1.879493852654928 -1.570796314870016 1.6124883890151978 -0.36310306191444397 -0.17351438105106354 0.19943837821483612 -0.02658674120903015 -0.0001315902773058042 -0.3672979474067688 1 True False
25263.391 4.733778476715088 -1.4171588134816666 1.7274311224566858 -1.8811513386168421 -1.5708254019366663 1.5922362804412842 -0.4354810118675232 -0.20497503876686096 0.2451595664024353 -0.036254625767469406 -7.601257675560191e-05 -0.4294511079788208 1 True False
25263.441 4.710387229919434 -1.4283959877542038 1.7403376738177698 -1.8827706776061 -1.5707805792437952 1.568811297416687 -0.5076934695243835 -0.24758991599082947 0.2731497287750244 -0.035953253507614136 -4.275440005585551e-05 -0.508422315120697 1 True False
25263.490999999998 4.683291435241699 -1.4413982045701523 1.7553256193744105 -1.8846141300597132 -1.5707972685443323 1.541641354560852 -0.5762852430343628 -0.27410733699798584 0.3182997405529022 -0.04222995415329933 -5.908541922394761e-08 -0.5768820643424988 1 True False
25263.540999999997 4.654900074005127 -1.4548896563104172 1.7708309332477015 -1.8867103062071742 -1.5708168188678187 1.513243556022644 -0.5343284010887146 -0.26246723532676697 0.2975280284881592 -0.04148820787668228 0.002881122287362814 -0.544186532497406 1 True False
25263.591 4.629537105560303 -1.4669895780137558 1.7847374121295374 -1.8886100254454554 -1.570796314870016 1.4879815578460693 -0.4619625210762024 -0.2247690111398697 0.2610419690608978 -0.03619294613599777 0.0005236461292952299 -0.47001633048057556 1 True False
25263.641 4.60768985748291 -1.4773162987879296 1.7967641989337366 -1.8901382885374964 -1.5708449522601526 1.4662501811981201 -0.40135955810546875 -0.18950484693050385 0.21967767179012299 -0.03139226511120796 -0.001601901138201356 -0.39640894532203674 1 True False
25263.691 4.5896687507629395 -1.4860958096436043 1.806629482899801 -1.8914362392821253 -1.5708168188678187 1.4480503797531128 -0.33657634258270264 -0.15390506386756897 0.18281355500221252 -0.02238420397043228 0.00024445325834676623 -0.3341229259967804 1 True False
25263.740999999998 4.574954509735107 -1.4931356993368645 1.8147624174701136 -1.892585893670553 -1.5707648436175745 1.4333304166793823 -0.2598141133785248 -0.1280079483985901 0.14340277016162872 -0.01837627775967121 4.2912946810247377e-05 -0.2609529197216034 1 True False
25263.790999999997 4.563762664794922 -1.498516046707966 1.8212068716632288 -1.89329256633901 -1.570756737385885 1.4220794439315796 -0.19403880834579468 -0.09284789860248566 0.10170936584472656 -0.017595496028661728 2.6919175070361234e-05 -0.19520632922649384 1 True False
25263.841 4.5559821128845215 -1.5022229638746758 1.825400177632467 -1.893822809258932 -1.5707648436175745 1.4144045114517212 -0.1193109080195427 -0.0570359081029892 0.06701105833053589 -0.004553363658487797 1.4796313507758896e-06 -0.12346696108579636 1 True False
25263.891 4.551704406738281 -1.5042873185924073 1.8275802771197718 -1.8941666088499964 -1.5708382765399378 1.4101060628890991 -0.05138580873608589 -0.025906704366207123 0.027181701734662056 -0.0026750422548502684 2.2475630800687824e-25 -0.05365332216024399 1 True False
25263.941 4.550896644592285 -1.5045469117215653 1.828186337147848 -1.8945418796935023 -1.5708172957049769 1.4093066453933716 0.0002456990769132972 0.009227205999195576 0.018013443797826767 -0.041422974318265915 3.363116314379561e-44 -0.0003279968223068863 1 True False
25263.990999999998 4.550907611846924 -1.503582165842392 1.829951588307516 -1.8971759281554164 -1.570801083241598 1.4092484712600708 -0.00017451771418564022 0.03177499398589134 0.0553746372461319 -0.08235853910446167 1.5535058048993244e-12 -0.000576829188503325 1 True False
25264.040999999997 4.550896167755127 -1.5013084274581452 1.8338187376605433 -1.9034606419005335 -1.5707891623126429 1.409266471862793 -0.00046477242722176015 0.0597417838871479 0.09917030483484268 -0.16709022223949432 -2.688174026843626e-05 -0.00041275875992141664 1 True False
25264.091 4.550880432128906 -1.4976199132255097 1.8398402372943323 -1.9130879841246546 -1.5707600752459925 1.409217357635498 -0.0004264652670826763 0.08974142372608185 0.14074452221393585 -0.22076332569122314 -1.5388912288472056e-05 -0.0002688655804377049 1 True False
25264.141 4.550881385803223 -1.4925744545510788 1.8479989210711878 -1.926267763177389 -1.5707600752459925 1.4092381000518799 -0.00032351864501833916 0.1132422685623169 0.187096506357193 -0.29760655760765076 -2.1560836103162728e-05 -0.00018495848053134978 1 True False
25264.191 4.5508317947387695 -1.486113393013813 1.8585341612445276 -1.9429999790587367 -1.5708168188678187 1.4092631340026855 -0.00014421666855923831 0.13988938927650452 0.22172445058822632 -0.3627135455608368 -3.651193576878905e-19 -9.126558143179864e-05 1 True False
25264.240999999998 4.55079984664917 -1.4784749758294602 1.8709467093097132 -1.9631511173644007 -1.5707843939410608 1.4091975688934326 -9.618043986847624e-05 0.169680655002594 0.27662593126296997 -0.4283571243286133 -5.546170605462521e-38 -6.055847552488558e-05 1 True False
25264.290999999997 4.550824165344238 -1.4694577914527436 1.8857248465167444 -1.9867903194823207 -1.570756737385885 1.4092541933059692 -7.518359780078754e-05 0.19106823205947876 0.31255972385406494 -0.5068036317825317 -0.0 -8.372287238489484e-12 1 True False
25264.341 4.550869464874268 -1.4592052412084122 1.9023225943194788 -2.0141269169249476 -1.5707362333880823 1.409245252609253 -5.1305635956862676e-17 0.21548807621002197 0.35661035776138306 -0.584510087966919 -1.627967627371163e-08 -1.2717526679851346e-30 1 True False
25264.391 4.5508198738098145 -1.4485416126302262 1.9200423399554651 -2.041978498498434 -1.5707934538470667 1.4092708826065063 0.0 0.20077425241470337 0.3213532567024231 -0.5352283716201782 -6.405961903510615e-05 -0.0 1 True False
25264.441 4.550791263580322 -1.4391108614257355 1.935049835835592 -2.066683908502096 -1.570784870778219 1.4092798233032227 -1.3271970395836886e-32 0.17611120641231537 0.2897884249687195 -0.44689926505088806 -3.389576522749849e-05 -0.0 1 True False
25264.490999999998 4.550865173339844 -1.4311436277678986 1.9480493704425257 -2.0878364048399867 -1.5707967917071741 1.4092381000518799 0.0 0.14578169584274292 0.24166402220726013 -0.3779568672180176 -2.2704505681758747e-05 -8.348780244612011e-14 1 True False
25264.540999999997 4.550825119018555 -1.424431563620903 1.9589465300189417 -2.1053883037962855 -1.5707724730121058 1.4092336893081665 0.0 0.1194034144282341 0.19800058007240295 -0.3271908164024353 -5.033979485970404e-15 -1.2681816395742433e-32 1 True False
25264.591 4.550844669342041 -1.419076145892479 1.9677069822894495 -2.1195560894408167 -1.570756737385885 1.409196376800537 0.0 0.09821666777133942 0.15617403388023376 -0.25158926844596863 -7.646629323007367e-34 -0.0 1 True False
25264.641 4.5508036613464355 -1.4150208991817017 1.9743269125567835 -2.1300975284972132 -1.570801083241598 1.4092752933502197 0.0 0.06928832828998566 0.11149407178163528 -0.18265075981616974 -0.0 -0.0 1 True False
25264.691 4.550816535949707 -1.4122521591237565 1.9789145628558558 -2.137343545953268 -1.5707686583148401 1.4092066287994385 0.0 0.0438326932489872 0.06454817950725555 -0.11899562925100327 -0.0 -0.0 1 True False
25264.740999999998 4.550868511199951 -1.4108544153026124 1.9811456839190882 -2.1409880123534144 -1.5708168188678187 1.4092754125595093 0.0 0.01494267862290144 0.023788971826434135 -0.038188330829143524 -0.0 -0.0 1 True False
25264.790999999997 4.550828456878662 -1.4108032596162339 1.9813860098468226 -2.141471048394674 -1.5707967917071741 1.4092541933059692 2.0799103131088198e-16 -1.4198643102412804e-19 -0.0002695140428841114 -0.00021391619520727545 -0.0 -0.0 1 True False
25264.841 4.550848960876465 -1.4107463669827958 1.9813693205462855 -2.1415230236449183 -1.5708048979388636 1.4092352390289307 2.9450586225721054e-05 0.00018811706104315817 -1.707646585234342e-26 -0.0010517012560740113 -0.0 -0.0 1 True False
25264.891 4.550848960876465 -1.4107550990632554 1.9814589659320276 -2.141514917413229 -1.5707843939410608 1.4092426300048828 0.0 0.00030228617833927274 9.266541746910661e-05 -0.001333253807388246 -0.0 -0.0 1 True False
25264.941 4.5508036613464355 -1.4107223016074677 1.9814251104937952 -2.141510149041647 -1.570801083241598 1.40926194190979 0.0 0.00022630566672887653 2.7443194994702935e-05 -0.0011667412472888827 -0.0 -0.0 1 True False
25264.990999999998 4.550820827484131 -1.41070610404525 1.9814379850970667 -2.1415869198241175 -1.5707805792437952 1.409217357635498 0.0 0.0003442553279455751 7.276470569195226e-05 -0.0009167847456410527 -0.0 -0.0 1 True False
25265.040999999997 4.550858497619629 -1.410701797609665 1.9814460913287562 -2.141510149041647 -1.5708048979388636 1.4092497825622559 0.0 0.00017696026770863682 9.466307528782636e-05 -0.00017687394574750215 -0.0 -0.0 1 True False
25265.091 4.550790786743164 -1.4106408816627045 1.9814422766314905 -2.141550680200094 -1.570784870778219 1.4092381000518799 0.0 8.99102960829623e-05 8.68516945047304e-05 -0.00011344243830535561 -0.0 -0.0 1 True False
25265.141 4.550806045532227 -1.410707176928856 1.9814656416522425 -2.1415187321104945 -1.5707595984088343 1.409217357635498 0.0 7.406595250358805e-05 7.11346001480706e-05 -7.822580664651468e-05 -0.0 -0.0 1 True False
25265.191 4.550853729248047 -1.410726637845375 1.9814742247210901 -2.1415630779662074 -1.570829216633932 1.4092307090759277 0.0 1.072258366901434e-28 6.118252349551767e-05 -2.3145267927952363e-16 -0.0 -0.0 1 True False
25265.240999999998 4.550804138183594 -1.410702870493271 1.981490437184469 -2.141554971734518 -1.5708373228656214 1.4092291593551636 0.0 0.0 6.514595569728871e-32 -3.515771589783735e-35 -0.0 -0.0 1 True False
25265.290999999997 4.550819396972656 -1.4106733363917847 1.9814742247210901 -2.1415544948973597 -1.570784870778219 1.4092541933059692 0.0 0.0 0.0 -0.0 -0.0 -0.0 1 True False
25265.341 4.550836086273193 -1.4106416416219254 1.9814742247210901 -2.1415587864317835 -1.5708087126361292 1.4092307090759277 0.0 0.0 0.0 -0.0 -0.0 -0.0 1 True False
25265.391 4.550877571105957 -1.4106776130250473 1.9814532438861292 -2.1415826282896937 -1.5707967917071741 1.4092217683792114 0.0 0.0 0.0 -0.0 -0.0 -0.0 1 True False
25265.441 4.550799369812012 -1.4106373649886628 1.9814618269549769 -2.1415587864317835 -1.5707886854754847 1.4092708826065063 0.0 0.0 0.0 -0.0 -0.0 -0.0 1 True False
25265.490999999998 4.550877571105957 -1.4106494051269074 1.9815104643451136 -2.141538759271139 -1.5707648436175745 1.4092053174972534 0.0 0.0 0.0 5.010503809899092e-05 -0.0 -0.0 1 True False
25265.540999999997 4.550815105438232 -1.4107104551843186 1.9814251104937952 -2.141526838342184 -1.5708087126361292 1.4091651439666748 0.0 0.0 0.0 2.094318733725231e-05 -0.0 -0.0 1 True False
25265.591 4.550840377807617 -1.4107028853944321 1.9814403692828577 -2.141534467736715 -1.5707767645465296 1.4092187881469727 0.0 0.0 1.5759795754940006e-17 1.3240001862868667e-05 -0.0 -0.0 1 True False
25265.641 4.550829887390137 -1.4106668841889878 1.9814289251910608 -2.141539236108297 -1.5707319418536585 1.4092649221420288 0.0 0.0 1.5977659018062695e-07 0.00393678480759263 -0.0 0.00057673902483657 1 True False
25265.691 4.550799369812012 -1.4106589418700715 1.9814775625811976 -2.141506334344381 -1.5708487669574183 1.4092261791229248 1.1385855059273757e-23 0.0001624287397135049 3.7597109089217535e-37 5.637252252199687e-05 -0.0 1.6497597300261415e-21 1 True False
25265.740999999998 4.550804138183594 -1.4107146722129364 1.9814990202533167 -2.141578813592428 -1.5707686583148401 1.4092708826065063 -3.4455967419897197e-40 2.857492760492987e-32 0.0 4.621465632226318e-05 -0.0 2.505984082706e-40 1 True False
25265.790999999997 4.550886631011963 -1.410645992760994 1.9814656416522425 -2.1415306530394496 -1.5708006064044397 1.4092575311660767 0.0 0.0 -1.1981142051809002e-05 2.8267082598176785e-05 -0.0 0.0 1 True False
25265.841 4.550799369812012 -1.4106819343617936 1.9814775625811976 -2.141554971734518 -1.5707967917071741 1.4092873334884644 0.0 0.0 -2.5256080334656872e-05 3.0446830351138487e-05 -0.0 0.0 1 True False
25265.891 4.550824165344238 -1.4106819343617936 1.9814894835101526 -2.141554971734518 -1.5708048979388636 1.409282922744751 0.0 0.0 -1.4842696145933587e-05 9.416666073325599e-23 -0.0 0.0 1 True False
25265.941 4.550790786743164 -1.4107266527465363 1.9814656416522425 -2.141578813592428 -1.570824925099508 1.4092425107955933 0.0 0.0 -2.101918107655365e-05 1.4304454723827733e-41 -0.0 0.0 1 True False
25265.990999999998 4.550856590270996 -1.4106863153031846 1.9814375082599085 -2.1415749988951625 -1.5708406607257288 1.409271001815796 0.0 0.0 -3.9380789575598273e-29 5.023029040719578e-18 -0.0 0.0 1 True False
25266.040999999997 4.550849437713623 -1.4106459629586716 1.9814613501178187 -2.141578813592428 -1.5707886854754847 1.4092216491699219 0.0 0.0 -0.0 7.629994356027678e-37 -0.0 0.0 1 True False
25266.091 4.550865650177002 -1.4107071918300171 1.9814742247210901 -2.1415749988951625 -1.570768181477682 1.4092172384262085 0.0 0.0 -0.0 0.0 -0.0 0.0 1 True False
25266.141 4.5507988929748535 -1.4106941682151337 1.981525723134176 -2.141506334344381 -1.5708048979388636 1.40920090675354 0.0 -3.411950820009224e-05 -0.0 0.0 -0.0 0.0 1 True False
25266.191 4.550840377807617 -1.410726637845375 1.9814570585833948 -2.141550680200094 -1.5708206335650843 1.4092291593551636 0.0 2.711191768024674e-29 -2.8202499585380317e-28 0.0 -0.0 0.0 1 True False
25266.240999999998 4.55079984664917 -1.410612554555275 1.9814775625811976 -2.141543050805563 -1.5707691351519983 1.4092631340026855 0.0 0.0 -0.0 1.7771097490068725e-22 -0.0 0.0 1 True False
25266.290999999997 4.550853729248047 -1.4107072067311783 1.9814613501178187 -2.1415349445738734 -1.5707810560809534 1.4092381000518799 0.0 0.0 -0.0 2.6994613616753276e-41 -0.0 0.0 1 True False
25266.341 4.550824165344238 -1.4106624883464356 1.9814489523517054 -2.141526838342184 -1.5707691351519983 1.4092541933059692 0.0 0.0 -0.0 0.0 -0.0 0.0 1 True False
25266.391 4.550812244415283 -1.4106733363917847 1.9814613501178187 -2.141550680200094 -1.5707491079913538 1.4092381000518799 0.0 0.0 -0.0 0.0 -0.0 0.0 1 True False
25266.441 4.550821304321289 -1.4107146722129364 1.9814165274249476 -2.1415468655028285 -1.5708330313311976 1.40920090675354 0.0 0.0 -0.0 0.0 -0.0 0.0 1 True False
25266.490999999998 4.550812244415283 -1.4106984746507187 1.9814699331866663 -2.141543050805563 -1.5707491079913538 1.4092426300048828 0.0 0.0 -0.0 2.2129367782675047e-11 -0.0 0.0 1 True False
25266.540999999997 4.550832748413086 -1.4106906664422532 1.9814699331866663 -2.141538759271139 -1.5707610289203089 1.4093036651611328 0.0 0.0 -0.0 3.361456058831758e-30 -0.0 -8.199248944124422e-19 1 True False
25266.591 4.550832748413086 -1.410694957976677 1.9814775625811976 -2.1415311298766078 -1.5708048979388636 1.4092261791229248 0.0 0.0 -1.3338829324859458e-25 8.439143857685849e-05 -0.0 -1.2454677972747772e-37 1 True False
25266.641 4.550858497619629 -1.410694183116295 1.9814618269549769 -2.141510149041647 -1.5708048979388636 1.4092425107955933 0.0 0.0 -2.1479383589976595e-29 2.5212386390194297e-05 -0.0 -9.852577932178974e-05 1 True False
25266.691 4.550852298736572 -1.4106528025916596 1.981478516255514 -2.141526838342184 -1.5707886854754847 1.4092216491699219 0.0 0.0 -0.0 1.4827021914243232e-05 -0.0 -2.636607678141445e-05 1 True False
25266.740999999998 4.550812244415283 -1.4106657218984147 1.981506649647848 -2.141510625878805 -1.5708168188678187 1.4092128276824951 0.0 0.0 -0.0 1.0501640645088628e-05 -0.0 -2.8923647284782395e-17 1 True False
25266.790999999997 4.550821304321289 -1.4106538754752656 1.9814699331866663 -2.1415511570372523 -1.5708091894732874 1.4092917442321777 0.0 0.0 -0.0 2.403971844805929e-21 -0.0 -4.393508787610188e-36 1 True False
25266.841 4.550836086273193 -1.4107029002955933 1.9814332167254847 -2.1415306530394496 -1.570801083241598 1.4092217683792114 0.0 0.0 -0.0 3.651643668184041e-40 -0.0 -0.0 1 True False
25266.891 4.550836086273193 -1.4106819939664383 1.9814489523517054 -2.1415306530394496 -1.5708211104022425 1.4092587232589722 0.0 0.0 -0.0 0.0 -0.0 -0.0 1 True False
25266.941 4.550832748413086 -1.410694183116295 1.9814375082599085 -2.1415349445738734 -1.570784870778219 1.409263014793396 0.0 0.0 -0.0 0.0 -0.0 -0.0 1 True False
25266.990999999998 4.550803184509277 -1.4106776279262085 1.9814284483539026 -2.141562601129049 -1.570784870778219 1.4091886281967163 0.0 0.0 -0.0 0.0 -0.0 -0.0 1 True False
25267.040999999997 4.550853729248047 -1.4107028853944321 1.9814818541156214 -2.1415511570372523 -1.570784870778219 1.4092247486114502 0.0 0.0 -0.0 0.0 -0.0 -0.0 1 True False
25267.091 4.550807476043701 -1.410673366194107 1.9814284483539026 -2.141594549218649 -1.5707925001727503 1.409267783164978 0.0 0.0 -0.0 0.0 -0.0 -0.0 1 True False
25267.141 4.550828456878662 -1.4106906217387696 1.9814818541156214 -2.141506334344381 -1.5708211104022425 1.409196376800537 0.0 0.0 -0.0 0.0 -0.0 -0.0 1 True False
25267.191 4.550803184509277 -1.4107115429690857 1.981457535420553 -2.1415349445738734 -1.5708492437945765 1.4092397689819336 0.0 0.0 -0.0 0.0 -5.965882454717075e-09 0.0003185789391864091 1 True False
25267.240999999998 4.550840377807617 -1.410685585146286 1.9814656416522425 -2.1415306530394496 -1.570772949849264 1.4092497825622559 0.0 0.0 -0.0 0.0 3.1673953344579786e-05 0.0016265371814370155 1 True False
25267.290999999997 4.550812244415283 -1.4106657218984147 1.981429402028219 -2.1415349445738734 -1.57074481645693 1.4092307090759277 0.0 0.0 -0.0 0.0 3.649099251934462e-15 -0.00014763054787181318 1 True False
25267.341 4.550774574279785 -1.4106733363917847 1.981457535420553 -2.141550680200094 -1.5707891623126429 1.4092097282409668 0.0 0.0 -0.0 0.0 5.542992183424648e-34 -8.509909418618812e-20 1 True False
25267.391 4.550825595855713 -1.4107396316579361 1.9814665953265589 -2.1415306530394496 -1.570813004170553 1.4093692302703857 -0.003949756268411875 -0.0018363632261753082 -1.478849327440912e-07 0.0 0.0 0.022970564663410187 1 True False
25267.441 4.550186634063721 -1.410899118786194 1.9812615553485315 -2.1410795650877894 -1.5707767645465296 1.4120265245437622 -0.017031211405992508 -0.009228300303220749 -0.008351861499249935 0.012711438350379467 0.0 0.08538740128278732 1 True False
25267.490999999998 4.549070835113525 -1.4115178895047684 1.9808257261859339 -2.1398526630797328 -1.5707767645465296 1.4182357788085938 -0.030878907069563866 -0.016835086047649384 -0.01156439445912838 0.030888043344020844 0.0 0.1563471257686615 1 True False
25267.540999999997 4.547183036804199 -1.412603036766388 1.9799192587481897 -2.1381408176817835 -1.570813004170553 1.4278994798660278 -0.0452314168214798 -0.02448791079223156 -0.019210070371627808 0.04459184780716896 0.0 0.23016950488090515 1 True False
25267.591 4.544594764709473 -1.413942889576294 1.9789288679706019 -2.135553022424215 -1.5707529226886194 1.4411427974700928 -0.056754641234874725 -0.031889013946056366 -0.024427177384495735 0.05082672834396362 0.0 0.29117441177368164 1 True False
25267.641 4.541260242462158 -1.415731058721878 1.9775503317462366 -2.1324974499144496 -1.5707648436175745 1.4576719999313354 -0.07087991386651993 -0.04050823301076889 -0.028979044407606125 0.07212252914905548 0.0 0.3645429015159607 1 True False
25267.691 4.537355422973633 -1.4179045271924515 1.9757903257953089 -2.1286732159056605 -1.5707886854754847 1.477847695350647 -0.08961182832717896 -0.04613654315471649 -0.03679102286696434 0.08417148143053055 0.0 0.43530651926994324 1 True False
25267.740999999998 4.532721996307373 -1.4203885656646271 1.9738057295428675 -2.124409338037008 -1.5707648436175745 1.5015865564346313 -0.10054753720760345 -0.05548858642578125 -0.04036590829491615 0.09207697212696075 0.0 0.5041400194168091 1 True False
25267.790999999997 4.527345657348633 -1.4231768113425751 1.971699062977926 -2.119293352166647 -1.5707686583148401 1.5285619497299194 -0.11254724860191345 -0.0617884062230587 -0.04716634377837181 0.10301915556192398 0.0 0.5781964659690857 1 True False
25267.841 4.521363258361816 -1.4264651399901886 1.969313923512594 -2.1134478054442347 -1.5708368460284632 1.5592091083526611 -0.12498100101947784 -0.06834909319877625 -0.04864376410841942 0.11945947259664536 0.0 0.6449669599533081 1 True False
25267.891 4.514703273773193 -1.4300252062133332 1.9663317839251917 -2.1071344814696253 -1.5707686583148401 1.5934016704559326 -0.14079095423221588 -0.07892606407403946 -0.06085185706615448 0.135301873087883 0.0 0.7162842750549316 1 True False
25267.941 4.507310390472412 -1.4340280157378693 1.9634364287005823 -2.1001483402647914 -1.5708168188678187 1.630961537361145 -0.15309473872184753 -0.08326601982116699 -0.06087860092520714 0.14773687720298767 0.0 0.7821680903434753 1 True False
25267.990999999998 4.499265193939209 -1.4383176875165482 1.9600499312030237 -2.092506547967428 -1.5707929770099085 1.6719917058944702 -0.16970887780189514 -0.08816313743591309 -0.07201763987541199 0.15155744552612305 0.0 0.8508882522583008 1 True False
25268.040999999997 4.490410327911377 -1.4430316251567383 1.9564746061908167 -2.08416285137319 -1.5707767645465296 1.7165344953536987 -0.18205437064170837 -0.09541092067956924 -0.07008440792560577 0.16639654338359833 0.0 0.9308616518974304 1 True False
25268.091 4.481022357940674 -1.4480662283352395 1.952531639729635 -2.075390478173727 -1.5708168188678187 1.7645817995071411 -0.1935301274061203 -0.10214458405971527 -0.0824720710515976 0.1755201667547226 0.0 0.990015983581543 1 True False
25268.141 4.471027374267578 -1.4534228083542367 1.9484060446368616 -2.0656119785704554 -1.5707929770099085 1.8161603212356567 -0.207621768116951 -0.11033199727535248 -0.08396507799625397 0.2060241550207138 0.0 1.044756293296814 1 True False
25268.191 4.460604667663574 -1.4590373200229187 1.943977181111471 -2.0558673344054164 -1.570813004170553 1.8683815002441406 -0.2046741098165512 -0.11467492580413818 -0.08701687306165695 0.19105415046215057 0.0 1.0514709949493408 1 True False
25268.240999999998 4.450450420379639 -1.4644243580153962 1.9398515860186976 -2.046086927453512 -1.5707524458514612 1.9207861423492432 -0.20126722753047943 -0.10975950211286545 -0.09089530259370804 0.2036922574043274 0.0 1.0400136709213257 1 True False
25268.290999999997 4.440248966217041 -1.469950334434845 1.9355481306659144 -2.0363351307311 -1.5707686583148401 1.9731924533843994 -0.20679250359535217 -0.10764891654253006 -0.0805916041135788 0.1933210790157318 0.0 1.0497996807098389 1 True False
25268.341 4.429789066314697 -1.4755114924958725 1.9312146345721644 -2.026682516137594 -1.5707605520831507 2.0253336429595947 -0.20690548419952393 -0.11037124693393707 -0.0877441018819809 0.19428589940071106 0.0 1.0578488111495972 1 True False
25268.391 4.419527053833008 -1.4808669698289414 1.9270857016192835 -2.016726633111471 -1.5707891623126429 2.077793836593628 -0.19979916512966156 -0.10964344441890717 -0.08482739329338074 0.19728295505046844 0.0 1.0413575172424316 1 True False
25268.441 4.409337043762207 -1.4864364874413987 1.922720734273092 -2.0070506534972132 -1.5708044211017054 2.1303646564483643 -0.20592638850212097 -0.11038282513618469 -0.07963205128908157 0.19353850185871124 0.0 1.0497101545333862 1 True False
25268.490999999998 4.398995399475098 -1.4919989642551919 1.91844350496401 -1.9972835979857386 -1.5707605520831507 2.1825876235961914 -0.2075505554676056 -0.10954981297254562 -0.08976919203996658 0.20601601898670197 0.0 1.0489314794540405 1 True False
25268.540999999997 4.388714790344238 -1.4975533124855538 1.9142335096942347 -1.9873939953246058 -1.5707805792437952 2.234941244125366 -0.20314769446849823 -0.11055716127157211 -0.08096751570701599 0.19248545169830322 0.0 1.0391265153884888 1 True False
25268.591 4.378497123718262 -1.5030236032656212 1.9097641150103968 -1.9778834782042445 -1.570801083241598 2.2874011993408203 -0.20643381774425507 -0.10748503357172012 -0.08412538468837738 0.1966218650341034 0.0 1.046543836593628 1 True False
25268.641 4.368175506591797 -1.508482114677765 1.9057348410235804 -1.9679027996458949 -1.5707805792437952 2.3395142555236816 -0.20476163923740387 -0.10693588107824326 -0.08604831248521805 0.1865260750055313 0.0 1.0446110963821411 1 True False
25268.691 4.3583197593688965 -1.5136821393719693 1.901621166859762 -1.9586512051024378 -1.5707843939410608 2.3895528316497803 -0.186689093708992 -0.10092524439096451 -0.07121102511882782 0.17209069430828094 0.0 0.9541544318199158 1 True False
25268.740999999998 4.349275588989258 -1.5185728830150147 1.8978670279132288 -1.9501263103880824 -1.5707686583148401 2.436023712158203 -0.17244160175323486 -0.0963447093963623 -0.07964502274990082 0.16936850547790527 0.0 0.8973761200904846 1 True False
25268.790999999997 4.340838432312012 -1.5231118251434346 1.8943799177752894 -1.9419313869872035 -1.570813004170553 2.4790308475494385 -0.16573695838451385 -0.08627145737409592 -0.06211846321821213 0.16428692638874054 0.0 0.8164247274398804 1 True False
25268.841 4.332965850830078 -1.5273365762880822 1.891169850026266 -1.934530874291891 -1.5707843939410608 2.518230438232422 -0.14762738347053528 -0.0793948695063591 -0.06743066757917404 0.14425891637802124 0.0 0.7610561847686768 1 True False
25268.891 4.326061248779297 -1.5311128583601494 1.8882201353656214 -1.9277807674803675 -1.5708048979388636 2.554331064224243 -0.13389113545417786 -0.07186548411846161 -0.05600222572684288 0.1324257254600525 0.0 0.6939120292663574 1 True False
25268.941 4.319653511047363 -1.534408238982298 1.88564378419985 -1.9218255482115687 -1.5707967917071741 2.586747884750366 -0.1245792880654335 -0.06426393985748291 -0.05281289666891098 0.12504233419895172 0.0 0.6280617117881775 1 True False
25268.990999999998 4.314026832580566 -1.5375218515149136 1.8831036726581019 -1.9164649448790492 -1.570801083241598 2.6157615184783936 -0.10904195159673691 -0.055474650114774704 -0.04411504417657852 0.10818704962730408 0.0 0.5531307458877563 1 True False
25269.040999999997 4.308906555175781 -1.5401222978583355 1.8810599485980433 -1.9117518864073695 -1.570784870778219 2.641282320022583 -0.09414291381835938 -0.04978453367948532 -0.038801416754722595 0.08858897536993027 0.0 0.4821036756038666 1 True False
25269.091 4.304574966430664 -1.5424356938204546 1.8793414274798792 -1.907468935052389 -1.5707925001727503 2.663489580154419 -0.07721280306577682 -0.0420399010181427 -0.031610578298568726 0.0740426629781723 0.0 0.4012562334537506 1 True False
25269.141 4.301382541656494 -1.5442785017988463 1.8779380957232874 -1.904567380944723 -1.570756737385885 2.679365873336792 -0.04686591774225235 -0.0261529628187418 -0.019375521689653397 0.04786289855837822 0.0 0.2461816370487213 1 True False
25269.191 4.299727439880371 -1.5451683432659884 1.8772509733783167 -1.9029909572997035 -1.5707925001727503 2.688244104385376 -0.024949584156274796 -0.01333413366228342 -0.010513747110962868 0.0222123134881258 0.0 0.11973055452108383 1 True False
25269.240999999998 4.299107551574707 -1.545358232488372 1.8771079222308558 -1.9024249515929164 -1.5708044211017054 2.69157338142395 -0.0012485625920817256 -0.0006769881001673639 -0.0006984016508795321 0.0011079973774030805 0.0 0.02141367644071579 1 True False
25269.290999999997 4.299094200134277 -1.545410470371582 1.8771160284625452 -1.9023529491820277 -1.5708335081683558 2.6916732788085938 -6.196700996952131e-05 -0.0010876449523493648 -0.0007024924270808697 -6.263872637646273e-05 0.0 -2.2153688605808242e-11 1 True False
25269.341 4.299082279205322 -1.545459361081459 1.8770483175860804 -1.9023529491820277 -1.5707648436175745 2.691723108291626 -4.995588096790016e-05 -0.0012206707615405321 -0.0009263786487281322 -1.2788143521902384e-06 0.0 0.0006729846354573965 1 True False
25269.391 4.299083709716797 -1.545497230519988 1.8769915739642542 -1.9023610554137171 -1.5707767645465296 2.6917080879211426 -0.0009027566993609071 -0.0005684606148861349 -0.0005792374140582979 0.0008248160011135042 0.0 0.0010296747786924243 1 True False
25269.441 4.299042224884033 -1.5455134001425286 1.877016846333639 -1.902297159234518 -1.5707805792437952 2.691788911819458 -0.0003355394001118839 -0.00021058098354842514 -0.00021165504585951567 0.0007184906280599535 0.0 0.0002471930056344718 1 True False
25269.490999999998 4.299022674560547 -1.5454819959453125 1.8769915739642542 -1.9023171863951625 -1.5708211104022425 2.691797971725464 -0.0002546963223721832 -0.0001225272862939164 -0.00011503268615342677 0.0003779191174544394 0.0 0.00012493388203438371 1 True False
25269.540999999997 4.29904317855835 -1.5454906032285471 1.8770039717303675 -1.9022404156126917 -1.5707805792437952 2.691842555999756 -0.00014486124564427882 -6.492138345493004e-05 -7.898063631728292e-05 0.00019173187320120633 0.0 9.234147000825033e-05 1 True False
25269.591 4.2990403175354 -1.5455177587321778 1.8769720236407679 -1.9022733173766078 -1.5707925001727503 2.691802501678467 -7.793917029630393e-05 -1.432554162100752e-12 -9.047223326313384e-22 0.00010891433339565992 0.0 3.852987902064342e-07 1 True False
25269.641 4.299006462097168 -1.545485633691289 1.8769634405719202 -1.9022733173766078 -1.5707805792437952 2.691814422607422 -6.366132013907455e-12 0.0 -0.0 7.604583515785635e-05 0.0 5.8526971064931e-26 1 True False
25269.691 4.2990312576293945 -1.5455262561193486 1.8770330587970179 -1.9022733173766078 -1.570829216633932 2.691802501678467 0.0 0.0 -0.0 4.683036715854663e-18 0.0 8.407790785948902e-45 1 True False
25269.740999999998 4.299063682556152 -1.5455230691334982 1.877016846333639 -1.9022852383055628 -1.5707648436175745 2.691809892654419 0.0 0.0 -0.0 7.113543004403838e-37 0.0 1.7505501811307256e-19 1 True False
25269.790999999997 4.298990249633789 -1.545449513276555 1.8770211378680628 -1.902269025842184 -1.570813004170553 2.6917765140533447 0.0 0.0 -0.0 1.0505264436133643e-09 0.0 2.659089112139051e-38 1 True False
25269.841 4.298977851867676 -1.545530616571643 1.8770082632647913 -1.9023052654662074 -1.5708492437945765 2.691788911819458 0.0 0.0 -0.0 1.5957517647282693e-28 0.0 0.0 1 True False
25269.891 4.29904317855835 -1.5455015555820246 1.8770416418658655 -1.90224089244985 -1.570772949849264 2.6917765140533447 0.0 0.0 -0.0 0.0 0.0 0.0 1 True False
25269.941 4.299051761627197 -1.5455382627299805 1.8770044485675257 -1.9022728405394496 -1.570813004170553 2.691814422607422 0.0 -2.7095587058767467e-12 4.8240959586109966e-05 0.0 0.0 0.0 1 True False
25269.990999999998 4.298966407775879 -1.5455102075687428 1.8770001570331019 -1.902297159234518 -1.5708211104022425 2.691830635070801 0.0 0.0 2.061381564999465e-05 0.0 0.0 0.0 1 True False
25270.040999999997 4.299035549163818 -1.5454819419286032 1.8769915739642542 -1.902269025842184 -1.570845905934469 2.6918113231658936 0.0 0.0 1.3107938684697729e-05 0.0 0.0 0.0 1 True False
25270.091 4.298945426940918 -1.5455968503705044 1.8769930044757288 -1.90226473430776 -1.5708168188678187 2.691771984100342 0.0 0.0 1.4006384940756789e-09 0.0 0.0 0.0 1 True False
25270.141 4.2990193367004395 -1.5455102075687428 1.876995865498678 -1.9022771320738734 -1.5707925001727503 2.691800832748413 0.0 0.0 3.295849784196577e-39 0.0 0.0 0.0 1 True False
25270.191 4.29904317855835 -1.5455013711801548 1.8770125547992151 -1.9022485218443812 -1.5707405249225062 2.691767454147339 0.0 0.0 0.0 0.0 0.0 0.0 1 True False
25270.240999999998 4.298962116241455 -1.545522217904665 1.876995865498678 -1.902252813378805 -1.5707925001727503 2.6918516159057617 0.0 0.0 0.0 0.0 0.0 0.0 1 True False
25270.290999999997 4.299010753631592 -1.5454897855273266 1.8770254294024866 -1.9022933445372523 -1.5707929770099085 2.691802501678467 0.0 0.0 0.0 0.0 0.0 0.0 1 True False
25270.341 4.299047470092773 -1.5455553040704508 1.8770001570331019 -1.902337213555807 -1.570784870778219 2.6917765140533447 0.0 0.0 0.0 0.0 0.0 0.0 1 True False
25270.391 4.298966407775879 -1.5454402671060343 1.8769806067096155 -1.9023009739317835 -1.570813004170553 2.691718578338623 0.0 0.0 0.0 0.0 0.0 0.0 1 True False
25270.441 4.298953533172607 -1.545503196572401 1.8769796530352991 -1.9022852383055628 -1.5707486311541956 2.691793441772461 0.0 0.0 0.0 0.0 0.0 0.0 1 True False
25270.490999999998 4.299034595489502 -1.5455133088729163 1.877021614705221 -1.9022766552367152 -1.570784870778219 2.691771984100342 0.0 0.0 0.0 0.0 0.0 0.0 1 True False
25270.540999999997 4.298969268798828 -1.545464228173234 1.877021614705221 -1.9022890530028285 -1.5707967917071741 2.691739320755005 0.0 0.0 1.2975760513109054e-32 0.0 0.0 0.0 1 True False
25270.591 4.2990031242370605 -1.545564229866006 1.876962963734762 -1.9022609196104945 -1.5708168188678187 2.6918516159057617 0.0 0.0 0.0 0.0 0.0 0.0 1 True False
25270.641 4.299010753631592 -1.5455031611821433 1.877033535634176 -1.9022771320738734 -1.5707605520831507 2.691814422607422 0.0 0.0 0.0 0.0 0.0 0.0 1 True False
25270.691 4.299035549163818 -1.5454853449812909 1.877033535634176 -1.9022852383055628 -1.5707925001727503 2.6917810440063477 0.0 0.0 0.0 0.0 0.0 0.0 1 True False
25270.740999999998 4.29906702041626 -1.5454941292158146 1.877021614705221 -1.902297159234518 -1.570756737385885 2.6917810440063477 0.0 0.0 0.0 0.0 0.0 0.0 1 True False
25270.790999999997 4.298990249633789 -1.5454641629806538 1.87706166902651 -1.9022370777525843 -1.5707767645465296 2.6918351650238037 0.0 0.0 0.0 0.0 0.0 0.0 1 True False
25270.841 4.2989821434021 -1.5455102075687428 1.8769720236407679 -1.9022566280760707 -1.5708048979388636 2.691814422607422 0.0 0.0 0.0 0.0 0.0 0.0 1 True False
25270.891 4.2990312576293945 -1.545571682309248 1.8769844214068812 -1.9023128948607386 -1.5707805792437952 2.691755533218384 0.0 0.0 7.696195109070912e-30 0.0 0.0 0.0 1 True False
25270.941 4.298957824707031 -1.5454853282174845 1.876991097127096 -1.9022890530028285 -1.570829216633932 2.6917898654937744 0.0 0.0 0.0 -4.828909624596256e-13 0.0 0.0 1 True False
25270.990999999998 4.299067974090576 -1.5455102075687428 1.8770630995379847 -1.9022733173766078 -1.570801083241598 2.6917855739593506 0.0 0.0 0.0 -7.335123540444651e-32 0.0 0.0 1 True False
25271.040999999997 4.298977851867676 -1.5455475126257916 1.8769796530352991 -1.9023128948607386 -1.5708044211017054 2.6917645931243896 0.0 0.0 0.0 -0.0 0.0 0.0 1 True False
25271.091 4.299050807952881 -1.5455013786307354 1.8770540396319788 -1.902280946771139 -1.570784870778219 2.6917765140533447 0.0 0.0 0.0 -0.0 0.0 0.0 1 True False
25271.141 4.2989821434021 -1.545513329362013 1.876995865498678 -1.9023052654662074 -1.5707972685443323 2.691784620285034 0.0 0.0 0.0 -0.0 0.0 0.0 1 True False
25271.191 4.299010753631592 -1.5454853282174845 1.8769844214068812 -1.9022852383055628 -1.5708091894732874 2.691767454147339 0.0 0.0 0.0 -0.0 0.0 0.0 1 True False
25271.240999999998 4.299026966094971 -1.545496930634119 1.877049748097555 -1.902292867700094 -1.57074481645693 2.691847085952759 0.0 0.0 0.0 -0.0 0.0 0.0 1 True False
25271.290999999997 4.299026966094971 -1.5455191687545557 1.87695819536318 -1.9023128948607386 -1.5708048979388636 2.691784620285034 0.0 0.0 0.0 -0.0 0.0 0.0 1 True False
25271.341 4.2990312576293945 -1.5454908453724165 1.877028767262594 -1.9022523365416468 -1.5708168188678187 2.6917765140533447 0.0 0.0 0.0 -0.0 0.0 0.0 1 True False
25271.391 4.29904317855835 -1.5455013786307354 1.8770573774920862 -1.90226473430776 -1.5708087126361292 2.691805362701416 0.0 0.0 0.0 -0.0 0.0 0.0 1 True False
25271.441 4.298981666564941 -1.5455087640187521 1.877021614705221 -1.9023052654662074 -1.5707724730121058 2.691797971725464 0.0 0.0 0.0 -0.0 0.0 0.0 1 True False
25271.490999999998 4.299047470092773 -1.5455206737718363 1.8770406881915491 -1.902297159234518 -1.5707805792437952 2.691821813583374 0.0 0.0 0.0 -0.0 0.0 0.0 1 True False
25271.540999999997 4.299010753631592 -1.5455013786307354 1.8770411650287073 -1.9022766552367152 -1.5708006064044397 2.6918559074401855 0.0 5.194597464848461e-13 0.0 -0.0 0.0 0.0 1 True False
25271.591 4.29904317855835 -1.5455058378032227 1.876995865498678 -1.9022852383055628 -1.5707843939410608 2.6917600631713867 0.0 0.0 0.0 -0.0 0.0 0.0 1 True False
25271.641 4.299026966094971 -1.5454923559776326 1.877016846333639 -1.9022852383055628 -1.5708087126361292 2.691814422607422 0.0 0.0 0.0 -0.0 0.0 0.0 1 True False
25271.691 4.299006462097168 -1.5455102075687428 1.8770082632647913 -1.902269025842184 -1.5707805792437952 2.6917765140533447 0.0 0.0 0.0 -0.0 0.0 0.0 1 True False
25271.740999999998 4.299026966094971 -1.5455296796611329 1.877042595540182 -1.902297159234518 -1.5708211104022425 2.691797971725464 0.0 0.0 0.0 -0.0 0.0 0.0 1 True False
25271.790999999997 4.298989772796631 -1.5454941552928467 1.8769930044757288 -1.9022852383055628 -1.5708091894732874 2.691797971725464 0.0 0.0 0.0 -0.0 0.0 0.0 1 True False
25271.841 4.299022674560547 -1.5455508355847378 1.8770092169391077 -1.9022766552367152 -1.5707891623126429 2.6917943954467773 0.0 0.0 0.0 -0.0 0.0 0.0 1 True False
25271.891 4.299047946929932 -1.5455554009279986 1.8770378271686 -1.9022566280760707 -1.5708211104022425 2.691793441772461 0.0 0.0 0.0 -0.0 0.0 0.0 1 True False
25271.941 4.298973083496094 -1.5454864625683804 1.8770001570331019 -1.902309080163473 -1.570772949849264 2.6918351650238037 0.0 0.0 0.0 -0.0 0.0 0.0 1 True False
25271.990999999998 4.299018383026123 -1.5454774510911484 1.8770001570331019 -1.9022609196104945 -1.5707925001727503 2.6918396949768066 0.0 0.0 0.0 -0.0 0.0 0.0 1 True False
25272.040999999997 4.298998832702637 -1.5454897855273266 1.8769992033587855 -1.9023009739317835 -1.5708211104022425 2.691784620285034 0.0 0.0 0.0 -0.0 0.0 0.0 1 True False
25272.091 4.298965930938721 -1.545452258815505 1.877028767262594 -1.902337213555807 -1.5708211104022425 2.691830635070801 0.0 0.0 0.0 -0.0 0.0 0.0 1 True False
25272.141 4.298994541168213 -1.5455058638802548 1.87695819536318 -1.9022566280760707 -1.5708091894732874 2.691797971725464 0.0 0.0 0.0 -0.0 0.0 0.0 1 True False
25272.191 4.299015045166016 -1.5454853282174845 1.877028767262594 -1.9022523365416468 -1.570829216633932 2.691805362701416 0.0 0.0 0.0 -0.0 0.0 0.0 1 True False
25272.240999999998 4.299047946929932 -1.5455058378032227 1.8769796530352991 -1.902297159234518 -1.5707724730121058 2.691805362701416 0.0 0.0 0.0 -0.0 0.0 0.0 1 True False
25272.290999999997 4.2989821434021 -1.5454969213208933 1.877016846333639 -1.902292867700094 -1.570801083241598 2.6917765140533447 0.0 0.0 0.0 -0.0 0.0 0.0 1 True False
25272.341 4.299052715301514 -1.5455222253552456 1.8770001570331019 -1.9022566280760707 -1.5707767645465296 2.691847085952759 0.0 0.0 0.0 -0.0 0.0 0.0 1 True False
25272.391 4.299059867858887 -1.5455101684531947 1.877016846333639 -1.9022885761656703 -1.5708087126361292 2.6918232440948486 0.0 0.0 0.0 -0.0 0.0 0.0 1 True False
25272.441 4.2989821434021 -1.545449287896492 1.8769844214068812 -1.90226473430776 -1.5708168188678187 2.691814422607422 0.0 0.0 0.0 -0.0 0.0 0.0 1 True False
25272.490999999998 4.298973083496094 -1.545522217904665 1.8769705931292933 -1.9023128948607386 -1.570784870778219 2.691821813583374 0.0 0.0 0.0 -0.0 0.0 0.0 1 True False
25272.540999999997 4.298973083496094 -1.5455251795104523 1.877028767262594 -1.902280946771139 -1.570813004170553 2.691739320755005 0.0 0.0 0.0 -0.0 0.0 0.0 1 True False
25272.591 4.298998832702637 -1.545526623060443 1.8770001570331019 -1.9022852383055628 -1.5708048979388636 2.6917810440063477 0.0 0.0 0.0 -0.0 0.0 0.0 1 True False
25272.641 4.299003601074219 -1.5455222346684714 1.877021614705221 -1.902325292626852 -1.5707686583148401 2.6917765140533447 0.0 0.0 0.0 -0.0 0.0 0.0 1 True False
25272.691 4.299022674560547 -1.5455311250737687 1.8769796530352991 -1.9022609196104945 -1.570784870778219 2.6917898654937744 0.0 0.0 0.0 -0.0 0.0 0.0 1 True False
25272.740999999998 4.299034595489502 -1.5454809137484808 1.8769825140582483 -1.9022370777525843 -1.570813004170553 2.6918351650238037 0.0 0.0 0.0 -0.0 0.0 0.0 1 True False
25272.790999999997 4.299010753631592 -1.5454191018692036 1.8770001570331019 -1.9022847614684046 -1.5708087126361292 2.691718578338623 0.0 0.0 0.0 -0.0 0.0 0.0 1 True False
25272.841 4.299031734466553 -1.54552658580754 1.876995865498678 -1.9022771320738734 -1.570756737385885 2.6917645931243896 0.0 0.0 0.0 -0.0 0.0 0.0 1 True False
25272.891 4.299010753631592 -1.5454774622670193 1.876995865498678 -1.902337213555807 -1.5707605520831507 2.6917943954467773 0.0 0.0 0.0 -0.0 0.0 0.0 1 True False
25272.941 4.298989772796631 -1.5454986852458497 1.8769844214068812 -1.9023248157896937 -1.5708373228656214 2.691838026046753 0.0 0.0 0.0 -0.0 0.0 0.0 1 True False
25272.990999999998 4.299038887023926 -1.54552658580754 1.8769844214068812 -1.9023128948607386 -1.570801083241598 2.691797971725464 0.0 0.0 0.0 -0.0 0.0 0.0 1 True False
25273.040999999997 4.29900598526001 -1.5454774753055354 1.8770526091205042 -1.902252813378805 -1.5708373228656214 2.6918022632598877 -2.497682403265611e-31 0.0 0.0 -0.0 0.0 0.0 1 True False
25273.091 4.298994541168213 -1.5454853319427748 1.876967732106344 -1.902349134484762 -1.5707925001727503 2.691793441772461 0.0 0.0 0.0 -0.0 0.0 0.0 1 True False
25273.141 4.298974990844727 -1.5455385961434622 1.876995865498678 -1.9022890530028285 -1.5707805792437952 2.69180965423584 0.0 0.0 0.0 -0.0 0.0 0.0 1 True False
25273.191 4.299001693725586 -1.5455429659089823 1.8769262472735804 -1.902269025842184 -1.5708087126361292 2.6918258666992188 0.0 0.0 0.0 -0.0 0.0 0.0 1 True False
25273.240999999998 4.299068927764893 -1.5454897855273266 1.8769753615008753 -1.9023286304869593 -1.5708449522601526 2.691805362701416 0.0 0.0 0.0 -0.0 0.0 0.0 1 True False
25273.290999999997 4.299031734466553 -1.5454897855273266 1.877028767262594 -1.902292867700094 -1.570784870778219 2.691793441772461 0.0 0.0 0.0 -0.0 0.0 0.0 1 True False
25273.341 4.298973083496094 -1.545461069127061 1.877028767262594 -1.9022852383055628 -1.570801083241598 2.691772222518921 0.0 0.0 0.0 -0.0 0.0 0.0 1 True False
25273.391 4.298997402191162 -1.5454808690449973 1.876962963734762 -1.9022609196104945 -1.5708492437945765 2.6918141841888428 0.0 0.0 0.0 -0.0 0.0 0.0 1 True False
25273.441 4.298952579498291 -1.545494172056653 1.877016846333639 -1.9023009739317835 -1.5707767645465296 2.6917409896850586 0.0 0.0 0.0 -0.0 0.0 0.0 1 True False
25273.490999999998 4.298994541168213 -1.5455058191767712 1.877016846333639 -1.9022966823973597 -1.5708335081683558 2.6918506622314453 0.0 5.744908992966202e-10 0.0 -0.0 0.0 0.0 1 True False
25273.540999999997 4.299001693725586 -1.5454863917878647 1.8770244757281702 -1.9023047886290492 -1.5708335081683558 2.691789150238037 0.0 0.0 0.0 -0.0 0.0 0.0 1 True False
25273.591 4.299026966094971 -1.5455013711801548 1.8770416418658655 -1.902280946771139 -1.570801083241598 2.691793441772461 0.0 0.0 0.0 -0.0 0.0 0.0 1 True False
25273.641 4.299059867858887 -1.545456663971283 1.8769634405719202 -1.9023205242552699 -1.5708449522601526 2.691817283630371 0.0 0.0 0.0 -0.0 0.0 0.0 1 True False
25273.691 4.2989821434021 -1.5455177587321778 1.876967732106344 -1.902269025842184 -1.5707843939410608 2.691805362701416 0.0 0.0 0.0 -0.0 0.0 0.0 1 True False
25273.891 4.298968315124512 -1.5454685662737866 1.876995865498678 -1.902292867700094 -1.5707724730121058 2.69180965423584 0.0 0.0 0.0 -0.0 0.0 0.0 1 True False
25273.941 4.299013614654541 -1.5454864476672192 1.8770211378680628 -1.9023047886290492 -1.5707686583148401 2.6917810440063477 0.0 0.0 0.0 -0.0 0.0 0.0 1 True False
25273.990999999998 4.298973083496094 -1.5454656158438702 1.8770001570331019 -1.902292867700094 -1.5707891623126429 2.691789150238037 0.0 0.0 0.0 -0.0 0.0 0.0 1 True False
25274.040999999997 4.299064636230469 -1.5454686109772702 1.8769844214068812 -1.902224679986471 -1.5707529226886194 2.6917648315429688 0.0 0.0 0.0 -0.0 0.0 0.0 1 True False
25274.091 4.299047946929932 -1.54552658580754 1.8770201841937464 -1.9022566280760707 -1.5707929770099085 2.6918303966522217 0.0 0.0 0.0 -0.0 0.0 0.0 1 True False
25274.141 4.298994541168213 -1.54552658580754 1.8770201841937464 -1.90224089244985 -1.5707648436175745 2.6918141841888428 0.0 0.0 0.0 -0.0 0.0 0.0 1 True False
25274.191 4.299034595489502 -1.5454853282174845 1.8770492712603968 -1.9022966823973597 -1.5708325544940394 2.691760540008545 0.0 0.0 0.0 -0.0 0.0 0.0 1 True False
25274.240999999998 4.298994541168213 -1.5455076203546305 1.8770125547992151 -1.902297159234518 -1.5708416144000452 2.691829204559326 0.0 0.0 0.0 -0.0 0.0 0.0 1 True False
25274.290999999997 4.299010753631592 -1.545461069127061 1.8770125547992151 -1.902280946771139 -1.5707643667804163 2.691821575164795 0.0 0.0 0.0 -0.0 0.0 0.0 1 True False
25274.341 4.298973083496094 -1.5455553040704508 1.8770330587970179 -1.9022728405394496 -1.5708168188678187 2.691805362701416 0.0 0.0 0.0 -0.0 0.0 0.0 1 True False
25274.391 4.299038887023926 -1.5455341388336201 1.877016846333639 -1.902292867700094 -1.5708048979388636 2.691797971725464 0.0 0.0 0.0 -0.0 0.0 0.0 1 True False
25274.441 4.299015045166016 -1.5455596719733258 1.8770039717303675 -1.9022566280760707 -1.5707886854754847 2.691797971725464 0.0 0.0 0.0 -0.0 0.0 0.0 1 True False
25274.490999999998 4.298994541168213 -1.5455058117261906 1.8770373503314417 -1.902309080163473 -1.570784870778219 2.691772222518921 0.0 0.0 0.0 -0.0 0.0 0.0 1 True False
25274.540999999997 4.298985481262207 -1.545494172056653 1.877056900654928 -1.9022289715208949 -1.5708087126361292 2.691740036010742 0.0 0.0 0.0 -0.0 0.0 0.0 1 True False
25274.591 4.299047946929932 -1.545494145979621 1.8770082632647913 -1.9022890530028285 -1.5707686583148401 2.691801071166992 0.0 0.0 0.0 -0.0 0.0 0.0 1 True False
25274.641 4.29900598526001 -1.5455102075687428 1.8770330587970179 -1.9022566280760707 -1.570784870778219 2.691760301589966 0.0 0.0 0.0 -0.0 0.0 0.0 1 True False
25274.691 4.298973083496094 -1.5455102150193234 1.8770082632647913 -1.9022852383055628 -1.570784870778219 2.6918141841888428 0.0 0.0 0.0 -0.0 0.0 0.0 1 True False
25274.740999999998 4.299015045166016 -1.545522217904665 1.876995865498678 -1.902269025842184 -1.5707610289203089 2.691801071166992 0.0 0.0 0.0 -0.0 0.0 0.0 1 True False
25274.790999999997 4.298981666564941 -1.5454403583756466 1.8770158926593226 -1.9022885761656703 -1.5708335081683558 2.6917691230773926 0.0 0.0 0.0 -0.0 0.0 0.0 1 True False
25274.841 4.299031734466553 -1.5454864625683804 1.877028767262594 -1.902337213555807 -1.57074481645693 2.691789150238037 0.0 0.0 0.0 -0.0 0.0 0.0 1 True False
25274.891 4.299022674560547 -1.5454941906831046 1.8770654837237757 -1.9022566280760707 -1.5707967917071741 2.69174861907959 0.0 0.0 0.0 -0.0 0.0 0.0 1 True False
25274.941 4.298961639404297 -1.545494084512331 1.876995865498678 -1.9022566280760707 -1.5707967917071741 2.6917853355407715 0.0 0.0 0.0 -0.0 0.0 0.0 1 True False
25274.990999999998 4.299010753631592 -1.545494084512331 1.8769844214068812 -1.9022523365416468 -1.5707648436175745 2.6917848587036133 0.0 0.0 0.0 -0.0 0.0 0.0 1 True False
25275.040999999997 4.299015045166016 -1.5454774492285033 1.877033535634176 -1.9022609196104945 -1.5707405249225062 2.6918227672576904 0.0 0.0 0.0 -0.0 0.0 0.0 1 True False
25275.091 4.299055576324463 -1.5455031611821433 1.877016846333639 -1.9022566280760707 -1.5708373228656214 2.691797971725464 0.0 0.0 0.0 -0.0 0.0 0.0 1 True False
25275.141 4.299022674560547 -1.5454491686872025 1.8770411650287073 -1.9022442303099574 -1.5708568731891077 2.6917636394500732 0.0 0.0 0.0 -0.0 0.0 0.0 1 True False
25275.191 4.299006462097168 -1.545498702009656 1.8770044485675257 -1.9022404156126917 -1.5707691351519983 2.691789150238037 0.0 0.0 0.0 -0.0 0.0 0.0 1 True False
25275.240999999998 4.299006462097168 -1.54552658580754 1.8769844214068812 -1.902292867700094 -1.5707767645465296 2.6918022632598877 0.0 0.0 0.0 -0.0 0.0 0.0 1 True False
25275.290999999997 4.299031734466553 -1.5454853282174845 1.8770092169391077 -1.9022404156126917 -1.5708487669574183 2.691767930984497 0.0 0.0 0.0 -0.0 0.0 0.0 1 True False
25275.341 4.299043655395508 -1.5455102243325491 1.877033535634176 -1.9022566280760707 -1.5707529226886194 2.6917810440063477 0.0 0.0 0.0 -0.0 0.0 0.0 1 True False
25275.391 4.2990570068359375 -1.5454656158438702 1.8769930044757288 -1.9022933445372523 -1.5708330313311976 2.6918065547943115 0.0 0.0 0.0 -0.0 0.0 0.0 1 True False
25275.441 4.299026966094971 -1.545480878358223 1.876962963734762 -1.902252813378805 -1.5707691351519983 2.6917810440063477 0.0 0.0 0.0 -0.0 0.0 0.0 1 True False
25275.490999999998 4.298973083496094 -1.545485309591033 1.8769586722003382 -1.9023291073241175 -1.5707967917071741 2.691797971725464 0.0 0.0 0.0 -0.0 0.0 0.0 1 True False
