Andreas691667/Digital_Twin_UR/src/controller_monitor/robot_output/DUM_robot_output.csv
timestamp actual_q_0 actual_q_1 actual_q_2 actual_q_3 actual_q_4 actual_q_5 actual_qd_0 actual_qd_1 actual_qd_2 actual_qd_3 actual_qd_4 actual_qd_5 safety_status output_bit_register_65 output_bit_register_66
31746.038999999997 3.7120492458343506 -0.8254956764033814 0.8430584112750452 -1.5882889233031214 -1.5708168188678187 2.141263246536255 0.0 0.0 0.0 -0.0 -0.0 -0.0 1 False False
31746.089 3.7120819091796875 -0.825463132267334 0.8430169264422815 -1.5882774792113246 -1.570784870778219 2.141249656677246 0.0 0.0 0.0 -0.0 -0.0 -0.0 1 False False
31746.139 3.7120907306671143 -0.8254750531962891 0.8429964224444788 -1.5882932148375453 -1.570756737385885 2.141270637512207 0.0 0.0 0.0 -0.0 -0.0 -0.0 1 False False
31746.189 3.7120535373687744 -0.8254750531962891 0.8429964224444788 -1.5882569752135218 -1.5707843939410608 2.141249656677246 0.0 0.0 0.0 -0.0 -0.0 1.330168061031145e-06 1 False False
31746.238999999998 3.7120580673217773 -0.8254707020572205 0.8429887930499476 -1.5882650814452113 -1.5708087126361292 2.141334056854248 1.7804020569981e-15 0.0 0.0 -0.0 -0.0 6.540670088872602e-11 1 False False
31746.288999999997 3.712045907974243 -0.825490729217865 0.8430169264422815 -1.5882774792113246 -1.5707886854754847 2.141321897506714 0.0 0.0 0.0 -0.0 -0.0 9.935290290212126e-30 1 False False
31746.339 3.712110996246338 -0.8254913252643128 0.8429930845843714 -1.5882731876769007 -1.570784870778219 2.14131760597229 0.0 0.0 0.0 -0.0 -0.0 0.0 1 False False
31746.389 3.7121024131774902 -0.8254956167987366 0.8429964224444788 -1.5882846317686976 -1.5707925001727503 2.141267776489258 0.0 0.0 0.0 -0.0 -0.0 0.0 1 False False
31746.439 3.7120862007141113 -0.8254913252643128 0.8429635206805628 -1.5882817707457484 -1.5707686583148401 2.141287088394165 0.0 0.0 0.0 -0.0 -0.0 0.0 1 False False
31746.488999999998 3.712110996246338 -0.825549380188324 0.8430169264422815 -1.5882889233031214 -1.5708048979388636 2.141322135925293 0.0 0.0 0.0 -0.0 -0.0 0.0 1 False False
31746.538999999997 3.7120776176452637 -0.8254869741252442 0.8429721037494105 -1.588280817071432 -1.570801083241598 2.14131760597229 0.0 0.0 0.0 -0.0 -0.0 0.0 1 False False
31746.589 3.712110996246338 -0.8254950207522889 0.8430126349078577 -1.5883332691588343 -1.5707925001727503 2.141308546066284 0.0 0.0 0.0 -0.0 -0.0 0.0 1 False False
31746.639 3.7120416164398193 -0.8254456681064148 0.8430169264422815 -1.5882817707457484 -1.5707529226886194 2.141329526901245 0.0 0.0 0.0 -0.0 -0.0 0.0 1 False False
31746.689 3.712110996246338 -0.8254674238017579 0.842959229146139 -1.5883008442320765 -1.5707767645465296 2.14131760597229 0.0 0.0 0.0 -0.0 -0.0 0.0 1 False False
31746.738999999998 3.7120537757873535 -0.8254544895938416 0.8430092970477503 -1.5882727108397425 -1.5707724730121058 2.141284227371216 0.0 0.0 0.0 -0.0 -0.0 0.0 1 False False
31746.788999999997 3.7120494842529297 -0.8255124849132081 0.8429563681231897 -1.5882531605162562 -1.570813004170553 2.141263246536255 0.0 0.0 0.0 -0.0 -0.0 0.0 1 False False
31746.839 3.7121024131774902 -0.8254956167987366 0.8429845015155237 -1.5882650814452113 -1.5707805792437952 2.14127516746521 0.0 0.0 0.0 -0.0 -0.0 0.0 1 False False
31746.889 3.7120981216430664 -0.82552524030719 0.8430050055133265 -1.588292738000387 -1.5708168188678187 2.141296148300171 0.0 0.0 0.0 -0.0 -0.0 -9.044265665898657e-23 1 False False
31746.939 3.712106704711914 -0.8254750531962891 0.8430493513690394 -1.5883246860899867 -1.5708087126361292 2.1412723064422607 0.0 0.0 0.0 -0.0 -0.0 -1.3738330144240507e-41 1 False False
31746.988999999998 3.7120656967163086 -0.8254781526378174 0.8429678122149866 -1.588297029534811 -1.570784870778219 2.141284227371216 0.0 0.0 0.0 -0.0 -0.0 -0.0 1 False False
31747.038999999997 3.712110996246338 -0.8255329889110108 0.8430417219745081 -1.588285585443014 -1.5708087126361292 2.141313076019287 0.0 0.0 0.0 -0.0 -0.0 -0.0 1 False False
31747.089 3.712110996246338 -0.8254950803569336 0.8429721037494105 -1.5882727108397425 -1.5708368460284632 2.141247034072876 0.0 0.0 0.0 -0.0 -0.0 -0.0 1 False False
31747.139 3.7121143341064453 -0.825548068886139 0.8429845015155237 -1.5882255039610804 -1.5708044211017054 2.141345977783203 0.0 0.0 0.0 -0.0 -0.0 -0.0 1 False False
31747.189 3.712118625640869 -0.8255124253085633 0.8429678122149866 -1.5882932148375453 -1.5707767645465296 2.141284227371216 9.526534071785102e-34 0.0 0.0 -0.0 -0.0 -0.0 1 False False
31747.238999999998 3.712090492248535 -0.8254588407329102 0.8430054823504847 -1.5882851086058558 -1.5707805792437952 2.1412439346313477 0.0 0.0 0.0 -0.0 -0.0 -0.0 1 False False
31747.288999999997 3.7120819091796875 -0.8255328697017212 0.8429630438434046 -1.5882655582823695 -1.5707643667804163 2.1412885189056396 0.0 0.0 0.0 -0.0 -0.0 -0.0 1 False False
31747.339 3.712110996246338 -0.825438455944397 0.8430293242083948 -1.5882851086058558 -1.5707529226886194 2.141296148300171 0.0 0.0 0.0 -0.0 -0.0 -0.0 1 False False
31747.389 3.712106704711914 -0.8254545491984864 0.8429978529559534 -1.5883132419981898 -1.5708211104022425 2.141254186630249 0.0 0.0 0.0 -0.0 -0.0 -0.0 1 False False
31747.439 3.712122917175293 -0.825482503776886 0.8429845015155237 -1.5882612667479457 -1.5708168188678187 2.1412558555603027 0.0 0.0 0.0 -0.0 -0.0 -0.0 1 False False
31747.488999999998 3.712056875228882 -0.825450138454773 0.8429935614215296 -1.588273664514059 -1.5707967917071741 2.1413040161132812 0.0 0.0 0.0 -0.0 -0.0 -0.0 1 False False
31747.538999999997 3.7120494842529297 -0.8254993718913575 0.8429473082171839 -1.5883528194823207 -1.5708006064044397 2.141254186630249 0.0 0.0 0.0 -0.0 -0.0 -0.0 1 False False
31747.589 3.712090492248535 -0.825458900337555 0.8429763952838343 -1.5882612667479457 -1.5708172957049769 2.141267776489258 0.0 0.0 0.0 -0.0 -0.0 -0.0 1 False False
31747.639 3.7121191024780273 -0.8254619401744385 0.8429802099810999 -1.5882774792113246 -1.5708087126361292 2.141279697418213 0.0 0.0 0.0 -0.0 -0.0 -0.0 1 False False
31747.689 3.712083101272583 -0.8254416149905701 0.8430469671832483 -1.5882612667479457 -1.5707691351519983 2.141263246536255 0.0 0.0 0.0 -0.0 -0.0 -0.0 1 False False
31747.738999999998 3.7120981216430664 -0.8254663509181519 0.842987362538473 -1.5882846317686976 -1.570824925099508 2.141258955001831 0.0 0.0 0.0 -0.0 -0.0 -0.0 1 False False
31747.788999999997 3.7120862007141113 -0.8254993718913575 0.8429845015155237 -1.588269372979635 -1.5708254019366663 2.141279697418213 0.0 0.0 0.0 -0.0 -0.0 -0.0 1 False False
31747.988999999998 3.712087631225586 -0.825491265659668 0.8429473082171839 -1.5882932148375453 -1.5707767645465296 2.141313076019287 0.0 0.0 0.0 -0.0 -0.0 -0.0 1 False False
31748.038999999997 3.7120368480682373 -0.8255080741694947 0.8430126349078577 -1.588252683679098 -1.5707886854754847 2.1412723064422607 0.0 0.0 0.0 -0.0 -0.0 -0.0 1 False False
31748.089 3.7120578289031982 -0.8255328100970765 0.8430383841144007 -1.588269372979635 -1.5708211104022425 2.1412558555603027 0.0 0.0 0.0 -0.0 -0.0 -0.0 1 False False
31748.139 3.712111473083496 -0.825482503776886 0.8430054823504847 -1.5882374248900355 -1.5708168188678187 2.141242504119873 0.0 0.0 0.0 -0.0 -0.0 -0.0 1 False False
31748.189 3.7121188640594482 -0.8254908484271546 0.8429964224444788 -1.5883332691588343 -1.5707929770099085 2.141284227371216 0.0 0.0 0.0 -0.0 -0.0 -0.0 1 False False
31748.238999999998 3.712062358856201 -0.8254222434810181 0.842971150075094 -1.5882650814452113 -1.5707929770099085 2.141313076019287 0.0 0.0 0.0 -0.0 -0.0 -0.0 1 False False
31748.288999999997 3.7120697498321533 -0.8254663509181519 0.8430336157428187 -1.5882731876769007 -1.5707886854754847 2.14127516746521 -1.6749929351508874e-12 0.0 0.0 -0.0 -0.0 -0.0 1 False False
31748.339 3.7120609283447266 -0.8255565327456971 0.8429515997516077 -1.5882531605162562 -1.5708087126361292 2.141279697418213 3.2159878173843026e-05 0.0 0.0 -0.0 -0.0 -0.0 1 False False
31748.389 3.712078809738159 -0.825483576660492 0.8429802099810999 -1.5882932148375453 -1.5707648436175745 2.14127516746521 0.0 0.0 0.0 -0.0 -0.0 -0.0 1 False False
31748.439 3.7121145725250244 -0.8254954975894471 0.8429587523089808 -1.5882412395873011 -1.5708172957049769 2.1412439346313477 0.0 0.0 0.0 -0.0 -0.0 -0.0 1 True False
31748.488999999998 3.712045669555664 -0.8254005473903199 0.8429964224444788 -1.5882445774474085 -1.5707691351519983 2.141329526901245 0.0 0.0 0.0 -0.0 -0.0 -1.4182031691234442e-06 1 True False
31748.538999999997 3.712087631225586 -0.8255685132792969 0.8430054823504847 -1.5883289776244105 -1.5708168188678187 2.141296148300171 0.0 0.0 0.0 -0.0 -0.0 -2.1542536539708465e-25 1 True False
31748.589 3.712095260620117 -0.8254135412028809 0.8429845015155237 -1.588245531121725 -1.5707529226886194 2.141279697418213 0.0 0.0 0.0 -0.0 -0.0 -3.2229864679470793e-44 1 True False
31748.639 3.7120532989501953 -0.8254750531962891 0.8429802099810999 -1.588285585443014 -1.570756737385885 2.141267776489258 0.0 0.0 0.0 -0.0 -0.0 -0.0 1 True False
31748.689 3.7120862007141113 -0.8255112928203125 0.8429811636554163 -1.5883094273009242 -1.5708048979388636 2.141263246536255 0.0 0.0 0.0 -0.0 -0.0 -0.0 1 True False
31748.738999999998 3.712111473083496 -0.8254501980594178 0.8430054823504847 -1.5882846317686976 -1.570853058491842 2.141270637512207 0.0 0.0 0.0 -0.0 -0.0 -1.4099205653026273e-19 1 True False
31748.788999999997 3.7120816707611084 -0.8254264754107972 0.8430054823504847 -1.588297029534811 -1.5707491079913538 2.141258955001831 0.0 0.0 0.0 -0.0 -0.0 -2.1416717053539055e-38 1 True False
31748.839 3.7120697498321533 -0.8254597944072266 0.8430007139789026 -1.588320871392721 -1.570801083241598 2.1412394046783447 0.0 0.0 0.0 -0.0 -0.0 -0.0 1 True False
31748.889 3.7120771408081055 -0.8255112332156678 0.8429802099810999 -1.5883289776244105 -1.5707648436175745 2.1411867141723633 2.3604525221486704e-17 0.0 0.0 -0.0 -0.0 0.00021832447964698076 1 True False
31748.939 3.7120561599731445 -0.8254663509181519 0.8430336157428187 -1.5882774792113246 -1.570784870778219 2.14127516746521 0.0 0.0 0.0 -0.0 -0.0 5.864964997974554e-23 1 True False
31748.988999999998 3.7121071815490723 -0.8254950803569336 0.8429754416095179 -1.5882498226561488 -1.570772949849264 2.141267776489258 0.0 0.0 0.0 -0.0 -0.0 8.909455636177187e-42 1 True False
31749.038999999997 3.712310791015625 -0.8255952161601563 0.8431041876422327 -1.5883084736266078 -1.5708492437945765 2.1412410736083984 0.020528750494122505 -0.011432832106947899 0.02056138403713703 -0.004737525712698698 -0.0 -0.015544709749519825 1 True False
31749.089 3.715346097946167 -0.8269134920886536 0.8453381697284144 -1.5890866718687953 -1.5707925001727503 2.1398165225982666 0.09490899741649628 -0.0468759723007679 0.07406128197908401 -0.026130657643079758 -3.884621037286706e-05 -0.04346875101327896 1 True False
31749.139 3.7220818996429443 -0.8302972477725525 0.8507249991046351 -1.590917249719137 -1.5708406607257288 2.1368789672851562 0.1707543432712555 -0.08933378756046295 0.13279780745506287 -0.04323374852538109 -1.2628928743652068e-05 -0.07048279047012329 1 True False
31749.189 3.7321431636810303 -0.8357308071902771 0.8585460821734827 -1.5936204395689906 -1.570813004170553 2.132424831390381 0.23816123604774475 -0.12304849922657013 0.183301642537117 -0.057427018880844116 -1.597745074262062e-20 -0.10408815741539001 1 True False
31749.238999999998 3.745840072631836 -0.8427090805820008 0.8691428343402308 -1.5970174274840296 -1.5707529226886194 2.1263833045959473 0.3032305836677551 -0.15534092485904694 0.24138648808002472 -0.08101070672273636 -2.4269774739889026e-39 -0.1324988454580307 1 True False
31749.288999999997 3.7627129554748535 -0.8515366476825257 0.8824375311480921 -1.6016351185240687 -1.5708335081683558 2.118905782699585 0.37356388568878174 -0.19256246089935303 0.28972193598747253 -0.09029315412044525 -0.0 -0.16360443830490112 1 True False
31749.339 3.783457040786743 -0.8620056670955201 0.8983934561358851 -1.6071778736510218 -1.570732895527975 2.1098783016204834 0.4490145444869995 -0.2293715924024582 0.34707939624786377 -0.12364351749420166 4.6618217311333865e-05 -0.1979464739561081 1 True False
31749.389 3.8074872493743896 -0.8743516367724915 0.917189900075094 -1.6134330234923304 -1.5708087126361292 2.0992960929870605 0.5140398144721985 -0.2611379027366638 0.3954976797103882 -0.1404920518398285 1.4761753845959902e-06 -0.22519861161708832 1 True False
31749.439 3.834810256958008 -0.8884526056102295 0.9383500258075159 -1.6208816967406214 -1.570813004170553 2.087054491043091 0.5801591873168945 -0.2973288297653198 0.45529159903526306 -0.16216591000556946 3.8116090839146466e-10 -0.25857409834861755 1 True False
31749.488999999998 3.866034507751465 -0.9043387931636353 0.9625595251666468 -1.6290284595885218 -1.5707891623126429 2.0735509395599365 0.6483809947967529 -0.33231866359710693 0.5058301687240601 -0.16718357801437378 7.09121159161441e-05 -0.28885698318481445 1 True False
31749.538999999997 3.90051531791687 -0.9220420879176636 0.9893267790423792 -1.6380449734129847 -1.5708211104022425 2.058204412460327 0.7209311127662659 -0.36790281534194946 0.567680299282074 -0.18526101112365723 2.5690922714931525e-22 -0.31393375992774963 1 True False
31749.589 3.9384875297546387 -0.9416417640498658 1.0189059416400355 -1.6480628452696742 -1.570801083241598 2.0415444374084473 0.7908351421356201 -0.40774452686309814 0.6131823062896729 -0.22127631306648254 3.902476093298183e-41 -0.3518546521663666 1 True False
31749.639 3.9799726009368896 -0.9627864521792908 1.0511935392962855 -1.658957143823141 -1.5707529226886194 2.023158311843872 0.8695003390312195 -0.4367254376411438 0.6751613020896912 -0.22014093399047852 0.0 -0.38213616609573364 1 True False
31749.689 4.0250396728515625 -0.985969678764679 1.0858944098102015 -1.670952936212057 -1.5707767645465296 2.0033562183380127 0.9302918910980225 -0.47883474826812744 0.7267577052116394 -0.24451220035552979 0.0 -0.41341838240623474 1 True False
31749.738999999998 4.07346773147583 -1.010738806133606 1.123676602040426 -1.6837183437743128 -1.5708048979388636 1.9819129705429077 1.0072925090789795 -0.5137741565704346 0.777869701385498 -0.27199870347976685 0.0 -0.4429388642311096 1 True False
31749.788999999997 4.125344753265381 -1.0372574490359803 1.1639650503741663 -1.6973706684508265 -1.5707648436175745 1.959161400794983 1.0528148412704468 -0.5376899838447571 0.8133355379104614 -0.28583353757858276 -3.908193320967257e-05 -0.4620397686958313 1 True False
31749.839 4.177511215209961 -1.0640977782062073 1.2046106497394007 -1.7110487423338832 -1.5707929770099085 1.9360029697418213 1.049340009689331 -0.5323940515518188 0.816788911819458 -0.27864712476730347 -8.991082399162648e-24 -0.46080464124679565 1 True False
31749.889 4.229809284210205 -1.09087689340625 1.2451608816729944 -1.724954744378561 -1.570772949849264 1.9130630493164062 1.0498005151748657 -0.5315538048744202 0.8207820653915405 -0.2798002362251282 -0.00010497192124603316 -0.46719738841056824 1 True False
31749.939 4.282272815704346 -1.117736504679062 1.2856767813311976 -1.7388726673521937 -1.5708087126361292 1.8900257349014282 1.0423463582992554 -0.5419321060180664 0.8179542422294617 -0.2809971868991852 -3.14208633612513e-14 -0.46549323201179504 1 True False
31749.988999999998 4.33465051651001 -1.1446979504874726 1.3264058271991175 -1.7527572117247523 -1.570801083241598 1.8669111728668213 1.0468655824661255 -0.536964476108551 0.8151033520698547 -0.2755717933177948 -8.50762880872935e-05 -0.458491712808609 1 True False
31750.038999999997 4.3869524002075195 -1.1715427202037354 1.366988484059469 -1.766451974908346 -1.5708048979388636 1.8437362909317017 1.0538692474365234 -0.5381188988685608 0.8094078898429871 -0.2790622413158417 -0.00012795062502846122 -0.4600379467010498 1 True False
31750.089 4.438836574554443 -1.1979748767665406 1.4072583357440394 -1.7801228962340296 -1.5707805792437952 1.8211065530776978 1.0068410634994507 -0.5137925744056702 0.7816453576087952 -0.28933829069137573 -7.517445192206651e-05 -0.45164692401885986 1 True False
31750.139 4.487427711486816 -1.2228904229453583 1.4452078978167933 -1.792957445184225 -1.5707891623126429 1.7995541095733643 0.940006673336029 -0.48073169589042664 0.7308827638626099 -0.26198452711105347 -0.00013013827265240252 -0.41354113817214966 1 True False
31750.189 4.532501697540283 -1.2460866135409852 1.4801743666278284 -1.8048259220519007 -1.5707886854754847 1.779589056968689 0.868862509727478 -0.44579362869262695 0.6813849210739136 -0.21973127126693726 -0.0004182480915915221 -0.3780405521392822 1 True False
31750.238999999998 4.574151992797852 -1.267480657701828 1.5124300161944788 -1.816000600854391 -1.5707886854754847 1.7614024877548218 0.8018107414245605 -0.410364031791687 0.6183469891548157 -0.20646044611930847 -5.783950540738658e-10 -0.35386374592781067 1 True False
31750.288999999997 4.612365245819092 -1.2870496970466156 1.5421050230609339 -1.8259474239745082 -1.5708211104022425 1.7444112300872803 0.7275870442390442 -0.375736802816391 0.5656464695930481 -0.19601905345916748 -8.785837822430046e-29 -0.3195599615573883 1 True False
31750.339 4.646961212158203 -1.3046384316733857 1.5691054503070276 -1.8350078068175257 -1.5708211104022425 1.7291887998580933 0.6590113639831543 -0.34254780411720276 0.5205165147781372 -0.1859782338142395 -0.0 -0.294111430644989 1 True False
31750.389 4.678158283233643 -1.3209040474942704 1.593011204396383 -1.843499322930807 -1.5708254019366663 1.71547269821167 0.5875952243804932 -0.29986849427223206 0.4556737542152405 -0.15142199397087097 1.3692613265448017e-06 -0.2574130892753601 1 True False
31750.439 4.7058424949646 -1.3347716641477128 1.6148017088519495 -1.8506275616087855 -1.5707805792437952 1.7032475471496582 0.5172837376594543 -0.26674219965934753 0.3983156085014343 -0.14219282567501068 2.0799114022628184e-25 -0.2324681580066681 1 True False
31750.488999999998 4.7300705909729 -1.3474617314389725 1.633493725453512 -1.8569771252074183 -1.5708168188678187 1.6926316022872925 0.4485308825969696 -0.22487886250019073 0.3500733971595764 -0.11030327528715134 3.195332828909159e-05 -0.19716595113277435 1 True False
31750.538999999997 4.7508955001831055 -1.3579991620830079 1.649520222340719 -1.8625861606993617 -1.570756737385885 1.6834194660186768 0.3796965479850769 -0.20300507545471191 0.29249078035354614 -0.10009787976741791 0.0003862346347887069 -0.16425147652626038 1 True False
31750.589 4.768144130706787 -1.3667703878930588 1.66310960451235 -1.8669210873045863 -1.570772949849264 1.6758686304092407 0.3133724629878998 -0.16121262311935425 0.24498046934604645 -0.07874077558517456 7.363629265455529e-05 -0.13970430195331573 1 True False
31750.639 4.781742095947266 -1.373870999818184 1.6735685507403772 -1.8706642589964808 -1.570784870778219 1.6698356866836548 0.24160631000995636 -0.12191186845302582 0.18630973994731903 -0.0595395490527153 2.3495986684323334e-15 -0.10471223294734955 1 True False
31750.689 4.791907787322998 -1.3790536981872101 1.6815932432757776 -1.8732711277403773 -1.5708168188678187 1.6652581691741943 0.17410553991794586 -0.08831331878900528 0.13042490184307098 -0.04506145790219307 3.5690449019275047e-34 -0.07745671272277832 1 True False
31750.738999999998 4.798746109008789 -1.3825428497842331 1.6867855230914515 -1.8752433262267054 -1.5708211104022425 1.6623793840408325 0.09700319916009903 -0.05064619705080986 0.0807005986571312 -0.02430007793009281 0.0 -0.044157374650239944 1 True False
31750.788999999997 4.80196475982666 -1.384230614905693 1.6893804709063929 -1.8760138950743617 -1.5707724730121058 1.6608794927597046 0.030686669051647186 -0.01763487234711647 0.022860592231154442 -0.008024743758141994 0.0 -0.01400389987975359 1 True False
31750.839 4.80217170715332 -1.3840829742005845 1.689979378377096 -1.876768251458639 -1.5707481543170374 1.6608017683029175 -2.640593038449879e-06 0.013289662078022957 0.02779325656592846 -0.03234371915459633 0.0 0.000323805637890473 1 True False
31750.889 4.802226543426514 -1.3828921628049393 1.6924312750445765 -1.8803907833495082 -1.5708168188678187 1.6607719659805298 0.00019834467093460262 0.040063679218292236 0.06841785460710526 -0.10968006402254105 0.0 -0.0003223860985599458 1 True False
31750.939 4.802267074584961 -1.3802979600480576 1.6969869772540491 -1.887643953362936 -1.5708211104022425 1.6607362031936646 0.00042473210487514734 0.06711730360984802 0.11005426943302155 -0.17145191133022308 0.0 -0.00047827180242165923 1 True False
31750.988999999998 4.8022942543029785 -1.376192868953087 1.7037714163409632 -1.898369928399557 -1.5707767645465296 1.6607614755630493 0.000264682195847854 0.0900602638721466 0.15246902406215668 -0.24647162854671478 4.194975190330297e-05 -0.0002059252728940919 1 True False
31751.038999999997 4.8023681640625 -1.3710493457368393 1.7127063910113733 -1.9125729999937953 -1.5707648436175745 1.660757064819336 0.00017141833086498082 0.11691087484359741 0.20341677963733673 -0.3219048082828522 1.1538104445207864e-06 -0.0001357430883217603 1 True False
31751.089 4.802306175231934 -1.3645813924125214 1.7238825003253382 -1.9301802120604457 -1.570829216633932 1.6606909036636353 0.00018124087364412844 0.14096473157405853 0.24704861640930176 -0.37703025341033936 1.7526407460778197e-25 -9.285585838370025e-05 1 True False
31751.139 4.8023223876953125 -1.3567444843104859 1.7374137083636683 -1.951315542260641 -1.5708254019366663 1.6607072353363037 0.00014981896674726158 0.1683478206396103 0.28169190883636475 -0.45648670196533203 5.985170355415903e-05 1.0081485646296073e-10 1 True False
31751.189 4.802375316619873 -1.347605438237526 1.752913777028219 -1.976044317285055 -1.5707925001727503 1.6608017683029175 8.176903065759689e-05 0.19588612020015717 0.33623406291007996 -0.5276743173599243 1.4814830135226331e-12 1.531380324861421e-29 1 True False
31751.238999999998 4.802350997924805 -1.3373678934625168 1.7703741232501429 -2.0035625896849574 -1.5707605520831507 1.6607451438903809 7.871632260503247e-05 0.19954998791217804 0.34829065203666687 -0.5445520281791687 2.2503755540701236e-31 0.0 1 True False
31751.288999999997 4.8023552894592285 -1.328190268283226 1.786431137715475 -2.0289842091002406 -1.5708168188678187 1.6607615947723389 4.9369890297322574e-34 0.1764516532421112 0.3006127178668976 -0.47830578684806824 0.0 0.0 1 True False
31751.339 4.80233097076416 -1.320141778593399 1.8002508322345179 -2.051009317437643 -1.5708211104022425 1.66071617603302 0.0 0.15314427018165588 0.2522280812263489 -0.41343793272972107 0.0 0.0 1 True False
31751.389 4.802347183227539 -1.3132561606219788 1.811941925679342 -2.069346090356344 -1.5708416144000452 1.6607706546783447 0.0 0.12389219552278519 0.2145337015390396 -0.344308465719223 0.0 -1.2984326443622306e-14 1 True False
31751.439 4.802351474761963 -1.3078136009028931 1.8215134779559534 -2.084379812280172 -1.570801083241598 1.6607332229614258 0.0 0.09721601754426956 0.16880115866661072 -0.2672062814235687 0.0 -1.972321747297399e-33 1 True False
31751.488999999998 4.802297592163086 -1.3036489945701142 1.828571621571676 -2.095827718774313 -1.5707562605487269 1.6607242822647095 0.0 0.07272936403751373 0.11962569504976273 -0.19842615723609924 0.0 -0.0 1 True False
31751.538999999997 4.802338600158691 -1.3007047337344666 1.8337472120868128 -2.103720327416891 -1.5707805792437952 1.6607495546340942 0.0 0.046828798949718475 0.08023964613676071 -0.13655267655849457 0.0 -0.0 1 True False
31751.589 4.802371025085449 -1.2990475457957764 1.836468521748678 -2.108148237267965 -1.5707967917071741 1.6607362031936646 0.0 0.022793523967266083 0.03801892697811127 -0.055973269045352936 0.0 -0.0 1 True False
31751.639 4.802335262298584 -1.29878984511409 1.8371227423297327 -2.1092525921263636 -1.5708335081683558 1.660704493522644 0.0 -0.00019959644123446196 -0.0006214341847226024 0.0007746423361822963 0.0 -0.0 1 True False
31751.689 4.802359580993652 -1.2987488371184845 1.8372085730182093 -2.109288354913229 -1.5707925001727503 1.6607705354690552 3.1020403974912043e-40 -2.1190817394529816e-32 -3.830873030170484e-28 -1.8654886663194148e-11 0.0 -0.0 1 True False
31751.738999999998 4.8023552894592285 -1.2987335187247773 1.8371871153460901 -2.109244485894674 -1.5708211104022425 1.660764455795288 0.0 0.0001508743443991989 -0.0 -2.8336811005667983e-30 8.693924663922212e-19 -0.0 1 True False
31751.788999999997 4.80241584777832 -1.2987254720977326 1.8372414747821253 -2.1092802486815394 -1.5708048979388636 1.6607660055160522 0.0 0.0001222514547407627 -0.0 -0.0 1.3206092324636969e-37 -0.0 1 True False
31751.839 4.802350997924805 -1.298681066637375 1.8372085730182093 -2.109305044213766 -1.5708211104022425 1.6607614755630493 0.0 0.0001112260579247959 5.144087481312454e-05 -0.0 0.0 -0.0 1 True False
31751.889 4.802387714385986 -1.2987298232368012 1.8372038046466272 -2.1092969379820765 -1.570784870778219 1.6607898473739624 0.0 0.00013759927242062986 4.2044447173262136e-31 -0.0 0.0 -0.0 1 True False
31751.939 4.802346706390381 -1.298716501598694 1.8371828238116663 -2.1092683277525843 -1.5708091894732874 1.660768985748291 0.0 0.0001702792797004804 0.0 -0.0 0.0 -0.0 1 True False
31751.988999999998 4.802338600158691 -1.2986779373935242 1.8371828238116663 -2.10927214244985 -1.5707805792437952 1.660757064819336 -1.8922983144875616e-05 0.00010636405204422772 0.0 -0.0 0.0 -0.0 1 True False
31752.038999999997 4.802301406860352 -1.2987137001803895 1.8372038046466272 -2.109288831750387 -1.5708335081683558 1.6607242822647095 -2.9793405310738045e-25 8.022903057280928e-05 0.0 -6.089696702395875e-22 0.0 -0.0 1 True False
31752.089 4.802371501922607 -1.298673467045166 1.8372200171100062 -2.10927214244985 -1.5707405249225062 1.6606953144073486 0.0 2.4079730209791705e-08 0.0 -9.250251422700982e-41 0.0 -0.0 1 True False
31752.139 4.802343368530273 -1.298713670378067 1.8372152487384241 -2.109312673608297 -1.5707967917071741 1.6607495546340942 0.0 0.0 2.7703173088866606e-10 -0.0 0.0 -0.0 1 True False
31752.189 4.8023552894592285 -1.2986987990191956 1.8372233549701136 -2.1092645130553187 -1.5707925001727503 1.6607614755630493 0.0 0.0 7.943399266475386e-20 -0.0 0.0 -0.0 1 True False
31752.238999999998 4.802351951599121 -1.298639253979065 1.83722430864443 -2.109293123284811 -1.5707529226886194 1.6607779264450073 0.0 0.0 0.0 -0.0 0.0 -0.0 1 True False
31752.288999999997 4.802343368530273 -1.29868237793956 1.8372233549701136 -2.10930933574819 -1.570829216633932 1.6607332229614258 0.0 0.0 0.0 -3.720796779271276e-15 0.0 -0.0 1 True False
31752.339 4.802347660064697 -1.298710660343506 1.8371780554400843 -2.1092521152892054 -1.5707967917071741 1.660780906677246 0.0 0.0 0.0 -5.651897143253525e-34 0.0 -0.0 1 True False
31752.389 4.802371501922607 -1.298734502201416 1.8372109572040003 -2.1093083820738734 -1.5708168188678187 1.6607437133789062 0.0 0.0 0.0 -0.0 0.0 -0.0 1 True False
31752.439 4.802383899688721 -1.2987390023520966 1.8371871153460901 -2.109300275842184 -1.570801083241598 1.660768985748291 0.0 0.0 0.0 -0.0 0.0 -0.0 1 True False
31752.488999999998 4.8023881912231445 -1.2986362737468262 1.8372395674334925 -2.109312673608297 -1.570772949849264 1.660768985748291 0.0 1.261011883015872e-20 0.0 -0.0 0.0 -0.0 1 True False
31752.538999999997 4.802343368530273 -1.298689828520157 1.8372052351581019 -2.1092921696104945 -1.5707967917071741 1.6607481241226196 0.0 0.0 -5.7853938484244815e-15 -6.230773692550429e-07 0.0 3.636731804590454e-09 1 True False
31752.589 4.802392482757568 -1.2987092298320313 1.8371952215777796 -2.109312673608297 -1.570784870778219 1.660768985748291 0.0 0.0 -2.482371133736422e-13 2.0634770012565402e-19 0.0 5.524203118866726e-28 1 True False
31752.639 4.802350997924805 -1.2986674469760437 1.8371861616717737 -2.1092401943602503 -1.5707805792437952 1.660706639289856 0.0 -2.962841790576931e-05 -5.843414596234487e-43 3.134425806300215e-38 0.0 0.0 1 True False
31752.689 4.802380561828613 -1.2986853581717988 1.8372109572040003 -2.109312673608297 -1.570813004170553 1.6607733964920044 0.0 -2.3634793251403607e-05 -0.0 0.0 0.0 0.0 1 True False
31752.738999999998 4.802343368530273 -1.298689828520157 1.8372367064105433 -2.109312673608297 -1.570801083241598 1.6607451438903809 0.0 -1.5328547301599964e-26 1.7792032291907844e-09 0.0 0.0 0.0 1 True False
31752.788999999997 4.802401542663574 -1.2986645263484498 1.8372152487384241 -2.1092807255186976 -1.5707891623126429 1.6607332229614258 0.0 0.0 4.18665101407247e-39 1.4021439174657924e-13 0.0 0.0 1 True False
31752.839 4.802383899688721 -1.2986987394145508 1.83722430864443 -2.10929598430776 -1.5708168188678187 1.660757064819336 0.0 -9.151593004320194e-39 0.0 0.00012824109580833465 0.0 -4.498538760580637e-22 1 True False
31752.889 4.8023552894592285 -1.2987559598735352 1.8371709028827112 -2.1093045673766078 -1.5707886854754847 1.6607288122177124 0.0 0.0 0.0 7.488295523216948e-05 0.0 -3.8625850720563903e-05 1 True False
31752.939 4.802325248718262 -1.2986645859530945 1.8372109572040003 -2.109316488305563 -1.5707772413836878 1.6607437133789062 0.0 0.0 0.0 5.288209649734199e-05 0.0 -2.5138699129456654e-05 1 True False
31752.988999999998 4.802335739135742 -1.298673467045166 1.8371575514422815 -2.109300275842184 -1.5708487669574183 1.6607705354690552 0.0 0.0 0.0 6.772242704775571e-20 0.0 -3.932945635831686e-10 1 True False
31753.038999999997 4.8024001121521 -1.2987151008895417 1.8371294180499476 -2.1092640362181605 -1.570801083241598 1.6607495546340942 0.0 0.0 0.0 1.0287048334381021e-38 0.0 -5.974152233613462e-29 1 True False
31753.089 4.802350997924805 -1.298652635221817 1.8371871153460901 -2.1093207798399867 -1.5708335081683558 1.6607869863510132 0.0 0.0 0.0 0.0 0.0 -0.0 1 True False
31753.139 4.802280426025391 -1.2987062197974701 1.8371737639056605 -2.1093045673766078 -1.570829216633932 1.6607823371887207 0.0 0.0 0.0 0.0 0.0 -0.0 1 True False
31753.189 4.8023552894592285 -1.2986496847919007 1.8371952215777796 -2.1093012295165003 -1.5707925001727503 1.6607451438903809 0.0 0.0 0.0 0.0 0.0 -0.0 1 True False
31753.238999999998 4.8023552894592285 -1.2986734968474885 1.8372319380389612 -2.1093083820738734 -1.5707648436175745 1.6607869863510132 0.0 0.0 0.0 0.0 0.0 -0.0 1 True False
31753.288999999997 4.802374839782715 -1.2986570757678528 1.8372276465045374 -2.1093083820738734 -1.5707605520831507 1.6607660055160522 0.0 0.0 0.0 5.9741083218329505e-24 0.0 -0.0 1 True False
31753.339 4.802334308624268 -1.2986765068820496 1.8372367064105433 -2.109288831750387 -1.5708654562579554 1.6607378721237183 0.0 0.0 0.0 9.080414048824815e-43 0.0 -0.0 1 True False
31753.389 4.802371501922607 -1.298673467045166 1.8372018972979944 -2.10927214244985 -1.5708168188678187 1.6606687307357788 0.0 0.0 0.0 0.0 0.0 -0.001481015351600945 1 True False
31753.439 4.802380561828613 -1.2987270814231415 1.8371828238116663 -2.1093207798399867 -1.5708168188678187 1.6607117652893066 0.0 0.0 -1.9166253895864442e-16 0.0 0.0 0.00011912599438801408 1 True False
31753.488999999998 4.802313327789307 -1.2986734968474885 1.8371861616717737 -2.1093322239317835 -1.5708168188678187 1.6608197689056396 0.0 0.0 -0.0 0.0 0.0 -0.00023307315132115036 1 True False
31753.538999999997 4.8024001121521 -1.2987181705287476 1.8372152487384241 -2.10927214244985 -1.570829216633932 1.6607117652893066 0.0 0.0 -0.0 0.0 0.0 1.3199302761890408e-10 1 True False
31753.589 4.802380561828613 -1.2987524431994935 1.8371618429767054 -2.109300275842184 -1.5707524458514612 1.660698413848877 0.0 0.0 -0.0 0.0 0.0 2.0049771810789026e-29 1 True False
31753.639 4.802362442016602 -1.2987255913070221 1.8372319380389612 -2.1093083820738734 -1.5708087126361292 1.6607495546340942 0.0 0.0 -0.0 0.0 0.0 0.0 1 True False
31753.689 4.8023600578308105 -1.29928873599086 1.8360336462603968 -2.1074100933470667 -1.570801083241598 1.6606985330581665 0.0 -0.025652172043919563 -0.047315627336502075 0.06855355948209763 0.0 0.0 1 True False
31753.738999999998 4.8023295402526855 -1.3012466889670868 1.8326156775103968 -2.1018787823119105 -1.5707805792437952 1.660757064819336 0.0 -0.056098517030477524 -0.08924049884080887 0.15258710086345673 0.0 0.0 1 True False
31753.788999999997 4.802297115325928 -1.3045854729465027 1.8268416563617151 -2.092867513696188 -1.570813004170553 1.6607586145401 0.0 -0.07973427325487137 -0.13513228297233582 0.21784380078315735 0.0 0.0 1 True False
31753.839 4.802395820617676 -1.3092250388911744 1.8189290205584925 -2.08052982906484 -1.5707724730121058 1.660757064819336 0.0 -0.09861112385988235 -0.17842687666416168 0.2846536934375763 0.0 0.0 1 True False
31753.889 4.802297115325928 -1.3151073318770905 1.80878192583193 -2.0646101437010707 -1.570813004170553 1.6607778072357178 0.0 -0.12916651368141174 -0.2215391993522644 0.3648760914802551 0.0 0.0 1 True False
31753.939 4.802313327789307 -1.3222592335990448 1.796652619038717 -2.045272012750143 -1.570801083241598 1.6607542037963867 0.0 -0.15506219863891602 -0.26298555731773376 0.42465493083000183 0.0 0.0 1 True False
31753.988999999998 4.802280426025391 -1.3306051057628174 1.7820723692523401 -2.0223404369749964 -1.5708168188678187 1.6607868671417236 0.0 -0.1837952435016632 -0.30930015444755554 0.49181199073791504 0.0 0.0 1 True False
31754.038999999997 4.802342414855957 -1.3402871799520035 1.765552822743551 -1.995932241479391 -1.570772949849264 1.6607853174209595 0.0 -0.20583395659923553 -0.3596392273902893 0.5679702162742615 0.0 0.0 1 True False
31754.089 4.802314758300781 -1.3504286420396348 1.7482121626483362 -1.9688688717284144 -1.570784870778219 1.6607332229614258 0.0 -0.18543991446495056 -0.3170602321624756 0.521790623664856 0.0 0.0 1 True False
31754.139 4.802301406860352 -1.358905778532364 1.7335270086871546 -1.9450823269286097 -1.570829216633932 1.6607778072357178 0.0 -0.16448430716991425 -0.28437340259552 0.4341575801372528 0.0 0.0 1 True False
31754.189 4.802396774291992 -1.3664427113584061 1.7205341498004358 -1.9248529873290003 -1.5708211104022425 1.6607705354690552 0.0 -0.13632352650165558 -0.22947488725185394 0.36746540665626526 0.0 0.0 1 True False
31754.238999999998 4.802371025085449 -1.3726035368493577 1.7101314703570765 -1.9081884823241175 -1.5707967917071741 1.6607208251953125 0.0 -0.10903866589069366 -0.19108864665031433 0.30625391006469727 0.0 0.0 1 True False
31754.288999999997 4.802346706390381 -1.3774058532765885 1.7016914526568812 -1.8949538669981898 -1.5707772413836878 1.6607645750045776 0.0 -0.08314549177885056 -0.14773255586624146 0.2248864471912384 0.0 0.0 1 True False
31754.339 4.802346706390381 -1.3809873175672074 1.695463005696432 -1.8852516613402308 -1.570801083241598 1.6607658863067627 0.0 -0.059472836554050446 -0.10215477645397186 0.15805648267269135 0.0 0.0 1 True False
31754.389 4.802371025085449 -1.38332753003154 1.6916068235980433 -1.8789264164366664 -1.5707929770099085 1.660724401473999 0.0 -0.031466294080019 -0.05820444971323013 0.09156245738267899 0.0 0.0 1 True False
31754.439 4.802347660064697 -1.384359822874405 1.6897028128253382 -1.8763281307616175 -1.570801083241598 1.6607705354690552 0.0 -0.0073406589217484 -0.014512556605041027 0.01836535893380642 0.0 0.0 1 True False
31754.488999999998 4.802338600158691 -1.3843371284059067 1.6896799246417444 -1.8762127361693324 -1.5707967917071741 1.6607614755630493 0.0 -0.0002712186542339623 -7.954217237923931e-20 0.00011459839151939377 0.0 0.0 1 True False
31754.538999999997 4.802429676055908 -1.3843297225287934 1.6896589438067835 -1.8761402569212855 -1.5707281271563929 1.6607526540756226 0.0 -7.979966176208109e-05 -0.0 0.0006319882813841105 0.0 0.0 1 True False
31754.589 4.802407264709473 -1.3843252074769516 1.6896799246417444 -1.8761450252928675 -1.5708172957049769 1.6607495546340942 0.0 -0.0001191962874145247 -0.0 0.0019299593986943364 0.0 0.0 1 True False
31754.639 4.8023552894592285 -1.384316400890686 1.6896432081805628 -1.876077791253561 -1.5707967917071741 1.6607288122177124 0.0 -0.00027390511240810156 -0.0 0.0006582907517440617 0.0 0.0 1 True False
31754.689 4.802350997924805 -1.38434490681205 1.6895974318133753 -1.8761140308775843 -1.570784870778219 1.6607288122177124 0.0 -0.0002379106153966859 -0.0 0.00017719855532050133 0.0 0.0 1 True False
31754.738999999998 4.802318096160889 -1.3844047796777268 1.6896546522723597 -1.876106401483053 -1.570813004170553 1.6607288122177124 0.0 -0.00016589995357207954 -0.0 0.00010706116154324263 0.0 0.0 1 True False
31754.788999999997 4.80232572555542 -1.3843687337687989 1.6896150747882288 -1.8760901890196742 -1.570772949849264 1.6607778072357178 0.0 -0.00010944436507998034 -0.0 7.15800779289566e-05 0.0 0.0 1 True False
31754.839 4.8023552894592285 -1.3843434912017365 1.6896517912494105 -1.8760491810240687 -1.570784870778219 1.660757064819336 0.0 -8.167399937519804e-05 -0.0 1.1525824782435135e-12 0.0 0.0 1 True False
31754.889 4.802362442016602 -1.3843183380416413 1.689671818410055 -1.8760816059508265 -1.5707925001727503 1.660736322402954 0.0 -6.867275260447059e-06 -0.0 1.7507751735440907e-31 0.0 0.0 1 True False
31754.939 4.802366733551025 -1.384376199250557 1.6896517912494105 -1.876077791253561 -1.5707810560809534 1.6607542037963867 0.0 0.0 -0.0 0.0 0.0 0.0 1 True False
31754.988999999998 4.802309513092041 -1.3843927842429657 1.6896236578570765 -1.8760572872557582 -1.5708168188678187 1.660736322402954 0.0 0.0 -0.0 0.0 0.0 0.0 1 True False
31755.038999999997 4.802387714385986 -1.3843598526767273 1.6896632353412073 -1.8760816059508265 -1.5708125273333948 1.6607407331466675 0.0 0.0 -0.0 0.0 0.0 0.0 1 True False
31755.089 4.802375316619873 -1.3843938571265717 1.6896632353412073 -1.8760258160033167 -1.570801083241598 1.660724401473999 0.0 0.0 -0.0 0.0 0.0 0.0 1 True False
31755.139 4.802289962768555 -1.3844091308167954 1.6896351019488733 -1.8760858974852503 -1.5708125273333948 1.6607778072357178 0.0 0.0 -0.0 0.0 0.0 0.0 1 True False
31755.189 4.802350997924805 -1.3844061356833954 1.6896212736712855 -1.8760653934874476 -1.5708254019366663 1.6607117652893066 0.0 0.0 -0.0 0.0 0.0 0.0 1 True False
31755.238999999998 4.80230188369751 -1.3843598377755661 1.6897056738482874 -1.8760611019530238 -1.5708087126361292 1.6607073545455933 0.0 0.0 -0.0 0.0 0.0 0.0 1 True False
31755.288999999997 4.802346706390381 -1.38436874866996 1.6896832625018519 -1.8761054478087367 -1.57084829012026 1.6607985496520996 0.0 0.0 2.137941399516167e-35 0.0 0.0 0.0 1 True False
31755.339 4.802350997924805 -1.3843850505403061 1.6896889845477503 -1.876073499719137 -1.5707967917071741 1.6607407331466675 0.0 0.0 0.0 0.0 0.0 0.0 1 True False
31755.389 4.802334308624268 -1.3843850505403061 1.6896427313434046 -1.876089712182516 -1.5707362333880823 1.660757064819336 0.0 0.0 0.0 0.0 0.0 0.0 1 True False
31755.439 4.802334308624268 -1.3843448919108887 1.6896675268756312 -1.8760377369322718 -1.5707691351519983 1.6607733964920044 0.0 0.0 0.0 0.0 0.0 0.0 1 True False
31755.488999999998 4.802363872528076 -1.3842912477305909 1.6896756331073206 -1.876101633111471 -1.5707886854754847 1.6607030630111694 0.0 0.0 0.0 0.0 0.0 0.0 1 True False
31755.538999999997 4.802351474761963 -1.3843972247890015 1.6896722952472132 -1.8761054478087367 -1.5707691351519983 1.6607778072357178 0.0 0.0 0.0 0.0 0.0 0.0 1 True False
31755.589 4.802347183227539 -1.3843629670194169 1.6897009054767054 -1.8760339222350062 -1.5708006064044397 1.6607407331466675 0.0 0.0 0.0 0.0 0.0 0.0 1 True False
31755.639 4.8023552894592285 -1.3843775254539032 1.6896994749652308 -1.8760816059508265 -1.5707886854754847 1.660736322402954 0.0 0.0 0.0 0.0 0.0 0.0 1 True False
31755.689 4.802400588989258 -1.384418086414673 1.6896846930133265 -1.876108785668844 -1.57084829012026 1.6607897281646729 0.0 0.000193408050108701 0.0 0.0 0.0 9.433603914080879e-20 1 True False
31755.738999999998 4.802338600158691 -1.384343461399414 1.6896632353412073 -1.876089712182516 -1.5708087126361292 1.6607495546340942 0.0 0.0 0.0 0.0 0.0 -2.1436890165205114e-05 1 True False
31755.788999999997 4.802310466766357 -1.384377585058548 1.6896474997149866 -1.8760572872557582 -1.570784870778219 1.6607118844985962 0.0 0.0 0.0 0.0 0.0 -4.2323779115744093e-23 1 True False
31755.839 4.802351474761963 -1.3843973141959687 1.6896832625018519 -1.8761126003661097 -1.5707967917071741 1.660736322402954 0.0 0.0 0.0 0.0 0.0 -6.429157354322261e-42 1 True False
31755.889 4.802334308624268 -1.3843597930720826 1.6896474997149866 -1.8760491810240687 -1.5708091894732874 1.6607658863067627 0.0 0.0 0.0 0.0 0.0 -0.0 1 True False
31755.939 4.802346706390381 -1.3843509566834946 1.6896474997149866 -1.876061578790182 -1.5708087126361292 1.6607542037963867 0.0 0.0 0.0 0.0 0.0 -0.0 1 True False
31755.988999999998 4.802363872528076 -1.384418086414673 1.6896474997149866 -1.8760973415770472 -1.5707843939410608 1.6607495546340942 0.0 0.0 0.0 0.0 0.0 -0.0 1 True False
31756.038999999997 4.80230188369751 -1.384336070423462 1.6896675268756312 -1.8760935268797816 -1.5707805792437952 1.6607896089553833 0.0 0.0 0.0 0.0 0.0 -0.0 1 True False
31756.089 4.802289962768555 -1.384364278321602 1.6897128264056605 -1.876101633111471 -1.5707648436175745 1.6607407331466675 0.0 0.0 0.0 0.0 0.0 -0.0 1 True False
31756.139 4.802347183227539 -1.3843939018300553 1.6896351019488733 -1.8760816059508265 -1.57074481645693 1.6607495546340942 0.0 0.0 0.0 0.0 0.0 -0.0 1 True False
31756.189 4.802338600158691 -1.3843568128398438 1.6896756331073206 -1.8760692081847132 -1.570829216633932 1.6607407331466675 0.0 0.0 0.0 0.0 0.0 -0.0 1 True False
31756.238999999998 4.802366733551025 -1.3843732190183182 1.6897085348712366 -1.876061578790182 -1.5707605520831507 1.660736322402954 0.0 0.0 0.0 0.0 0.0 -0.0 1 True False
31756.288999999997 4.802351951599121 -1.384343461399414 1.6896918455706995 -1.8760816059508265 -1.570784870778219 1.660682201385498 0.0 0.0 0.0 0.0 0.0 -0.0 1 True False
31756.339 4.802350997924805 -1.3843894612840195 1.6896799246417444 -1.8760935268797816 -1.5707891623126429 1.6607451438903809 0.0 0.0 0.0 0.0 0.0 -0.0 1 True False
31756.389 4.8023600578308105 -1.3843775254539032 1.6896713415728968 -1.8760935268797816 -1.570784870778219 1.6607288122177124 0.0 0.0 0.0 0.0 0.0 -0.0 1 True False
31756.439 4.802304267883301 -1.3843316298774262 1.6896966139422815 -1.876077791253561 -1.570801083241598 1.6607705354690552 0.0 0.0 0.0 0.0 0.0 -0.0 1 True False
31756.488999999998 4.802321910858154 -1.3843643081239243 1.6896541754352015 -1.8760448894896449 -1.5707486311541956 1.6607614755630493 0.0 0.0 0.0 0.0 0.0 -0.0 1 True False
31756.538999999997 4.802301406860352 -1.3843717140010376 1.6897085348712366 -1.8760491810240687 -1.570829216633932 1.6607822179794312 0.0 0.0 0.0 0.0 0.0 -0.0 1 True False
31756.589 4.802280426025391 -1.3843717140010376 1.689662281666891 -1.876089712182516 -1.5707648436175745 1.6607495546340942 0.0 0.0 0.0 0.0 0.0 -0.0 1 True False
31756.639 4.802362442016602 -1.3844180417111893 1.6896384398089808 -1.8760529957213343 -1.5707767645465296 1.6607614755630493 0.0 0.0 0.0 0.0 0.0 -0.0 1 True False
31756.689 4.802124977111816 -1.3845023822835465 1.68970233598818 -1.8761421642699183 -1.5707486311541956 1.6606205701828003 -0.014616064727306366 -0.005698253400623798 0.006184357218444347 0.0 0.0 -0.013847799971699715 1 True False
31756.738999999998 4.801189422607422 -1.3849929136088868 1.6903565565692347 -1.876129766503805 -1.570784870778219 1.6595335006713867 -0.030459491536021233 -0.016257647424936295 0.01747138798236847 -0.0009114505373872817 0.0 -0.02976226806640625 1 True False
31756.788999999997 4.798748016357422 -1.3861401838115235 1.6916917006122034 -1.876308103600973 -1.570784870778219 1.6570039987564087 -0.070521779358387 -0.03240060433745384 0.03971506655216217 -0.005192981567233801 0.0 -0.07037292420864105 1 True False
31756.839 4.793821334838867 -1.3884185415557404 1.69434100786318 -1.8767153225340785 -1.5707686583148401 1.6522531509399414 -0.1206163838505745 -0.05879466235637665 0.06830544024705887 -0.009441045112907887 0.0 -0.12324194610118866 1 True False
31756.889 4.785815238952637 -1.3922351759723206 1.6988442579852503 -1.8772622547545375 -1.5708168188678187 1.6442201137542725 -0.20058280229568481 -0.09593240916728973 0.11148632317781448 -0.012119373306632042 0.0 -0.19942843914031982 1 True False
31756.939 4.77351188659668 -1.3981879365495224 1.7055075804339808 -1.8781525097289027 -1.5707767645465296 1.6319822072982788 -0.28373467922210693 -0.1351754367351532 0.15344500541687012 -0.020262036472558975 0.0 -0.2827361226081848 1 True False
31756.988999999998 4.757584571838379 -1.405802146797516 1.7143362204181116 -1.8792344532408656 -1.5707524458514612 1.6160110235214233 -0.34798625111579895 -0.16671167314052582 0.19613546133041382 -0.029607735574245453 -0.00017043208936229348 -0.3496110439300537 1 True False
31757.038999999997 4.738131523132324 -1.4150950473598023 1.7249844709979456 -1.8806506596007289 -1.5707925001727503 1.5966713428497314 -0.4230664074420929 -0.2001550942659378 0.23417825996875763 -0.028530465438961983 -9.525751374894753e-05 -0.4226711392402649 1 True False
31757.089 4.715374946594238 -1.4259097439101716 1.7376726309405726 -1.8824640713133753 -1.5708416144000452 1.57373046875 -0.4921398460865021 -0.24043017625808716 0.26349785923957825 -0.03865697234869003 -6.610386481042951e-05 -0.49154865741729736 1 True False
31757.139 4.6890106201171875 -1.4386884433082123 1.7520597616778772 -1.8842312298216761 -1.5708168188678187 1.5473860502243042 -0.5619800090789795 -0.2626601755619049 0.3104860186576843 -0.03861015662550926 -1.8962680445775957e-17 -0.5656166672706604 1 True False
31757.189 4.660187244415283 -1.452268862431385 1.7678917090045374 -1.8863188229002894 -1.5708730856524866 1.5186660289764404 -0.5497225522994995 -0.26311764121055603 0.3027415871620178 -0.0375593826174736 -0.0006736323703080416 -0.5561714172363281 1 True False
31757.238999999998 4.6341376304626465 -1.4647061762264748 1.7820318380938929 -1.88836731533193 -1.5708931128131312 1.4926714897155762 -0.48172077536582947 -0.2292332947254181 0.26873844861984253 -0.038332801312208176 -0.0008260862668976188 -0.4815056622028351 1 True False
31757.288999999997 4.611818790435791 -1.4754249092987557 1.7945979277240198 -1.8898397884764613 -1.5707843939410608 1.4703553915023804 -0.41864970326423645 -0.19533494114875793 0.2251702845096588 -0.029875462874770164 0.00012243578385096043 -0.4184248447418213 1 True False
31757.339 4.593105316162109 -1.484512136583664 1.8047617117511194 -1.8912092647948207 -1.5707686583148401 1.4515327215194702 -0.3497183918952942 -0.16741955280303955 0.1932125985622406 -0.027197547256946564 0.00035695030237548053 -0.3463658392429352 1 True False
31757.389 4.57759952545166 -1.4919363868287583 1.8133257071124476 -1.8923341236510218 -1.5707925001727503 1.435956597328186 -0.27127641439437866 -0.1330176442861557 0.15040598809719086 -0.023558897897601128 7.253173680510372e-05 -0.2724819481372833 1 True False
31757.439 4.565772533416748 -1.4976004150560875 1.8200891653644007 -1.8931123218932093 -1.5707767645465296 1.4241068363189697 -0.20640519261360168 -0.09472448378801346 0.11054442822933197 -0.016306491568684578 2.2936967138078197e-20 -0.209519162774086 1 True False
31757.488999999998 4.557249069213867 -1.5016287726214905 1.8246563116656702 -1.8938199482359828 -1.5707843939410608 1.4156502485275269 -0.1350724846124649 -0.06162169575691223 0.07317893207073212 -0.007094617933034897 3.484131048460188e-39 -0.13580527901649475 1 True False
31757.538999999997 4.552250385284424 -1.504011408691742 1.82727557817568 -1.894102235833639 -1.5708168188678187 1.4107526540756226 -0.062001097947359085 -0.03350198268890381 0.0339265801012516 -0.006507588550448418 0.0 -0.06619054824113846 1 True False
31757.589 4.550910472869873 -1.5046020609191437 1.8281472365008753 -1.8942262134947718 -1.5708373228656214 1.4093228578567505 0.008607099764049053 0.005954195279628038 -0.00018766878929454833 -0.0004918582853861153 0.0 0.003376136999577284 1 True False
31757.639 4.550879001617432 -1.5039528247765084 1.8294442335711878 -1.8964902363219203 -1.570801083241598 1.4093096256256104 -0.0008417869103141129 0.02617647685110569 0.04826771467924118 -0.06763824820518494 4.332234126991352e-09 -0.00010330438090022653 1 True False
31757.689 4.5509161949157715 -1.5019356471351166 1.8328583876239222 -1.901839395562643 -1.570801083241598 1.4093034267425537 -0.0007476304890587926 0.05599948763847351 0.08839680999517441 -0.14392703771591187 6.580676323202719e-28 -0.0007430489640682936 1 True False
31757.738999999998 4.550831317901611 -1.4984947902015229 1.8385208288775843 -1.910868307153219 -1.570784870778219 1.4092540740966797 -0.00045395054621621966 0.08331602066755295 0.13584771752357483 -0.220339834690094 0.0 -0.00031903895433060825 1 True False
31757.788999999997 4.550836086273193 -1.493724339907505 1.8461383024798792 -1.9233385525145472 -1.5707648436175745 1.4092381000518799 -0.0003787695895880461 0.1062345802783966 0.17817310988903046 -0.2839849889278412 -9.564528227201663e-07 -0.0001909225102281198 1 True False
31757.839 4.55081033706665 -1.48751653850589 1.8563602606402796 -1.9393450222411097 -1.570813004170553 1.4092086553573608 -0.000476826069643721 0.13282988965511322 0.21712814271450043 -0.3581666350364685 -1.4528535107926554e-25 -0.0001110944285755977 1 True False
31757.889 4.550819396972656 -1.4801923719099541 1.8681190649615687 -1.958916803399557 -1.5707405249225062 1.409184455871582 -0.0001486494147684425 0.16005650162696838 0.2604353427886963 -0.42475271224975586 -2.2420775429197073e-44 -7.336059206863865e-05 1 True False
31757.939 4.550812244415283 -1.4713348236731072 1.882563892995016 -1.9818831882872523 -1.5708091894732874 1.409205436706543 -8.804548997431993e-05 0.1851222664117813 0.3044881820678711 -0.4934433400630951 -0.0 -3.6841217576633056e-11 1 True False
31757.988999999998 4.550821304321289 -1.4627094727805634 1.8965733687030237 -2.0047956905760707 -1.5707524458514612 1.409206509590149 -5.212457472225651e-05 0.14607639610767365 0.2441638708114624 -0.40520256757736206 -0.0 -5.5961878049427204e-30 1 True False
31758.038999999997 4.550812244415283 -1.4564779114774247 1.9066069761859339 -2.0209952793517054 -1.570784870778219 1.4092098474502563 -0.0 0.09249351173639297 0.15669399499893188 -0.25213679671287537 -7.2296062469945355e-09 -0.0 1 True False
31758.089 4.550831317901611 -1.4538294610432168 1.9110081831561487 -2.028388639489645 -1.5707805792437952 1.4092674255371094 0.0 0.02460990846157074 0.03619484230875969 -0.05797799676656723 -1.0981793135781959e-27 -0.0 1 True False
31758.139 4.550874710083008 -1.4536332500031968 1.9112957159625452 -2.0286508999266566 -1.5708377997027796 1.409233808517456 -0.0 -8.286395313916728e-05 9.368188532535625e-18 -0.0017845890251919627 -0.0 -0.0 1 True False
31758.189 4.550821304321289 -1.4536046993783494 1.9114225546466272 -2.0286432705321253 -1.5708087126361292 1.409283995628357 0.0 0.00031342741567641497 0.0013708688784390688 -0.0010988380527123809 -0.0 -0.0 1 True False
31758.238999999998 4.550808429718018 -1.453568698172905 1.9115107695208948 -2.0286952457823695 -1.5708211104022425 1.4092381000518799 0.0 0.000462156196590513 0.00040507997618988156 -0.001322716474533081 -0.0 -0.0 1 True False
31758.288999999997 4.550868511199951 -1.4535330396941681 1.9114697615252894 -2.0287472210326136 -1.5707925001727503 1.4092750549316406 0.0 0.0002728171239141375 0.0002088364853989333 -0.0016011545667424798 -0.0 -0.0 1 True False
31758.339 4.550795078277588 -1.4535072904876252 1.911518398915426 -2.028739114800924 -1.5708406607257288 1.409258484840393 0.0 0.00011799384083133191 2.7480181175307933e-34 -0.0002572101657278836 -0.0 -0.0 1 True False
31758.389 4.550893783569336 -1.4535419282368203 1.9115546385394495 -2.028754850427145 -1.5708048979388636 1.4092381000518799 0.0 0.00010174555063713342 0.0 -0.00014545689919032156 -0.0 -0.0 1 True False
31758.439 4.550844669342041 -1.4534954962185402 1.9115174452411097 -2.0287910900511683 -1.570829216633932 1.4092423915863037 0.0 7.013119401075123e-15 0.0 -9.664296521805227e-05 -0.0 -0.0 1 True False
31758.488999999998 4.550824165344238 -1.4536240336349984 1.911579434071676 -2.028738637963766 -1.5707805792437952 1.4091888666152954 0.0 0.0 0.0 -8.690563893520853e-12 -0.0 -0.0 1 True False
31758.538999999997 4.550832748413086 -1.4535222810557862 1.9114816824542444 -2.0286861858763636 -1.570784870778219 1.4092540740966797 0.0 0.0 0.0 -1.3200984936853017e-30 -0.0 -0.0 1 True False
31758.589 4.550777435302734 -1.45353418708358 1.9115508238421839 -2.0287629566588343 -1.5707891623126429 1.409233808517456 0.0 0.0 0.0 -0.0 -0.0 -0.0 1 True False
31758.639 4.55086088180542 -1.4535820868662377 1.9115632216082972 -2.0287472210326136 -1.5708211104022425 1.4092055559158325 0.0 0.0 0.0 -0.0 -0.0 -0.0 1 True False
31758.689 4.550828456878662 -1.4535879802754899 1.9115460554706019 -2.0287348232665003 -1.570824925099508 1.4092628955841064 0.0 0.0 0.0 -0.0 -0.0 -0.0 1 True False
31758.738999999998 4.550832748413086 -1.4535405051759263 1.9115217367755335 -2.0287424526610316 -1.5708654562579554 1.409258484840393 0.0 0.0 0.0 -0.0 -0.0 -0.0 1 True False
31758.788999999997 4.550848960876465 -1.453599901204445 1.91154653230776 -2.0287305317320765 -1.570857350026266 1.4092717170715332 0.0 0.0 0.0 -0.0 -0.0 -0.0 1 True False
31758.839 4.550840377807617 -1.453516424899437 1.9115708510028284 -2.028682371179098 -1.570784870778219 1.4093033075332642 0.0 0.0 0.0 -0.0 -0.0 -0.0 1 True False
31758.889 4.550864219665527 -1.4535419654897233 1.9114978949176233 -2.0287143192686976 -1.5707724730121058 1.4092540740966797 0.0 0.0 0.0 -0.0 -0.0 -0.0 1 True False
31758.939 4.550844669342041 -1.4535508540323754 1.9115422407733362 -2.0287424526610316 -1.570857350026266 1.4091769456863403 0.0 1.2494202564994339e-05 0.0 -0.0 -0.0 -0.0 1 True False
31758.988999999998 4.550832748413086 -1.4535878983191033 1.9115551153766077 -2.0287629566588343 -1.5708087126361292 1.4092425107955933 0.0 -8.470849216843519e-42 0.0 -0.0 -0.0 -3.069309917336227e-09 1 True False
31759.038999999997 4.550840377807617 -1.4535331216505547 1.9115379492389124 -2.028778692285055 -1.5707686583148401 1.4092086553573608 0.0 0.0 0.0 -0.0 -0.0 -4.662288320477704e-28 1 True False
31759.089 4.550880432128906 -1.4535552722266694 1.9115389029132288 -2.0287467441954554 -1.5707605520831507 1.409258484840393 0.0 0.0 0.0 -0.0 -0.0 -0.0 1 True False
31759.139 4.550881385803223 -1.4535702031901856 1.9115260283099573 -2.02874292949819 -1.5708048979388636 1.4092187881469727 0.0 0.0 -3.154645310132764e-05 -0.0 -0.0 -0.0 1 True False
31759.189 4.550807952880859 -1.4535583195141335 1.9115141073810022 -2.028782983819479 -1.5707967917071741 1.4093456268310547 -0.0014102242421358824 -2.1092053430038504e-05 -5.910252887324231e-29 -1.3225619488466123e-09 -0.0 0.011422771960496902 1 True False
31759.238999999998 4.550568103790283 -1.4536106002381821 1.9115389029132288 -2.028694292108053 -1.5708254019366663 1.4102569818496704 -0.0074880789034068584 -0.000966287509072572 -0.00029885422554798424 0.0016261913115158677 -0.0 0.03104321099817753 1 True False
31759.288999999997 4.549992084503174 -1.4536887642792244 1.9115150610553187 -2.02848019222402 -1.5708168188678187 1.4126410484313965 -0.012870811857283115 -0.005395079497247934 -0.001508501241914928 0.008488122373819351 -0.0 0.06560255587100983 1 True False
31759.339 4.549254894256592 -1.4541348603418847 1.9113391081439417 -2.027940889398092 -1.5707772413836878 1.417235255241394 -0.02288825251162052 -0.011956356465816498 -0.00342443585395813 0.012668082490563393 -0.0 0.119503915309906 1 True False
31759.389 4.5477375984191895 -1.4546492931297799 1.9111235777484339 -2.0270897350706996 -1.570801083241598 1.4249680042266846 -0.03787175565958023 -0.013169179670512676 -0.007274284027516842 0.019754717126488686 -0.0 0.1904575228691101 1 True False
31759.439 4.545349597930908 -1.4554962676814576 1.9107111136065882 -2.0259224377074183 -1.570813004170553 1.4369146823883057 -0.05216136947274208 -0.020746126770973206 -0.009179830551147461 0.027834584936499596 -0.0 0.2745784819126129 1 True False
31759.488999999998 4.5423078536987305 -1.4566616278937836 1.9103134314166468 -2.0244065723814906 -1.5707767645465296 1.4525010585784912 -0.0683738961815834 -0.02552149072289467 -0.009248441085219383 0.03456761687994003 -0.0 0.3447268605232239 1 True False
31759.538999999997 4.5386199951171875 -1.4580764037421723 1.909802261983053 -2.022520204583639 -1.5707767645465296 1.4717721939086914 -0.08361244946718216 -0.030555255711078644 -0.011608056724071503 0.04440098628401756 -0.0 0.40921729803085327 1 True False
31759.589 4.53421688079834 -1.459741973584034 1.9091113249408167 -2.0202018223204554 -1.5708335081683558 1.4943718910217285 -0.09721721708774567 -0.033917952328920364 -0.01237426046282053 0.050766438245773315 -0.0 0.48444366455078125 1 True False
31759.639 4.529049873352051 -1.46157622457061 1.908490006123678 -2.017529150048727 -1.5707648436175745 1.5204254388809204 -0.10992050170898438 -0.041331782937049866 -0.016040295362472534 0.05113780125975609 -0.0 0.5601891279220581 1 True False
31759.689 4.523210525512695 -1.4637564805201073 1.9076603094684046 -2.014614244500631 -1.5707529226886194 1.549991488456726 -0.12476635724306107 -0.04497598484158516 -0.018444351851940155 0.059153567999601364 -0.0 0.6282537579536438 1 True False
31759.738999999998 4.516734600067139 -1.466152199809887 1.9066231886493128 -2.011116167108053 -1.5707925001727503 1.5830624103546143 -0.13499507308006287 -0.048764295876026154 -0.020520951598882675 0.07007557153701782 -0.0 0.6996960043907166 1 True False
31759.788999999997 4.509511947631836 -1.4688117888620873 1.9055035750018519 -2.007634302178854 -1.5707891623126429 1.6197253465652466 -0.14861063659191132 -0.05644163861870766 -0.024372907355427742 0.07677924633026123 -0.0 0.7671282887458801 1 True False
31759.839 4.501699447631836 -1.471651942735054 1.9044621626483362 -2.0034457645811976 -1.5707925001727503 1.6598891019821167 -0.1679650843143463 -0.05845395475625992 -0.021898217499256134 0.07924246042966843 -0.0 0.8326453566551208 1 True False
31759.889 4.493102073669434 -1.474866622393467 1.9032161871539515 -1.9992462597289027 -1.5707486311541956 1.703244924545288 -0.1774057000875473 -0.06449707597494125 -0.024096092209219933 0.09732918441295624 -1.3614792351290816e-06 0.9029272198677063 1 True False
31759.939 4.48383092880249 -1.4781852525523682 1.9019549528705042 -1.9944688282408656 -1.5707686583148401 1.7504385709762573 -0.1887420415878296 -0.07124485075473785 -0.02763044275343418 0.09526102244853973 1.7576084587744845e-08 0.9725270867347717 1 True False
31759.988999999998 4.473939895629883 -1.481919789021351 1.9006016890155237 -1.9892412624754847 -1.570801083241598 1.8009454011917114 -0.20386184751987457 -0.07531525939702988 -0.026877135038375854 0.09650743752717972 2.6698119113150504e-27 1.042833685874939 1 True False
31760.038999999997 4.4636945724487305 -1.4857607942870636 1.8990019003497522 -1.983997484246725 -1.570784870778219 1.853408694267273 -0.2071547508239746 -0.07663009315729141 -0.032493773847818375 0.11543969064950943 0.0 1.044144630432129 1 True False
31760.089 4.453310489654541 -1.489530363386013 1.8974998633014124 -1.9789015255370082 -1.5708211104022425 1.9056288003921509 -0.20398712158203125 -0.07605655491352081 -0.030102282762527466 0.10504008829593658 0.0 1.0533356666564941 1 True False
31760.139 4.443160057067871 -1.4933065858534356 1.8960860411273401 -1.9736014805235804 -1.5708168188678187 1.9579229354858398 -0.20622017979621887 -0.07706375420093536 -0.030784083530306816 0.10568346828222275 0.0 1.0480746030807495 1 True False
31760.189 4.432742118835449 -1.4970794332078476 1.8946903387652796 -1.9682141743102015 -1.570801083241598 2.0103909969329834 -0.2076740860939026 -0.07297973334789276 -0.026646392419934273 0.10013334453105927 0.0 1.0377410650253296 1 True False
31760.238999999998 4.422461032867432 -1.5009651270559807 1.893104378377096 -1.962870260278219 -1.5708449522601526 2.0627169609069824 -0.2031324952840805 -0.07496816664934158 -0.033476248383522034 0.11399573087692261 0.0 1.0489678382873535 1 True False
31760.288999999997 4.412247180938721 -1.5047061455300828 1.891639534627096 -1.9578153095641078 -1.5707805792437952 2.11502742767334 -0.20622608065605164 -0.07588110119104385 -0.03187098354101181 0.10800310969352722 0.0 1.0528614521026611 1 True False
31760.339 4.4020094871521 -1.5084203642657776 1.8902257124530237 -1.9525114498534144 -1.570829216633932 2.166973352432251 -0.18979088962078094 -0.06706706434488297 -0.028168266639113426 0.09587876498699188 0.0 0.9597693681716919 1 True False
31760.389 4.394160270690918 -1.511338909422495 1.8890965620623987 -1.9484087429442347 -1.5708368460284632 2.2067248821258545 -0.12345621734857559 -0.04516475647687912 -0.01653447560966015 0.06118215247988701 0.0 0.6588699221611023 1 True False
31760.439 4.389563083648682 -1.5131114062717934 1.8884261290179651 -1.9460598431029261 -1.5707686583148401 2.2306292057037354 -0.06056472659111023 -0.023607999086380005 -0.006630264688283205 0.03284091874957085 0.0 0.3226826786994934 1 True False
31760.488999999998 4.3881425857543945 -1.5135473993471642 1.888282601033346 -1.9454146824278773 -1.5708211104022425 2.2380504608154297 0.010168283246457577 0.0005109802004881203 -0.0005832996102981269 -0.0018105179769918323 0.0 -0.014406058937311172 1 True False
31760.538999999997 4.388162136077881 -1.5135643754950543 1.8882630507098597 -1.9453698597350062 -1.570784870778219 2.2381162643432617 -0.0008599705761298537 -0.00015070723020471632 -0.0018893011147156358 -7.094682223396376e-05 9.87223902484402e-05 0.002077873330563307 1 True False
31760.589 4.3881754875183105 -1.5135643754950543 1.888179127370016 -1.9454418621458949 -1.5707643667804163 2.238125801086426 -0.0010322253219783306 -0.0007626163423992693 -0.0015237765619531274 -3.945212652932146e-15 6.775400834158063e-05 0.00042613508412614465 1 True False
31760.639 4.3881025314331055 -1.5136366871050377 1.8881462256061 -1.9453503094115199 -1.570813004170553 2.2381343841552734 -0.0007512226584367454 -0.000997179769910872 -0.0006051398813724518 0.0010014266008511186 7.286007476296449e-16 0.00017539053806103766 1 True False
31760.689 4.3881025314331055 -1.5135950346342106 1.8881390730487269 -1.9453145466246546 -1.5707686583148401 2.2381582260131836 -0.0002510727208573371 -0.00030584735213778913 -0.00022091793653089553 0.00029611116042360663 1.106746757575896e-34 9.85257065622136e-05 1 True False
31760.738999999998 4.3880815505981445 -1.513656598781683 1.888130013142721 -1.9453298054137171 -1.570784870778219 2.2381386756896973 -0.00014677084982395172 -0.00012001516006421298 -9.103840420721099e-05 0.00019545397663023323 0.0 6.3671512180008e-05 1 True False
31760.788999999997 4.388099193572998 -1.5136486303857346 1.888130013142721 -1.9453708134093226 -1.5707362333880823 2.2381093502044678 -0.00010600055247778073 -9.000778663903475e-05 -6.045938789611682e-05 0.00012715812772512436 0.0 5.559642524133324e-09 1 True False
31760.839 4.38806676864624 -1.5135789153030892 1.888150993977682 -1.945334096948141 -1.5707686583148401 2.238224983215332 -5.15207793796435e-05 -2.2596166474389556e-13 -1.0732238843352599e-15 0.00010431744158267975 0.0 8.44511132446567e-28 1 True False
31760.889 4.388045310974121 -1.513583244090416 1.8881390730487269 -1.9453259907164515 -1.5707772413836878 2.2381668090820312 0.0 0.0 -2.802596928649634e-45 8.431170863332227e-05 0.0 0.0 1 True False
31760.939 4.388108253479004 -1.5136965450695534 1.8881271521197718 -1.9453546009459437 -1.5707767645465296 2.2381539344787598 0.0 -6.06734485666045e-34 -0.0 7.021483855565162e-20 0.0 7.387982666171455e-18 1 True False
31760.988999999998 4.388073921203613 -1.5136078161052247 1.8881390730487269 -1.9453307590880335 -1.5708406607257288 2.2381019592285156 0.0 0.0 -0.0 1.0665648350875372e-38 0.0 1.1222358615015693e-36 1 True False
31761.038999999997 4.388071060180664 -1.513643817310669 1.8881672064410608 -1.945305963555807 -1.5708087126361292 2.238084554672241 0.0 0.0 -0.0 0.0 0.0 0.0 1 True False
31761.089 4.388115882873535 -1.5136724275401612 1.8881433645831507 -1.945322652856344 -1.5707925001727503 2.238137722015381 0.0 0.0 -0.0 0.0 0.0 0.0 1 True False
31761.139 4.388071060180664 -1.513640147899725 1.8881552855121058 -1.9453307590880335 -1.5707605520831507 2.238105058670044 0.0 0.0 -0.0 0.0 0.0 0.0 1 True False
31761.189 4.38811731338501 -1.5136523072472592 1.888141934071676 -1.9453708134093226 -1.5707686583148401 2.2381625175476074 0.0 0.0 -0.0 0.0 0.0 0.0 1 True False
31761.238999999998 4.388120174407959 -1.5136523072472592 1.8881462256061 -1.9453422031798304 -1.570813004170553 2.2381539344787598 0.0 0.0 -0.0 0.0 0.0 0.0 1 True False
31761.288999999997 4.388087272644043 -1.5135985513082524 1.8881595770465296 -1.9453422031798304 -1.5707405249225062 2.238121271133423 0.0 0.0 -0.0 0.0 0.0 0.0 1 True False
31761.339 4.388082981109619 -1.5136070784977456 1.8881462256061 -1.9452783070006312 -1.5708168188678187 2.2381582260131836 0.0 0.0 -5.538483744299853e-18 0.0 0.0 0.0 1 True False
31761.389 4.38810396194458 -1.5136396710625668 1.8882015387164515 -1.9453145466246546 -1.57074481645693 2.2381539344787598 0.0 0.0 -0.0 0.0 2.2724229609139002e-07 0.0 1 True False
31761.439 4.388078689575195 -1.5136565205505867 1.888141934071676 -1.9453546009459437 -1.5707886854754847 2.2381420135498047 0.0 0.0 -0.0 0.0 3.451816814082835e-26 0.0 1 True False
31761.488999999998 4.388099193572998 -1.5136232015541573 1.888162914906637 -1.9453102550902308 -1.5708296934710901 2.2381420135498047 0.0 0.0 -0.0 0.0 5.605193857299268e-45 0.0 1 True False
31761.538999999997 4.388136386871338 -1.513627329175808 1.888150993977682 -1.945322652856344 -1.570813004170553 2.2381787300109863 0.0 0.0 -0.0 0.0 0.0 0.0 1 True False
31761.589 4.388092041015625 -1.5135950197330494 1.8881257216082972 -1.9453422031798304 -1.5708206335650843 2.2382118701934814 0.0 0.0 -0.0 0.0 0.0 0.0 1 True False
31761.639 4.38808012008667 -1.513640121822693 1.8881595770465296 -1.9453464947142542 -1.5707691351519983 2.2381093502044678 0.0 0.0 -0.0 0.0 0.0 0.0 1 True False
31761.689 4.388082981109619 -1.513648134922125 1.888179127370016 -1.9452978573241175 -1.5708168188678187 2.2381343841552734 0.0 0.0 -0.0 0.0 0.0 0.0 1 True False
31761.738999999998 4.388099193572998 -1.513591719125845 1.888150993977682 -1.9453665218748988 -1.5708087126361292 2.2381832599639893 0.0 0.0 -0.0 0.0 0.0 0.0 1 True False
31761.788999999997 4.388108253479004 -1.5136035953513165 1.8881672064410608 -1.9453588924803675 -1.570784870778219 2.2381582260131836 0.0 0.0 1.9762313826747417e-27 0.0 0.0 0.0 1 True False
31761.839 4.388108253479004 -1.5136232164553185 1.8881343046771448 -1.9453383884825648 -1.5708087126361292 2.2381420135498047 0.0 0.0 0.0 0.0 0.0 0.0 1 True False
31761.889 4.388082981109619 -1.5136400659433384 1.888162914906637 -1.9453350506224574 -1.5708125273333948 2.2381343841552734 0.0 0.0 0.0 0.0 0.0 0.0 1 True False
31761.939 4.388115882873535 -1.5136566062322636 1.8881462256061 -1.945305963555807 -1.570829216633932 2.2381505966186523 0.0 0.0 0.0 0.0 0.0 0.0 1 True False
31761.988999999998 4.388054370880127 -1.5135908511332055 1.888150993977682 -1.9453102550902308 -1.5708006064044397 2.2381787300109863 0.0 0.0 0.0 0.0 0.0 0.0 1 True False
31762.038999999997 4.388133525848389 -1.5136070784977456 1.8881834189044397 -1.9452740154662074 -1.5707967917071741 2.238081216812134 0.0 0.0 0.0 0.0 0.0 0.0 1 True False
31762.089 4.388008117675781 -1.5136112545481701 1.888179127370016 -1.9453021488585414 -1.5708168188678187 2.2381668090820312 0.0 0.0 0.0 0.0 0.0 0.0 1 True False
31762.139 4.388067722320557 -1.5136922758868714 1.8881672064410608 -1.945294042626852 -1.5707767645465296 2.2381224632263184 3.784611544688232e-05 0.0 0.0 0.0 0.0 0.0 1 True False
31762.189 4.388082981109619 -1.5136078347316761 1.8882415930377405 -1.9453383884825648 -1.570772949849264 2.2381505966186523 8.179373655161151e-17 0.0 7.720985004667567e-19 0.0 0.0 0.0 1 True False
31762.238999999998 4.388033866882324 -1.513562475597002 1.888174835835592 -1.9452978573241175 -1.5707810560809534 2.23807692527771 0.0 0.0 0.0 0.0 0.0 0.0 1 True False
31762.288999999997 4.388087272644043 -1.5136197370341797 1.8882001082049769 -1.9452983341612757 -1.5708087126361292 2.2381505966186523 0.0 0.0 0.0 0.0 0.0 0.0 1 True False
31762.339 4.388124465942383 -1.5136112135699769 1.8882001082049769 -1.945322652856344 -1.570784870778219 2.2381420135498047 4.1311490903486736e-16 0.0 0.0 3.885928254471001e-18 0.0 0.0 1 True False
31762.389 4.388099193572998 -1.513648097669222 1.8881543318377894 -1.9453422031798304 -1.5707529226886194 2.23814058303833 0.0 0.0 0.0 5.902732344956497e-37 0.0 0.0 1 True False
31762.439 4.388112545013428 -1.5136272956481953 1.888174835835592 -1.945334096948141 -1.5707886854754847 2.2381062507629395 0.0 -3.891238165021349e-10 0.0 0.0 0.0 0.0 1 True False
31762.488999999998 4.38806676864624 -1.5136112135699769 1.8881390730487269 -1.945326944390768 -1.5708087126361292 2.238109588623047 0.0 0.0 0.0 0.0 0.0 0.0 1 True False
31762.538999999997 4.38810396194458 -1.513648134922125 1.8882043997394007 -1.9453383884825648 -1.570784870778219 2.2381539344787598 0.0 0.0 0.0 0.0 0.0 0.0 1 True False
31762.589 4.388077259063721 -1.5136842665127297 1.8881877104388636 -1.9453021488585414 -1.5708125273333948 2.2381343841552734 0.0 0.0 0.0 0.0 0.0 0.0 1 True False
31762.639 4.388082981109619 -1.5136523258737107 1.8881304899798792 -1.9452859363951625 -1.570813004170553 2.238161325454712 0.0 0.0 0.0 0.0 0.0 0.0 1 True False
31762.689 4.388073921203613 -1.5136273105493565 1.8882001082049769 -1.9453383884825648 -1.5707529226886194 2.2381582260131836 0.0 0.0 0.0 0.0 0.0 0.0 1 True False
31762.738999999998 4.388049602508545 -1.513628178541996 1.8882001082049769 -1.9452978573241175 -1.570853058491842 2.238142967224121 0.0 0.0 0.0 0.0 0.0 0.0 1 True False
31762.788999999997 4.388082981109619 -1.5136723791113873 1.888150993977682 -1.9453422031798304 -1.5708416144000452 2.2381300926208496 0.0 0.0 0.0 0.0 0.0 0.0 1 True False
31762.839 4.388120174407959 -1.5136396561614056 1.8881757895099085 -1.9453503094115199 -1.5707967917071741 2.2381505966186523 0.0 0.0 0.0 0.0 0.0 0.0 1 True False
31762.889 4.388099193572998 -1.5136112135699769 1.888174835835592 -1.945294042626852 -1.5708211104022425 2.238159418106079 0.0 0.0 0.0 0.0 0.0 0.0 1 True False
31762.939 4.388091564178467 -1.51365231842313 1.8881672064410608 -1.9452864132323207 -1.5708449522601526 2.2381343841552734 0.0 0.0 0.0 0.0 0.0 0.0 1 True False
31762.988999999998 4.388045310974121 -1.5136481088450928 1.8881877104388636 -1.945334096948141 -1.5707805792437952 2.238199472427368 0.0 0.0 0.0 0.0 0.0 0.0 1 True False
31763.038999999997 4.388115406036377 -1.513656524275877 1.8881261984454554 -1.945334096948141 -1.5707805792437952 2.23810076713562 0.0 0.0 0.0 0.0 0.0 0.0 1 True False
31763.089 4.388136386871338 -1.5135910485735913 1.888122860585348 -1.9453021488585414 -1.570801083241598 2.238125801086426 0.0 0.0 0.0 0.0 0.0 0.0 1 True False
31763.139 4.388112545013428 -1.5136190329543133 1.8881800810443323 -1.9453183613219203 -1.570784870778219 2.2381832599639893 0.0 0.0 0.0 0.0 0.0 0.0 1 True False
31763.189 4.388078689575195 -1.5136354838362713 1.8881672064410608 -1.9453102550902308 -1.5707886854754847 2.2381591796875 0.0 0.0 0.0 0.0 0.0 0.0 1 True False
31763.238999999998 4.388078689575195 -1.5136358712664624 1.8882158438311976 -1.9453102550902308 -1.5707686583148401 2.2381539344787598 0.0 0.0 0.0 0.0 0.0 0.0 1 True False
31763.288999999997 4.388078689575195 -1.5136239317110558 1.8881915251361292 -1.945334096948141 -1.5707805792437952 2.23818302154541 0.0 0.0 0.0 0.0 0.0 -3.3205428611654935e-19 1 True False
31763.339 4.388099193572998 -1.5136481162956734 1.8881595770465296 -1.9453708134093226 -1.5707772413836878 2.2382075786590576 0.0 0.0 0.0 0.0 0.0 -5.043909923127206e-38 1 True False
31763.389 4.388050079345703 -1.5136036065271874 1.8881424109088343 -1.9453665218748988 -1.5708368460284632 2.2381668090820312 0.0 0.0 0.0 0.0 0.0 -2.060313423154437e-19 1 True False
31763.439 4.388075351715088 -1.51356681928549 1.8882115522967737 -1.9453546009459437 -1.570813004170553 2.2381582260131836 0.0 0.0 0.0 0.0 0.0 -3.129621034125738e-38 1 True False
31763.488999999998 4.388045310974121 -1.5136197370341797 1.8882325331317347 -1.9453383884825648 -1.5708168188678187 2.238125801086426 0.0 0.0 0.0 0.0 0.0 -0.0 1 True False
31763.538999999997 4.388058185577393 -1.513644253169634 1.8881304899798792 -1.9452983341612757 -1.5708335081683558 2.2381420135498047 0.0 0.0 0.0 0.0 0.0 -0.0 1 True False
31763.589 4.388107776641846 -1.5136681248298665 1.8881586233722132 -1.9453145466246546 -1.5708044211017054 2.2381625175476074 0.0 0.0 0.0 0.0 0.0 -0.0 1 True False
31763.639 4.38813591003418 -1.513684955691435 1.8882043997394007 -1.945305963555807 -1.5708048979388636 2.2381625175476074 0.0 0.0 0.0 0.0 0.0 -0.0 1 True False
31763.689 4.388021945953369 -1.5136077974787732 1.8881834189044397 -1.9453259907164515 -1.5708416144000452 2.2381181716918945 0.0 0.0 0.0 0.0 0.0 -0.0 1 True False
31763.738999999998 4.388091564178467 -1.5136155125549813 1.8881714979754847 -1.9453145466246546 -1.5707686583148401 2.2381668090820312 0.0 0.0 0.0 0.0 0.0 -0.0 1 True False
31763.788999999997 4.388123989105225 -1.5136681248298665 1.888137165700094 -1.9452983341612757 -1.5708449522601526 2.2381420135498047 0.0 0.0 1.5587107071637213e-14 0.0 0.0 -0.0 1 True False
31763.839 4.388082981109619 -1.5136765924147149 1.888179127370016 -1.945294042626852 -1.570813004170553 2.2381343841552734 0.0 0.0 -2.8272192139411345e-05 0.0 0.0 -0.0 1 True False
31763.889 4.38806676864624 -1.5135958951762696 1.888150993977682 -1.945334096948141 -1.5707686583148401 2.238159418106079 0.0 0.0 -5.6623792100508e-32 0.0 0.0 -0.0 1 True False
31763.939 4.388115406036377 -1.5135951612940808 1.8881962935077112 -1.9453021488585414 -1.5707724730121058 2.2381138801574707 0.0 0.0 -0.0 0.0 0.0 -0.0 1 True False
31763.988999999998 4.388111114501953 -1.5136442829719563 1.8881924788104456 -1.9452783070006312 -1.5707724730121058 2.23810076713562 0.0 0.0 -0.0 0.0 0.0 -0.0 1 True False
31764.038999999997 4.388107776641846 -1.5136078161052247 1.888200585042135 -1.9453307590880335 -1.5708168188678187 2.2381420135498047 0.0 0.0 -0.0 0.0 0.0 -0.0 1 True False
31764.089 4.388111114501953 -1.5136273478022595 1.888195816670553 -1.9452587566771449 -1.570801083241598 2.238125801086426 0.0 0.0 -0.0 0.0 0.0 -0.0 1 True False
31764.139 4.388082981109619 -1.5136324626258393 1.8881595770465296 -1.9453627071776332 -1.5708044211017054 2.2381744384765625 0.0 0.0 -0.0 0.0 0.0 -0.0 1 True False
31764.189 4.388054370880127 -1.513635867541172 1.888118092213766 -1.945334096948141 -1.570801083241598 2.238105058670044 0.0 0.0 -0.0 0.0 0.0 -0.0 1 True False
31764.238999999998 4.388058662414551 -1.5135916855982323 1.888162914906637 -1.9453422031798304 -1.5708044211017054 2.2381787300109863 0.0 0.0 -0.0 0.0 0.0 -0.0 1 True False
31764.288999999997 4.388054370880127 -1.5136442717960854 1.888162914906637 -1.945334096948141 -1.5707648436175745 2.2381300926208496 0.0 0.0 -0.0 0.0 0.0 -0.0 1 True False
31764.339 4.388091564178467 -1.513643791233637 1.8882048765765589 -1.9452783070006312 -1.5708044211017054 2.2381701469421387 0.0 0.0 -0.0 0.0 0.0 -0.0 1 True False
31764.389 4.388050079345703 -1.513684206908085 1.888162914906637 -1.9453503094115199 -1.5708044211017054 2.238109588623047 0.0 0.0 -0.0 0.0 0.0 -0.0 1 True False
31764.439 4.388094902038574 -1.5136316765895863 1.8881834189044397 -1.9452902279295863 -1.570801083241598 2.2381505966186523 0.0 0.0 -0.0 0.0 0.0 -0.0 1 True False
31764.488999999998 4.388103485107422 -1.513628152464964 1.8881915251361292 -1.9453422031798304 -1.5708254019366663 2.238171100616455 0.0 0.0 -0.0 0.0 0.0 -0.0 1 True False
31764.538999999997 4.388115406036377 -1.5135511320880433 1.88817006746401 -1.9453145466246546 -1.570824925099508 2.2381787300109863 0.0 0.0 -0.0 0.0 0.0 -0.0 1 True False
31764.589 4.388091564178467 -1.5136564646712323 1.888179127370016 -1.9452668629088343 -1.5708335081683558 2.238097667694092 0.0 0.0 -0.0 0.0 0.0 -0.0 1 True False
31764.639 4.388075351715088 -1.513595913802721 1.8881834189044397 -1.9452663860716761 -1.5708168188678187 2.2381539344787598 0.0 0.0 -0.0 0.0 0.0 -0.0 1 True False
31764.689 4.388095855712891 -1.5135789786330243 1.8881872336017054 -1.9453498325743617 -1.5707925001727503 2.2381224632263184 0.0 0.0 -0.0 0.0 0.0 -0.0 1 True False
31764.738999999998 4.3880414962768555 -1.5136120554855843 1.8881867567645472 -1.9453379116454066 -1.5708335081683558 2.2381224632263184 0.0 0.0 -0.0 0.0 0.0 -0.0 1 True False
31764.788999999997 4.388030052185059 -1.5136400994709511 1.88817006746401 -1.9453307590880335 -1.5708406607257288 2.238159418106079 0.0 0.0 -0.0 0.0 0.0 -0.0 1 True False
31764.839 4.38809061050415 -1.5136480902186413 1.88817006746401 -1.945386072198385 -1.5708487669574183 2.2381138801574707 0.0 0.0 -0.0 0.0 0.0 -0.0 1 True False
31764.889 4.388155460357666 -1.513635867541172 1.888200585042135 -1.9453307590880335 -1.570813004170553 2.2381625175476074 0.0 0.0 -0.0 0.0 0.0 -0.0 1 True False
31764.939 4.388078689575195 -1.51365231842313 1.888200585042135 -1.9453145466246546 -1.570829216633932 2.2381505966186523 0.0 0.0 -0.0 0.0 0.0 -0.0 1 True False
31764.988999999998 4.388099193572998 -1.5136112508228798 1.888162914906637 -1.945346017877096 -1.5707686583148401 2.238125801086426 0.0 0.0 -0.0 0.0 0.0 -0.0 1 True False
31765.038999999997 4.38806676864624 -1.5136358898929139 1.8881881872760218 -1.9453183613219203 -1.5707767645465296 2.2381386756896973 0.0 0.0 -0.0 0.0 0.0 -0.0 1 True False
31765.089 4.388087272644043 -1.5136239428869267 1.888141934071676 -1.9453102550902308 -1.570784870778219 2.2381463050842285 0.0 0.0 -0.0 0.0 0.0 -0.0 1 True False
31765.139 4.388106822967529 -1.513628152464964 1.888200585042135 -1.945334096948141 -1.5708168188678187 2.2381625175476074 0.0 0.0 -0.0 0.0 0.0 -0.0 1 True False
31765.189 4.38810396194458 -1.5136001867106934 1.8881714979754847 -1.9452978573241175 -1.570829216633932 2.2381744384765625 0.0 0.0 -0.0 0.0 0.0 -0.0 1 True False
31765.238999999998 4.388082981109619 -1.5135951091400166 1.88817006746401 -1.9453183613219203 -1.5707925001727503 2.238171100616455 0.0 0.0 -0.0 0.0 0.0 -0.0 1 True False
31765.288999999997 4.38809061050415 -1.5135917154005547 1.8881714979754847 -1.9452902279295863 -1.5707686583148401 2.2381668090820312 0.0 0.0 -0.0 0.0 0.0 -0.0 1 True False
31765.339 4.388082981109619 -1.513655499821045 1.888174835835592 -1.9453383884825648 -1.5707967917071741 2.2381744384765625 0.0 0.0 -0.0 0.0 0.0 -0.0 1 True False
31765.389 4.388111114501953 -1.5136403825930138 1.8881762663470667 -1.9453183613219203 -1.5708406607257288 2.2381343841552734 0.0 0.0 -0.0 0.0 0.0 -0.0 1 True False
31765.439 4.38810396194458 -1.5136272062412282 1.8881538550006312 -1.945277830163473 -1.5707605520831507 2.238109588623047 0.0 0.0 -0.0 0.0 0.0 -0.0 1 True False
31765.488999999998 4.388099193572998 -1.5136403527906914 1.8881881872760218 -1.945350786248678 -1.5707967917071741 2.2381224632263184 0.0 0.0 -0.0 0.0 0.0 -0.0 1 True False
31765.538999999997 4.388115882873535 -1.5136316244355221 1.8881462256061 -1.945350786248678 -1.5707967917071741 2.23810076713562 0.0 0.0 -0.0 0.0 0.0 -0.0 1 True False
31765.589 4.388106822967529 -1.5136271578124543 1.8881881872760218 -1.9453298054137171 -1.5707925001727503 2.2382161617279053 0.0 0.0 -0.0 0.0 0.0 -0.0 1 True False
31765.639 4.388062000274658 -1.5136077974787732 1.8881343046771448 -1.9453145466246546 -1.5707686583148401 2.2381420135498047 0.0 0.0 -0.0 0.0 0.0 -0.0 1 True False
31765.689 4.388082981109619 -1.5136078347316761 1.8881462256061 -1.945282598535055 -1.5707648436175745 2.2381463050842285 0.0 0.0 -0.0 0.0 0.0 -0.0 1 True False
31765.738999999998 4.388036251068115 -1.51359153286133 1.888162914906637 -1.9453145466246546 -1.5707686583148401 2.238084554672241 0.0 0.0 -0.0 0.0 0.0 -0.0 1 True False
31765.939 4.388124465942383 -1.513591570114233 1.8881672064410608 -1.9453307590880335 -1.570723835621969 2.2381505966186523 0.0 0.0 -0.0 0.0 0.0 -0.0 1 True False
31765.988999999998 4.388078689575195 -1.5135860008052369 1.8881595770465296 -1.945322652856344 -1.5707281271563929 2.2381420135498047 0.0 0.0 -0.0 0.0 0.0 -0.0 1 True False
31766.038999999997 4.388092041015625 -1.5135860008052369 1.888158146535055 -1.9453183613219203 -1.5708368460284632 2.238121509552002 0.0 0.0 -0.0 0.0 0.0 -0.0 1 True False
31766.089 4.38808012008667 -1.5136066314629097 1.888162914906637 -1.9453302822508753 -1.5707529226886194 2.2381505966186523 0.0 0.0 -0.0 0.0 0.0 -0.0 1 True False
31766.139 4.38809061050415 -1.5135427613607426 1.8881714979754847 -1.945334096948141 -1.5707767645465296 2.2381138801574707 0.0 0.0 -0.0 0.0 -1.0189834002624631e-12 -0.0 1 True False
31766.189 4.388054370880127 -1.513606683616974 1.888179127370016 -1.9453021488585414 -1.570801083241598 2.2381181716918945 0.0 0.0 -0.0 0.0 -1.547837828818131e-31 -0.0 1 True False
31766.238999999998 4.388073921203613 -1.5136403825930138 1.8882048765765589 -1.9453908405699671 -1.570813004170553 2.2381386756896973 0.0 0.0 -0.0 0.0 -0.0 -0.0 1 True False
31766.288999999997 4.388071060180664 -1.5136078161052247 1.8881834189044397 -1.9453102550902308 -1.5708406607257288 2.2381505966186523 0.0 0.0 -0.0 0.0 -0.0 -0.0 1 True False
31766.339 4.38810396194458 -1.5136035431972523 1.8882001082049769 -1.945334096948141 -1.5707967917071741 2.2381591796875 0.0 0.0 -0.0 0.0 -0.0 -0.0 1 True False
31766.389 4.388161659240723 -1.513636064981558 1.8881877104388636 -1.945334096948141 -1.5707648436175745 2.2381181716918945 0.0 0.0 -0.0 0.0 -0.0 -0.0 1 True False
31766.439 4.388087272644043 -1.5136141192964097 1.8881805578814905 -1.9453383884825648 -1.570784870778219 2.2381906509399414 0.0 0.0 -0.0 0.0 -0.0 -0.0 1 True False
31766.488999999998 4.388092041015625 -1.5136121784201642 1.8881185690509241 -1.9453183613219203 -1.5708254019366663 2.2381625175476074 0.0 0.0 -0.0 0.0 -0.0 -0.0 1 True False
31766.538999999997 4.388092041015625 -1.5135991063765069 1.8881705443011683 -1.945326944390768 -1.570801083241598 2.2381582260131836 0.0 0.0 -0.0 0.0 -0.0 -0.0 1 True False
31766.589 4.388082981109619 -1.5136316579631348 1.8881834189044397 -1.945334096948141 -1.5707843939410608 2.2381582260131836 0.0 0.0 -0.0 0.0 -0.0 -0.0 1 True False
31766.639 4.388094902038574 -1.5136240620962162 1.8882158438311976 -1.945322652856344 -1.5707648436175745 2.2381625175476074 0.0 0.0 -0.0 0.0 -0.0 -0.0 1 True False
31766.689 4.388017177581787 -1.513636016552784 1.8882001082049769 -1.9453145466246546 -1.5707686583148401 2.2381744384765625 0.0 0.0 -0.0 0.0 -0.0 -0.0 1 True False
31766.738999999998 4.388115882873535 -1.5136034537902852 1.8881877104388636 -1.9453627071776332 -1.5707605520831507 2.2381906509399414 0.0 0.0 -0.0 0.0 -0.0 -0.0 1 True False
31766.788999999997 4.38812780380249 -1.5136597652784367 1.888162914906637 -1.9453383884825648 -1.5708211104022425 2.2381019592285156 0.0 0.0 -0.0 0.0 -0.0 -0.0 1 True False
31766.839 4.388062000274658 -1.5136153635433693 1.8882368246661585 -1.9452506504454554 -1.5708168188678187 2.2381300926208496 0.0 0.0 -0.0 0.0 -0.0 -0.0 1 True False
31766.889 4.388078689575195 -1.5135915179601689 1.888134781514303 -1.9453422031798304 -1.5707805792437952 2.238097667694092 0.0 0.0 -0.0 0.0 -0.0 -0.0 1 True False
31766.939 4.388041019439697 -1.5135661971620102 1.888179127370016 -1.9453102550902308 -1.570784870778219 2.238133430480957 0.0 0.0 -0.0 0.0 -0.0 -0.0 1 True False
31766.988999999998 4.388092041015625 -1.5136438508382817 1.8882091681109827 -1.9453021488585414 -1.5707891623126429 2.2381386756896973 0.0 0.0 -0.0 0.0 -0.0 -0.0 1 True False
31767.038999999997 4.388057708740234 -1.5135828343084832 1.8882043997394007 -1.945322652856344 -1.5707805792437952 2.2381582260131836 0.0 0.0 -0.0 0.0 -0.0 -0.0 1 True False
31767.089 4.388054370880127 -1.5136240993491192 1.888174835835592 -1.9453422031798304 -1.5708735624896448 2.238109588623047 0.0 0.0 -0.0 0.0 -0.0 -0.0 1 True False
31767.139 4.388062000274658 -1.5136271950653573 1.8881304899798792 -1.9453588924803675 -1.570784870778219 2.2381863594055176 0.0 0.0 -0.0 0.0 -0.0 -0.0 1 True False
31767.189 4.388087272644043 -1.5136597392014046 1.8882201353656214 -1.9453183613219203 -1.570784870778219 2.2381505966186523 0.0 0.0 -0.0 0.0 -0.0 -0.0 1 True False
31767.238999999998 4.388057708740234 -1.5136447821608563 1.8882043997394007 -1.9453379116454066 -1.5707805792437952 2.2381582260131836 0.0 0.0 -0.0 0.0 -0.0 -0.0 1 True False
31767.288999999997 4.388099193572998 -1.5136197370341797 1.8881834189044397 -1.9453379116454066 -1.5708449522601526 2.238081455230713 3.493453387691128e-18 0.0 -0.0 0.0 -0.0 -0.0 1 True False
31767.339 4.388087272644043 -1.5136316579631348 1.8881915251361292 -1.9453383884825648 -1.5708044211017054 2.2381343841552734 -2.6281786631443538e-05 0.0 -0.0 0.0 -0.0 -0.0 1 True False
31767.389 4.388082981109619 -1.5136482802084466 1.8882043997394007 -1.9453145466246546 -1.570784870778219 2.2381138801574707 -1.5350803973964534e-28 0.0 -0.0 0.0 -0.0 -0.0 1 True False
31767.439 4.388120174407959 -1.5136078161052247 1.8881376425372522 -1.9453588924803675 -1.5708487669574183 2.2381343841552734 0.0 0.0 -0.0 0.0 -0.0 -0.0 1 True False
31767.488999999998 4.388071060180664 -1.5136241254261513 1.888150993977682 -1.945326944390768 -1.5707362333880823 2.2381343841552734 0.0 0.0 -0.0 0.0 -7.89607819199603e-17 -0.0 1 True False
31767.538999999997 4.388103485107422 -1.5136034314385434 1.8882282415973108 -1.9453383884825648 -1.5708168188678187 2.238125801086426 0.0 0.0 -0.0 0.0 -1.1994155604164471e-35 -0.0 1 True False
31767.589 4.388099193572998 -1.5135915291360398 1.8881872336017054 -1.9453145466246546 -1.5707767645465296 2.2381582260131836 0.0 0.0 -0.0 0.0 -0.0 -0.0 1 True False
31767.639 4.388054370880127 -1.5135871444693585 1.8882001082049769 -1.9453751049437464 -1.5707891623126429 2.2381463050842285 0.0 0.0 -0.0 0.0 -0.0 -0.0 1 True False
31767.689 4.388045310974121 -1.513693743651249 1.8881142775165003 -1.945322652856344 -1.5707805792437952 2.238163471221924 0.0 0.0 -0.0 0.0 -0.0 -0.0 1 True False
31767.738999999998 4.388082981109619 -1.5135945950499554 1.888179127370016 -1.9453383884825648 -1.5708254019366663 2.2381343841552734 0.0 0.0 -0.0 0.0 -0.0 -0.0 1 True False
31767.788999999997 4.388106822967529 -1.5135457341424008 1.888179127370016 -1.945350786248678 -1.5707967917071741 2.238093376159668 0.0 0.0 -0.0 0.0 -0.0 -0.0 1 True False
31767.839 4.388038635253906 -1.5136241030744095 1.888162914906637 -1.945294042626852 -1.570824925099508 2.2381300926208496 0.0 0.0 -0.0 0.0 -0.0 -0.0 1 True False
31767.889 4.388082981109619 -1.513612189596035 1.888195816670553 -1.9453422031798304 -1.5708211104022425 2.2381701469421387 0.0 0.0 -0.0 0.0 -0.0 -0.0 1 True False
31767.939 4.388050079345703 -1.5136927042952557 1.8881834189044397 -1.9453183613219203 -1.5708006064044397 2.2381224632263184 0.0 0.0 -0.0 0.0 -0.0 -0.0 1 True False
31767.988999999998 4.388058185577393 -1.5136641983738919 1.8882253805743616 -1.945326944390768 -1.5708125273333948 2.2381625175476074 0.0 0.0 -0.0 0.0 -0.0 -0.0 1 True False
31768.038999999997 4.3880743980407715 -1.5136109565249463 1.888141934071676 -1.9453298054137171 -1.5707686583148401 2.238125801086426 0.0 0.0 -0.0 0.0 -0.0 -0.0 1 True False
31768.089 4.38806676864624 -1.5135828045061608 1.8881672064410608 -1.9452859363951625 -1.5707805792437952 2.2381744384765625 0.0 0.0 -0.0 0.0 -0.0 -0.0 1 True False
31768.139 4.388082981109619 -1.5135662604919453 1.8881834189044397 -1.9453183613219203 -1.570772949849264 2.2381668090820312 0.0 0.0 -0.0 0.0 -0.0 -0.0 1 True False
31768.189 4.3880743980407715 -1.5136569564095517 1.8881881872760218 -1.9452821216978968 -1.5707686583148401 2.238191604614258 0.0 0.0 -0.0 0.0 -0.0 -0.0 1 True False
31768.238999999998 4.388103485107422 -1.5136403267136593 1.888158146535055 -1.945322652856344 -1.5707886854754847 2.2381300926208496 0.0 0.0 -0.0 0.0 -0.0 -0.0 1 True False
31768.288999999997 4.388058662414551 -1.5136272472194214 1.8881538550006312 -1.945350786248678 -1.5708048979388636 2.238187551498413 0.0 0.0 -0.0 0.0 -0.0 -0.0 1 True False
31768.339 4.388071060180664 -1.5136316579631348 1.88820726076235 -1.945294042626852 -1.5707691351519983 2.2381625175476074 0.0 0.0 -0.0 0.0 -0.0 -0.0 1 True False
31768.389 4.388091564178467 -1.5136979644051571 1.888174835835592 -1.9453183613219203 -1.570784870778219 2.2381019592285156 0.0 0.0 -0.0 0.0 -0.0 -0.0 1 True False
31768.439 4.3881120681762695 -1.5136109490743657 1.888200585042135 -1.9453588924803675 -1.5708168188678187 2.2381300926208496 0.0 0.0 -0.0 0.0 -0.0 -0.0 1 True False
31768.488999999998 4.388045787811279 -1.5136360240033646 1.888158146535055 -1.945326944390768 -1.5708006064044397 2.2381300926208496 0.0 0.0 -0.0 0.0 -0.0 -0.0 1 True False
31768.538999999997 4.388058185577393 -1.513615408246853 1.8881462256061 -1.9453064403929652 -1.5708211104022425 2.238133430480957 0.0 0.0 -0.0 0.0 -0.0 -0.0 1 True False
31768.589 4.388127326965332 -1.5136034500649949 1.8881834189044397 -1.9453627071776332 -1.5707610289203089 2.2381582260131836 0.0 0.0 -0.0 0.0 -0.0 -0.0 1 True False
31768.639 4.388071060180664 -1.5135991361788292 1.8881462256061 -1.9453021488585414 -1.5707929770099085 2.2381386756896973 0.0 0.0 -0.0 0.0 -0.0 -0.0 1 True False
31768.689 4.38806676864624 -1.5136597541025658 1.888162914906637 -1.945322652856344 -1.5707767645465296 2.2381582260131836 0.0 0.0 -0.0 0.0 -0.0 -0.0 1 True False
31768.738999999998 4.388094902038574 -1.5135817912271996 1.888141934071676 -1.945305963555807 -1.5707805792437952 2.2381463050842285 0.0 0.0 -0.0 -1.698133412797214e-22 -0.0 -0.0 1 True False
31768.788999999997 4.38809061050415 -1.5136077639511605 1.888200585042135 -1.9453307590880335 -1.5708525816546839 2.238109588623047 0.0 0.0 -0.0 -2.5795102131291233e-41 -0.0 -0.0 1 True False
31768.839 4.388062477111816 -1.513664086615183 1.8881672064410608 -1.9453021488585414 -1.570784870778219 2.238199234008789 0.0 0.0 -0.0 -0.0 -0.0 -0.0 1 True False
31768.889 4.388087272644043 -1.5136437986842175 1.8881714979754847 -1.945334096948141 -1.5708444754229944 2.238109588623047 0.0 0.0 -0.0 -0.0 -0.0 -0.0 1 True False
31768.939 4.388034343719482 -1.5136197370341797 1.888141934071676 -1.9453665218748988 -1.570784870778219 2.238105297088623 0.0 0.0 -0.0 -0.0 -0.0 -0.0 1 True False
31768.988999999998 4.3880414962768555 -1.5135743369213124 1.88817006746401 -1.945334096948141 -1.5707605520831507 2.2381505966186523 0.0 0.0 -0.0 -0.0 -0.0 -0.0 1 True False
31769.038999999997 4.388087272644043 -1.5136240434697648 1.8881462256061 -1.945322652856344 -1.5708087126361292 2.2381138801574707 0.0 0.0 -0.0 -0.0 -0.0 -0.0 1 True False
31769.089 4.3880743980407715 -1.5136359457722683 1.8881762663470667 -1.9453464947142542 -1.5708168188678187 2.2381591796875 0.0 0.0 -0.0 -0.0 -0.0 -0.0 1 True False
31769.139 4.388123989105225 -1.5136402894607563 1.888174835835592 -1.9453746281065882 -1.5707691351519983 2.2381668090820312 0.0 0.0 -0.0 -0.0 -0.0 -0.0 1 True False
31769.189 4.388058662414551 -1.5136359718493004 1.888150993977682 -1.9453021488585414 -1.5707767645465296 2.2381668090820312 0.0 0.0 -0.0 -0.0 -0.0 -0.0 1 True False
31769.238999999998 4.388099193572998 -1.513656848376133 1.88810903230776 -1.9453307590880335 -1.570813004170553 2.238121509552002 0.0 0.0 -0.0 -0.0 -0.0 -0.0 1 True False
31769.288999999997 4.388115406036377 -1.5136067916503926 1.8881462256061 -1.9453021488585414 -1.5708087126361292 2.238171100616455 0.0 0.0 -0.0 -0.0 -0.0 -0.0 1 True False
31769.339 4.388087272644043 -1.5135992255857964 1.888212029133932 -1.9453188381590785 -1.5708406607257288 2.2381138801574707 0.0 0.0 -0.0 -0.0 -0.0 -0.0 1 True False
31769.389 4.388078689575195 -1.5135678772679348 1.888195816670553 -1.9453264675536097 -1.570824925099508 2.2381420135498047 0.0 0.0 -0.0 -0.0 -0.0 -0.0 1 True False
31769.439 4.388085842132568 -1.5136402633837243 1.888150993977682 -1.9453703365721644 -1.5707967917071741 2.2381949424743652 0.0 0.0 -0.0 -0.0 -0.0 -0.0 1 True False
31769.488999999998 4.388073921203613 -1.513643817310669 1.8881986776935022 -1.9453145466246546 -1.570813004170553 2.238093376159668 0.0 0.0 -0.0 -0.0 -0.0 -0.0 1 True False
31769.538999999997 4.388045310974121 -1.5136402894607563 1.888179127370016 -1.9453665218748988 -1.5707724730121058 2.2381625175476074 0.0 0.0 -0.0 -0.0 -0.0 -0.0 1 True False
31769.589 4.388108253479004 -1.5136769239655514 1.8881872336017054 -1.9453264675536097 -1.570784870778219 2.238163471221924 0.0 0.0 -0.0 -0.0 -0.0 -0.0 1 True False
31769.639 4.388049602508545 -1.5136197184077282 1.8881672064410608 -1.9453021488585414 -1.5708211104022425 2.238109588623047 0.0 0.0 -0.0 -0.0 -0.0 -0.0 1 True False
31769.689 4.388106822967529 -1.513587312107422 1.8881762663470667 -1.9453021488585414 -1.5707886854754847 2.238171100616455 0.0 0.0 -0.0 -0.0 -0.0 -0.0 1 True False
31769.738999999998 4.38809061050415 -1.5136640828898926 1.8881881872760218 -1.9453379116454066 -1.5707929770099085 2.2381463050842285 0.0 0.0 -0.0 -0.0 -0.0 -0.0 1 True False
31769.788999999997 4.38806676864624 -1.513643817310669 1.88817006746401 -1.9453822575011195 -1.5707319418536585 2.238125801086426 0.0 0.0 -0.0 -0.0 -0.0 -0.0 1 True False
31769.839 4.388049602508545 -1.5136684005013485 1.888150993977682 -1.9453021488585414 -1.5708168188678187 2.238093376159668 0.0 0.0 -0.0 -0.0 -0.0 -0.0 1 True False
31769.889 4.388111114501953 -1.5136282977512856 1.8881881872760218 -1.9452864132323207 -1.570772949849264 2.2381019592285156 0.0 0.0 -0.0 -0.0 -0.0 -0.0 1 True False
31769.939 4.388062000274658 -1.5136567328921338 1.8881672064410608 -1.9453140697874964 -1.5708282629596155 2.2381539344787598 0.0 0.0 -0.0 -0.0 -0.0 -0.0 1 True False
31769.988999999998 4.388120174407959 -1.5136481386474152 1.8881834189044397 -1.9453703365721644 -1.570801083241598 2.2381863594055176 0.0 0.0 -0.0 -0.0 -0.0 -0.0 1 True False
31770.038999999997 4.38817834854126 -1.5136316579631348 1.8881209532367151 -1.9452983341612757 -1.5707772413836878 2.2381625175476074 0.0 0.0 -0.0 -0.0 -0.0 -0.0 1 True False
31770.089 4.388082981109619 -1.5136316579631348 1.888174835835592 -1.9453379116454066 -1.5707805792437952 2.2381300926208496 0.0 0.0 -0.0 -0.0 -0.0 -0.0 1 True False
31770.139 4.388073921203613 -1.5136359383216877 1.888162914906637 -1.9453102550902308 -1.5708168188678187 2.2381949424743652 0.0 0.0 -0.0 -0.0 -0.0 -0.0 1 True False
31770.189 4.388123035430908 -1.513583057825901 1.888150993977682 -1.9453140697874964 -1.5707767645465296 2.2381343841552734 0.0 0.0 -0.0 -0.0 -0.0 -1.0806269655291522e-16 1 True False
31770.238999999998 4.388134956359863 -1.5136359345963974 1.8882048765765589 -1.9453064403929652 -1.570784870778219 2.2381343841552734 0.0 0.0 -0.0 -0.0 -0.0 2.0439816506012676e-09 1 True False
31770.288999999997 4.388108253479004 -1.5136239950409909 1.8881834189044397 -1.945322652856344 -1.5707805792437952 2.238175630569458 0.0 0.0 -0.0 -0.0 -0.0 3.104812848576051e-28 1 True False
31770.339 4.388044357299805 -1.5136239950409909 1.8881552855121058 -1.9452744923033656 -1.5707405249225062 2.238125801086426 0.0 0.0 -0.0 -0.0 -0.0 0.0 1 True False
31770.389 4.388049602508545 -1.5136930283955117 1.888141934071676 -1.9452978573241175 -1.5708254019366663 2.238199234008789 0.0 0.0 -0.0 -0.0 -0.0 0.0 1 True False
31770.439 4.388148307800293 -1.5136078161052247 1.8882001082049769 -1.945334096948141 -1.570756737385885 2.2381906509399414 0.0 0.0 -0.0 -0.0 -0.0 0.0 1 True False
31770.488999999998 4.388099193572998 -1.5136609722724934 1.8881834189044397 -1.9453298054137171 -1.5707362333880823 2.2381300926208496 0.0 0.0 -0.0 -0.0 -0.0 0.0 1 True False
31770.538999999997 4.388054370880127 -1.5135992814651509 1.8881714979754847 -1.9452859363951625 -1.5708168188678187 2.238171100616455 0.0 0.0 -0.0 -0.0 -0.0 0.0 1 True False
31770.589 4.388106822967529 -1.513543152516224 1.8881672064410608 -1.945322652856344 -1.5708335081683558 2.238137722015381 0.0 0.0 -0.0 -0.0 -0.0 0.0 1 True False
31770.639 4.388087272644043 -1.513555047368147 1.8882091681109827 -1.9453546009459437 -1.5707724730121058 2.238093376159668 0.0 0.0 -0.0 -0.0 -0.0 0.0 1 True False
31770.689 4.388057708740234 -1.5136444766870518 1.888174835835592 -1.945350786248678 -1.570829216633932 2.2381787300109863 0.0 0.0 -0.0 -0.0 -0.0 0.0 1 True False
31770.738999999998 4.388078689575195 -1.5135907915285607 1.8882048765765589 -1.9453422031798304 -1.5708373228656214 2.238077163696289 0.0 0.0 -0.0 -0.0 -0.0 0.0 1 True False
31770.788999999997 4.388017177581787 -1.5135992814651509 1.888179127370016 -1.9453145466246546 -1.5708048979388636 2.2381505966186523 0.0 0.0 -0.0 -0.0 -0.0 0.0 1 True False
31770.839 4.388111114501953 -1.513623171751835 1.8881714979754847 -1.9453383884825648 -1.5707925001727503 2.2381625175476074 0.0 0.0 -0.0 -0.0 -0.0 0.0 1 True False
31770.889 4.388062000274658 -1.5135993298939248 1.888150993977682 -1.9453298054137171 -1.5708048979388636 2.238121509552002 0.0 0.0 -0.0 -0.0 -0.0 0.0 1 True False
31770.939 4.388025760650635 -1.5136197184077282 1.888179127370016 -1.9452740154662074 -1.570853058491842 2.2381625175476074 0.0 0.0 -0.0 -0.0 -0.0 0.0 1 True False
31770.988999999998 4.388136386871338 -1.513663937603571 1.8881834189044397 -1.9452821216978968 -1.570801083241598 2.2381505966186523 0.0 0.0 -0.0 -0.0 -0.0 0.0 1 True False
31771.038999999997 4.388073921203613 -1.5136027608862896 1.8881757895099085 -1.9453216991820277 -1.5707686583148401 2.2381787300109863 0.0 0.0 -0.0 -0.0 -0.0 0.0 1 True False
31771.089 4.388082981109619 -1.5136325520328064 1.8881424109088343 -1.9453259907164515 -1.5707967917071741 2.2381181716918945 0.0 0.0 -0.0 -0.0 -0.0 0.0 1 True False
31771.139 4.388058662414551 -1.5136231680265446 1.8881261984454554 -1.9453627071776332 -1.5707724730121058 2.2381181716918945 0.0 0.0 -0.0 -0.0 -0.0 0.0 1 True False
31771.189 4.388045310974121 -1.513639622633793 1.888150993977682 -1.9453145466246546 -1.5707648436175745 2.2381181716918945 0.0 0.0 -0.0 -0.0 -0.0 0.0 1 True False
31771.238999999998 4.388062000274658 -1.513648123746254 1.8882115522967737 -1.9453259907164515 -1.5707686583148401 2.2381138801574707 0.0 0.0 -0.0 -0.0 -0.0 0.0 1 True False
31771.288999999997 4.388062000274658 -1.5135866564563294 1.8881714979754847 -1.9453102550902308 -1.5707524458514612 2.238089084625244 0.0 0.0 -0.0 -0.0 -0.0 0.0 1 True False
31771.339 4.388062953948975 -1.513644353752472 1.88820726076235 -1.945322652856344 -1.570801083241598 2.2381591796875 0.0 0.0 -0.0 -0.0 -0.0 0.0 1 True False
31771.389 4.388092041015625 -1.5136843484691163 1.8882201353656214 -1.945350786248678 -1.5707925001727503 2.2381505966186523 0.0 0.0 -0.0 -0.0 -0.0 0.0 1 True False
31771.439 4.388092041015625 -1.513644353752472 1.8881552855121058 -1.9453588924803675 -1.5708168188678187 2.2381668090820312 0.0 0.0 -0.0 -0.0 -0.0 0.0 1 True False
31771.488999999998 4.388078689575195 -1.5136028726449986 1.888179127370016 -1.945326944390768 -1.5707805792437952 2.2381505966186523 0.0 0.0 -0.0 -0.0 -0.0 0.0 1 True False
31771.538999999997 4.388094902038574 -1.513644353752472 1.8881672064410608 -1.9453665218748988 -1.5707929770099085 2.2381420135498047 0.0 0.0 -0.0 -0.0 -0.0 0.0 1 True False
