Andreas691667/Digital_Twin_UR/src/controller_monitor/robot_output/DUM_robot_output.csv
timestamp actual_q_0 actual_q_1 actual_q_2 actual_q_3 actual_q_4 actual_q_5 actual_qd_0 actual_qd_1 actual_qd_2 actual_qd_3 actual_qd_4 actual_qd_5 safety_status output_bit_register_65 output_bit_register_66
18368.181 3.7120535373687744 -0.825451211338379 0.8430660406695765 -1.588313718835348 -1.570784870778219 2.141242504119873 6.457043193762325e-41 0.0 0.0 0.0 -0.0 0.0 1 False False
18368.231 3.7120742797851562 -0.825478271847107 0.8430331389056605 -1.5882731876769007 -1.5707891623126429 2.141308546066284 0.0 0.0 0.0 0.0 -0.0 0.0 1 False False
18368.431 3.7120697498321533 -0.8254221242717286 0.8429964224444788 -1.5882889233031214 -1.5707891623126429 2.141345739364624 0.0 0.0 0.0 0.0 -0.0 -1.0930128021733573e-43 1 False False
18368.481 3.7120699882507324 -0.8254707616618653 0.8429964224444788 -1.5882846317686976 -1.5707891623126429 2.141235113143921 0.0 0.0 0.0 0.0 -0.0 -0.0 1 False False
18368.531 3.7120893001556396 -0.8254546088031312 0.8429678122149866 -1.588297029534811 -1.5708211104022425 2.141336679458618 0.0 0.0 0.0 0.0 -0.0 -0.0 1 False False
18368.581 3.71207857131958 -0.8255123657039185 0.8429477850543421 -1.588269372979635 -1.570801083241598 2.141270637512207 -4.530825754045509e-05 0.0 0.0 0.0 -0.0 -0.0 1 False False
18368.630999999998 3.712118625640869 -0.825491265659668 0.8430092970477503 -1.5883056126036585 -1.5707767645465296 2.141242504119873 -7.006492321624085e-45 0.0 0.0 0.0 -0.0 -0.0 1 False False
18368.681 3.712118625640869 -0.8254707616618653 0.8429678122149866 -1.5882135830321253 -1.570824925099508 2.141282558441162 0.0 0.0 0.0 0.0 -0.0 -0.0 1 False False
18368.731 3.712090492248535 -0.8254674238017579 0.8429759184466761 -1.588285585443014 -1.5707891623126429 2.141275405883789 0.0 0.0 0.0 0.0 -0.0 -0.0 1 False False
18368.781 3.712062358856201 -0.8254869741252442 0.8429434935199183 -1.5882569752135218 -1.5708211104022425 2.141226053237915 0.0 0.0 0.0 0.0 -0.0 -0.0 1 False False
18368.831 3.712062358856201 -0.825463132267334 0.8430288473712366 -1.5883094273009242 -1.5707486311541956 2.141296148300171 0.0 0.0 0.0 0.0 -0.0 -0.0 1 False False
18368.880999999998 3.712123155593872 -0.8254383963397522 0.8429635206805628 -1.5882774792113246 -1.570772949849264 2.14127516746521 0.0 0.0 0.0 0.0 -0.0 -0.0 1 False False
18368.931 3.712110996246338 -0.8254954975894471 0.8429678122149866 -1.5882731876769007 -1.5707967917071741 2.1413004398345947 0.0 0.0 0.0 0.0 -0.0 -0.0 1 False False
18368.981 3.7121024131774902 -0.825482503776886 0.8429887930499476 -1.5882774792113246 -1.5708373228656214 2.141313076019287 0.0 0.0 0.0 0.0 -0.0 -0.0 1 False False
18369.031 3.7120862007141113 -0.825483576660492 0.8429887930499476 -1.5883094273009242 -1.5707925001727503 2.141313076019287 0.0 0.0 0.0 0.0 -0.0 -0.0 1 False False
18369.081 3.7120819091796875 -0.825450138454773 0.8430007139789026 -1.588268896142477 -1.5707767645465296 2.141270637512207 0.0 0.0 0.0 0.0 -0.0 -0.0 1 False False
18369.130999999998 3.7121024131774902 -0.8254869741252442 0.8429878393756312 -1.5882846317686976 -1.5707886854754847 2.141279697418213 0.0 0.0 0.0 0.0 -0.0 -0.0 1 False False
18369.181 3.712090492248535 -0.8254708212665101 0.843029801045553 -1.5882331333556117 -1.570784870778219 2.141254186630249 0.0 0.0 0.0 0.0 -0.0 -0.0001811560505302623 1 False False
18369.231 3.71207857131958 -0.8254739207080384 0.843057934437887 -1.5882331333556117 -1.5707772413836878 2.141254425048828 0.0 0.0 0.0 0.0 -0.0 -3.0137860449030995e-05 1 False False
18369.281 3.712090492248535 -0.8254383963397522 0.8429802099810999 -1.5883013210692347 -1.5707929770099085 2.141267776489258 0.0 0.0 0.0 0.0 -0.0 -1.6403180779889226e-05 1 False False
18369.331 3.7121024131774902 -0.8255566519549866 0.8429721037494105 -1.5883056126036585 -1.5707686583148401 2.141263246536255 0.0 0.0 0.0 0.0 -0.0 -1.1268508387729526e-05 1 False False
18369.380999999998 3.712094783782959 -0.8254469198039551 0.8429759184466761 -1.5882774792113246 -1.5707686583148401 2.141350269317627 0.0 0.0 0.0 0.0 -0.0 -1.2120703985519116e-16 1 False False
18369.431 3.712062358856201 -0.8255242866328736 0.8429520765887659 -1.588252683679098 -1.5708087126361292 2.141267776489258 0.0 0.0 0.0 0.0 -0.0 -1.841137685511304e-35 1 False False
18369.481 3.7120938301086426 -0.825463132267334 0.8430054823504847 -1.5882569752135218 -1.5708168188678187 2.1413049697875977 0.0 0.0 0.0 0.0 -0.0 -0.0 1 False False
18369.531 3.7120697498321533 -0.8254383963397522 0.8429630438434046 -1.588320871392721 -1.5707686583148401 2.141329526901245 0.0 0.0 0.0 0.0 -0.0 -0.0 1 False False
18369.581 3.7120537757873535 -0.8254793447307129 0.8430083433734339 -1.5883175335326136 -1.5708211104022425 2.141329526901245 0.0 0.0 0.0 0.0 -0.0 -0.0 1 False False
18369.630999999998 3.7121024131774902 -0.8254662913135071 0.8430083433734339 -1.5882731876769007 -1.5707648436175745 2.1413004398345947 0.0 0.0 0.0 0.0 -0.0 -1.455134936131372e-20 1 False False
18369.681 3.7120742797851562 -0.825518862610199 0.842971150075094 -1.5883051357665003 -1.570756737385885 2.141270637512207 0.0 0.0 0.0 0.0 -0.0 -2.210354948284322e-39 1 False False
18369.731 3.7120699882507324 -0.8254588407329102 0.8429630438434046 -1.5882650814452113 -1.5707891623126429 2.141270637512207 0.0 0.0 0.0 0.0 -0.0 -0.0 1 False False
18369.781 3.7121100425720215 -0.8254620593837281 0.842992130910055 -1.588320871392721 -1.570784870778219 2.141226291656494 0.0 0.0 0.0 0.0 -0.0 -0.0 1 False False
18369.831 3.7120699882507324 -0.8254793447307129 0.8429845015155237 -1.588292738000387 -1.5707605520831507 2.141263246536255 8.503843855578452e-05 0.0 0.0 0.0 -0.0 -0.0 1 False False
18369.880999999998 3.7120699882507324 -0.8254221242717286 0.8430007139789026 -1.5882817707457484 -1.570829216633932 2.1413040161132812 0.0 0.0 0.0 0.0 -0.0 -0.0 1 False False
18369.931 3.7120981216430664 -0.8255285185626526 0.8429802099810999 -1.5882498226561488 -1.5707886854754847 2.1413092613220215 0.0 0.0 0.0 0.0 -0.0 -0.0 1 False False
18369.981 3.7120752334594727 -0.8254222434810181 0.8430455366717737 -1.588285585443014 -1.5707405249225062 2.14127516746521 0.0 0.0 0.0 0.0 -0.0 -0.0 1 False False
18370.031 3.712099075317383 -0.8254869741252442 0.8429587523089808 -1.5883289776244105 -1.5707886854754847 2.1413137912750244 0.0 0.0 0.0 0.0 -0.0 -0.0 1 False False
18370.081 3.7120862007141113 -0.825491265659668 0.842938248311178 -1.5882498226561488 -1.5708168188678187 2.1412930488586426 0.0 0.0 0.0 0.0 -0.0 -0.0 1 False False
18370.130999999998 3.7120203971862793 -0.8255199950984498 0.8429515997516077 -1.588252683679098 -1.5708492437945765 2.141254186630249 0.0 0.0 0.0 0.0 -0.0 -0.0 1 False False
18370.181 3.7120862007141113 -0.8254869741252442 0.842987362538473 -1.5882536373534144 -1.570784870778219 2.1413414478302 0.0 0.0 0.0 0.0 -0.0 -0.0 1 False False
18370.231 3.7120652198791504 -0.825491265659668 0.8429845015155237 -1.5882612667479457 -1.5707648436175745 2.1412994861602783 0.0 0.0 0.0 0.0 -0.0 -0.0 1 False False
18370.281 3.712095022201538 -0.8254792851260682 0.8429587523089808 -1.588285585443014 -1.570772949849264 2.141326427459717 0.0 0.0 0.0 0.0 -0.0 -0.0 1 False False
18370.331 3.712095022201538 -0.82550402105365 0.8429563681231897 -1.588297029534811 -1.5708487669574183 2.141270637512207 0.0 0.0 0.0 0.0 -0.0 -0.0 1 False False
18370.380999999998 3.7120578289031982 -0.825463132267334 0.8429620901690882 -1.588285585443014 -1.5707805792437952 2.14127516746521 0.0 0.0 0.0 0.0 -0.0 -0.0 1 False False
18370.431 3.7120578289031982 -0.8254621189883729 0.8430455366717737 -1.5883013210692347 -1.570784870778219 2.141263246536255 0.0 0.0 0.0 0.0 -0.0 -0.0 1 False False
18370.481 3.7120742797851562 -0.8254630726626893 0.8429587523089808 -1.5882607899107875 -1.5707805792437952 2.1413004398345947 0.0 0.0 0.0 0.0 -0.0 -0.0 1 False False
18370.531 3.712083101272583 -0.8254426878741761 0.8430455366717737 -1.5882331333556117 -1.5708168188678187 2.1413004398345947 0.0 0.0 0.0 0.0 -0.0 -0.0 1 False False
18370.581 3.7120862007141113 -0.8255232137492676 0.8430054823504847 -1.5882774792113246 -1.570784870778219 2.141329526901245 0.0 0.0 0.0 0.0 -0.0 -0.0 1 False False
18370.630999999998 3.7120697498321533 -0.8254578870585938 0.8430216948138636 -1.588297029534811 -1.5708048979388636 2.141258955001831 0.0 0.0 0.0 0.0 -0.0 -1.640663855316006e-15 1 False False
18370.681 3.7120697498321533 -0.8254993718913575 0.8429349104510706 -1.588280817071432 -1.5708368460284632 2.141263246536255 0.0 0.0 0.0 0.0 -0.0 -2.492170853719361e-34 1 False False
18370.731 3.712116003036499 -0.8254708212665101 0.8429587523089808 -1.5882817707457484 -1.5707767645465296 2.141333818435669 0.0 0.0 0.0 0.0 -0.0 -0.0 1 False False
18370.781 3.7120742797851562 -0.8255208295634766 0.8429845015155237 -1.5882288418211878 -1.5708335081683558 2.1412229537963867 0.0 0.0 0.0 0.0 -0.0 -0.0 1 False False
18370.831 3.7120862007141113 -0.8254546088031312 0.8429802099810999 -1.5882612667479457 -1.5708087126361292 2.141249895095825 0.0 0.0 0.0 0.0 -0.0 -0.0 1 False False
18370.880999999998 3.712045669555664 -0.8255478900722046 0.8430383841144007 -1.5882774792113246 -1.5707362333880823 2.141270637512207 0.0 0.0 0.0 0.0 -0.0 -0.0 1 False False
18370.931 3.7120862007141113 -0.8254663509181519 0.8429845015155237 -1.588297029534811 -1.5707605520831507 2.141263246536255 0.0 0.0 0.0 0.0 -0.0 -0.0 1 False False
18370.981 3.712095022201538 -0.8254715961268921 0.8430293242083948 -1.5883251629271449 -1.5707967917071741 2.1412930488586426 2.7333962293596414e-07 0.0 0.0 0.0 -0.0 -0.0 1 False False
18371.031 3.7120862007141113 -0.8254223626903077 0.8430174032794397 -1.588313718835348 -1.570801083241598 2.141254186630249 -2.802596928649634e-45 0.0 0.0 0.0 -0.0 -0.0 1 False False
18371.081 3.7120862007141113 -0.825463132267334 0.8429978529559534 -1.5883056126036585 -1.5707605520831507 2.14131760597229 0.0 0.0 0.0 0.0 -0.0 -0.0 1 False False
18371.130999999998 3.712111473083496 -0.8254469794085999 0.8429802099810999 -1.5882774792113246 -1.5707929770099085 2.141254186630249 0.0 0.0 0.0 0.0 -0.0 -0.0 1 False False
18371.181 3.712186813354492 -0.825524167423584 0.8429673353778284 -1.5882650814452113 -1.5707886854754847 2.141287088394165 0.0 0.0 0.0 0.0 -0.0 -0.0 1 False False
18371.231 3.7121071815490723 -0.8255123060992737 0.8430054823504847 -1.5883013210692347 -1.5707724730121058 2.1412513256073 0.0 0.0 0.0 0.0 -0.0 -0.0 1 False False
18371.281 3.712045669555664 -0.825482503776886 0.8429563681231897 -1.5883175335326136 -1.5708254019366663 2.141254186630249 0.0 0.0 0.0 0.0 -0.0 -0.0 1 False False
18371.331 3.7120249271392822 -0.825455443268158 0.842992130910055 -1.5882607899107875 -1.5707805792437952 2.141263246536255 0.0 0.0 0.0 0.0 -0.0 -0.0 1 False False
18371.380999999998 3.7120532989501953 -0.8254783314517518 0.8430054823504847 -1.5883332691588343 -1.5708215872394007 2.1412513256073 0.0 0.0 0.0 0.0 -0.0 -0.0 1 False False
18371.431 3.712083339691162 -0.8255608838847657 0.8429845015155237 -1.5882569752135218 -1.5707805792437952 2.1412513256073 0.0 0.0 0.0 0.0 -0.0 -0.0 1 False False
18371.481 3.7121026515960693 -0.8254963320544739 0.8429678122149866 -1.5882889233031214 -1.5707610289203089 2.141313076019287 0.0 0.0 0.0 0.0 -0.0 -0.0 1 False False
18371.531 3.712095022201538 -0.8254427474788208 0.8430216948138636 -1.5883170566954554 -1.570824925099508 2.141291618347168 0.0 0.0 0.0 0.0 -0.0 -0.0 1 False False
18371.581 3.712062358856201 -0.8254912060550232 0.8429845015155237 -1.5882932148375453 -1.5708335081683558 2.14131760597229 0.0 0.0 0.0 0.0 -0.0 -0.0 1 False False
18371.630999999998 3.7120862007141113 -0.8254546088031312 0.842992130910055 -1.588297029534811 -1.5707891623126429 2.141254186630249 0.0 0.0 0.0 0.0 -0.0 -0.0 1 False False
18371.681 3.7120697498321533 -0.8254954379848023 0.8429678122149866 -1.5882731876769007 -1.5707767645465296 2.141270637512207 0.0 0.0 0.0 0.0 -0.0 -0.0 1 False False
18371.731 3.712123394012451 -0.825524167423584 0.8429473082171839 -1.588285585443014 -1.5707643667804163 2.1412994861602783 0.0 0.0 0.0 0.0 -0.0 -0.0 1 False False
18371.781 3.712036609649658 -0.8254750531962891 0.8429802099810999 -1.588285585443014 -1.5708006064044397 2.141308546066284 0.0 0.0 0.0 0.0 -0.0 -0.0 1 False False
18371.831 3.7121191024780273 -0.825524167423584 0.8429721037494105 -1.5883094273009242 -1.5707929770099085 2.1412513256073 0.0 0.0 0.0 0.0 -0.0 -0.0 1 False False
18371.880999999998 3.7121026515960693 -0.8254912060550232 0.8429802099810999 -1.588292738000387 -1.570813004170553 2.141313076019287 0.0 0.0 0.0 0.0 -0.0 -0.0 1 False False
18371.931 3.7121026515960693 -0.8254630726626893 0.8430169264422815 -1.588292738000387 -1.5707891623126429 2.141279697418213 0.0 0.0 0.0 0.0 -0.0 -0.0 1 False False
18371.981 3.7121145725250244 -0.8255080741694947 0.8430007139789026 -1.588229318658346 -1.5707805792437952 2.141322135925293 0.0 0.0 0.0 0.0 -0.0 -0.0 1 False False
18372.031 3.7120771408081055 -0.825455443268158 0.8429878393756312 -1.5882889233031214 -1.5707562605487269 2.1413204669952393 0.0 0.0 0.0 0.0 -0.0 -0.0 1 True False
18372.081 3.7121145725250244 -0.8254673641971131 0.8429887930499476 -1.5883132419981898 -1.5708254019366663 2.14127516746521 0.0 0.0 0.0 0.0 -0.0 -0.0 1 True False
18372.130999999998 3.7121026515960693 -0.8254750531962891 0.8429716269122522 -1.5882607899107875 -1.5708125273333948 2.141284227371216 0.0 0.0 0.0 0.0 -0.0 -0.0 1 True False
18372.181 3.712007999420166 -0.8255039614490052 0.8429845015155237 -1.5882607899107875 -1.5708330313311976 2.141258955001831 0.0 0.0 0.0 0.0 -0.0 -0.0 1 True False
18372.231 3.7120907306671143 -0.8254869741252442 0.8429759184466761 -1.5882851086058558 -1.5708254019366663 2.141270637512207 0.0 0.0 0.0 0.0 -0.0 -0.0 1 True False
18372.281 3.7120773792266846 -0.8254426878741761 0.8430050055133265 -1.588273664514059 -1.5708330313311976 2.14131760597229 0.0 0.0 0.0 0.0 -0.0 -0.0 1 True False
18372.331 3.7120609283447266 -0.8254750531962891 0.8429845015155237 -1.5882650814452113 -1.570824925099508 2.141296148300171 0.0 0.0 0.0 0.0 -0.0 -0.0 1 True False
18372.380999999998 3.7120683193206787 -0.8254913848689576 0.8430374304400843 -1.5882851086058558 -1.5708168188678187 2.141333818435669 0.0 0.0 0.0 0.0 -0.0 -0.0 1 True False
18372.431 3.7120907306671143 -0.8254468601993104 0.8429964224444788 -1.5883094273009242 -1.5707886854754847 2.141342878341675 0.0 0.0 0.0 0.0 -0.0 2.430889907770184e-12 1 True False
18372.481 3.7120578289031982 -0.8254706424525757 0.842992130910055 -1.5883246860899867 -1.570772949849264 2.1412155628204346 0.0 0.0 0.0 0.0 -0.0 1.8208678739028983e-05 1 True False
18372.531 3.7120490074157715 -0.8254750531962891 0.8429759184466761 -1.588285585443014 -1.5708444754229944 2.141296148300171 0.0 0.0 0.0 0.0 -0.0 2.76590311980978e-24 1 True False
18372.581 3.7120413780212402 -0.8254468601993104 0.8429759184466761 -1.5883008442320765 -1.570829216633932 2.141270637512207 0.0 0.0 0.0 0.0 -0.0 4.203895392974451e-43 1 True False
18372.630999999998 3.7128241062164307 -0.8257675927928467 0.8434961477862757 -1.588513036767477 -1.570824925099508 2.140950918197632 0.04359425976872444 -0.020072417333722115 0.03393206372857094 -0.015161346644163132 -0.0 -0.018675344064831734 1 True False
18372.681 3.7167460918426514 -0.827685074215271 0.8465493361102503 -1.5895501575865687 -1.570824925099508 2.13917875289917 0.11564671248197556 -0.057913970202207565 0.09072295576334 -0.03074936382472515 -0.0 -0.049925923347473145 1 True False
18372.731 3.7245635986328125 -0.8315724295428772 0.8526480833636683 -1.5916029415526332 -1.5708006064044397 2.135878086090088 0.18987582623958588 -0.09998149424791336 0.14337845146656036 -0.056000009179115295 -0.0 -0.08367806673049927 1 True False
18372.781 3.7355713844299316 -0.8375042241862793 0.861180607472555 -1.594529768029684 -1.5707810560809534 2.1309328079223633 0.25725361704826355 -0.1296648234128952 0.2005060762166977 -0.06762595474720001 -0.0 -0.11324918270111084 1 True False
18372.831 3.7502529621124268 -0.8449270886233826 0.8726175467120569 -1.5982901058592738 -1.5707524458514612 2.124431610107422 0.32300707697868347 -0.16437219083309174 0.253951758146286 -0.09415499120950699 8.710660767974332e-05 -0.14004608988761902 1 True False
18372.880999999998 3.768054962158203 -0.85425819576297 0.8866542021380823 -1.6030785046019496 -1.570801083241598 2.116576671600342 0.3982962667942047 -0.20267720520496368 0.3021647334098816 -0.10487673431634903 5.870174936717376e-05 -0.17092907428741455 1 True False
18372.931 3.789747476577759 -0.8652998966029664 0.9033592383014124 -1.6087128124632777 -1.5707648436175745 2.10705828666687 0.4634203016757965 -0.2405020296573639 0.358672559261322 -0.11698181182146072 8.175666880561039e-05 -0.20691749453544617 1 True False
18372.981 3.814969301223755 -0.8781140607646485 0.9227831999408167 -1.615399023095602 -1.5707929770099085 2.096001625061035 0.5367253422737122 -0.2725561857223511 0.4132938086986542 -0.1411561220884323 -5.97330229723525e-09 -0.23371395468711853 1 True False
18373.031 3.84330415725708 -0.892782525425293 0.9449246565448206 -1.6229435406126917 -1.5708006064044397 2.0834810733795166 0.6052250862121582 -0.31090274453163147 0.4662216603755951 -0.1466350108385086 -9.073458487366645e-28 -0.26751139760017395 1 True False
18373.081 3.875314950942993 -0.9091899555972596 0.9697125593768519 -1.6314016781248988 -1.570784870778219 2.0693838596343994 0.6695732474327087 -0.343584805727005 0.5224481821060181 -0.17228268086910248 -0.0 -0.3016450107097626 1 True False
18373.130999999998 3.910787582397461 -0.9272586864284058 0.9974024931537073 -1.6406446895995082 -1.5707686583148401 2.0536959171295166 0.7465060353279114 -0.38457435369491577 0.5856234431266785 -0.203807070851326 -0.0 -0.3282024562358856 1 True False
18373.181 3.949728488922119 -0.9474814695170899 1.0275161902057093 -1.6511365375914515 -1.5707529226886194 2.0365512371063232 0.8175802826881409 -0.4172166883945465 0.6279119253158569 -0.2142503410577774 -0.0 -0.36255136132240295 1 True False
18373.231 3.9923696517944336 -0.9690327805331727 1.0607503096209925 -1.6621438465514125 -1.5707648436175745 2.017892599105835 0.8807491660118103 -0.4495430886745453 0.6866990923881531 -0.23552517592906952 -0.0 -0.3901956379413605 1 True False
18373.281 4.038221836090088 -0.9926573199084778 1.0962250868426722 -1.67429842571401 -1.570784870778219 1.9973918199539185 0.9548524022102356 -0.4916501045227051 0.7441730499267578 -0.24306873977184296 -0.0 -0.4153508245944977 1 True False
18373.331 4.087718963623047 -1.018023208980896 1.1347039381610315 -1.6875626049437464 -1.5708168188678187 1.975762963294983 1.020645260810852 -0.529096782207489 0.7906463742256165 -0.2703671157360077 -0.0 -0.45518308877944946 1 True False
18373.380999999998 4.139825344085693 -1.0447852176478882 1.175225559865133 -1.7011519871153773 -1.5708211104022425 1.9528201818466187 1.0491443872451782 -0.5402939915657043 0.8095934391021729 -0.26655837893486023 -3.0147995857987553e-05 -0.466243177652359 1 True False
18373.431 4.192205429077148 -1.0716101390174408 1.215846363698141 -1.7149983845152796 -1.5707486311541956 1.9296321868896484 1.049142837524414 -0.5345278382301331 0.8101499676704407 -0.2813774645328522 -5.2567876991815865e-05 -0.4589195251464844 1 True False
18373.481 4.244624614715576 -1.0984246593764802 1.2566164175616663 -1.7288357220091761 -1.5707925001727503 1.9064874649047852 1.0442559719085693 -0.533643364906311 0.8110626339912415 -0.27006587386131287 -0.0001270375942112878 -0.46082615852355957 1 True False
18373.531 4.296947002410889 -1.125405715113022 1.2972734610186976 -1.7425538502135218 -1.5708492437945765 1.8835864067077637 1.049500823020935 -0.5334444642066956 0.8146187663078308 -0.2606472074985504 -9.140982729149982e-05 -0.4656055271625519 1 True False
18373.581 4.349238395690918 -1.1521303218654175 1.3378341833697718 -1.756442209283346 -1.5707925001727503 1.8604775667190552 1.0477977991104126 -0.5344324111938477 0.8112791180610657 -0.26723459362983704 -0.0001357748988084495 -0.46497997641563416 1 True False
18373.630999999998 4.40166711807251 -1.1788866978934784 1.3783744017230433 -1.7703153095641078 -1.570784870778219 1.8373477458953857 1.044602632522583 -0.5337309241294861 0.8166733384132385 -0.2643696069717407 -9.219718049280345e-05 -0.4558740258216858 1 True False
18373.681 4.452788829803467 -1.2052243810943146 1.4181283156024378 -1.7839881382384242 -1.5707810560809534 1.8148066997528076 0.9884657263755798 -0.5107510685920715 0.7650534510612488 -0.256921648979187 -5.4161249863682315e-05 -0.43870165944099426 1 True False
18373.731 4.500397682189941 -1.229604886179306 1.455254856740133 -1.7963267765440882 -1.5707843939410608 1.7938010692596436 0.9138790965080261 -0.47381365299224854 0.7074794769287109 -0.23102468252182007 -0.00018014873785432428 -0.4046255052089691 1 True False
18373.781 4.54461145401001 -1.2522010666183014 1.4895742575274866 -1.8079244099059046 -1.5707486311541956 1.7743226289749146 0.8562555313110352 -0.4309864640235901 0.6611395478248596 -0.22280839085578918 -0.0001261413563042879 -0.3756673038005829 1 True False
18373.831 4.585193157196045 -1.2730015379241486 1.5209458510028284 -1.8186561069884242 -1.5707805792437952 1.7565040588378906 0.7790481448173523 -0.3947550058364868 0.612984836101532 -0.19487407803535461 1.1011928791049286e-06 -0.3470863103866577 1 True False
18373.880999999998 4.622415065765381 -1.2922060650638123 1.5498388449298304 -1.8286591968932093 -1.5708449522601526 1.740041971206665 0.7055478096008301 -0.36482664942741394 0.5508753657341003 -0.18625836074352264 -0.0014103426365181804 -0.3126879036426544 1 True False
18373.931 4.65613317489624 -1.3093767625144501 1.5762150923358362 -1.8374444446959437 -1.5708044211017054 1.7252092361450195 0.6381247639656067 -0.3267662227153778 0.494415819644928 -0.1689186841249466 -0.00012652436271309853 -0.2841545045375824 1 True False
18373.981 4.6863298416137695 -1.3249662977508088 1.5993841330157679 -1.8455468616881312 -1.5707724730121058 1.711850881576538 0.5682559609413147 -0.2941417396068573 0.44648781418800354 -0.14371047914028168 -2.1889615926505416e-19 -0.24922259151935577 1 True False
18374.031 4.7129225730896 -1.3385948699763794 1.6201842466937464 -1.8525320492186488 -1.570820156727926 1.7001539468765259 0.4994065761566162 -0.2648265063762665 0.38291531801223755 -0.13413245975971222 4.154206635575974e-06 -0.22275689244270325 1 True False
18374.081 4.736138820648193 -1.3504616928151627 1.638481918965475 -1.858450552026266 -1.57082444826235 1.6899218559265137 0.4267228841781616 -0.21312344074249268 0.3381415009498596 -0.11002761870622635 -0.0007857537711970508 -0.19126448035240173 1 True False
18374.130999999998 4.7559733390808105 -1.3606543254903336 1.6534107367144983 -1.8639332256712855 -1.570784870778219 1.6811739206314087 0.3559519648551941 -0.18702669441699982 0.2764602303504944 -0.09623604267835617 -3.2254848612986095e-14 -0.15732331573963165 1 True False
18374.181 4.772302627563477 -1.3689063650420685 1.6664112249957483 -1.8681394062437953 -1.570829216633932 1.6739658117294312 0.2888641059398651 -0.15126395225524902 0.22534021735191345 -0.09282048791646957 -4.8995192289448354e-33 -0.13032786548137665 1 True False
18374.231 4.784953594207764 -1.3754191559604187 1.6760566870318812 -1.871470113793844 -1.5707772413836878 1.6684093475341797 0.22128042578697205 -0.11053523421287537 0.17170149087905884 -0.056313976645469666 -8.133440587698715e-09 -0.09782306104898453 1 True False
18374.281 4.794230937957764 -1.3801509600928803 1.6832931677447718 -1.873911520043844 -1.5708254019366663 1.6643385887145996 0.15486368536949158 -0.07545170187950134 0.11784356832504272 -0.04532736912369728 -1.2354717333727677e-27 -0.06623613834381104 1 True False
18374.331 4.800057888031006 -1.3831507724574585 1.6878107229815882 -1.8755489788451136 -1.5708335081683558 1.6617857217788696 0.08252885937690735 -0.04055093228816986 0.06478600203990936 -0.015738733112812042 -0.0 -0.036553721874952316 1 True False
18374.380999999998 4.802339553833008 -1.3843119007400055 1.6895635763751429 -1.8760343990721644 -1.5707686583148401 1.6607271432876587 0.01277395524084568 -0.005845396779477596 0.008837583474814892 -0.0010567022254690528 -0.0 -0.002734080422669649 1 True False
18374.431 4.802238941192627 -1.3839682203582306 1.6905253569232386 -1.8773185215392054 -1.5708168188678187 1.6607674360275269 0.003291704459115863 0.01906682178378105 0.037499167025089264 -0.051665425300598145 -0.0 2.5401341190445237e-06 1 True False
18374.481 4.802271366119385 -1.3823980552009125 1.6935189406024378 -1.8820129833617152 -1.5707967917071741 1.6607481241226196 0.0041883522644639015 0.047601599246263504 0.08115815371274948 -0.13550086319446564 -0.0 -0.0009037195704877377 1 True False
18374.531 4.802323341369629 -1.379264773135521 1.6987364927874964 -1.890264173547262 -1.5707929770099085 1.660740613937378 0.003074835753068328 0.07382388412952423 0.1255517452955246 -0.20280279219150543 -0.0 -0.00036120275035500526 1 True False
18374.581 4.80230188369751 -1.3749259573272248 1.705951992665426 -1.9019843540587367 -1.570801083241598 1.6607706546783447 0.00024842150742188096 0.09776793420314789 0.16957387328147888 -0.2592635154724121 6.977775774430484e-05 -0.00017986109014600515 1 True False
18374.630999999998 4.802310466766357 -1.3692777764848252 1.7156007925616663 -1.9169684849181117 -1.57074481645693 1.6607942581176758 0.00010234140790998936 0.12413059175014496 0.21262945234775543 -0.340363085269928 3.112319863635138e-12 -0.0001199391481350176 1 True False
18374.681 4.802350997924805 -1.3624603313258667 1.7274163405047815 -1.9357534847655238 -1.5707929770099085 1.6607332229614258 7.829466630937532e-05 0.1509237140417099 0.262214332818985 -0.406769335269928 4.727620577453468e-31 -5.282575511955656e-05 1 True False
18374.731 4.802342891693115 -1.354379655127861 1.7414019743548792 -1.9579278431334437 -1.5708048979388636 1.6607987880706787 7.419149187626317e-05 0.17274458706378937 0.30057528614997864 -0.47333723306655884 0.0 -3.389237690498703e-07 1 True False
18374.781 4.802338600158691 -1.3447825622609635 1.7577722708331507 -1.9835096798338832 -1.570801083241598 1.6607288122177124 7.123030809452757e-05 0.19962911307811737 0.34738805890083313 -0.5398092865943909 3.806951644946821e-05 -5.1482584929751274e-26 1 True False
18374.831 4.802334308624268 -1.334804357295372 1.775113884602682 -2.0110627613463343 -1.5708325544940394 1.6607242822647095 6.508575461339206e-05 0.18735109269618988 0.33394020795822144 -0.5243894457817078 1.8512473616283387e-05 -8.407790785948902e-45 1 True False
18374.880999999998 4.802314758300781 -1.3257988554290314 1.790668789540426 -2.0354796848692835 -1.5707805792437952 1.6607916355133057 5.127622716827318e-05 0.16891150176525116 0.2905704081058502 -0.46173834800720215 1.2225325008330401e-05 -5.6261164991646395e-18 1 True False
18374.931 4.802334308624268 -1.3181022864631196 1.80359393755068 -2.056547781030172 -1.570824925099508 1.6607496738433838 5.794809840153903e-05 0.1416037529706955 0.244460329413414 -0.38867685198783875 6.13952291783626e-12 -8.546083922458224e-37 1 True False
18374.981 4.80230188369751 -1.3116322320750733 1.8147643248187464 -2.073883672753805 -1.570801083241598 1.6606953144073486 4.108024586457759e-05 0.11349540203809738 0.20057183504104614 -0.3114859461784363 9.325949941853214e-31 -0.0 1 True False
18375.031 4.802330017089844 -1.30650349081073 1.823780361806051 -2.087895532647604 -1.5708211104022425 1.6607496738433838 0.0 0.08988098800182343 0.15769395232200623 -0.23302240669727325 0.0 1.9379216610104777e-05 1 True False
18375.081 4.802379608154297 -1.302801178102829 1.8301814238177698 -2.098473211328024 -1.570853058491842 1.6607823371887207 0.0 0.0644848644733429 0.11368303000926971 -0.17391355335712433 0.0 2.9437074374659385e-24 1 True False
18375.130999999998 4.802338123321533 -1.3001554769328614 1.8346384207354944 -2.105370660821432 -1.570784870778219 1.6607823371887207 0.0 0.038299065083265305 0.06483204662799835 -0.10338012129068375 0.0 4.4701421011961665e-43 1 True False
18375.181 4.802338600158691 -1.2988668543151398 1.8369320074664515 -2.10872807125234 -1.570784870778219 1.6607451438903809 0.0 0.014204463921487331 0.027476154267787933 -0.03767795488238335 0.0 0.0 1 True False
18375.231 4.802375316619873 -1.2987648409656067 1.837104622517721 -2.109288831750387 -1.5707925001727503 1.660757064819336 0.0 -4.585377073898346e-22 -9.802893328014761e-05 -0.00025994156021624804 0.0 0.0 1 True False
18375.281 4.802420139312744 -1.2986941498569031 1.8371885458575647 -2.1092807255186976 -1.5708406607257288 1.6607378721237183 0.0 0.0 4.5157015847507864e-05 -0.00013628976012114435 0.0 0.0 1 True False
18375.331 4.802338600158691 -1.298736498957016 1.837175194417135 -2.109276433984274 -1.5707925001727503 1.660740613937378 0.0 5.252202754491009e-05 6.0088517784606665e-05 -0.00010822978219948709 0.0 6.855638019082066e-14 1 True False
18375.380999999998 4.802362442016602 -1.2986791890910645 1.8371709028827112 -2.10927214244985 -1.5708168188678187 1.6607660055160522 0.0 0.00011406658450141549 5.1477079978212714e-05 -0.00011724329669959843 0.0 1.0413730167873569e-32 1 True False
18375.431 4.80230188369751 -1.298716501598694 1.8371871153460901 -2.109276433984274 -1.570784870778219 1.660757064819336 0.0 0.0001331218663835898 2.163323551940266e-05 -0.00019569155119825155 0.0 0.0 1 True False
18375.481 4.802350997924805 -1.2987137299827118 1.837250057850973 -2.1092807255186976 -1.5707324186908167 1.660768985748291 0.0 0.00014331372221931815 2.5113494769787797e-26 -0.00017926082364283502 0.0 0.0 1 True False
18375.531 4.802321910858154 -1.2987680000117798 1.83722430864443 -2.10927214244985 -1.5707925001727503 1.660711646080017 -1.3738455227056133e-33 0.00011312112474115565 0.0 -9.451168443774804e-05 0.0 0.0 1 True False
18375.581 4.802326679229736 -1.2987345916083832 1.8371780554400843 -2.1092878780760707 -1.5707886854754847 1.6607987880706787 -8.00140960766446e-32 0.00014720486069563776 6.990018341923587e-09 -7.436464511556551e-05 0.0 0.0 1 True False
18375.630999999998 4.8023223876953125 -1.2987047296813508 1.8371995131122034 -2.1093331776061 -1.5707805792437952 1.6607542037963867 0.0 9.717536886455491e-05 1.6448246593758162e-38 -2.0846602222235333e-10 0.0 0.0 1 True False
18375.681 4.802375793457031 -1.2987300914577027 1.8371780554400843 -2.10924830059194 -1.570801083241598 1.6608091592788696 0.0 6.702318205498159e-05 3.128112803096883e-05 -3.166604685838325e-29 0.0 0.0 1 True False
18375.731 4.802301406860352 -1.2987300914577027 1.8371294180499476 -2.1093322239317835 -1.5708044211017054 1.6607407331466675 0.0 -4.866543895332143e-05 3.2711490348447114e-05 -0.0 0.0 0.0 1 True False
18375.781 4.802325248718262 -1.2987062495997925 1.8372038046466272 -2.1093331776061 -1.5707648436175745 1.6607117652893066 0.0 0.0 2.1244221392828153e-25 -0.0 0.0 0.0 1 True False
18375.831 4.8023176193237305 -1.2986973089030762 1.8371828238116663 -2.10929598430776 -1.5707925001727503 1.6607614755630493 0.0 0.0 0.0 -0.0 0.0 0.0 1 True False
18375.880999999998 4.802383899688721 -1.2987211805633088 1.8371828238116663 -2.109293123284811 -1.5707925001727503 1.6607481241226196 0.0 0.0 0.0 -0.0 0.0 0.0 1 True False
18375.931 4.802375793457031 -1.298713670378067 1.837219540272848 -2.109244009057516 -1.570829216633932 1.6607823371887207 0.0 0.0 0.0 -0.0 0.0 0.0 1 True False
18375.981 4.802347660064697 -1.2986853879741211 1.8372109572040003 -2.109312673608297 -1.5708048979388636 1.660757064819336 0.0 0.0 0.0 -0.0 0.0 0.0 1 True False
18376.031 4.802364349365234 -1.2987151902965088 1.8371666113482874 -2.1092845402159632 -1.5707967917071741 1.6607197523117065 0.0 0.0 0.0 -0.0 0.0 0.0 1 True False
18376.081 4.802343368530273 -1.2986973089030762 1.8371017614947718 -2.109244485894674 -1.5708087126361292 1.660757064819336 0.0 0.0 1.3272741625769413e-06 -0.005044581368565559 0.0 -4.0696380293470114e-11 1 True False
18376.130999999998 4.802392482757568 -1.2987755101970215 1.8372233549701136 -2.10929598430776 -1.5707686583148401 1.6607615947723389 0.0 0.0 -5.0289836508454755e-05 9.603430225979537e-05 0.0 -0.0001421373017365113 1 True False
18376.181 4.802346706390381 -1.2987471681884308 1.8371871153460901 -2.1092921696104945 -1.5708492437945765 1.6606937646865845 0.0 0.0 -2.0725182156084574e-22 -2.6363657525507733e-05 0.0 -4.77671273984015e-05 1 True False
18376.231 4.802326679229736 -1.298668996696808 1.8372276465045374 -2.1092921696104945 -1.570813004170553 1.6606907844543457 0.0 0.0 -0.0 -4.166646547102207e-14 0.0 -2.8714661311823875e-05 1 True False
18376.281 4.802285194396973 -1.2986645263484498 1.8372038046466272 -2.1093365154662074 -1.57074481645693 1.6607763767242432 0.0 0.0 -0.0 -6.32914664220727e-33 0.0 -2.0389641576912254e-05 1 True False
18376.331 4.8023600578308105 -1.2986764472774048 1.8371742407428187 -2.109244009057516 -1.5707972685443323 1.6608061790466309 0.0 -2.2338792859954992e-06 -0.0 -0.0 0.0 -3.1713011801022886e-14 1 True False
18376.380999999998 4.802384853363037 -1.298731581573822 1.8372066656695765 -2.1092807255186976 -1.5708006064044397 1.6607733964920044 0.0 0.0 -3.94639265546195e-29 8.819263166515157e-05 0.0 -4.817214787920105e-33 1 True False
18376.431 4.802335739135742 -1.2987062495997925 1.8372038046466272 -2.1092640362181605 -1.5708168188678187 1.6607942581176758 0.0 5.605193857299268e-43 -0.0 2.031597432505805e-05 0.0 -0.0 1 True False
18376.481 4.802346706390381 -1.2987107199481507 1.837226692830221 -2.1093207798399867 -1.5708254019366663 1.6607332229614258 0.0 0.0 -0.0 1.2986554793315008e-05 0.0 -0.0 1 True False
18376.531 4.8023552894592285 -1.2986973089030762 1.8372190634356897 -2.109300275842184 -1.5708168188678187 1.6607763767242432 0.0 0.0 -0.0 1.9436550147133858e-08 0.0 9.812318492452565e-12 1 True False
18376.581 4.802337646484375 -1.2986853879741211 1.8372109572040003 -2.109340330163473 -1.5707686583148401 1.6607362031936646 0.0 0.0 -2.3169228488285416e-22 2.952416130599628e-27 0.0 1.4904941110799337e-30 1 True False
18376.630999999998 4.802321910858154 -1.2987516087344666 1.8371828238116663 -2.1093012295165003 -1.5708087126361292 1.6607706546783447 0.0 0.0 -0.0 0.0 0.0 0.0 1 True False
18376.681 4.802366733551025 -1.2987435323050995 1.837214771901266 -2.109312673608297 -1.5708449522601526 1.6607706546783447 0.0 0.0 -0.0 0.0 0.0 0.0 1 True False
18376.731 4.802326679229736 -1.2987471383861084 1.8372319380389612 -2.109328886071676 -1.5708254019366663 1.6607543230056763 0.0 0.0 -8.939882718550507e-06 5.590546775513516e-11 0.0 0.0 1 True False
18376.781 4.802334308624268 -1.2986481052688141 1.837236229573385 -2.1093207798399867 -1.5708048979388636 1.6607153415679932 0.0 0.0 -8.110138867822087e-33 8.492059327515479e-30 0.0 0.0 1 True False
18376.831 4.802356719970703 -1.2987017792514344 1.8372233549701136 -2.109312673608297 -1.5707805792437952 1.660740613937378 0.0 0.0 -0.0 0.0 0.0 0.0 1 True False
18376.880999999998 4.802362442016602 -1.2986898881248017 1.8372395674334925 -2.109260221520895 -1.5707967917071741 1.6607660055160522 0.0 0.0 -0.0 0.0 0.0 0.0 1 True False
18376.931 4.802366733551025 -1.2987212103656312 1.8372319380389612 -2.1092850170531214 -1.5708487669574183 1.6607028245925903 0.0 0.0 -1.0962905237829054e-16 0.0 6.191864088123111e-08 0.0009114286513067782 1 True False
18376.981 4.802347660064697 -1.2986836594394227 1.8372109572040003 -2.1092964611449183 -1.5708449522601526 1.660671591758728 -0.00010682683932827786 0.0 -0.0 0.0 9.405452217110061e-27 4.408077438711189e-05 1 True False
18377.031 4.802361011505127 -1.298680917625763 1.8371871153460901 -2.1093040905394496 -1.5707891623126429 1.660768985748291 -5.370566941564903e-05 0.0 -0.0 0.0 1.401298464324817e-45 -0.0008497784147039056 1 True False
18377.081 4.802350997924805 -1.2987137001803895 1.837191406880514 -2.109288831750387 -1.570813004170553 1.6607362031936646 -3.586907041608356e-05 0.0 -4.2015990686650184e-09 0.0 0.0 -2.14342662729905e-06 1 True False
18377.130999999998 4.802326679229736 -1.2987062197974701 1.8372319380389612 -2.1092406711974085 -1.5708091894732874 1.6607542037963867 -2.353655849224405e-24 0.0 -9.886808065702103e-39 0.0 0.0 -3.4684799175010994e-05 1 True False
18377.181 4.802326679229736 -1.299257592563965 1.8362692038165491 -2.1077681980528773 -1.5707767645465296 1.6607407331466675 0.0 -0.02341608889400959 -0.04168371483683586 0.05932905152440071 0.0 -1.7663007383816876e-05 1 True False
18377.231 4.8023552894592285 -1.3009184163859864 1.8331177870379847 -2.102810045281881 -1.5707925001727503 1.6607871055603027 0.0 -0.04986819252371788 -0.08571352064609528 0.13337427377700806 0.0 -1.1849052498291712e-05 1 True False
18377.281 4.802313327789307 -1.3041191560081025 1.8276599089251917 -2.0942117176451625 -1.5707767645465296 1.6607362031936646 0.0 -0.07739818841218948 -0.13418905436992645 0.21171808242797852 0.0 -8.073668686728319e-14 1 True False
18377.331 4.8023552894592285 -1.3086173993400116 1.8200209776507776 -2.0821310482420863 -1.5708449522601526 1.6607779264450073 0.0 -0.0975755900144577 -0.17160385847091675 0.2574593722820282 0.0 -1.2263923011237325e-32 1 True False
18377.380999999998 4.802334308624268 -1.3143938046744843 1.8100908438311976 -2.066861768762106 -1.5708254019366663 1.6607286930084229 0.0 -0.12409625947475433 -0.21550512313842773 0.3493863344192505 0.0 -0.0 1 True False
18377.431 4.802366733551025 -1.321352944975235 1.7982152144061487 -2.047649999658102 -1.570801083241598 1.660764455795288 0.0 -0.15069377422332764 -0.26338014006614685 0.40921151638031006 0.0 -0.0 1 True False
18377.481 4.802335739135742 -1.329551027422287 1.7839544455157679 -2.0252701244749964 -1.570784870778219 1.6607451438903809 -5.51151279283275e-25 -0.1783667802810669 -0.3069668710231781 0.48044684529304504 0.0 -0.0 1 True False
18377.531 4.80237340927124 -1.339084954266884 1.7675321737872522 -1.9992505512633265 -1.5707886854754847 1.6607072353363037 0.0 -0.2019050121307373 -0.3515545725822449 0.546305239200592 0.0 -0.0 1 True False
18377.581 4.802384853363037 -1.3491952431252976 1.7500932852374476 -1.9720379314818324 -1.570784870778219 1.6607898473739624 0.0 -0.18644091486930847 -0.33059602975845337 0.5216284990310669 0.0 -0.0 1 True False
18377.630999999998 4.802298545837402 -1.3579227042249222 1.7351959387408655 -1.9477406940855921 -1.5707724730121058 1.660740613937378 0.0 -0.16630123555660248 -0.27952659130096436 0.4544084668159485 0.0 -0.0 1 True False
18377.681 4.8022966384887695 -1.3655930024436493 1.7218955198871058 -1.9271065197386683 -1.5707405249225062 1.660719871520996 0.0 -0.14276240766048431 -0.23643498122692108 0.380670428276062 0.0 -0.0 1 True False
18377.731 4.802297115325928 -1.371961609726288 1.7112386862384241 -1.910100599328512 -1.5707805792437952 1.6607153415679932 0.0 -0.11361542344093323 -0.19699907302856445 0.31246066093444824 0.0 -0.0 1 True False
18377.781 4.802374839782715 -1.3768944156220932 1.7026327292071741 -1.8963829479613246 -1.5707967917071741 1.6607942581176758 0.0 -0.08465873450040817 -0.15393152832984924 0.22797711193561554 1.4945824133860697e-08 -0.0 1 True False
18377.831 4.802325248718262 -1.3806124788573761 1.6961668173419397 -1.886177202264303 -1.5707843939410608 1.660740613937378 0.0 -0.0609750971198082 -0.11345469951629639 0.1740829199552536 2.2702748554570017e-27 -0.0 1 True False
18377.880999999998 4.8023552894592285 -1.3831075739911576 1.6918547789203089 -1.8794685802855433 -1.5708254019366663 1.6608017683029175 0.0 -0.035576220601797104 -0.0620245561003685 0.10516361147165298 0.0 -0.0 1 True False
18377.931 4.802350997924805 -1.384296716456749 1.6897652784930628 -1.876444002191061 -1.5708048979388636 1.6607451438903809 0.0 -0.01276625506579876 -0.019509736448526382 0.026955734938383102 0.0 -0.0 1 True False
18377.981 4.802334308624268 -1.3842803847840806 1.6896217505084437 -1.8762084446349085 -1.570784870778219 1.6608061790466309 0.0 5.756841943253821e-13 6.766274958547519e-18 -6.40130508600123e-08 0.0 -0.0 1 True False
18378.031 4.802314758300781 -1.3842833203128357 1.689695183430807 -1.8761364422240199 -1.5707891623126429 1.6607615947723389 0.0 0.0 0.0 0.001240908750332892 0.0 -0.0 1 True False
18378.081 4.802368640899658 -1.3843612384847184 1.6896966139422815 -1.8761049709715785 -1.5707925001727503 1.6607117652893066 0.0 0.0 -3.649971179709432e-17 0.002031008480116725 0.0 -0.0 1 True False
18378.130999999998 4.802342891693115 -1.3843671840480347 1.6896708647357386 -1.8760572872557582 -1.570784870778219 1.6607660055160522 0.0 -0.00010045809904113412 -0.0 0.001198712270706892 0.0 -0.0 1 True False
18378.181 4.802383899688721 -1.384332762365677 1.6896966139422815 -1.8760978184142054 -1.570829216633932 1.6607253551483154 0.0 -0.00030991347739472985 -0.0 0.00023311900440603495 0.0 -0.0 1 True False
18378.231 4.802320957183838 -1.3843494069627305 1.6896055380450647 -1.8761173687376917 -1.5707648436175745 1.660773515701294 0.0 -0.00014377191837411374 -0.0 0.00013847736408933997 0.0 -0.0 1 True False
18378.281 4.802368640899658 -1.3843523871949692 1.6896875540362757 -1.8760978184142054 -1.5708406607257288 1.660757064819336 0.0 -0.00012530921958386898 -0.0 9.351168409921229e-05 0.0 -0.0 1 True False
18378.331 4.80239725112915 -1.3843731445125123 1.6896346251117151 -1.876077791253561 -1.570801083241598 1.6607362031936646 0.0 -0.00010573754843790084 -0.0 1.1408686766568171e-13 0.0 -0.0 1 True False
18378.380999999998 4.802326679229736 -1.384359822874405 1.6896560827838343 -1.876021524468893 -1.570801083241598 1.660785436630249 0.0 -7.889718835940585e-05 -0.0 1.7329823914649455e-32 0.0 -0.0 1 True False
18378.431 4.802375793457031 -1.3843524020961304 1.6896351019488733 -1.8760529957213343 -1.5708044211017054 1.66074800491333 0.0 -6.010431025060825e-05 -0.0 0.0 0.0 -0.0 1 True False
18378.481 4.802364349365234 -1.384359822874405 1.6896560827838343 -1.8760858974852503 -1.5707925001727503 1.6607288122177124 0.0 0.0 -0.0 0.0 0.0 -0.0 1 True False
18378.531 4.802305698394775 -1.3843894463828583 1.6896675268756312 -1.876061578790182 -1.5707686583148401 1.6607028245925903 0.0 0.0 -0.0 0.0 0.0 -0.0 1 True False
18378.581 4.802319049835205 -1.384422482257225 1.6896799246417444 -1.8760572872557582 -1.570801083241598 1.6607242822647095 0.0 0.0 -0.0 0.0 0.0 -0.0 1 True False
18378.630999999998 4.802350997924805 -1.3843150746873398 1.6896541754352015 -1.8760448894896449 -1.5708487669574183 1.6607332229614258 0.0 0.0 -0.0 0.0 0.0 -0.0 1 True False
18378.681 4.802330017089844 -1.384336144929268 1.6896517912494105 -1.8760529957213343 -1.570813004170553 1.6607242822647095 0.0 0.0 -0.0 0.0 0.0 -0.0 1 True False
18378.731 4.802330017089844 -1.3843806845000763 1.6896675268756312 -1.8760339222350062 -1.5708048979388636 1.6607526540756226 0.0 0.0 -0.0 0.0 0.0 -0.0 1 True False
18378.781 4.8023552894592285 -1.3843524169972916 1.6896675268756312 -1.8760739765562953 -1.5707967917071741 1.6607526540756226 0.0 0.0 -0.0 0.0 0.0 -0.0 1 True False
18378.831 4.802371025085449 -1.3843775552562256 1.6896608511554163 -1.8761059246458949 -1.5707805792437952 1.6607495546340942 0.0 0.0 8.790716376119492e-18 1.084520385823129e-12 0.0 -0.0 1 True False
18378.880999999998 4.802392482757568 -1.384380654697754 1.6896541754352015 -1.8760572872557582 -1.570784870778219 1.6607915163040161 0.0 0.0 0.0 1.6473885645983092e-31 0.0 -0.0 1 True False
18378.931 4.802347183227539 -1.3843105149320145 1.689662281666891 -1.8760653934874476 -1.5707967917071741 1.6607407331466675 0.0 0.0 0.0 0.0 0.0 -0.0 1 True False
18378.981 4.8023223876953125 -1.384385035639145 1.6896474997149866 -1.8760858974852503 -1.5708325544940394 1.6607451438903809 0.0 0.0 0.0 0.0 0.0 -0.0 1 True False
18379.031 4.802326679229736 -1.3843510460904618 1.6896303335772913 -1.876089712182516 -1.5707891623126429 1.6607987880706787 0.0 0.0 0.0 0.0 0.0 -0.0 1 True False
18379.081 4.802351951599121 -1.3843717885068436 1.6896937529193323 -1.8760935268797816 -1.5708254019366663 1.6607072353363037 0.0 0.0 0.0 0.0 0.0 -0.0 1 True False
18379.130999999998 4.802313804626465 -1.3844016802361985 1.6897128264056605 -1.876101633111471 -1.5707925001727503 1.6607332229614258 0.0 0.0 0.0 0.0 0.0 -0.0 1 True False
18379.181 4.802280902862549 -1.3843317043832322 1.6896966139422815 -1.8760696850218714 -1.570813004170553 1.6607615947723389 0.0 0.0 0.0 0.0 0.0 -0.0 1 True False
18379.231 4.802375316619873 -1.3844179821065445 1.6896756331073206 -1.8761173687376917 -1.5707805792437952 1.6607943773269653 0.0 0.0 0.0 0.0 0.0 -0.0 1 True False
18379.281 4.802330017089844 -1.3843448770097275 1.6896632353412073 -1.8760858974852503 -1.5707686583148401 1.660768985748291 0.0 0.0 4.262682651301475e-09 0.0 0.0 -0.0 1 True False
18379.331 4.802313804626465 -1.3844104719213028 1.6896589438067835 -1.8761092625060023 -1.5708006064044397 1.6607615947723389 0.0 0.0 1.0030544854381756e-38 0.0 0.0 -0.0 1 True False
18379.380999999998 4.802350997924805 -1.3843106937459488 1.6896217505084437 -1.876073499719137 -1.570853058491842 1.6607391834259033 0.0 0.0 0.0 0.0 0.0 -0.0 1 True False
18379.431 4.802403926849365 -1.3844266396811982 1.6896675268756312 -1.876033445397848 -1.5707925001727503 1.6607117652893066 0.0 0.0 0.0 0.0 0.0 -0.0 1 True False
18379.630999999998 4.802350997924805 -1.3843075943044205 1.6896260420428675 -1.8760854206480921 -1.5708168188678187 1.6607779264450073 0.0 2.0658502480462183e-40 5.647865822578391e-24 0.0 0.0 -0.0 1 True False
18379.681 4.802309513092041 -1.38443115473304 1.6897037664996546 -1.8760491810240687 -1.570801083241598 1.660752534866333 0.0 0.0 0.0 0.0 0.0 -0.0 1 True False
18379.731 4.802338600158691 -1.3843568128398438 1.6896918455706995 -1.876089712182516 -1.570756737385885 1.6607072353363037 0.0 0.0 0.0 0.0 0.0 -0.0 1 True False
18379.781 4.802371025085449 -1.3843195599368592 1.6896799246417444 -1.8761173687376917 -1.5707891623126429 1.6607660055160522 0.0 0.0 0.0 0.0 0.0 -0.0 1 True False
18379.831 4.802310466766357 -1.384348065858223 1.6896756331073206 -1.8760367832579554 -1.5708087126361292 1.6607272624969482 0.0 0.0 0.0 0.0 0.0 -0.0 1 True False
18379.880999999998 4.80233097076416 -1.3843893867782135 1.6896918455706995 -1.8761378727354945 -1.5707886854754847 1.6607615947723389 0.0 0.0 0.0 0.0 0.0 -0.0 1 True False
18379.931 4.802338600158691 -1.3843893569758912 1.6896632353412073 -1.8761335812010707 -1.570772949849264 1.660768985748291 0.0 0.0 0.0 0.0 0.0 -0.0 1 True False
18379.981 4.802313804626465 -1.3843599271825333 1.689657990132467 -1.8760572872557582 -1.5707643667804163 1.6607660055160522 0.0 0.0 0.0 0.0 0.0 -0.0 1 True False
18380.031 4.802347183227539 -1.3843229872039338 1.6896517912494105 -1.876101633111471 -1.5707805792437952 1.6607481241226196 0.0 0.0 0.0 0.0 0.0 -0.0 1 True False
18380.081 4.802371025085449 -1.3843730849078675 1.6896632353412073 -1.8761059246458949 -1.5707886854754847 1.660773515701294 0.0 0.0 0.0 0.0 0.0 -0.0 1 True False
18380.130999999998 4.802379608154297 -1.384319619541504 1.6896474997149866 -1.8760653934874476 -1.570813004170553 1.6607208251953125 0.0 0.0 0.0 0.0 0.0 -0.0 1 True False
18380.181 4.802347183227539 -1.38438934207473 1.6896589438067835 -1.876073499719137 -1.5707886854754847 1.6607242822647095 0.0 0.0 0.0 0.0 0.0 -0.0 1 True False
18380.231 4.802371025085449 -1.3843524766019364 1.6896842161761683 -1.8760410747923792 -1.5708006064044397 1.6607407331466675 0.0 0.0 0.0 0.0 0.0 -0.0 1 True False
18380.281 4.802114963531494 -1.3845065248063584 1.6897147337542933 -1.8760739765562953 -1.5708087126361292 1.660487174987793 -0.01573854126036167 -0.006799761671572924 0.008147071115672588 -2.5671090497780824e-07 0.0 -0.01764272153377533 1 True False
18380.331 4.801070213317871 -1.3850527566722413 1.690366570149557 -1.876136919061178 -1.5707405249225062 1.6594510078430176 -0.03354291990399361 -0.017179405316710472 0.01749247871339321 -0.002009668620303273 0.0 -0.032063912600278854 1 True False
18380.380999999998 4.798466682434082 -1.3862824153951188 1.6918209234820765 -1.8763357601561488 -1.5707891623126429 1.6567351818084717 -0.07423291355371475 -0.034767720848321915 0.042400483042001724 -0.004799709655344486 0.0 -0.06957516074180603 1 True False
18380.431 4.7933220863342285 -1.3886585992625733 1.6945999304400843 -1.8766986332335414 -1.570784870778219 1.651740550994873 -0.1261337548494339 -0.062069110572338104 0.07052194327116013 -0.009530875831842422 0.0 -0.1304553598165512 1 True False
18380.481 4.785008907318115 -1.392648698096611 1.6992772261248987 -1.8772937260069789 -1.570756737385885 1.643404245376587 -0.21041275560855865 -0.09852796792984009 0.1159384474158287 -0.015401188284158707 0.0 -0.2088976502418518 1 True False
18380.531 4.772322177886963 -1.3986984354308625 1.7061565558062952 -1.878268381158346 -1.5708125273333948 1.6308302879333496 -0.2863712012767792 -0.13820435106754303 0.16358935832977295 -0.02316882088780403 0.0 -0.2885191738605499 1 True False
18380.581 4.7562055587768555 -1.406464235191681 1.7151215712176722 -1.8793417416014613 -1.570801083241598 1.6146057844161987 -0.3573947548866272 -0.16868561506271362 0.20032691955566406 -0.023095248267054558 5.2613911975640804e-05 -0.35718750953674316 1 True False
18380.630999999998 4.736443996429443 -1.4158968192389985 1.725929085408346 -1.880867143670553 -1.5708006064044397 1.5948563814163208 -0.42837125062942505 -0.20197778940200806 0.23648886382579803 -0.030257897451519966 2.9076592551105065e-22 -0.42762598395347595 1 True False
18380.681 4.713345527648926 -1.426916853790619 1.738793675099508 -1.8826195202269496 -1.5707767645465296 1.5718097686767578 -0.4988640546798706 -0.24179509282112122 0.2679423391819 -0.038519348949193954 4.416752629705391e-41 -0.49985471367836 1 True False
18380.731 4.6867289543151855 -1.4397830230048676 1.7533639113055628 -1.8843676052489222 -1.5707934538470667 1.545045018196106 -0.5659051537513733 -0.2663368880748749 0.3176027536392212 -0.040338024497032166 0.0 -0.5669113993644714 1 True False
18380.781 4.65803337097168 -1.4533077341369172 1.7690985838519495 -1.8865353069701136 -1.5708172957049769 1.5163897275924683 -0.5464767217636108 -0.2627008259296417 0.30093711614608765 -0.040386322885751724 -3.173698132741265e-05 -0.5508020520210266 1 True False
18380.831 4.632287979125977 -1.4656169351986428 1.7831485907184046 -1.888406892816061 -1.570869270955221 1.4907888174057007 -0.4750616252422333 -0.22761492431163788 0.2671721577644348 -0.04019901901483536 -0.0005131810903549194 -0.47327226400375366 1 True False
18380.880999999998 4.610170841217041 -1.4762020495584984 1.795471493397848 -1.8899909458556117 -1.57082444826235 1.4686793088912964 -0.410599023103714 -0.19035543501377106 0.2211187332868576 -0.028636116534471512 -0.00013353627582546324 -0.4094594120979309 1 True False
18380.931 4.591707229614258 -1.4851686891964455 1.80552846590151 -1.8913527927794398 -1.570801083241598 1.450066089630127 -0.3456612527370453 -0.16366654634475708 0.18863283097743988 -0.02266804315149784 0.0002904988650698215 -0.3382805287837982 1 True False
18380.981 4.576495170593262 -1.4923816111734887 1.8139084021197718 -1.8924099407591761 -1.5708048979388636 1.4349045753479004 -0.26503369212150574 -0.13137969374656677 0.1468864232301712 -0.01870177686214447 6.8778455153406526e-12 -0.26628485321998596 1 True False
18381.031 4.564934730529785 -1.4978915315917511 1.8205040136920374 -1.8931361637511195 -1.5707610289203089 1.4232683181762695 -0.20355038344860077 -0.09342334419488907 0.10929460823535919 -0.01670580543577671 1.0447465592085742e-30 -0.20230434834957123 1 True False
18381.081 4.556717395782471 -1.5017771509340783 1.8249557654010218 -1.8937822781004847 -1.5707805792437952 1.4151101112365723 -0.12997041642665863 -0.05950746312737465 0.07244523614645004 -0.006025053095072508 0.0 -0.1325124204158783 1 True False
18381.130999999998 4.552020072937012 -1.5040912193110962 1.8274639288531702 -1.8941222629942835 -1.5708168188678187 1.410494089126587 -0.05791173502802849 -0.030800018459558487 0.030597617849707603 -0.004226969089359045 0.0 -0.058027755469083786 1 True False
18381.181 4.5508599281311035 -1.5045455706170578 1.8281267325030726 -1.8942505321898402 -1.570824925099508 1.4093022346496582 -0.0007053823210299015 0.009366204962134361 0.010905765928328037 -0.019356925040483475 0.0 0.002049228409305215 1 True False
18381.231 4.550846576690674 -1.503781573181488 1.8296030203448694 -1.8967176876463832 -1.570784870778219 1.40932297706604 -0.0006111129187047482 0.028405215591192245 0.050927210599184036 -0.07142777740955353 0.0 -0.0005155339022167027 1 True False
18381.281 4.550905227661133 -1.501630814080574 1.8332422415362757 -1.9024363956847132 -1.5707886854754847 1.4092873334884644 -0.0007312681991606951 0.0579698346555233 0.09360390901565552 -0.15340906381607056 0.0 -0.0006721309036947787 1 True False
18381.331 4.550861358642578 -1.4981506329825898 1.839011017476217 -1.9117933712401332 -1.5708420912372034 1.4092426300048828 -0.000540373963303864 0.08611614257097244 0.1391817182302475 -0.22000813484191895 0.0 -0.00046154618030413985 1 True False
18381.380999999998 4.550877571105957 -1.4932900604656716 1.8468440214740198 -1.9244824848570765 -1.5707810560809534 1.4092516899108887 -0.00029423358500935137 0.10746348649263382 0.1794402301311493 -0.2994312644004822 0.0 -0.00017798706539906561 1 True False
18381.431 4.550876140594482 -1.4869899091175576 1.8572972456561487 -1.940859933892721 -1.570768181477682 1.4092541933059692 -0.00015634628653060645 0.13661034405231476 0.21997284889221191 -0.35689690709114075 0.0 3.057661207019578e-14 1 True False
18381.481 4.550816535949707 -1.4794980225018044 1.869237248097555 -1.9606043301024378 -1.5707886854754847 1.4092586040496826 -0.0001102686655940488 0.16590379178524017 0.26725536584854126 -0.43054768443107605 0.0 4.644594544527806e-33 1 True False
18381.531 4.550844669342041 -1.4706216019443055 1.8838313261615198 -1.983833452264303 -1.5707529226886194 1.409266471862793 -7.97388784121722e-05 0.1881430596113205 0.31027737259864807 -0.4939735233783722 0.0 0.0 1 True False
18381.581 4.550853729248047 -1.4604364571026345 1.9002283255206507 -2.01065792659902 -1.570784870778219 1.409184217453003 -3.97107723983936e-05 0.213314950466156 0.35308006405830383 -0.5730068683624268 0.0 0.0 1 True False
18381.630999999998 4.550770282745361 -1.4496917885592957 1.9181421438800257 -2.038756032983297 -1.5707767645465296 1.4092291593551636 0.0 0.20463037490844727 0.3297671973705292 -0.5377378463745117 0.0 0.0 1 True False
18381.681 4.550824165344238 -1.4401577425054093 1.9332459608661097 -2.06400265316152 -1.5707810560809534 1.4092097282409668 0.0 0.17847073078155518 0.2904701232910156 -0.46572861075401306 0.0 0.0 1 True False
18381.731 4.550807476043701 -1.432031364446022 1.9466331640826624 -2.0854679546751917 -1.5708168188678187 1.409256100654602 0.0 0.14794982969760895 0.2475241720676422 -0.40333306789398193 -5.6082603703188835e-14 0.0 1 True False
18381.781 4.550832748413086 -1.425166667704918 1.9577558676349085 -2.103478094140524 -1.5708125273333948 1.409256100654602 0.0 0.12100513279438019 0.199754998087883 -0.33301016688346863 -8.518959639990755e-33 0.0 1 True False
18381.831 4.550808429718018 -1.4197083723596116 1.966816250477926 -2.1178890667357386 -1.5708048979388636 1.4092261791229248 0.0 0.10163592547178268 0.160169318318367 -0.26739490032196045 -0.0 0.0 1 True False
18381.880999999998 4.550819396972656 -1.4154377591660996 1.973673168812887 -2.1290155849852503 -1.5707929770099085 1.4092352390289307 0.0 0.07305463403463364 0.11836918443441391 -0.18138809502124786 -0.0 0.0 1 True False
18381.931 4.550790786743164 -1.4125400346568604 1.9785321394549769 -2.1366173229613246 -1.5708211104022425 1.4092305898666382 0.0 0.04531281441450119 0.06945797801017761 -0.11391089856624603 -0.0 0.0 1 True False
18381.981 4.550862789154053 -1.4109733563712616 1.9809539953814905 -2.1407648525633753 -1.570784870778219 1.4092216491699219 0.0 0.017924970015883446 0.028628360480070114 -0.0521298311650753 -0.0 0.0 1 True False
18382.031 4.550840377807617 -1.4107451003840943 1.9813693205462855 -2.1414109669127406 -1.5708206335650843 1.4092291593551636 0.00011697340232785791 -1.8722896226019276e-13 1.0538587247310716e-07 1.2069245940438122e-06 -0.0 0.0 1 True False
18382.081 4.550832748413086 -1.4107998770526429 1.9813979307757776 -2.1414228878416957 -1.5707691351519983 1.4092541933059692 2.752462933131028e-05 0.0 -9.087772543890172e-22 -0.0003004710015375167 -0.0 0.0 1 True False
18382.130999999998 4.550849437713623 -1.4107551586679001 1.9814217726336878 -2.141438146630758 -1.570813004170553 1.409266471862793 3.119690882158466e-05 0.0002778758353088051 0.00024351463071070611 -0.000326745881466195 -0.0 1.145084999043533e-10 1 True False
18382.181 4.550861358642578 -1.4107266676476975 1.9813926855670374 -2.141482492486471 -1.5707891623126429 1.4092216491699219 2.176600719394628e-05 0.00021995148563291878 5.242415863904171e-05 -0.001258120872080326 -0.0 1.7393866269230418e-29 1 True False
18382.231 4.550807476043701 -1.4106775683215638 1.981417481099264 -2.141514917413229 -1.5708087126361292 1.4092307090759277 6.527822779195371e-40 0.00010783091420307755 6.067096910555847e-05 -0.0003630052087828517 -0.0 0.0 1 True False
18382.281 4.550762176513672 -1.4106613409570237 1.9813969771014612 -2.141578813592428 -1.57074481645693 1.4092217683792114 0.0 0.00010844400094356388 8.406627603108063e-05 -0.0001590795291122049 -0.0 0.0 1 True False
18382.331 4.550812244415283 -1.410695032482483 1.9814160505877894 -2.1415463886656703 -1.5707767645465296 1.4092336893081665 0.0 0.00010365605703555048 0.000106911662442144 -0.00012213963782414794 -0.0 6.425021514120706e-17 1 True False
18382.380999999998 4.550844669342041 -1.4106656473926087 1.981495205556051 -2.1415544948973597 -1.5708335081683558 1.409217357635498 0.0 2.7358977604308166e-05 9.390155173605308e-05 -8.57654376886785e-05 -0.0 9.75962220376118e-36 1 True False
18382.431 4.550885200500488 -1.4106950026801606 1.9814441839801233 -2.1415230236449183 -1.570784870778219 1.4092497825622559 0.0 1.554516529722605e-05 6.619103078264743e-05 -6.141772621224071e-19 -0.0 0.0 1 True False
18382.481 4.550788402557373 -1.4107179951718827 1.9814489523517054 -2.1415349445738734 -1.570784870778219 1.4092665910720825 -1.9336344833374105e-34 2.1714127797167748e-05 3.0500144930556417e-05 -9.329364810361062e-38 -0.0 0.0 1 True False
18382.531 4.550844669342041 -1.4106787306121369 1.9814251104937952 -2.141538759271139 -1.5707891623126429 1.409256100654602 0.0 4.105159903178125e-40 3.301875040051527e-05 -0.0 -0.0 0.0 1 True False
18382.581 4.550828456878662 -1.4106863302043458 1.9814446608172815 -2.1415544948973597 -1.5708168188678187 1.409245252609253 0.0 0.0 2.263731039420236e-05 -0.0 -0.0 0.0 1 True False
18382.630999999998 4.550781726837158 -1.410701797609665 1.9814980665790003 -2.141566892663473 -1.570784870778219 1.4092291593551636 0.0 0.0 5.089464998350835e-22 -0.0 -0.0 0.0 1 True False
18382.681 4.550807476043701 -1.410661370759346 1.9814613501178187 -2.1415425739684046 -1.570784870778219 1.4092515707015991 0.0 0.0 0.0 -0.0 -0.0 0.0 1 True False
18382.731 4.550856590270996 -1.4106701028398057 1.9814332167254847 -2.1415144405760707 -1.5707686583148401 1.4092782735824585 0.0 0.0 0.0 -0.0 -0.0 0.0 1 True False
18382.781 4.550856590270996 -1.4106898766807099 1.9814909140216272 -2.141538759271139 -1.5707123915301722 1.4092217683792114 0.0 0.0 0.0 -0.0 -0.0 0.0 1 True False
18382.831 4.550832748413086 -1.4106993240169068 1.9814532438861292 -2.141554971734518 -1.5707805792437952 1.4092708826065063 0.0 0.0 0.0 -0.0 -0.0 0.0 1 True False
18382.880999999998 4.550821304321289 -1.4106329393437882 1.9813430945025843 -2.141562601129049 -1.5708368460284632 1.409266471862793 0.0 0.0 0.0 -0.0027217604219913483 -0.0 0.0 1 True False
18382.931 4.550807476043701 -1.4107234489968796 1.9814699331866663 -2.14152254680776 -1.5707686583148401 1.4092754125595093 0.0 0.0 2.3701320798168408e-20 9.209521522279829e-05 8.712452993482698e-15 2.4442761996281565e-14 1 True False
18382.981 4.550852298736572 -1.4106614154628296 1.9814375082599085 -2.141550680200094 -1.5707405249225062 1.4091919660568237 0.0 0.0 0.0 2.496085835446138e-05 1.3234237945530452e-33 3.712860987867598e-33 1 True False
18383.031 4.550808429718018 -1.4106776875308533 1.9813998381244105 -2.141554971734518 -1.5708282629596155 1.4092426300048828 0.0 0.0 0.0 1.4739615835424047e-05 0.0 0.0 1 True False
18383.081 4.55079984664917 -1.4107147020152588 1.9814937750445765 -2.1415702305235804 -1.5708087126361292 1.409236192703247 0.0 0.0 0.0 2.0915231289109215e-05 0.0 0.0 1 True False
18383.130999999998 4.550790786743164 -1.410674439077713 1.9814937750445765 -2.141566892663473 -1.5708254019366663 1.4092363119125366 0.0 0.0 0.0 4.788752130048348e-21 0.0 0.0 1 True False
18383.181 4.550816535949707 -1.4106906366399308 1.9814775625811976 -2.141590734521383 -1.570801083241598 1.409266471862793 0.0 0.0 -6.54691881965346e-16 7.274126315325482e-40 0.0 -3.2669208050589704e-12 1 True False
18383.231 4.550864219665527 -1.410649449830391 1.9814818541156214 -2.141566892663473 -1.570801083241598 1.4092351198196411 0.0 0.0 -1.401298464324817e-45 0.0 0.0 -4.962458487872043e-31 1 True False
18383.281 4.550849437713623 -1.4107353252223511 1.9814656416522425 -2.1415826282896937 -1.5707843939410608 1.409217357635498 0.0 0.0 -0.0 0.0 0.0 -0.0 1 True False
18383.331 4.550865650177002 -1.4107028853944321 1.9814732710467737 -2.1415869198241175 -1.570813004170553 1.4092541933059692 0.0 0.0 -0.0 0.0 0.0 -0.0 1 True False
18383.380999999998 4.550849437713623 -1.4107036304524918 1.9814818541156214 -2.141538759271139 -1.5707805792437952 1.4092291593551636 0.0 0.0 -0.0 0.0 0.0 -0.0 1 True False
18383.431 4.550849437713623 -1.4106863302043458 1.9814656416522425 -2.1415425739684046 -1.5707605520831507 1.4092470407485962 0.0 0.0 -3.099319425637582e-34 0.0 0.0 -0.0 1 True False
18383.481 4.55078649520874 -1.4107028555921097 1.9814656416522425 -2.141550680200094 -1.5707925001727503 1.4093172550201416 0.0 0.0 -0.0 0.0 0.0 -0.0 1 True False
18383.531 4.550819396972656 -1.4107190680554886 1.981429402028219 -2.141550680200094 -1.570784870778219 1.409175157546997 0.0 0.0 -0.0 5.129848133570258e-20 0.0 -0.0 1 True False
18383.581 4.550881862640381 -1.4106503289989014 1.9814417997943323 -2.1415707073607386 -1.570784870778219 1.4092261791229248 0.0 0.0 -0.0 7.792250817315726e-39 0.0 -0.0 1 True False
18383.630999999998 4.550848960876465 -1.4106819343617936 1.9814775625811976 -2.141554971734518 -1.570829216633932 1.4092631340026855 0.0 0.0 -0.0 0.0 0.0 -0.0 1 True False
18383.681 4.550873279571533 -1.410653830771782 1.9815195242511194 -2.141562601129049 -1.5707967917071741 1.4092261791229248 0.0 0.0 -0.0 0.0 0.0 -0.0 1 True False
18383.731 4.550862789154053 -1.4106408816627045 1.9814417997943323 -2.141538759271139 -1.5707767645465296 1.4092336893081665 0.0 0.0 -0.0 0.0 0.0 -3.3757226614722358e-12 1 True False
18383.781 4.550869941711426 -1.4106906366399308 1.9814937750445765 -2.141543050805563 -1.5708211104022425 1.409239649772644 0.0 -2.2768594121203023e-08 -1.0003834977943631e-15 0.0003527269291225821 0.0 -5.127731112806695e-31 1 True False
18383.831 4.550828456878662 -1.4107353252223511 1.9814375082599085 -2.141554971734518 -1.5707967917071741 1.4092127084732056 0.0 5.2385622891067076e-33 -1.6212275966154266e-08 9.532443073112518e-05 0.0 -0.0 1 True False
18383.880999999998 4.550858020782471 -1.410649449830391 1.9814417997943323 -2.141554971734518 -1.5707762877093714 1.4092127084732056 0.0 0.0 -3.814917640313004e-38 5.06284850416705e-05 0.0 -0.0 1 True False
18383.931 4.550781726837158 -1.4106906217387696 1.9814417997943323 -2.1415144405760707 -1.5707767645465296 1.4092470407485962 0.0 0.0 -0.0 3.4468994272174314e-05 0.0 -0.0 1 True False
18383.981 4.550840377807617 -1.4106776130250473 1.9814546743976038 -2.141566892663473 -1.570801083241598 1.4091750383377075 0.0 0.0 -0.0 9.442855351815549e-12 0.0 -0.0 1 True False
18384.031 4.550836086273193 -1.4106613260558625 1.981457535420553 -2.141550680200094 -1.5708487669574183 1.409184217453003 0.0 0.0 -0.0 1.4343716849524666e-30 0.0 -0.0 1 True False
18384.081 4.550816535949707 -1.410670058136322 1.9814699331866663 -2.141566892663473 -1.5707724730121058 1.4092754125595093 0.0 0.0 -0.0 0.0 0.0 -0.0 1 True False
18384.130999999998 4.5508198738098145 -1.4106819343617936 1.981457535420553 -2.1415306530394496 -1.570813004170553 1.4092532396316528 0.0 0.0 -0.0 0.0 0.0 -2.6159184471907793e-06 1 True False
18384.181 4.550893783569336 -1.4106898766807099 1.9814165274249476 -2.141506334344381 -1.5707648436175745 1.4092381000518799 0.0 0.0 -0.0 0.0 0.0 -3.9735860568307315e-25 1 True False
18384.231 4.550807952880859 -1.4106941533139725 1.9814088980304163 -2.1415707073607386 -1.5707925001727503 1.4092307090759277 0.0 0.0 -0.0 0.0 0.0 -6.025583396596713e-44 1 True False
18384.281 4.550803184509277 -1.4106941682151337 1.9814818541156214 -2.141482015649313 -1.5707805792437952 1.4092708826065063 0.0 0.0 -0.0 0.0 0.0 -0.0 1 True False
18384.331 4.550865173339844 -1.4107277256301423 1.981429402028219 -2.141554971734518 -1.570784870778219 1.4091975688934326 0.0 0.0 -0.0 0.0 0.0 -0.0 1 True False
18384.380999999998 4.550858020782471 -1.4106984597495575 1.9814546743976038 -2.141506334344381 -1.5708368460284632 1.4092917442321777 0.0 0.0 -0.0 0.0 0.0 0.0013448760146275163 1 True False
18384.431 4.550812244415283 -1.4106775981238862 1.9814613501178187 -2.141590734521383 -1.5707610289203089 1.4092317819595337 0.0 0.0 -0.0 -2.5341764121924657e-24 -6.022828529239632e-07 0.004425271414220333 1 True False
18384.481 4.550816535949707 -1.4106949430755158 1.9814046064959925 -2.1415630779662074 -1.5707843939410608 1.4091885089874268 0.0 0.0 -0.0 1.8415870727039874e-05 -9.148688623593915e-26 0.0009169034892693162 1 True False
18384.531 4.550790786743164 -1.4106898766807099 1.9814046064959925 -2.141554971734518 -1.5707405249225062 1.4092799425125122 0.0 0.0 -0.0 1.2183211765659507e-05 -1.401298464324817e-44 -0.0007039661286398768 1 True False
18384.581 4.550865173339844 -1.41071471691642 1.9814332167254847 -2.1415306530394496 -1.5707967917071741 1.4092336893081665 0.0 0.0 -0.0 3.980479574422491e-12 -0.0 -6.390920316334814e-05 1 True False
18384.630999999998 4.550572395324707 -1.4107836198857804 1.9814379850970667 -2.141379018823141 -1.570813004170553 1.4102541208267212 -0.01584520749747753 -0.005094129126518965 -0.003064303193241358 0.010932201519608498 -0.0 0.054240237921476364 1 True False
18384.681 4.549682140350342 -1.4112133097699662 1.981032673512594 -2.1406003437437953 -1.570829216633932 1.4148166179656982 -0.022223828360438347 -0.013186612166464329 -0.011477762833237648 0.023454386740922928 -0.0 0.12038201838731766 1 True False
18384.731 4.548185348510742 -1.4120546293309708 1.980424706135885 -2.139002939263815 -1.5707648436175745 1.4228240251541138 -0.037417370826005936 -0.020859552547335625 -0.016732681542634964 0.03342888504266739 -0.0 0.19192327558994293 1 True False
18384.781 4.545886039733887 -1.4132786703160782 1.9794567267047327 -2.1368261776366175 -1.5707891623126429 1.4342942237854004 -0.05178886651992798 -0.029116898775100708 -0.01964433304965496 0.052869465202093124 -0.0 0.2628321051597595 1 True False
18384.831 4.542934417724609 -1.414878935819008 1.9782407919513147 -2.134143968621725 -1.5707324186908167 1.449288010597229 -0.06485602259635925 -0.035557087510824203 -0.026225920766592026 0.05772024393081665 -0.0 0.3311762809753418 1 True False
18384.880999999998 4.539389133453369 -1.4168163400939484 1.9767850081073206 -2.1306659183897914 -1.570801083241598 1.4677820205688477 -0.08146922290325165 -0.04340741038322449 -0.03308099880814552 0.07590971142053604 -0.0 0.4019394814968109 1 True False
18384.931 4.535125732421875 -1.4191566568664093 1.9748356978045862 -2.126533170739645 -1.5708254019366663 1.4897100925445557 -0.09156227111816406 -0.048854418098926544 -0.03954128548502922 0.08392681181430817 -0.0 0.47313636541366577 1 True False
18384.981 4.53004789352417 -1.4218306255391617 1.9727767149554651 -2.1217080555357875 -1.5707925001727503 1.5150243043899536 -0.10700666904449463 -0.06069090962409973 -0.04424208030104637 0.10783788561820984 -0.0 0.5461726188659668 1 True False
18385.031 4.524297714233398 -1.4248570960811158 1.9704516569720667 -2.1164685688414515 -1.570801083241598 1.5440820455551147 -0.12023548781871796 -0.06665405631065369 -0.0477110855281353 0.11396099627017975 -0.0 0.608669638633728 1 True False
18385.081 4.517967700958252 -1.4282007825425644 1.9678896109210413 -2.110397001306051 -1.5707653204547327 1.5764542818069458 -0.1329830288887024 -0.07358554750680923 -0.06053914129734039 0.12197737395763397 -0.0 0.6821727156639099 1 True False
18385.130999999998 4.5109124183654785 -1.4319930237582703 1.9649599234210413 -2.1036774120726527 -1.570801083241598 1.6124552488327026 -0.14858980476856232 -0.07815186679363251 -0.06154680624604225 0.13448293507099152 -0.0 0.7552033066749573 1 True False
18385.181 4.503261566162109 -1.4361333710006257 1.9617508093463343 -2.0963055096068324 -1.570801083241598 1.6517925262451172 -0.16297493875026703 -0.0871208906173706 -0.07060739398002625 0.15156857669353485 -1.9090185043245085e-16 0.8242685794830322 1 True False
18385.231 4.494779586791992 -1.4407308411649247 1.9581025282489222 -2.088388582269186 -1.570801083241598 1.6947895288467407 -0.17688894271850586 -0.09251181781291962 -0.07368681579828262 0.17195941507816315 2.391157716274961e-09 0.8865167498588562 1 True False
18385.281 4.485653400421143 -1.4455665808967133 1.9544885794269007 -2.0795637569823207 -1.5707605520831507 1.7411259412765503 -0.1863023191690445 -0.10238375514745712 -0.0838887020945549 0.1833682358264923 3.6321733933605946e-28 0.9644521474838257 1 True False
18385.331 4.475810527801514 -1.4508232188275834 1.9504216353045862 -2.0703660450377406 -1.5708087126361292 1.7910345792770386 -0.20294231176376343 -0.10694893449544907 -0.07900509983301163 0.19079257547855377 0.0 1.02823007106781 1 True False
18385.380999999998 4.4656291007995605 -1.4562829446843644 1.9461153189288538 -2.060577531854147 -1.5707967917071741 1.8432891368865967 -0.209718257188797 -0.11063804477453232 -0.0901695117354393 0.19208315014839172 0.0 1.054165244102478 1 True False
18385.431 4.455277919769287 -1.4617973876050492 1.941883389149801 -2.0506817303099574 -1.570784870778219 1.8955479860305786 -0.20197831094264984 -0.11031868308782578 -0.08285342901945114 0.18893925845623016 0.0 1.0479837656021118 1 True False
18385.481 4.445059776306152 -1.4673617643168946 1.937500301991598 -2.0410529575743617 -1.5707767645465296 1.9480648040771484 -0.20815518498420715 -0.11115162819623947 -0.08621285855770111 0.18518108129501343 0.0 1.0421197414398193 1 True False
18385.531 4.434788703918457 -1.4728139874390145 1.933357063923971 -2.03124537090444 -1.5708654562579554 2.0003890991210938 -0.20988747477531433 -0.11004925519227982 -0.09411317110061646 0.19909122586250305 0.0 1.045001745223999 1 True False
18385.581 4.4244232177734375 -1.4783522200635453 1.929084602986471 -2.0214373073973597 -1.570801083241598 2.0527052879333496 -0.20289143919944763 -0.1067756861448288 -0.07865993678569794 0.18944181501865387 0.0 1.0504066944122314 1 True False
18385.630999999998 4.414225101470947 -1.4837745440057297 1.9247434774981897 -2.011797090569967 -1.5708087126361292 2.10514235496521 -0.20598866045475006 -0.11158454418182373 -0.09283854812383652 0.1956237554550171 0.0 1.039453387260437 1 True False
18385.681 4.403987884521484 -1.489319660966732 1.9206274191485804 -2.001907011071676 -1.5707562605487269 2.157442092895508 -0.20858727395534515 -0.10888448357582092 -0.08434677124023438 0.19147521257400513 0.0 1.0529955625534058 1 True False
18385.731 4.393618583679199 -1.494849094455578 1.9161813894854944 -1.9922644100584925 -1.570756737385885 2.209685802459717 -0.20179180800914764 -0.10932815819978714 -0.083455391228199 0.19243885576725006 0.0 1.0534323453903198 1 True False
18385.781 4.383316993713379 -1.5003786248019715 1.9119537512408655 -1.9823914966978968 -1.5707767645465296 2.2622101306915283 -0.20576363801956177 -0.108657106757164 -0.0907641276717186 0.19714073836803436 0.0 1.0400290489196777 1 True False
18385.831 4.37310266494751 -1.505893887286522 1.90771991411318 -1.9727136097350062 -1.570829216633932 2.314608335494995 -0.20919165015220642 -0.1082739531993866 -0.07601781189441681 0.19560489058494568 0.0 1.0514084100723267 1 True False
18385.880999999998 4.362934589385986 -1.5112497893026848 1.9034197966205042 -1.9631205997862757 -1.5708048979388636 2.365875482559204 -0.19398264586925507 -0.10941792279481888 -0.08545352518558502 0.19780708849430084 0.0 1.008131980895996 1 True False
18385.931 4.353496074676514 -1.5162545566311856 1.899782959614889 -1.9540721378722132 -1.5707805792437952 2.4141788482666016 -0.18125034868717194 -0.09907521307468414 -0.07382918894290924 0.1699887216091156 2.5744197046151385e-05 0.9274042844772339 1 True False
18385.981 4.344816207885742 -1.5210298386267205 1.895968262349264 -1.9457899532713832 -1.5707724730121058 2.4585483074188232 -0.17173103988170624 -0.08979348838329315 -0.06978125870227814 0.15702638030052185 8.163924647419663e-09 0.8675923943519592 1 True False
18386.031 4.336705684661865 -1.5253500950387497 1.8927648703204554 -1.938106199304098 -1.570784870778219 2.4999160766601562 -0.1538407951593399 -0.08481909334659576 -0.06925986707210541 0.13368329405784607 1.2401011874765885e-27 0.7912214398384094 1 True False
18386.081 4.329232215881348 -1.5292924803546448 1.8896210829364222 -1.9310780964293421 -1.5707529226886194 2.5376336574554443 -0.1383385956287384 -0.07218091189861298 -0.058595072478055954 0.13753561675548553 0.0 0.715962827205658 1 True False
18386.130999999998 4.322617530822754 -1.5329258677414437 1.8868792692767542 -1.9247242412962855 -1.570813004170553 2.5717692375183105 -0.127585306763649 -0.06541211903095245 -0.054045822471380234 0.11926301568746567 0.0 0.6410067677497864 1 True False
18386.181 4.316564559936523 -1.5361221742681046 1.884214226399557 -1.919011732141012 -1.5707686583148401 2.6024832725524902 -0.11457807570695877 -0.05915872007608414 -0.04781316965818405 0.10412757843732834 0.0 0.5731924772262573 1 True False
18386.231 4.311213970184326 -1.5390099820545693 1.8820660750018519 -1.9138065777220667 -1.570824925099508 2.6296088695526123 -0.09936325252056122 -0.054334405809640884 -0.03863907605409622 0.0946250855922699 0.0 0.5056302547454834 1 True False
18386.281 4.306601047515869 -1.5415487822941323 1.8801377455340784 -1.9095479450621546 -1.5708211104022425 2.6531965732574463 -0.08659572154283524 -0.045303307473659515 -0.03528478369116783 0.08910562843084335 0.0 0.4392060339450836 1 True False
18386.331 4.302755832672119 -1.5434628289989014 1.8784931341754358 -1.9058758221068324 -1.5707805792437952 2.672701835632324 -0.060604870319366455 -0.03507891297340393 -0.027855556458234787 0.05800125002861023 0.0 0.32309648394584656 1 True False
18386.380999999998 4.300368785858154 -1.544698105459549 1.8775375525103968 -1.9036780796446742 -1.5707925001727503 2.684713840484619 -0.03373422846198082 -0.01898297667503357 -0.013879161328077316 0.03252164274454117 0.0 0.17617659270763397 1 True False
18386.431 4.299212455749512 -1.5453458291343232 1.8771575132953089 -1.902536531487936 -1.5708325544940394 2.6906473636627197 -0.011990219354629517 -0.004294638987630606 -0.0024871560744941235 0.014702906832098961 0.0 0.06804699450731277 1 True False
18386.481 4.299106597900391 -1.5454234045794983 1.8771169821368616 -1.902412553826803 -1.570756737385885 2.691680669784546 0.0004408113018143922 -0.00013613184273708612 -0.0003271664900239557 -0.0004702442674897611 0.0 0.0007856894517317414 1 True False
18386.531 4.299082279205322 -1.5454759870520611 1.8770349661456507 -1.9024096928038539 -1.570784870778219 2.691688060760498 -8.711980626685545e-05 -0.0020425738766789436 -0.0011902571422979236 -8.111984061542898e-05 0.0 0.0004546985437627882 1 True False
18386.581 4.299042224884033 -1.5454581540874024 1.8769901434527796 -1.9023004970946253 -1.570784870778219 2.691735029220581 -0.0012940583983436227 -0.001314536202698946 -0.0006977405282668769 0.0003047607315238565 0.0 0.0006226022960618138 1 True False
18386.630999999998 4.299001693725586 -1.5455355916968365 1.877016846333639 -1.9023124180235804 -1.5707605520831507 2.6917779445648193 -0.0009210090502165258 -0.0002229314559372142 -0.00031017936998978257 0.0011495540384203196 0.0 0.0006281205569393933 1 True False
18386.681 4.299010753631592 -1.5455177587321778 1.876955811177389 -1.902280946771139 -1.5708335081683558 2.691739320755005 -0.00020409699936863035 -0.0001462732907384634 -0.00011092964996350929 0.0003851114888675511 0.0 0.0002147338818758726 1 True False
18386.731 4.298998832702637 -1.545468620290496 1.876995865498678 -1.9022566280760707 -1.5707686583148401 2.6917645931243896 -0.00012887567572761327 -3.304190286539435e-23 -8.23584123281762e-05 0.00016960226639639586 0.0 0.00013699172995984554 1 True False
18386.781 4.298961639404297 -1.5455311437002202 1.8769796530352991 -1.9023086033263148 -1.5708168188678187 2.691802501678467 -4.055000681546517e-05 0.0 -5.9624257119139656e-05 0.00011585114407353103 0.0 0.00010142268729396164 1 True False
18386.831 4.298974990844727 -1.545526636098959 1.8769844214068812 -1.9022652111449183 -1.5707443396197718 2.691817283630371 -1.9069668269366957e-05 0.0 -1.403021613917259e-34 6.374872464220971e-05 0.0 5.810504808323458e-05 1 True False
18386.880999999998 4.299047946929932 -1.5455716357431193 1.8770378271686 -1.9022485218443812 -1.5708087126361292 2.691788911819458 -1.2466205589589663e-05 0.0 -0.0 5.564566141202931e-09 0.0 2.99902823115792e-14 1 True False
18386.931 4.299022674560547 -1.545485320766904 1.8770573774920862 -1.902280946771139 -1.5707362333880823 2.6917762756347656 -8.45476451835417e-19 0.0 -0.0 8.452588747474754e-28 0.0 4.555530643643863e-33 1 True False
18386.981 4.299015045166016 -1.5455133628896256 1.8770001570331019 -1.9022847614684046 -1.5708168188678187 2.691755533218384 0.0 0.0 -0.0 0.0 0.0 0.0 1 True False
18387.031 4.299010753631592 -1.5455221955529233 1.8770044485675257 -1.9023047886290492 -1.5707805792437952 2.691809892654419 0.0 0.0 -0.0 0.0 0.0 0.0 1 True False
18387.081 4.2990241050720215 -1.5454941385290404 1.877049748097555 -1.9022485218443812 -1.5707529226886194 2.691809892654419 0.0 0.0 -0.0 0.0 0.0 0.0 1 True False
18387.130999999998 4.299022674560547 -1.5455341593227168 1.8769796530352991 -1.9022766552367152 -1.570829216633932 2.6918232440948486 0.0 0.0 -0.0 0.0 0.0 0.0 1 True False
18387.181 4.298973083496094 -1.5454432175359507 1.8769763151751917 -1.9022442303099574 -1.5707724730121058 2.691771984100342 0.0 0.0 -0.0 0.0 0.0 0.0 1 True False
18387.231 4.29900598526001 -1.5455296796611329 1.8770001570331019 -1.9023128948607386 -1.570784870778219 2.6917810440063477 0.0 0.0 -0.0 0.0 0.0 0.0 1 True False
18387.281 4.299022674560547 -1.5454819959453125 1.877021614705221 -1.902212759057516 -1.5708168188678187 2.691809892654419 0.0 0.0 -0.0 0.0 0.0 0.0 1 True False
18387.331 4.299006462097168 -1.5455221881023427 1.8769806067096155 -1.9023052654662074 -1.5707810560809534 2.691805362701416 0.0 0.0 -0.0 0.0 0.0 0.0 1 True False
18387.380999999998 4.298974990844727 -1.54552658580754 1.876962963734762 -1.902309080163473 -1.5707686583148401 2.6917810440063477 0.0 0.0 -0.0 0.0 0.0 0.0 1 True False
18387.431 4.299019813537598 -1.5455058471164485 1.877016846333639 -1.90226473430776 -1.570772949849264 2.691755533218384 0.0 0.0 -0.0 0.0 0.0 0.0 1 True False
18387.481 4.299018383026123 -1.5455850579640646 1.8769586722003382 -1.90226473430776 -1.570784870778219 2.691734790802002 0.0 0.0 -2.954780686178222e-35 0.0 0.0 0.0 1 True False
18387.531 4.298985481262207 -1.54552658580754 1.877016846333639 -1.9022523365416468 -1.5708091894732874 2.691814422607422 0.0 0.0 -0.0 0.0 0.0 0.0 1 True False
18387.581 4.299052715301514 -1.545534125795104 1.876967732106344 -1.902321001092428 -1.570784870778219 2.691709518432617 0.0 0.0 -0.0 2.9809087372495773e-24 0.0 0.0 1 True False
18387.630999999998 4.298998832702637 -1.5455031611821433 1.876955811177389 -1.90226473430776 -1.5707648436175745 2.691797971725464 0.0 0.0 -0.0 4.526194039769159e-43 0.0 0.0 1 True False
18387.681 4.298994541168213 -1.5455177587321778 1.877028767262594 -1.9023014507689417 -1.5707805792437952 2.69183087348938 0.0 0.0 -0.0 0.0 0.0 0.0 1 True False
18387.731 4.298989772796631 -1.5455030904016276 1.8770125547992151 -1.902297159234518 -1.5707967917071741 2.691818952560425 0.0 0.0 -0.0 0.0 0.0 0.0 1 True False
18387.781 4.299019813537598 -1.5455642205527802 1.8770330587970179 -1.90226473430776 -1.5707686583148401 2.691814422607422 0.0 0.0 -0.0 0.0 0.0 0.0 1 True False
18387.831 4.298989772796631 -1.5454774361899872 1.876988712941305 -1.9022852383055628 -1.5708168188678187 2.691818952560425 0.0 1.6228576981054156e-14 1.7956513762641335e-27 0.0 3.269672293332304e-12 0.0 1 True False
18387.880999999998 4.299015045166016 -1.5455519457212468 1.8769844214068812 -1.9022733173766078 -1.5707886854754847 2.6917483806610107 0.0 -1.2788079064675853e-34 0.0 0.0 4.966639486179048e-31 0.0 1 True False
18387.931 4.298994541168213 -1.545534125795104 1.876995865498678 -1.9022609196104945 -1.5707967917071741 2.691797971725464 0.0 0.0 0.0 0.0 0.0 0.0 1 True False
18387.981 4.299036026000977 -1.5455177680454035 1.8769720236407679 -1.9022566280760707 -1.5707405249225062 2.691814422607422 0.0 0.0 0.0 0.0 0.0 0.0 1 True False
18388.031 4.299018383026123 -1.545492372741439 1.8769472281085413 -1.902280946771139 -1.5707972685443323 2.6917765140533447 0.0 0.0 0.0 0.0 0.0 0.0 1 True False
18388.081 4.299043655395508 -1.5455058378032227 1.8769930044757288 -1.902292867700094 -1.570801083241598 2.6917645931243896 0.0 0.0 0.0 0.0 0.0 0.0 1 True False
18388.130999999998 4.298994541168213 -1.5454403211227437 1.8769801298724573 -1.9022933445372523 -1.570801083241598 2.691771984100342 0.0 0.0 0.0 0.0 0.0 0.0 1 True False
18388.181 4.299022674560547 -1.545514754285552 1.8770330587970179 -1.902297159234518 -1.5708211104022425 2.691739320755005 0.0 0.0 9.179920428018472e-27 0.0 0.0 0.0 1 True False
18388.231 4.299022674560547 -1.5454969473979254 1.876967732106344 -1.902297159234518 -1.5708254019366663 2.691842555999756 0.0 0.0 0.0 0.0 0.0 0.0 1 True False
18388.281 4.298973083496094 -1.5454610262862225 1.8770001570331019 -1.90226473430776 -1.5708091894732874 2.6917691230773926 0.0 0.0 0.0 0.0 0.0 0.0 1 True False
18388.331 4.298970699310303 -1.5455429659089823 1.8770039717303675 -1.902269025842184 -1.5707648436175745 2.69183087348938 0.0 0.0 0.0 0.0 0.0 0.0 1 True False
18388.380999999998 4.299022674560547 -1.5454730794629832 1.8770087401019495 -1.9022523365416468 -1.570829216633932 2.691814422607422 4.8191188398050144e-05 0.0 0.0 0.0 0.0 0.0 1 True False
18388.431 4.299018383026123 -1.5454853636077424 1.8770125547992151 -1.902269025842184 -1.5707805792437952 2.691739320755005 0.0 0.0 0.0 0.0 0.0 0.0 1 True False
18388.481 4.299015045166016 -1.5454522886178275 1.8770211378680628 -1.9022766552367152 -1.570829216633932 2.691788911819458 0.0 0.0 0.0 0.0 0.0 0.0 1 True False
18388.531 4.298989772796631 -1.5455237005702038 1.8770535627948206 -1.9023329220213832 -1.570784870778219 2.691788911819458 0.0 0.0 0.0 0.0 0.0 0.0 1 True False
18388.581 4.2990899085998535 -1.5455356401256104 1.877016846333639 -1.9022885761656703 -1.5707967917071741 2.691797971725464 0.0 0.0 0.0 0.0 0.0 0.0 1 True False
18388.630999999998 4.299059867858887 -1.5454656158438702 1.8770406881915491 -1.9022442303099574 -1.5707686583148401 2.691809892654419 0.0 0.0 0.0 0.0 0.0 0.0 1 True False
18388.681 4.299026966094971 -1.5454941552928467 1.8769915739642542 -1.902280946771139 -1.5708168188678187 2.6917765140533447 0.0 0.0 0.0 0.0 0.0 0.0 1 True False
18388.731 4.2989821434021 -1.5455341388336201 1.876995865498678 -1.902309080163473 -1.570801083241598 2.6917965412139893 0.0 0.0 0.0 0.0 0.0 0.0 1 True False
18388.781 4.299043655395508 -1.54552658580754 1.8770254294024866 -1.9022852383055628 -1.5707648436175745 2.6917691230773926 0.0 0.0 0.0 0.0 0.0 3.3367472762119595e-25 1 True False
18388.831 4.299034595489502 -1.5454686482301732 1.8770082632647913 -1.902321001092428 -1.5707443396197718 2.691817283630371 0.0 0.0 0.0 0.0 0.0 5.044674471569341e-44 1 True False
18388.880999999998 4.299038887023926 -1.5454897855273266 1.8769972960101526 -1.9023004970946253 -1.570829216633932 2.6917765140533447 0.0 0.0 0.0 0.0 0.0 0.0 1 True False
18388.931 4.2990031242370605 -1.5454115134528656 1.877044979725973 -1.902280946771139 -1.5708087126361292 2.691800832748413 0.0 0.0 0.0 0.0 0.0 0.0 1 True False
18388.981 4.299019813537598 -1.545452145194151 1.8770001570331019 -1.902321001092428 -1.5707686583148401 2.691767454147339 0.0 0.0 0.0 0.0 0.0 0.0 1 True False
18389.031 4.298998832702637 -1.5455508691123505 1.8770330587970179 -1.90226473430776 -1.5707719961749476 2.6917319297790527 0.0 0.0 0.0 0.0 0.0 0.0 1 True False
18389.081 4.299026966094971 -1.545514802714326 1.877016846333639 -1.902269025842184 -1.570829216633932 2.691771984100342 0.0 0.0 0.0 0.0 0.0 0.0 1 True False
18389.130999999998 4.299026966094971 -1.5455013562789937 1.8769915739642542 -1.902292867700094 -1.57074481645693 2.691805362701416 0.0 0.0 0.0 0.0 0.0 0.0 1 True False
18389.181 4.298993110656738 -1.5454655934921284 1.8770001570331019 -1.9023128948607386 -1.5707767645465296 2.6917855739593506 0.0 0.0 0.0 0.0 0.0 0.0 1 True False
18389.231 4.299010753631592 -1.545482014571764 1.8770330587970179 -1.9022566280760707 -1.570801083241598 2.691784620285034 0.0 0.0 0.0 0.0 0.0 0.0 1 True False
18389.281 4.299007892608643 -1.5455177773586293 1.877028767262594 -1.902297159234518 -1.5708254019366663 2.6918129920959473 0.0 0.0 0.0 0.0 0.0 0.0 1 True False
18389.331 4.298994541168213 -1.545494082649686 1.877016846333639 -1.9022327862181605 -1.570784870778219 2.6917810440063477 0.0 0.0 0.0 0.0 0.0 0.0 1 True False
18389.380999999998 4.299002170562744 -1.5454897631755848 1.877028767262594 -1.9022523365416468 -1.5707686583148401 2.691797971725464 0.0 0.0 0.0 0.0 0.0 0.0 1 True False
18389.431 4.298961639404297 -1.545449248780944 1.877028767262594 -1.902337213555807 -1.570857350026266 2.691793441772461 0.0 0.0 0.0 0.0 0.0 0.0 1 True False
18389.481 4.2990312576293945 -1.5454717439464112 1.8769796530352991 -1.902309080163473 -1.5707767645465296 2.691826105117798 0.0 0.0 0.0 0.0 0.0 0.0 1 True False
18389.531 4.299056529998779 -1.5455266342363139 1.8770044485675257 -1.9022609196104945 -1.570784870778219 2.691793441772461 0.0 0.0 0.0 0.0 0.0 0.0 1 True False
18389.581 4.299038887023926 -1.5454640307328482 1.877016846333639 -1.9022609196104945 -1.5708053747760218 2.6917855739593506 0.0 0.0 0.0 0.0 0.0 0.0 1 True False
18389.630999999998 4.298990249633789 -1.5454685755870123 1.8769672552691858 -1.902321001092428 -1.570756737385885 2.6917762756347656 0.0 0.0 0.0 0.0 0.0 0.0 1 True False
18389.681 4.2990641593933105 -1.545440224265196 1.877033535634176 -1.9022771320738734 -1.5708211104022425 2.691809892654419 0.0 -9.732824400998652e-05 0.0 0.0 0.0 0.0 1 True False
18389.731 4.2990522384643555 -1.5455013562789937 1.8769796530352991 -1.902297159234518 -1.5708168188678187 2.691788911819458 0.0 -2.6285817511961795e-05 0.0 0.0 0.0 0.0 1 True False
18389.781 4.299047470092773 -1.5455266416868945 1.8770540396319788 -1.9022766552367152 -1.5707886854754847 2.69183087348938 0.0 -1.519274155725725e-05 0.0 0.0 0.0 0.0 1 True False
18389.831 4.29904317855835 -1.54554306276653 1.877021614705221 -1.902292867700094 -1.5707767645465296 2.691805362701416 0.0 -1.0683967047953047e-05 0.0 0.0 0.0 0.0 1 True False
18389.880999999998 4.2990193367004395 -1.5455013674548645 1.8770044485675257 -1.9023052654662074 -1.5707767645465296 2.691797971725464 0.0 -6.291830104818429e-43 0.0 0.0 0.0 0.0 1 True False
18389.931 4.2990403175354 -1.5455032096109171 1.8770001570331019 -1.902297159234518 -1.5708048979388636 2.6918351650238037 0.0 0.0 0.0 0.0 0.0 0.0 1 True False
18389.981 4.29904317855835 -1.5454774231514712 1.8770034948932093 -1.902292867700094 -1.5707767645465296 2.691755533218384 0.0 0.0 0.0 0.0 0.0 0.0 1 True False
18390.031 4.298985958099365 -1.5455058378032227 1.877016846333639 -1.9022566280760707 -1.5707648436175745 2.6918516159057617 0.0 0.0 0.0 0.0 0.0 0.0 1 True False
18390.081 4.298998832702637 -1.545519284238555 1.876962963734762 -1.9022609196104945 -1.5708087126361292 2.6917898654937744 0.0 0.0 0.0 0.0 0.0 0.0 1 True False
18390.130999999998 4.299030303955078 -1.545465574865677 1.8769672552691858 -1.9022890530028285 -1.5707686583148401 2.691809892654419 7.861886115279049e-05 0.0 0.0 0.0 0.0 0.0 1 True False
18390.181 4.298957824707031 -1.5454941552928467 1.877016846333639 -1.9023047886290492 -1.5707767645465296 2.691758632659912 0.0 0.0 0.0 0.0 0.0 0.0 1 True False
18390.231 4.298945426940918 -1.545534161185362 1.877016846333639 -1.902292867700094 -1.5707767645465296 2.691842555999756 0.0 0.0 0.0 0.0 0.0 0.0 1 True False
18390.281 4.299007415771484 -1.5455356401256104 1.8770044485675257 -1.9022289715208949 -1.5707886854754847 2.691809892654419 0.0 0.0 0.0 0.0 0.0 0.0 1 True False
18390.331 4.299006462097168 -1.545447689746954 1.8769992033587855 -1.902269025842184 -1.5707967917071741 2.691797971725464 0.0 0.0 0.0 0.0 0.0 0.0 1 True False
18390.380999999998 4.299038887023926 -1.5455013562789937 1.877016846333639 -1.902292867700094 -1.570829216633932 2.691821813583374 0.0 0.0 0.0 0.0 0.0 0.0 1 True False
18390.431 4.298977851867676 -1.54546411455188 1.877028767262594 -1.9022890530028285 -1.5707886854754847 2.6917483806610107 0.0 0.0 0.0 0.0 0.0 0.0 1 True False
18390.481 4.298969268798828 -1.5454566285810252 1.8770321051227015 -1.90226473430776 -1.5707767645465296 2.691788911819458 0.0 0.0 0.0 0.0 0.0 0.0 1 True False
18390.531 4.299034595489502 -1.5455076911351462 1.877021614705221 -1.9022566280760707 -1.5707648436175745 2.691809892654419 0.0 0.0 0.0 0.0 0.0 0.0 1 True False
18390.581 4.299075603485107 -1.5455643583885212 1.876995865498678 -1.9023128948607386 -1.5708168188678187 2.691802501678467 0.0 0.0 0.0 0.0 0.0 0.0 1 True False
18390.630999999998 4.299027919769287 -1.5454941385290404 1.876988712941305 -1.9022728405394496 -1.5708048979388636 2.691838026046753 0.0 0.0 0.0 0.0 0.0 0.0 1 True False
18390.681 4.299047470092773 -1.5454819959453125 1.8769796530352991 -1.9022890530028285 -1.5707967917071741 2.691814422607422 0.0 0.0 0.0 0.0 0.0 0.0 1 True False
18390.731 4.299014091491699 -1.5454581540874024 1.8769672552691858 -1.9022609196104945 -1.5707767645465296 2.691805362701416 0.0 0.0 0.0 0.0 0.0 0.0 1 True False
18390.781 4.299050807952881 -1.545464066123106 1.8770001570331019 -1.9022890530028285 -1.5708006064044397 2.6917855739593506 0.0 0.0 0.0 0.0 0.0 0.0 1 True False
18390.831 4.299023628234863 -1.545501346965768 1.8770044485675257 -1.9022404156126917 -1.5708649794207972 2.6918442249298096 0.0 0.0 0.0 0.0 0.0 0.0 1 True False
18390.880999999998 4.29899787902832 -1.545514802714326 1.877016846333639 -1.9023086033263148 -1.5707929770099085 2.6917800903320312 0.0 0.0 0.0 0.0 0.0 0.0 1 True False
18390.931 4.299046516418457 -1.5455031909844656 1.876991097127096 -1.9023086033263148 -1.570772949849264 2.691798210144043 0.0 0.0 0.0 0.0 0.0 0.0 1 True False
18390.981 4.298973560333252 -1.5454897557250042 1.8770197073565882 -1.9023086033263148 -1.5707691351519983 2.6917645931243896 0.0 0.0 0.0 0.0 0.0 0.0 1 True False
18391.031 4.299006462097168 -1.54546411455188 1.8770001570331019 -1.9022890530028285 -1.5708087126361292 2.691814422607422 0.0 0.0 0.0 0.0 0.0 0.0 1 True False
18391.081 4.2990593910217285 -1.545464066123106 1.8769720236407679 -1.9022890530028285 -1.5708087126361292 2.6917810440063477 0.0 0.0 0.0 0.0 0.0 0.0 1 True False
18391.130999999998 4.299015045166016 -1.5455177587321778 1.8770454565631312 -1.902269025842184 -1.5708087126361292 2.691818952560425 0.0 0.0 0.0 0.0 0.0 0.0 1 True False
18391.181 4.29904317855835 -1.5455266342363139 1.877033535634176 -1.9022370777525843 -1.5707929770099085 2.691788911819458 0.0 0.0 0.0 0.0 0.0 0.0 1 True False
18391.231 4.2990593910217285 -1.545468584900238 1.8769381682025355 -1.9023086033263148 -1.5707967917071741 2.691805362701416 0.0 0.0 0.0 0.0 0.0 0.0 1 True False
18391.281 4.29904317855835 -1.545514802714326 1.8770526091205042 -1.9022489986815394 -1.5707967917071741 2.691797971725464 0.0 0.0 0.0 0.0 0.0 0.0 1 True False
18391.331 4.2990312576293945 -1.545514802714326 1.8770044485675257 -1.9022566280760707 -1.5708168188678187 2.6917757987976074 0.0 0.0 0.0 0.0 0.0 0.0 1 True False
18391.380999999998 4.299010753631592 -1.545522229080536 1.8769753615008753 -1.9022890530028285 -1.5707405249225062 2.6918070316314697 0.0 0.0 0.0 0.0 0.0 0.0 1 True False
18391.431 4.298994541168213 -1.545494145979621 1.8769753615008753 -1.9022532902159632 -1.5707648436175745 2.691797971725464 0.0 0.0 0.0 0.0 0.0 0.0 1 True False
18391.481 4.299018383026123 -1.5455222775093098 1.8770034948932093 -1.9022728405394496 -1.5707967917071741 2.691809892654419 0.0 0.0 0.0 0.0 0.0 0.0 1 True False
18391.531 4.299038887023926 -1.545473014270403 1.8770092169391077 -1.9023167095580042 -1.5708168188678187 2.691818952560425 0.0 0.0 0.0 0.0 0.0 0.0 1 True False
18391.581 4.298941135406494 -1.5454356887242575 1.8769710699664515 -1.9022852383055628 -1.5707967917071741 2.6917526721954346 0.0 0.0 0.0 0.0 0.0 0.0 1 True False
18391.630999999998 4.29899787902832 -1.5454853040030976 1.877016846333639 -1.9022685490050257 -1.5707491079913538 2.691784620285034 0.0 0.0 0.0 0.0 0.0 0.0 1 True False
18391.681 4.298989772796631 -1.5454897631755848 1.8769868055926722 -1.9022890530028285 -1.570784870778219 2.691809892654419 0.0 0.0 0.0 0.0 0.0 0.0 1 True False
18391.731 4.299034595489502 -1.5455032096109171 1.877033535634176 -1.902292867700094 -1.57084829012026 2.6917691230773926 0.0 0.0 0.0 0.0 0.0 0.0 1 True False
18391.781 4.299034595489502 -1.545514802714326 1.877016846333639 -1.9022728405394496 -1.5708087126361292 2.691838026046753 0.0 0.0 0.0 0.0 0.0 0.0 1 True False
18391.831 4.298994541168213 -1.5454941552928467 1.8770044485675257 -1.90226473430776 -1.5707724730121058 2.691734790802002 0.0 0.0 0.0 0.0 0.0 0.0 1 True False
18391.880999999998 4.298989772796631 -1.5454807982644816 1.876967732106344 -1.90226473430776 -1.570829216633932 2.6918113231658936 0.0 0.0 0.0 0.0 0.0 0.0 1 True False
18391.931 4.299006462097168 -1.5454897706261654 1.8770001570331019 -1.9022852383055628 -1.570784870778219 2.6917691230773926 0.0 0.0 0.0 0.0 0.0 0.0 1 True False
18391.981 4.299019813537598 -1.545494145979621 1.8769868055926722 -1.9022890530028285 -1.5707767645465296 2.6917810440063477 0.0 0.0 0.0 0.0 0.0 0.0 1 True False
18392.031 4.29896879196167 -1.5454610095224162 1.8770087401019495 -1.902252813378805 -1.5707686583148401 2.691809892654419 0.0 0.0 0.0 0.0 0.0 0.0 1 True False
18392.081 4.298985481262207 -1.545498715048172 1.8770244757281702 -1.9022852383055628 -1.5708254019366663 2.6917965412139893 0.0 0.0 0.0 -5.738834429371009e-13 0.0 0.0 1 True False
18392.130999999998 4.298970699310303 -1.5454774231514712 1.8770201841937464 -1.9022566280760707 -1.5707686583148401 2.691771984100342 0.0 0.0 0.0 -8.717303887477671e-32 0.0 0.0 1 True False
18392.181 4.299006462097168 -1.545538644572236 1.876995865498678 -1.9022885761656703 -1.5707805792437952 2.691805362701416 0.0 0.0 0.0 -0.0 0.0 0.0 1 True False
18392.231 4.299010753631592 -1.5455311697772522 1.8769758383380335 -1.902280946771139 -1.5707967917071741 2.691771984100342 0.0 0.0 0.0 -0.0 0.0 0.0 1 True False
18392.281 4.299018383026123 -1.5454566285810252 1.8769930044757288 -1.902269025842184 -1.5707686583148401 2.6918396949768066 0.0 0.0 0.0 -0.0 0.0 0.0 1 True False
18392.331 4.298974990844727 -1.5455237191966553 1.8770039717303675 -1.9022566280760707 -1.5707724730121058 2.691859006881714 0.0 0.0 0.0 -0.0 0.0 0.0 1 True False
18392.380999999998 4.299043655395508 -1.5454853393933554 1.8770044485675257 -1.902297159234518 -1.5707891623126429 2.6917810440063477 0.0 0.0 0.0 -0.0 0.0 0.0 1 True False
18392.431 4.2990241050720215 -1.5455192395350714 1.8769930044757288 -1.9022289715208949 -1.570829216633932 2.691800832748413 0.0 0.0 0.0 -0.0 0.0 0.0 1 True False
18392.481 4.299010753631592 -1.545514778499939 1.8769634405719202 -1.90226473430776 -1.5708168188678187 2.6917810440063477 0.0 0.0 0.0 -0.0 0.0 0.0 1 True False
18392.531 4.299040794372559 -1.545519284238555 1.8770702520953577 -1.9022566280760707 -1.570784870778219 2.691809892654419 0.0 0.0 0.0 -0.0 0.0 0.0 1 True False
18392.581 4.299038887023926 -1.545517786671855 1.8770044485675257 -1.9023171863951625 -1.570772949849264 2.691847324371338 0.0 0.0 0.0 -0.0 0.0 0.0 1 True False
18392.630999999998 4.299043655395508 -1.545510185217001 1.8770001570331019 -1.902224679986471 -1.570784870778219 2.6918232440948486 0.0 0.0 0.0 -0.0 0.0 0.0 1 True False
18392.681 4.299001693725586 -1.5454685495099802 1.8770082632647913 -1.90226473430776 -1.570784870778219 2.691788911819458 0.0 0.0 0.0 -0.0 0.0 0.0 1 True False
18392.731 4.299043655395508 -1.5454595454833289 1.8770039717303675 -1.9023009739317835 -1.5707686583148401 2.691809892654419 0.0 0.0 0.0 -0.0 0.0 0.0 1 True False
18392.781 4.299026966094971 -1.5454941552928467 1.8769801298724573 -1.9022766552367152 -1.5707891623126429 2.691793441772461 0.0 0.0 0.0 -0.0 0.0 0.0 1 True False
18392.831 4.299040794372559 -1.5454369404217978 1.8770406881915491 -1.902280946771139 -1.5708373228656214 2.6917736530303955 0.0 0.0 0.0 -0.0 0.0 0.0 1 True False
18392.880999999998 4.298989772796631 -1.5455266249230881 1.8770044485675257 -1.9023009739317835 -1.570853058491842 2.691821813583374 0.0 0.0 0.0 -0.0 0.0 0.0 1 True False
18392.931 4.299031734466553 -1.5455356513014813 1.8770044485675257 -1.902321001092428 -1.5707925001727503 2.691789150238037 0.0 0.0 0.0 -0.0 0.0 0.0 1 True False
18392.981 4.299010753631592 -1.545514802714326 1.8770001570331019 -1.9023052654662074 -1.570784870778219 2.6917645931243896 0.0 0.0 0.0 -0.0 0.0 0.0 1 True False
18393.031 4.298973083496094 -1.5455058378032227 1.8769758383380335 -1.9022728405394496 -1.5707891623126429 2.691800832748413 0.0 0.0 0.0 -0.0 0.0 0.0 1 True False
18393.081 4.298985481262207 -1.5455148120275517 1.8770406881915491 -1.9022852383055628 -1.570853058491842 2.691797971725464 0.0 0.0 0.0 -0.0 0.0 0.0 1 True False
18393.130999999998 4.298989772796631 -1.545514802714326 1.8770373503314417 -1.9023009739317835 -1.5708168188678187 2.691805362701416 0.0 0.0 0.0 -0.0 0.0 0.0 1 True False
18393.181 4.299001693725586 -1.5454717346331854 1.876995865498678 -1.902309080163473 -1.570784870778219 2.691797971725464 0.0 0.0 0.0 -0.0 0.0 -3.4039778995520464e-08 1 True False
18393.231 4.299018383026123 -1.545568849225976 1.8770406881915491 -1.9023009739317835 -1.5707967917071741 2.6917765140533447 0.0 0.0 0.0 -0.0 0.0 -5.170652358959287e-27 1 True False
18393.281 4.298994541168213 -1.5455508691123505 1.877044979725973 -1.9023171863951625 -1.570801083241598 2.691805362701416 0.0 0.0 0.0 -0.0 0.0 -1.401298464324817e-45 1 True False
18393.331 4.299022674560547 -1.545514752422907 1.8770130316363733 -1.9022852383055628 -1.5707767645465296 2.691755533218384 0.0 0.0 0.0 -0.0 0.0 -0.0 1 True False
