Andreas691667/Digital_Twin_UR/src/controller_monitor/robot_output/DUM_robot_output.csv
timestamp actual_q_0 actual_q_1 actual_q_2 actual_q_3 actual_q_4 actual_q_5 actual_qd_0 actual_qd_1 actual_qd_2 actual_qd_3 actual_qd_4 actual_qd_5 safety_status output_bit_register_65 output_bit_register_66
4651.048 3.712062358856201 -0.8254750531962891 0.8429587523089808 -1.5882607899107875 -1.5707767645465296 2.141317367553711 0.0 0.0 0.0 0.0 0.0 -0.0 1 False False
4651.098 3.7120862007141113 -0.825451211338379 0.8429754416095179 -1.5882731876769007 -1.5707529226886194 2.141279697418213 0.0 0.0 0.0 0.0 0.0 -0.0 1 False False
4651.148 3.7120819091796875 -0.8254869741252442 0.8429935614215296 -1.5882932148375453 -1.5708406607257288 2.141263484954834 -2.725873149975796e-15 0.0 0.0 0.0 0.0 -0.0 1 False False
4651.197999999999 3.7120981216430664 -0.8254260581782837 0.8430126349078577 -1.588245531121725 -1.5707934538470667 2.141341209411621 0.0 0.0 0.0 0.0 0.0 5.994326784275472e-05 1 False False
4651.248 3.712090492248535 -0.8255128425410767 0.8429892698871058 -1.588273664514059 -1.5708211104022425 2.1412994861602783 0.0 0.0 0.0 0.0 0.0 -9.068254439625889e-05 1 False False
4651.298 3.7121024131774902 -0.8254869741252442 0.842992130910055 -1.5882650814452113 -1.5707805792437952 2.1413004398345947 0.0 0.0 0.0 0.0 0.0 1.4913275421437472e-14 1 False False
4651.348 3.7120699882507324 -0.8254706424525757 0.8429673353778284 -1.588297029534811 -1.5708206335650843 2.141226291656494 0.0 0.0 0.0 0.0 0.0 2.265329877287178e-33 1 False False
4651.398 3.7120370864868164 -0.825463132267334 0.8429811636554163 -1.5882412395873011 -1.5707891623126429 2.141230821609497 0.0 0.0 0.0 0.0 0.0 0.0 1 False False
4651.447999999999 3.7121188640594482 -0.8255128425410767 0.8429964224444788 -1.588297029534811 -1.5707967917071741 2.141247034072876 0.0 0.0 0.0 0.0 0.0 0.0 1 False False
4651.498 3.7120742797851562 -0.8255410355380555 0.8429673353778284 -1.5882932148375453 -1.570784870778219 2.1413040161132812 0.0 0.0 0.0 0.0 0.0 0.0 1 False False
4651.548 3.7120327949523926 -0.8254869741252442 0.8429515997516077 -1.588245531121725 -1.5708168188678187 2.141270637512207 0.0 0.0 0.0 0.0 0.0 0.0 1 False False
4651.598 3.71207857131958 -0.8254869741252442 0.8429673353778284 -1.588297029534811 -1.5708168188678187 2.1413381099700928 0.0 0.0 0.0 0.0 0.0 0.0 1 False False
4651.648 3.7120981216430664 -0.8254543107799073 0.8430188337909144 -1.5882932148375453 -1.5707410017596644 2.141313076019287 0.0 0.0 0.0 0.0 0.0 0.0 1 False False
4651.697999999999 3.7120425701141357 -0.825488345032074 0.8429563681231897 -1.5883051357665003 -1.5707529226886194 2.141247034072876 0.0 0.0 0.0 0.0 0.0 0.0 1 False False
4651.748 3.7121024131774902 -0.8254882854274292 0.8429887930499476 -1.5882331333556117 -1.5708125273333948 2.141345739364624 0.0 0.0 0.0 0.0 0.0 0.0 1 False False
4651.798 3.7120981216430664 -0.825451211338379 0.8429439703570765 -1.588285585443014 -1.5707810560809534 2.141266345977783 0.0 0.0 0.0 0.0 0.0 0.0 1 False False
4651.848 3.7120494842529297 -0.8254423898509522 0.8429802099810999 -1.5883056126036585 -1.5707491079913538 2.141275405883789 0.0 0.0 0.0 0.0 0.0 0.0 1 False False
4651.898 3.7120742797851562 -0.825495795612671 0.8430054823504847 -1.588252683679098 -1.5708087126361292 2.141263484954834 0.0 0.0 0.0 0.0 0.0 0.0 1 False False
4651.947999999999 3.712110996246338 -0.8254794639400025 0.8430040518390101 -1.5882932148375453 -1.5707929770099085 2.141275405883789 0.0 0.0 0.0 0.0 0.0 0.0 1 False False
4651.998 3.7120862007141113 -0.825454370384552 0.8429563681231897 -1.5882846317686976 -1.5708006064044397 2.141329288482666 0.0 0.0 0.0 0.0 0.0 0.0 1 False False
4652.048 3.7120819091796875 -0.8254468005946656 0.8430007139789026 -1.588269372979635 -1.5708487669574183 2.141275405883789 0.0 0.0 0.0 0.0 0.0 0.0 1 False False
4652.098 3.712082862854004 -0.8254631918719788 0.8430169264422815 -1.588268896142477 -1.5708087126361292 2.141279697418213 0.0 0.0 0.0 0.0 0.0 0.0 1 False False
4652.148 3.7120819091796875 -0.825524703865387 0.8429845015155237 -1.588269372979635 -1.5707691351519983 2.1412248611450195 0.0 0.0 0.0 0.0 0.0 0.0 1 False False
4652.197999999999 3.7121024131774902 -0.825495795612671 0.8430083433734339 -1.588280817071432 -1.5708330313311976 2.141291618347168 0.0 0.0 0.0 0.0 0.0 0.0 1 False False
4652.248 3.712062358856201 -0.8254882854274292 0.8429678122149866 -1.5882288418211878 -1.5708006064044397 2.1413204669952393 0.0 0.0 0.0 0.0 0.0 0.0 1 False False
4652.298 3.7120285034179688 -0.8254720133594056 0.8430336157428187 -1.588245531121725 -1.5707686583148401 2.141279697418213 0.0 0.0 0.0 0.0 0.0 0.0 1 False False
4652.348 3.7120699882507324 -0.8254869741252442 0.8429630438434046 -1.588313718835348 -1.5708335081683558 2.141254425048828 0.0 0.0 0.0 0.0 0.0 0.0 1 False False
4652.398 3.7120981216430664 -0.8254719537547608 0.8429802099810999 -1.5882169208922328 -1.5708335081683558 2.141295909881592 0.0 -2.6229910035429835e-14 0.0 0.0 0.0 0.0 1 False False
4652.447999999999 3.7120742797851562 -0.8254216474345704 0.8429544607745569 -1.5882569752135218 -1.5707805792437952 2.1413040161132812 0.0 0.0 0.0 0.0 0.0 0.0 1 False False
4652.498 3.7120416164398193 -0.8254794043353577 0.8429978529559534 -1.588297029534811 -1.5708449522601526 2.141267776489258 0.0 0.0 0.0 0.0 0.0 0.0 1 False False
4652.548 3.71207857131958 -0.8255068820765992 0.8429802099810999 -1.588285585443014 -1.570813004170553 2.14127516746521 0.0 0.0 0.0 0.0 0.0 0.0 1 False False
4652.598 3.7121143341064453 -0.8255366247943421 0.8429964224444788 -1.5882731876769007 -1.5708168188678187 2.1412765979766846 0.0 0.0 0.0 0.0 0.0 0.0 1 False False
4652.648 3.712115526199341 -0.8255127233317872 0.8429845015155237 -1.5882650814452113 -1.5707648436175745 2.141287088394165 0.0 0.0 0.0 0.0 0.0 0.0 1 False False
4652.697999999999 3.712062358856201 -0.8254913848689576 0.8430126349078577 -1.5883170566954554 -1.5708048979388636 2.141317367553711 0.0 0.0 0.0 0.0 0.0 0.0 1 False False
4652.748 3.712106704711914 -0.8254556816867371 0.8429802099810999 -1.5882731876769007 -1.5707967917071741 2.1412839889526367 0.0 0.0 0.0 0.0 0.0 0.0 1 False False
4652.798 3.7120537757873535 -0.8254993122867127 0.8429802099810999 -1.588313718835348 -1.570784870778219 2.141317367553711 0.0 0.0 0.0 0.0 0.0 0.0 1 False False
4652.848 3.7120862007141113 -0.825495795612671 0.8429845015155237 -1.5882731876769007 -1.5707805792437952 2.1412997245788574 0.0 0.0 0.0 0.0 0.0 0.0 1 False False
4652.898 3.7121143341064453 -0.8255039614490052 0.8430007139789026 -1.5882889233031214 -1.5707529226886194 2.141270637512207 0.0 0.0 0.0 0.0 0.0 0.0 1 False False
4652.947999999999 3.7120862007141113 -0.8254334491542359 0.8429802099810999 -1.5882650814452113 -1.570801083241598 2.141282558441162 0.0 0.0 0.0 0.0 0.0 0.0 1 False False
4652.998 3.7120907306671143 -0.8254587215236207 0.8430007139789026 -1.5882889233031214 -1.5708211104022425 2.1413040161132812 0.0 0.0 0.0 0.0 0.0 0.0 1 False False
4653.048 3.7120323181152344 -0.825466052894928 0.842992130910055 -1.588297029534811 -1.5707810560809534 2.141279697418213 0.0 0.0 0.0 0.0 0.0 0.0 1 False False
4653.098 3.7120654582977295 -0.8254993718913575 0.8429845015155237 -1.5882731876769007 -1.5707648436175745 2.1412997245788574 0.0 0.0 0.0 0.0 0.0 0.0 1 False False
4653.148 3.7120697498321533 -0.825463132267334 0.8430126349078577 -1.5882774792113246 -1.5708168188678187 2.1412839889526367 0.0 0.0 0.0 0.0 0.0 0.0 1 False False
4653.197999999999 3.7121026515960693 -0.8254838746837159 0.8430050055133265 -1.5882851086058558 -1.5707805792437952 2.1412739753723145 0.0 0.0 0.0 0.0 0.0 0.0 1 False False
4653.248 3.7120935916900635 -0.8254869741252442 0.8429964224444788 -1.5882774792113246 -1.5707925001727503 2.141291618347168 0.0 0.0 0.0 0.0 0.0 0.0 1 False False
4653.298 3.7120907306671143 -0.8254957360080262 0.8430007139789026 -1.588313718835348 -1.5707767645465296 2.141258955001831 0.0 0.0 0.0 0.0 0.0 0.0 1 False False
4653.348 3.712111473083496 -0.8255246442607422 0.8429845015155237 -1.5882731876769007 -1.5708168188678187 2.141291618347168 0.0 0.0 0.0 0.0 0.0 0.0 1 False False
4653.398 3.7120368480682373 -0.825454370384552 0.8430255095111292 -1.5882889233031214 -1.570801083241598 2.1413135528564453 0.0 0.0 0.0 0.0 0.0 0.0 1 False False
4653.447999999999 3.712078809738159 -0.8254823845675965 0.8429887930499476 -1.5883165798582972 -1.5708416144000452 2.141291618347168 0.0 0.0 0.0 0.0 0.0 0.0 1 False False
4653.498 3.7120578289031982 -0.8253964942744751 0.8429845015155237 -1.5882774792113246 -1.570784870778219 2.141312837600708 0.0 0.0 0.0 0.0 0.0 0.0 1 False False
4653.548 3.71205472946167 -0.8254706424525757 0.8429845015155237 -1.588313718835348 -1.570784870778219 2.141251564025879 0.0 0.0 0.0 0.0 0.0 0.0 1 False False
4653.598 3.7120652198791504 -0.8254750531962891 0.8429964224444788 -1.588280817071432 -1.5707805792437952 2.141287088394165 0.0 0.0 0.0 0.0 0.0 0.0 1 False False
4653.648 3.712116003036499 -0.8254780334285279 0.842959229146139 -1.588280817071432 -1.570813004170553 2.141312837600708 0.0 0.0 0.0 -7.69904227719033e-14 0.0 0.0 1 False False
4653.697999999999 3.7120907306671143 -0.8254380983165284 0.8429845015155237 -1.588320871392721 -1.570784870778219 2.141238212585449 0.0 0.0 0.0 -1.1694859583848532e-32 0.0 0.0 1 False False
4653.748 3.7120816707611084 -0.8254587215236207 0.8430288473712366 -1.588285585443014 -1.5707686583148401 2.1412885189056396 0.0 0.0 0.0 -0.0 0.0 0.0 1 False False
4653.798 3.712078809738159 -0.8254823845675965 0.8430126349078577 -1.588320871392721 -1.5708211104022425 2.1412885189056396 0.0 0.0 0.0 -0.0 0.0 0.0 1 False False
4653.848 3.712045669555664 -0.825463132267334 0.8430288473712366 -1.5882607899107875 -1.570784870778219 2.141308546066284 0.0 0.0 0.0 -0.0 0.0 0.0 1 False False
4653.898 3.7121026515960693 -0.8254869741252442 0.8430007139789026 -1.5882417164244593 -1.5708006064044397 2.1412501335144043 0.0 0.0 0.0 -0.0 0.0 0.0 1 True False
4653.947999999999 3.712120532989502 -0.8255000871470948 0.8429964224444788 -1.5883289776244105 -1.5707891623126429 2.141254425048828 0.0 0.0 0.0 -0.0 0.0 0.0 1 True False
4653.998 3.7120907306671143 -0.8254707020572205 0.8429721037494105 -1.588280817071432 -1.5708377997027796 2.141308546066284 0.0 0.0 0.0 -0.0 0.0 0.0 1 True False
4654.048 3.712116003036499 -0.8254392904094239 0.8429802099810999 -1.5882569752135218 -1.5708254019366663 2.141287088394165 0.0 0.0 0.0 -0.0 0.0 0.0 1 True False
4654.098 3.7120816707611084 -0.8254468601993104 0.8429887930499476 -1.588273664514059 -1.5707605520831507 2.1413216590881348 0.0 0.0 0.0 -0.0 0.0 0.0 1 True False
4654.148 3.7121100425720215 -0.8254707020572205 0.8429716269122522 -1.588280817071432 -1.5708168188678187 2.141254425048828 0.0 0.0 0.0 -0.0 0.0 0.0 1 True False
4654.197999999999 3.712078809738159 -0.8254305285266419 0.842992130910055 -1.588273664514059 -1.5708377997027796 2.141329288482666 0.0 0.0 0.0 -0.0 0.0 0.0 1 True False
4654.248 3.71207594871521 -0.825471894150116 0.8429892698871058 -1.5883285007872523 -1.5707886854754847 2.141270875930786 0.0 0.0 0.0 -0.0 0.0 0.0 1 True False
4654.298 3.7120532989501953 -0.8255202335170289 0.8429515997516077 -1.5882655582823695 -1.570756737385885 2.1412363052368164 0.0 0.0 0.0 -0.0 0.0 -0.001529052504338324 1 True False
4654.348 3.7120652198791504 -0.825463132267334 0.8429191748248499 -1.588273664514059 -1.5708254019366663 2.141238212585449 0.0 0.0 0.0 -0.0 -2.8535090772564186e-17 -2.7235440569484126e-09 1 True False
4654.398 3.7120771408081055 -0.8254913252643128 0.842992130910055 -1.5882889233031214 -1.5708048979388636 2.1413159370422363 0.0 0.0 0.0 -0.0 -1.4472439602286613e-07 -2.8215143174747936e-05 1 True False
4654.447999999999 3.712083339691162 -0.8255289357951661 0.8429349104510706 -1.5883251629271449 -1.5707843939410608 2.1413040161132812 0.0 0.0 0.0 -0.0 3.010993623320246e-06 -4.3824444428599153e-16 1 True False
4654.498 3.712095260620117 -0.8254869741252442 0.842971150075094 -1.5883127651610316 -1.5707605520831507 2.141279697418213 0.0 0.0 0.0 -0.0 4.5737050879446955e-25 -6.656943320879769e-35 1 True False
4654.548 3.713409900665283 -0.8265112203410645 0.8443530241595667 -1.5886880360045375 -1.5708254019366663 2.1403348445892334 0.05815604701638222 -0.04520322382450104 0.06257554143667221 -0.013567261397838593 7.006492321624085e-44 -0.03591679409146309 1 True False
4654.598 3.717754364013672 -0.8300072711757203 0.8495667616473597 -1.590083738366598 -1.570829216633932 2.1376383304595947 0.12084519118070602 -0.09770458191633224 0.14106155931949615 -0.03557126969099045 0.0 -0.07469047605991364 1 True False
4654.648 3.725437641143799 -0.8364062470248719 0.8581755797015589 -1.5926391086974085 -1.5707886854754847 2.132864475250244 0.18051427602767944 -0.1528588980436325 0.2038741111755371 -0.05553070455789566 0.0 -0.11403418332338333 1 True False
4654.697999999999 3.735969066619873 -0.8451419633677979 0.8702223936664026 -1.5958415470519007 -1.5708168188678187 2.126171827316284 0.24406981468200684 -0.1902180314064026 0.2812586724758148 -0.07077066600322723 9.079645678866655e-05 -0.148202046751976 1 True False
4654.748 3.749631881713867 -0.8562702697566529 0.8858144919024866 -1.6002313099303187 -1.5708168188678187 2.1175458431243896 0.29785963892936707 -0.2502228021621704 0.3433611989021301 -0.09008372575044632 0.00014817147166468203 -0.19048720598220825 1 True False
4654.798 3.766083240509033 -0.8700634998134156 0.9049103895770472 -1.605502267877096 -1.5707562605487269 2.107123374938965 0.36353617906570435 -0.2949966490268707 0.41749998927116394 -0.12357152998447418 8.127331966534257e-05 -0.23044507205486298 1 True False
4654.848 3.7859160900115967 -0.8863067787936707 0.9273884932147425 -1.6117669544615687 -1.570772949849264 2.0945239067077637 0.4234938621520996 -0.3518269658088684 0.4845491051673889 -0.14247463643550873 7.838649617042392e-05 -0.2639497220516205 1 True False
4654.898 3.808734655380249 -0.9050231736949463 0.9534843603717249 -1.6189800701537074 -1.5708168188678187 2.0802812576293945 0.4852156639099121 -0.39359229803085327 0.5539552569389343 -0.16100701689720154 1.618456190044526e-05 -0.308200865983963 1 True False
4654.947999999999 3.834341287612915 -0.9261580866626282 0.9828694502459925 -1.627420564691061 -1.5708254019366663 2.063877820968628 0.5408574342727661 -0.44741636514663696 0.6284646987915039 -0.17410221695899963 -0.0006294409977272153 -0.34512993693351746 1 True False
4654.998 3.8633852005004883 -0.9500997823527833 1.0158007780658167 -1.6366802654662074 -1.5708168188678187 2.0457053184509277 0.6006718277931213 -0.5031114816665649 0.6880931258201599 -0.18996290862560272 0.00015086309576872736 -0.3858000934123993 1 True False
4655.048 3.8952419757843018 -0.9761885565570374 1.0524447599994105 -1.6466499767699183 -1.5707967917071741 2.025468587875366 0.668754518032074 -0.5461881160736084 0.7626978754997253 -0.21059250831604004 -3.8890426367288455e-05 -0.4168609082698822 1 True False
4655.098 3.930257558822632 -1.005103425388672 1.0921357313739222 -1.6580244503416957 -1.5708406607257288 2.00345516204834 0.7223852276802063 -0.593622624874115 0.8335447907447815 -0.23966534435749054 -4.372482362668961e-05 -0.46305984258651733 1 True False
4655.148 3.968221664428711 -1.0364016455462952 1.1358888784991663 -1.6700030765929164 -1.5708087126361292 1.979299545288086 0.7897168397903442 -0.6471441984176636 0.9037305116653442 -0.25553736090660095 9.947513923691531e-09 -0.49641889333724976 1 True False
4655.197999999999 4.00940465927124 -1.070381836300232 1.1827152411090296 -1.6830688915648402 -1.5707443396197718 1.9534834623336792 0.8557175993919373 -0.6988067030906677 0.976053774356842 -0.2828128933906555 1.5110301305487991e-27 -0.5413883924484253 1 True False
4655.248 4.0535149574279785 -1.10651387393985 1.2331531683551233 -1.697334428826803 -1.5707891623126429 1.9255023002624512 0.9124718904495239 -0.7549135684967041 1.0428004264831543 -0.3030679523944855 9.293568291468546e-05 -0.5723801255226135 1 True False
4655.298 4.0992255210876465 -1.1442845326713105 1.2853248755084437 -1.7119394741454066 -1.5707443396197718 1.8964953422546387 0.9174712300300598 -0.752738893032074 1.043197751045227 -0.30480527877807617 -5.87007416470442e-05 -0.5768581032752991 1 True False
4655.348 4.1451215744018555 -1.1819465023330231 1.3377497831927698 -1.7266227207579554 -1.5707686583148401 1.867540955543518 0.9158050417900085 -0.754894495010376 1.050630807876587 -0.2839104235172272 -0.000542985275387764 -0.57342928647995 1 True False
4655.398 4.190931797027588 -1.219762848024704 1.3902547995196741 -1.7412649593748988 -1.5707529226886194 1.838544487953186 0.9137428998947144 -0.7528059482574463 1.049128770828247 -0.29039493203163147 0.0002467925660312176 -0.5706838965415955 1 True False
4655.447999999999 4.2367167472839355 -1.2575594049743195 1.4425390402423304 -1.7556921444334925 -1.570772949849264 1.80953049659729 0.9177095293998718 -0.7506884336471558 1.0480657815933228 -0.2833161950111389 6.663965905318037e-05 -0.5766597986221313 1 True False
4655.498 4.282617568969727 -1.2951662999442597 1.494941536580221 -1.7702604732909144 -1.5708325544940394 1.7805484533309937 0.91385418176651 -0.7564871907234192 1.0544228553771973 -0.2683236002922058 -0.0019723966252058744 -0.5767924785614014 1 True False
4655.548 4.328408241271973 -1.3329316240600129 1.547126595173971 -1.7852064571776332 -1.5707648436175745 1.7517189979553223 0.9182701706886292 -0.754382312297821 1.039185881614685 -0.3138962984085083 -7.234604026962188e-07 -0.5856207609176636 1 True False
4655.598 4.372852325439453 -1.3694324654391785 1.5978720823871058 -1.7992693386473597 -1.5708044211017054 1.7235664129257202 0.8540974259376526 -0.7059492468833923 0.981528103351593 -0.2883335053920746 -0.000399780081352219 -0.5462210774421692 1 True False
4655.648 4.4142985343933105 -1.4037083250335236 1.6452925840960901 -1.8124247990050257 -1.5707972685443323 1.6974802017211914 0.8004015684127808 -0.6599686145782471 0.9160860776901245 -0.23792308568954468 -0.0011641379678621888 -0.5083361864089966 1 True False
4655.697999999999 4.452652454376221 -1.4351651531508942 1.6891058127032679 -1.824719568292135 -1.5707605520831507 1.6732350587844849 0.7390257120132446 -0.6043593883514404 0.846622884273529 -0.22984468936920166 0.00041734855039976537 -0.4664240777492523 1 True False
4655.748 4.487935543060303 -1.4642396432212372 1.7292736212359827 -1.8362089596190394 -1.5708091894732874 1.650881052017212 0.6761009097099304 -0.561177670955658 0.7781413793563843 -0.22048598527908325 0.00035643758019432425 -0.4233461916446686 1 True False
4655.798 4.520073413848877 -1.490730994646885 1.7661784330951136 -1.8463975391783656 -1.5708168188678187 1.6304817199707031 0.6144328117370605 -0.5103487968444824 0.7000224590301514 -0.18278509378433228 -0.0028401240706443787 -0.3915646970272064 1 True False
4655.848 4.549304008483887 -1.514818576430418 1.7995503584491175 -1.8556252918639125 -1.5708368460284632 1.6120144128799438 0.5528123378753662 -0.45457547903060913 0.6313042044639587 -0.18270303308963776 -0.0011691974941641092 -0.3508457541465759 1 True False
4655.898 4.575373649597168 -1.5364216354540368 1.8294675985919397 -1.8640371761717738 -1.5708006064044397 1.5955227613449097 0.49523159861564636 -0.39874082803726196 0.5539515018463135 -0.157899409532547 -0.0023892950266599655 -0.31112509965896606 1 True False
4655.947999999999 4.598573207855225 -1.5552149315229435 1.8558223883258265 -1.8713599644102992 -1.570784870778219 1.5808957815170288 0.4264388084411621 -0.35576167702674866 0.4909367263317108 -0.13520820438861847 0.0001864256919361651 -0.2754516303539276 1 True False
4655.998 4.618619441986084 -1.5718933544554652 1.878432575856344 -1.8777295551695765 -1.5708044211017054 1.5682579278945923 0.3677460551261902 -0.30583077669143677 0.421360045671463 -0.10836637765169144 0.00011222446482861415 -0.2355586290359497 1 True False
4656.048 4.635437965393066 -1.5856653652586878 1.8980043570147913 -1.8831588230528773 -1.570813004170553 1.5575841665267944 0.3114144802093506 -0.2576504349708557 0.34962067008018494 -0.11208021640777588 -1.5846450887591068e-11 -0.19543972611427307 1 True False
4656.098 4.649505615234375 -1.59714998821401 1.914025608693258 -1.8873444996275843 -1.5707767645465296 1.5487760305404663 0.2442622035741806 -0.198018878698349 0.29571157693862915 -0.0722547322511673 -2.098754521284718e-06 -0.16156470775604248 1 True False
4656.148 4.660261154174805 -1.6061436138548792 1.926208798085348 -1.8910371265807093 -1.570801083241598 1.5419124364852905 0.1877622753381729 -0.15408645570278168 0.21199825406074524 -0.05486951023340225 -3.188011496837064e-25 -0.12189330905675888 1 True False
4656.197999999999 4.668085098266602 -1.6123768291869105 1.9352200667010706 -1.8934155903258265 -1.5708211104022425 1.537013053894043 0.1269095540046692 -0.10942359268665314 0.14400996267795563 -0.045705121010541916 -4.90454462513686e-44 -0.08102311193943024 1 True False
4656.248 4.672821998596191 -1.6164175472655238 1.940580193196432 -1.895060201684469 -1.5707929770099085 1.5340043306350708 0.06406562030315399 -0.055600855499506 0.07997141778469086 -0.01936144195497036 -0.0 -0.04179001972079277 1 True False
4656.298 4.6744704246521 -1.61781706432485 1.942514721547262 -1.8954950771727503 -1.570813004170553 1.5329680442810059 0.002881693420931697 -0.001601394615136087 0.0039179762825369835 -0.0004855963052250445 -0.0 -0.0005981100839562714 1 True False
4656.348 4.6744842529296875 -1.6172591648497523 1.943603817616598 -1.8971840343871058 -1.5708091894732874 1.5329680442810059 0.0013612033799290657 0.023136261850595474 0.04106198623776436 -0.061103083193302155 -8.691367838764563e-07 -7.831151015125215e-05 1 True False
4656.398 4.67445182800293 -1.6154996357359828 1.9467256704913538 -1.90214266399526 -1.5707967917071741 1.5329636335372925 0.0008644566405564547 0.05300142243504524 0.08476166427135468 -0.1371634304523468 -1.320220724424133e-25 -0.0006157105090096593 1 True False
4656.447999999999 4.674495697021484 -1.6121846638121546 1.9520424048053187 -1.9107848606505335 -1.5708254019366663 1.5329276323318481 0.0012134024873375893 0.08085387945175171 0.12370752543210983 -0.21752846240997314 -1.961817850054744e-44 -0.00029304964118637145 1 True False
4656.648 4.674531936645508 -1.5855146847166957 1.9944027105914515 -1.9797927341856898 -1.5708335081683558 1.5329407453536987 9.397657413501292e-05 0.18487751483917236 0.298170804977417 -0.48223137855529785 6.232217128854245e-05 -1.4946938204827252e-15 1 True False
4656.697999999999 4.674498558044434 -1.5755506954588832 2.010653320943014 -2.005850454370016 -1.5707925001727503 1.5329158306121826 6.548580131493509e-05 0.2124723345041275 0.33925914764404297 -0.5476661920547485 2.6841870393035094e-10 -2.270443231795507e-34 1 True False
4656.748 4.674556255340576 -1.5642230396955092 2.028531853352682 -2.0350104771056117 -1.5707925001727503 1.532981276512146 3.096520231338218e-05 0.22095172107219696 0.3561720848083496 -0.5845088362693787 3.109522310751345e-07 -0.0 1 True False
4656.798 4.674519062042236 -1.5537867911956091 2.045492474232809 -2.0624190769591273 -1.570756737385885 1.5329008102416992 0.0 0.19924521446228027 0.31830036640167236 -0.5119196176528931 4.723370922000895e-26 -0.0 1 True False
4656.848 4.6745476722717285 -1.5446753942272444 2.06000262895693 -2.0864531002440394 -1.5707967917071741 1.5329692363739014 1.7989781554206274e-05 0.17215989530086517 0.27551889419555664 -0.44783562421798706 7.006492321624085e-45 -0.0 1 True False
4656.898 4.674556255340576 -1.5366487477770825 2.0728233496295374 -2.1069137058653773 -1.570841137562887 1.5329126119613647 3.604246012400836e-05 0.14376075565814972 0.2321423441171646 -0.3818417489528656 0.0 -1.2600467544365834e-13 1 True False
4656.947999999999 4.674556255340576 -1.5301460225931187 2.08314019838442 -2.123772283593649 -1.5708215872394007 1.532936453819275 0.0 0.11483807861804962 0.18623314797878265 -0.30730098485946655 0.0 2.5550814825692214e-05 1 True False
4656.998 4.674519062042236 -1.52502782390032 2.091456715260641 -2.137212415734762 -1.5707724730121058 1.5329407453536987 0.0 0.09111757576465607 0.14855308830738068 -0.23748159408569336 0.0 1.4943381756893359e-05 1 True False
4657.048 4.6745147705078125 -1.5211428229561825 2.09763747850527 -2.1472937069334925 -1.5707767645465296 1.5329649448394775 0.0 0.0672806054353714 0.10396446287631989 -0.1588803231716156 0.0 2.1119749362696894e-05 1 True False
4657.098 4.674499034881592 -1.518655726020672 2.1017397085772913 -2.153893133203024 -1.5707967917071741 1.5329039096832275 0.0 0.03774942830204964 0.05761769413948059 -0.09154227375984192 0.0 1.7586370348411678e-20 1 True False
4657.148 4.674519062042236 -1.517477286314108 2.103593174611227 -2.156750818292135 -1.5707925001727503 1.5329573154449463 0.0 0.011362310498952866 0.01613694801926613 -0.026973921805620193 0.0 2.671373735256401e-39 1 True False
4657.197999999999 4.674487113952637 -1.5175035160830994 2.1035736242877405 -2.1569348774352015 -1.570829216633932 1.532902717590332 0.0 -0.000104361075500492 -0.00031891552498564124 -0.00035580623080022633 0.0 0.0 1 True False
4657.248 4.67452335357666 -1.5174634021571656 2.1036136786090296 -2.156910081902975 -1.5708335081683558 1.532982349395752 0.0 5.951139246462844e-05 4.624971916200593e-05 -0.000863491150084883 0.0 0.0 1 True False
4657.298 4.67453145980835 -1.5174352091601868 2.103703323994772 -2.157010694543356 -1.570784870778219 1.5329363346099854 0.0 0.00024514811229892075 7.048077532090247e-05 -0.0009933172259479761 0.0 0.0 1 True False
4657.348 4.67453145980835 -1.5174427789500733 2.10366660753359 -2.157102247277731 -1.5707643667804163 1.532948613166809 0.0 -2.030275638237596e-16 8.744584192754701e-05 -0.0017760418122634292 0.0 0.0 1 True False
4657.398 4.674539089202881 -1.5174189370921631 2.1036298910724085 -2.157030244866842 -1.5707967917071741 1.5329039096832275 0.0 0.00027011503698304296 8.239538146881387e-05 -0.00018082874885294586 0.0 0.0 1 True False
4657.447999999999 4.674482822418213 -1.5174308244935055 2.103621308003561 -2.1570822201170863 -1.5708368460284632 1.5329363346099854 0.0 0.00016123872774187475 6.714414485031739e-05 -0.00012622213398572057 0.0 0.0 1 True False
4657.498 4.674499034881592 -1.51741028696809 2.1036904493915003 -2.1570664844908656 -1.570756737385885 1.5328665971755981 0.0 9.708580182632431e-05 1.161168825092318e-06 -8.411685121245682e-05 0.0 0.0 1 True False
4657.548 4.674535751342773 -1.5174525094083329 2.103694740925924 -2.157058378259176 -1.5708406607257288 1.5329276323318481 0.0 8.930738113122061e-05 7.826652290532365e-05 -4.9224682489856786e-12 0.0 0.0 1 True False
4657.598 4.6745147705078125 -1.5173626628569146 2.1036704222308558 -2.1570145092406214 -1.5707686583148401 1.5328668355941772 0.0 5.023426638217643e-05 6.545781070599332e-05 -2.427973356492353e-16 0.0 0.0 1 True False
4657.648 4.674556255340576 -1.5174154576710244 2.1036704222308558 -2.157030244866842 -1.570829216633932 1.5329530239105225 0.0 1.7095841264762768e-43 4.250905670718586e-25 2.217491783085279e-05 0.0 0.0 1 True False
4657.697999999999 4.674499034881592 -1.5174023520997544 2.103666130696432 -2.1571060619749964 -1.5708487669574183 1.5329735279083252 0.0 0.0 0.0 1.3721827599511016e-05 0.0 0.0 1 True False
4657.748 4.67452335357666 -1.5174189370921631 2.1036790052997034 -2.1570779285826625 -1.5707929770099085 1.5329039096832275 0.0 0.0 0.0 6.45920226816088e-06 0.0 0.0 1 True False
4657.798 4.674556255340576 -1.5174515110305329 2.1036861578570765 -2.1570779285826625 -1.5708211104022425 1.5328994989395142 0.0 0.0 0.0 9.81153836692912e-25 0.0 0.0 1 True False
4657.848 4.674544334411621 -1.5174146083048363 2.1036704222308558 -2.1569982967772425 -1.570772949849264 1.5329363346099854 0.0 0.0 0.0 1.485376372184306e-43 0.0 0.0 1 True False
4657.898 4.674531936645508 -1.517378607099392 2.1036704222308558 -2.1570221386351527 -1.5708006064044397 1.532948613166809 0.0 0.0 0.0 0.0 0.0 0.0 1 True False
4657.947999999999 4.674519062042236 -1.517378607099392 2.1036904493915003 -2.1570540867247523 -1.5708125273333948 1.5329442024230957 0.0 0.0 0.0 0.0 0.0 0.0 1 True False
4657.998 4.674527645111084 -1.5173991856030007 2.103649441395895 -2.157042165795797 -1.5708168188678187 1.5329854488372803 0.0 0.0 0.0 0.0 0.0 0.0 1 True False
4658.048 4.6745147705078125 -1.5174276766232033 2.1036818663226526 -2.1570097408690394 -1.5708048979388636 1.5329561233520508 0.0 0.0 0.0015486922347918153 -0.006303862668573856 0.0 3.2721532150503663e-09 1 True False
4658.098 4.674516201019287 -1.5174276766232033 2.103661839162008 -2.1570779285826625 -1.570784870778219 1.5329399108886719 0.0 0.0 -1.3153347322989333e-30 4.67307414986351e-10 -4.122730376946354e-17 -9.585965744918212e-05 1 True False
4658.148 4.674527645111084 -1.5174154315939923 2.103694264088766 -2.157042165795797 -1.5707648436175745 1.5329397916793823 0.0 0.0 -4.2934865632560104e-05 3.496285353321582e-05 -6.262434674568717e-36 -4.110740701435134e-05 1 True False
4658.197999999999 4.674516201019287 -1.5174110804549237 2.103633228932516 -2.1570779285826625 -1.5707767645465296 1.5329399108886719 0.0 0.0 -2.6895917471847497e-05 1.7735379515215755e-05 -0.0 -3.370983540662564e-05 1 True False
4658.248 4.674499988555908 -1.517436296944954 2.1036575476275843 -2.1570540867247523 -1.5707410017596644 1.5329355001449585 0.0 0.0 -4.981641836820927e-07 1.1881576938321814e-05 -0.0 -6.936495822174038e-08 1 True False
4658.298 4.674549102783203 -1.5173948568156739 2.103673283253805 -2.157046457330221 -1.5707810560809534 1.5329201221466064 0.0 0.0 -1.1722329351452548e-36 1.2446868622589813e-13 -0.0 -4.664687533762522e-17 1 True False
4658.348 4.6745100021362305 -1.5174146381071587 2.1037028471576136 -2.1570941410460414 -1.5707767645465296 1.5329158306121826 0.0 0.0 -0.0 1.8906825993410357e-32 -0.0 -7.085670303538176e-36 1 True False
4658.398 4.6744866371154785 -1.5174146343818684 2.103633228932516 -2.157070299188131 -1.5707929770099085 1.5328906774520874 0.0 0.0 -2.292045987653765e-21 0.0 -0.0 -0.0 1 True False
4658.447999999999 4.674571514129639 -1.5173829023591061 2.1037028471576136 -2.157046457330221 -1.5708006064044397 1.5329070091247559 0.0 0.0 -0.0 0.0 -0.0 -0.0 1 True False
4658.498 4.674465656280518 -1.5174481880715867 2.1037071386920374 -2.1570502720274867 -1.5707967917071741 1.532977819442749 0.0 0.0 -0.0 0.0 -0.0 -0.0 1 True False
4658.548 4.674516201019287 -1.5174276430955906 2.1036790052997034 -2.157057901422018 -1.5708769003497522 1.5329933166503906 -2.1912310312724552e-27 0.0 -0.0 0.0 -0.0 -0.0 1 True False
4658.598 4.674565315246582 -1.5173627075603981 2.1037071386920374 -2.157074113885397 -1.5707810560809534 1.5329039096832275 2.704198017484331e-22 0.0 -0.0 0.0 -0.0 -0.0 1 True False
4658.648 4.674563884735107 -1.5174276952496548 2.103666130696432 -2.1569820843138636 -1.5707886854754847 1.532871127128601 0.0 0.0 -6.4100603810995204e-18 0.0 -0.0 -0.0 1 True False
4658.697999999999 4.674482345581055 -1.5174196486226101 2.1036704222308558 -2.1570140324034632 -1.5707929770099085 1.5329276323318481 0.0 -1.3753451639786363e-05 -0.0 0.0 -0.0 -6.685058029771195e-21 1 True False
4658.748 4.674519062042236 -1.5174320128611107 2.1036790052997034 -2.1570664844908656 -1.5707767645465296 1.5329233407974243 0.0 1.3211789934059654e-21 -0.0 0.0 -0.0 -1.0154621425606933e-39 1 True False
4658.798 4.674520969390869 -1.5173799705556412 2.1037071386920374 -2.1570822201170863 -1.570772949849264 1.5329201221466064 0.0 0.0 -0.0 0.0 -0.0 -2.5930721481317144e-15 1 True False
4658.848 4.674563884735107 -1.5173980382135888 2.103628937398092 -2.1570946178831996 -1.5707691351519983 1.5329158306121826 0.0 0.0 -0.0 0.0 -0.0 -3.938882745756303e-34 1 True False
4658.898 4.6745076179504395 -1.5173905801824112 2.1036537329303187 -2.157018323937887 -1.5707724730121058 1.5329649448394775 0.0 0.0 -0.0 0.0 -0.0 -0.0 1 True False
4658.947999999999 4.6745076179504395 -1.5174524945071717 2.1036747137652796 -2.1569863758482875 -1.5707767645465296 1.532872200012207 0.0 0.0 -0.0 0.0 -0.0 -0.0009899662109091878 1 True False
4658.998 4.674535751342773 -1.517386147086956 2.103621308003561 -2.1570502720274867 -1.570784870778219 1.5329070091247559 0.0 0.0 -0.0 0.0 -0.0 0.004109990317374468 1 True False
4659.048 4.674544811248779 -1.5173904982260247 2.103633228932516 -2.1570264301695765 -1.5708087126361292 1.5329399108886719 0.0 0.0 -0.0 0.0 -0.0 0.0002864646085072309 1 True False
4659.098 4.674527645111084 -1.5173627075603981 2.1036537329303187 -2.1570264301695765 -1.5708168188678187 1.5328952074050903 0.0 0.0 -0.0 0.0 -0.0 -8.850591787235018e-11 1 True False
4659.148 4.674556732177734 -1.5174396087280293 2.1036790052997034 -2.157018323937887 -1.570784870778219 1.532890796661377 0.0 0.0 -0.0 0.0 -0.0 -1.3444071338151086e-29 1 True False
4659.197999999999 4.6745524406433105 -1.5178371232799073 2.1030057112323206 -2.156004091302389 -1.5707686583148401 1.532920241355896 0.0 -0.020707203075289726 -0.03250473737716675 0.050901371985673904 -0.0 -0.0 1 True False
4659.248 4.674519062042236 -1.5194714491120358 2.100377861653463 -2.151531835595602 -1.57074481645693 1.532936453819275 0.0 -0.046075329184532166 -0.07689858227968216 0.12622769176959991 -0.0 -2.2037878807168454e-05 1 True False
4659.298 4.674514293670654 -1.5225417774966736 2.0951970259295862 -2.143445154229635 -1.5708335081683558 1.5329723358154297 0.0 -0.07492903620004654 -0.1172904372215271 0.19982653856277466 -0.0 -1.1667663781468723e-17 1 True False
4659.348 4.674490928649902 -1.5270511110178013 2.088137928639547 -2.131925722161764 -1.5707843939410608 1.5329114198684692 0.0 -0.10460315644741058 -0.16117435693740845 0.2532864511013031 -0.0 -1.7723208640850355e-36 1 True False
4659.398 4.674544811248779 -1.5327812817743798 2.078949753438131 -2.116892000237936 -1.570813004170553 1.532964825630188 0.0 -0.12629210948944092 -0.2051076591014862 0.32929369807243347 -0.0 -0.0 1 True False
4659.447999999999 4.674565315246582 -1.5399266083589573 2.0673936049090784 -2.0983830891051234 -1.5708449522601526 1.5329571962356567 0.0 -0.1545313596725464 -0.2497439980506897 0.40550222992897034 -0.0 -0.0 1 True False
4659.498 4.6745524406433105 -1.548301237901189 2.053958241139547 -2.07631840328359 -1.5708335081683558 1.5328952074050903 0.0 -0.18310894072055817 -0.29191824793815613 0.47076937556266785 -7.419571901312594e-12 -0.0 1 True False
4659.548 4.674526691436768 -1.5582301991856475 2.038281265889303 -2.050869127313131 -1.5707767645465296 1.5329363346099854 0.0 -0.208933487534523 -0.32684561610221863 0.5457102060317993 2.770809078356251e-05 -0.0 1 True False
4659.598 4.674527645111084 -1.569238154716306 2.0205000082599085 -2.0219837627806605 -1.5707886854754847 1.5328667163848877 0.0 -0.22002902626991272 -0.3617485761642456 0.6056978702545166 1.5656107279937714e-05 -3.2750156151450938e-06 1 True False
4659.648 4.67452335357666 -1.579898019830221 2.0032504240619105 -1.994061132470602 -1.5707967917071741 1.532964825630188 0.0 -0.20494970679283142 -0.32006508111953735 0.5269911885261536 6.822792156618265e-17 -4.974756055702269e-25 1 True False
4659.697999999999 4.6745076179504395 -1.5894113979735316 1.988316837941305 -1.9696265659727992 -1.570784870778219 1.5329082012176514 0.0 -0.17579858005046844 -0.2870790362358093 0.4600802958011627 1.0363837349041968e-35 -7.567011707354012e-44 1 True False
4659.748 4.6744866371154785 -1.597501894036764 1.9753525892840784 -1.948611398736471 -1.570784870778219 1.5329363346099854 0.0 -0.14483308792114258 -0.2351430207490921 0.3864614963531494 0.0 -0.0 1 True False
4659.798 4.6745076179504395 -1.6041871509947718 1.9646108786212366 -1.931056638757223 -1.5707925001727503 1.5329363346099854 0.0 -0.12057441473007202 -0.19367501139640808 0.3130531311035156 0.0 -0.0 1 True False
4659.848 4.674493789672852 -1.6095429859557093 1.9559853712665003 -1.9171954594054164 -1.5707891623126429 1.5329406261444092 0.0 -0.09823866933584213 -0.1465166062116623 0.23856720328330994 0.0 -0.0 1 True False
4659.898 4.674565315246582 -1.613591810266012 1.949503246937887 -1.9065739117064417 -1.5707486311541956 1.5329114198684692 0.0 -0.0708874985575676 -0.10721326619386673 0.18055066466331482 0.0 -0.0 1 True False
4659.947999999999 4.674577713012695 -1.6163174114623011 1.9451187292682093 -1.8994537792601527 -1.5707805792437952 1.5329276323318481 0.0 -0.04353010654449463 -0.06682365387678146 0.10619323700666428 0.0 -0.0 1 True False
4659.998 4.674474716186523 -1.6176616154112757 1.9429457823382776 -1.8960501156248988 -1.5707891623126429 1.5328865051269531 0.0 -0.013755564577877522 -0.020305471494793892 0.037943363189697266 0.0 -0.0 1 True False
4660.048 4.6745476722717285 -1.6177989445128382 1.9427831808673304 -1.8955909214415492 -1.5707886854754847 1.5329158306121826 0.0 0.00026639632415026426 -3.402423898180018e-09 -9.350664913654327e-05 0.0 -0.0 1 True False
4660.098 4.674514293670654 -1.6178432903685511 1.9427350203143519 -1.895635267297262 -1.5708654562579554 1.5328996181488037 0.0 -2.6686488126870245e-05 -0.000302614935208112 6.705870328005403e-05 0.0 -0.0 1 True False
4660.148 4.674482345581055 -1.6177360020079554 1.9427111784564417 -1.8956433735289515 -1.5707967917071741 1.532952904701233 0.0 -6.13028823863715e-05 -0.0008411206654272974 9.979418973671272e-05 0.0 -0.0 1 True False
4660.197999999999 4.674535751342773 -1.6177860699095667 1.9426582495318812 -1.8956228695311488 -1.5707724730121058 1.5328820943832397 0.0 -0.00022306587197817862 -0.002160116331651807 0.0002193258551415056 0.0 -0.0 1 True False
4660.248 4.674540042877197 -1.6178633175291957 1.942622486745016 -1.8955990276732386 -1.5707767645465296 1.5329071283340454 0.0 -0.0002552429505158216 -0.00034026935463771224 0.0003741977270692587 0.0 -0.0 1 True False
4660.298 4.674474716186523 -1.6178747616209925 1.9425972143756312 -1.8955913982787074 -1.5707529226886194 1.5329276323318481 0.0 -0.0001585094432812184 -0.00012867320037912577 0.00019467469246592373 0.0 -0.0 1 True False
4660.348 4.674502849578857 -1.6178747616209925 1.942622486745016 -1.8955675564207972 -1.570813004170553 1.5329616069793701 0.0 -0.00014907102740835398 -9.407551260665059e-05 0.00012185363448224962 0.0 -0.0 1 True False
4660.398 4.674490928649902 -1.6178261242308558 1.942606274281637 -1.8955751858153285 -1.5707925001727503 1.5329320430755615 0.0 -0.00011364395322743803 -1.1618399184953887e-06 0.00010063775698654354 0.0 -0.0 1 True False
4660.447999999999 4.674518585205078 -1.6178661785521449 1.9426525274859827 -1.8955713711180628 -1.5708091894732874 1.5329201221466064 0.0 -8.97905629244633e-05 -2.7339324967498027e-36 9.036141273099929e-05 0.0 -0.0 1 True False
4660.498 4.674479007720947 -1.617805620233053 1.942627255116598 -1.8956238232054652 -1.5708048979388636 1.5329201221466064 0.0 -5.554215399410116e-34 -0.0 3.271353676836952e-08 0.0 -0.0 1 True False
4660.548 4.674532413482666 -1.61785950283193 1.942627255116598 -1.8955875835814417 -1.570836369191305 1.5329320430755615 0.0 -3.352637310296083e-34 -0.0 5.672421320923604e-05 0.0 -0.0 1 True False
4660.598 4.674540996551514 -1.617838045159811 1.9426315466510218 -1.8955708942809046 -1.5708087126361292 1.5329039096832275 0.0 0.0 -0.0 1.4422669279706571e-15 0.0 -0.0 1 True False
4660.648 4.674540042877197 -1.617854734460348 1.942606274281637 -1.8956033192076625 -1.5707686583148401 1.5329071283340454 0.0 0.0 -0.0 2.1908067037696624e-34 0.0 -0.0 1 True False
4660.697999999999 4.67452335357666 -1.6178957424559535 1.9426315466510218 -1.8955794773497523 -1.5708211104022425 1.532964825630188 0.0 0.0 -0.0 0.0 0.0 -0.0 1 True False
4660.748 4.674514293670654 -1.6178661785521449 1.9425986448871058 -1.895583292047018 -1.570829216633932 1.5328996181488037 0.0 0.0 -1.3920880011689251e-32 0.0 0.0 -0.0 1 True False
4660.798 4.674556732177734 -1.6178986034789027 1.9426854292498987 -1.8955513439574183 -1.5708211104022425 1.532952904701233 0.0 0.0 -0.0 0.0 0.0 -0.0 1 True False
4660.848 4.674519062042236 -1.6178590259947718 1.942606274281637 -1.8955675564207972 -1.5708006064044397 1.5328996181488037 0.0 0.0 -0.0 0.0 0.0 -0.0 1 True False
4660.898 4.674502849578857 -1.617882867852682 1.9426358381854456 -1.8955756626524867 -1.5707925001727503 1.532890796661377 0.0 0.0 -0.0 0.0 0.0 -0.0 1 True False
4660.947999999999 4.67452335357666 -1.6178785763182582 1.9426153341876429 -1.8955232105650843 -1.570784870778219 1.532952904701233 0.0 0.0 -0.0 0.0 0.0 -0.0 1 True False
4660.998 4.674479007720947 -1.6179114780821742 1.9426315466510218 -1.8955713711180628 -1.5707281271563929 1.5329407453536987 0.0 0.0 -0.0 0.0 0.0 -0.0 1 True False
4661.048 4.67452335357666 -1.6178013286986292 1.942627255116598 -1.8955265484251917 -1.5708211104022425 1.5329320430755615 0.0 0.0 -0.0 0.0 0.0 -0.0 1 True False
4661.098 4.674511909484863 -1.6178833446898402 1.942594353352682 -1.8955751858153285 -1.5708087126361292 1.5329777002334595 0.0 0.0 -0.0 0.0 0.0 -0.0 1 True False
4661.148 4.674610137939453 -1.6178590259947718 1.942660156880514 -1.8955470524229945 -1.570813004170553 1.5329245328903198 0.0 0.0 -0.0 0.0 0.0 -0.0 1 True False
4661.197999999999 4.674499988555908 -1.6179405651488246 1.9426034132586878 -1.8955470524229945 -1.5707805792437952 1.5329363346099854 0.0 0.0 -0.0 0.0 0.0 -0.0 1 True False
4661.248 4.674531936645508 -1.6178661785521449 1.9426239172564905 -1.8955871067442835 -1.5708168188678187 1.5329406261444092 0.0 0.0 -0.0 0.0 0.0 -0.0 1 True False
4661.298 4.6745100021362305 -1.6178704700865687 1.9426105658160608 -1.8955675564207972 -1.5707929770099085 1.5329399108886719 0.0 0.0 -0.0 0.0 0.0 -0.0 1 True False
4661.348 4.674540042877197 -1.6178251705565394 1.942634407673971 -1.895611425439352 -1.5707805792437952 1.5329158306121826 0.0 0.0 -0.0 0.0 0.0 -0.0 1 True False
4661.398 4.674534320831299 -1.6178914509215296 1.9426716009723108 -1.895607133904928 -1.5707767645465296 1.532952904701233 0.0 0.0 -0.0 0.0 0.0 -0.0 1 True False
4661.447999999999 4.6745524406433105 -1.6177808247008265 1.942594353352682 -1.8955909214415492 -1.5708697477923792 1.5328667163848877 0.0 0.0 -0.0 0.0 0.0 -0.0 1 True False
4661.498 4.674527645111084 -1.6178466282286585 1.9426348845111292 -1.8955427608885707 -1.5707405249225062 1.5328919887542725 0.0 0.0 -0.0 0.0 0.0 -0.0 1 True False
4661.548 4.6744914054870605 -1.6178175411620082 1.942660156880514 -1.8955794773497523 -1.5707925001727503 1.5329320430755615 0.0 0.0 9.999325152609817e-12 0.0 0.0 -0.0 1 True False
4661.598 4.674502849578857 -1.6178294620909632 1.9426105658160608 -1.8955675564207972 -1.570836369191305 1.5329320430755615 0.0 0.0 2.3529202514478003e-41 0.0 0.0 -0.0 1 True False
4661.648 4.67452335357666 -1.6178704700865687 1.942639176045553 -1.8955351314940394 -1.5707805792437952 1.5329158306121826 0.0 0.0 0.0 0.0 0.0 -0.0 1 True False
4661.697999999999 4.674605846405029 -1.617838045159811 1.9426477591144007 -1.895583292047018 -1.5707767645465296 1.5329158306121826 0.0 0.0 0.0 0.0 0.0 -0.0 1 True False
4661.748 4.6744914054870605 -1.6178871593871058 1.9426229635821741 -1.8955713711180628 -1.5708649794207972 1.5328876972198486 0.0 0.0 0.0 0.0 0.0 -0.0 1 True False
4661.798 4.674514293670654 -1.617838045159811 1.9426229635821741 -1.895595212975973 -1.570784870778219 1.5329158306121826 0.0 0.0 0.0 0.0 0.0 -0.0 1 True False
4661.848 4.674527645111084 -1.6178504429259242 1.9426806608783167 -1.8955189190306605 -1.570784870778219 1.532948613166809 0.0 0.0 0.0 0.0 0.0 -0.0 1 True False
4661.898 4.674498558044434 -1.6178747616209925 1.942618195210592 -1.8955713711180628 -1.5708087126361292 1.532952904701233 0.0 0.0 0.0 0.0 0.0 -0.0 1 True False
4661.947999999999 4.674551963806152 -1.6178175411620082 1.9426358381854456 -1.895579000512594 -1.5707805792437952 1.532951831817627 0.0 0.0 0.0 0.0 0.0 -0.0 1 True False
4661.998 4.674548625946045 -1.6178633175291957 1.942639176045553 -1.8955308399596156 -1.5707767645465296 1.5329114198684692 0.0 -9.432979401301208e-24 3.771373491279206e-11 0.0 0.0 -0.0 1 True False
4662.048 4.674503326416016 -1.6178790531554164 1.9426434675799769 -1.8955713711180628 -1.5707767645465296 1.5328952074050903 0.0 0.0 8.874423174569067e-41 0.0 0.0 -0.0 1 True False
4662.098 4.674299716949463 -1.6178590259947718 1.942618195210592 -1.8955675564207972 -1.5707805792437952 1.5333327054977417 -0.012606481090188026 0.0 0.00043726034346036613 0.0 0.0 0.014338252134621143 1 True False
4662.148 4.673574924468994 -1.618012090722555 1.9427240530597132 -1.8955594501891078 -1.5707691351519983 1.5346215963363647 -0.02430878020823002 -0.005841306410729885 0.004914842080324888 0.0 0.0 0.03986788168549538 1 True False
4662.197999999999 4.671774387359619 -1.6183821163573207 1.943014923726217 -1.8955427608885707 -1.570829216633932 1.5376466512680054 -0.04909799247980118 -0.012174244038760662 0.008781934157013893 0.0012722979299724102 0.0 0.08142346888780594 1 True False
4662.248 4.668351173400879 -1.619058748284811 1.9435742537127894 -1.8954316578307093 -1.570784870778219 1.5432524681091309 -0.08497428894042969 -0.01448804885149002 0.013625867664813995 0.001992648234590888 0.0 0.14170195162296295 1 True False
4662.298 4.663078308105469 -1.6200267277159632 1.94435960451235 -1.8953401050963343 -1.570813004170553 1.5524749755859375 -0.13522869348526 -0.023131994530558586 0.022096989676356316 0.0023094394709914923 0.0 0.22593644261360168 1 True False
4662.348 4.655157566070557 -1.6213404140868128 1.9455798308001917 -1.895127912560934 -1.5708091894732874 1.565817952156067 -0.180430606007576 -0.031719669699668884 0.029125137254595757 0.002779654460027814 0.0 0.296993225812912 1 True False
4662.398 4.645100116729736 -1.623087068597311 1.947256867085592 -1.8949653110899867 -1.570829216633932 1.5827456712722778 -0.2163798213005066 -0.03927791118621826 0.03409664332866669 0.005232091061770916 2.5190973852929726e-25 0.37414368987083435 1 True False
4662.447999999999 4.63322639465332 -1.6253096065916957 1.94926625887026 -1.894621034661764 -1.5707805792437952 1.603058934211731 -0.2583054006099701 -0.047315824776887894 0.04029761999845505 0.003535234136506915 1.6030837286962196e-05 0.4394128620624542 1 True False
4662.498 4.619096755981445 -1.627878328362936 1.9513867537127894 -1.8943215809264125 -1.570813004170553 1.6270220279693604 -0.30576109886169434 -0.0527978353202343 0.04706606641411781 0.006142523605376482 2.4350887771790122e-24 0.5080655813217163 1 True False
4662.548 4.602961540222168 -1.6307460270323695 1.9539783636676233 -1.8939577541747035 -1.5707805792437952 1.6543705463409424 -0.33878734707832336 -0.06096124276518822 0.055495791137218475 0.00800700020045042 3.699427945817517e-43 0.5800704956054688 1 True False
4662.598 4.584743499755859 -1.6339994869627894 1.9568746725665491 -1.8935910664000453 -1.5708373228656214 1.6852203607559204 -0.3871811330318451 -0.06939464807510376 0.05979720503091812 0.0061626737006008625 0.0 0.6486274003982544 1 True False
4662.648 4.564650058746338 -1.6376859150328578 1.9600723425494593 -1.8931361637511195 -1.5707967917071741 1.7195993661880493 -0.4281832277774811 -0.07713993638753891 0.06912732869386673 0.009105399250984192 0.0 0.7195149064064026 1 True False
4662.697999999999 4.542097091674805 -1.6416322193541468 1.9636667410479944 -1.8926807842650355 -1.5707605520831507 1.7573904991149902 -0.4599752426147461 -0.08399906009435654 0.07171887904405594 0.011444369331002235 -0.000245862640440464 0.7860482931137085 1 True False
4662.748 4.517849445343018 -1.6461330852904261 1.967431370412008 -1.892266412774557 -1.5708087126361292 1.798834204673767 -0.5071896910667419 -0.09149279445409775 0.08209128677845001 0.009473550133407116 -1.697674254863904e-15 0.859057605266571 1 True False
4662.798 4.491540908813477 -1.6508728466429652 1.9717324415790003 -1.8916355572142542 -1.5707686583148401 1.843589425086975 -0.5522599220275879 -0.10039582848548889 0.08512111753225327 0.009538531303405762 0.0003895097179338336 0.9327329397201538 1 True False
4662.848 4.46311092376709 -1.6560131512083949 1.976368252431051 -1.8909207783141078 -1.5707929770099085 1.8917922973632812 -0.5888941287994385 -0.10472969710826874 0.09803758561611176 0.013057597912847996 0.0010615969076752663 0.9964162707328796 1 True False
4662.898 4.4326558113098145 -1.6615125141539515 1.9810670057879847 -1.8903538189330042 -1.5707281271563929 1.9436039924621582 -0.613068699836731 -0.11317216604948044 0.09830915182828903 0.016875172033905983 0.0006531463586725295 1.0432045459747314 1 True False
4662.947999999999 4.4018096923828125 -1.667020937005514 1.9859450499164026 -1.8897000751891078 -1.5707405249225062 1.9958959817886353 -0.6134335398674011 -0.11390691995620728 0.09493223577737808 0.014557410962879658 0.0009679087670519948 1.0454202890396118 1 True False
4662.998 4.371026992797852 -1.6725002727904261 1.9908059279071253 -1.8890086613097132 -1.570756737385885 2.048159122467041 -0.6116587519645691 -0.11512094736099243 0.10208144038915634 0.01862383261322975 0.001708179828710854 1.042743444442749 1 True False
4663.048 4.340033531188965 -1.6781827412047328 1.9956052939044397 -1.8883053265013636 -1.570801083241598 2.100679636001587 -0.6124994158744812 -0.11589159071445465 0.10022959113121033 0.0200967974960804 0.0020681871101260185 1.043434500694275 1 True False
4663.098 4.309450149536133 -1.6837097607054652 2.0004504362689417 -1.8877154789366664 -1.5708406607257288 2.1525001525878906 -0.5934697985649109 -0.11174237728118896 0.09414202719926834 0.015067256055772305 0.0014494938077405095 1.0250028371810913 1 True False
4663.148 4.280513286590576 -1.6888333759703578 2.0052030722247522 -1.8870326481261195 -1.5708611647235315 2.201460838317871 -0.5550136566162109 -0.10125647485256195 0.08781049400568008 0.013717422261834145 -8.269034879049286e-07 0.9415047764778137 1 True False
4663.197999999999 4.253623962402344 -1.693709512750143 2.0094521681415003 -1.8865701160826625 -1.570881191884176 2.2470154762268066 -0.5131462812423706 -0.09301729500293732 0.08215707540512085 0.0145058399066329 -0.00038030260475352407 0.8794623613357544 1 True False
4663.248 4.228693962097168 -1.698134561578268 2.0133031050311487 -1.8860155544676722 -1.5708211104022425 2.2891175746917725 -0.4710264205932617 -0.085258848965168 0.06932827085256577 0.008214798755943775 -0.0007194255013018847 0.8019640445709229 1 True False
4663.298 4.206052303314209 -1.702249666253561 2.0169480482684534 -1.8855849705138148 -1.5707886854754847 2.3275086879730225 -0.43423813581466675 -0.0770312175154686 0.07039017975330353 0.008962050080299377 -0.0001355084532406181 0.7364299297332764 1 True False
4663.348 4.185657024383545 -1.7058559856810511 2.020240608845846 -1.8850332699217738 -1.5708254019366663 2.3624684810638428 -0.3983392119407654 -0.06928665190935135 0.061998866498470306 0.008358516730368137 6.482224853243679e-05 0.675194263458252 1 True False
4663.398 4.166902542114258 -1.7092982731261195 2.023048226033346 -1.8846947155394496 -1.5707805792437952 2.39398455619812 -0.3472464084625244 -0.061541587114334106 0.05975206941366196 0.010400868952274323 1.4828699379521026e-10 0.6066685914993286 1 True False
4663.447999999999 4.150458335876465 -1.7123080692686976 2.025775734578268 -1.884350915948385 -1.5707972685443323 2.422128915786743 -0.31233689188957214 -0.057945795357227325 0.04609633982181549 0.004235916770994663 6.150310218799859e-05 0.5289799571037292 1 True False
4663.498 4.135994911193848 -1.7149082622923792 2.028011147175924 -1.8839675388731898 -1.570756737385885 2.4467172622680664 -0.2662973403930664 -0.04691363871097565 0.043818265199661255 0.008360027335584164 4.924261953059839e-12 0.4525008201599121 1 True False
4663.548 4.123664379119873 -1.717135568658346 2.0299719015704554 -1.8837043247618617 -1.5707686583148401 2.4677963256835938 -0.23061668872833252 -0.04156707599759102 0.03626035526394844 0.004935046657919884 -3.987692879896254e-13 0.38499942421913147 1 True False
4663.598 4.113149642944336 -1.7189465961852015 2.0317443052874964 -1.8835493526854457 -1.5708168188678187 2.4853055477142334 -0.18574006855487823 -0.031799107789993286 0.02967395819723606 0.003925771918147802 -6.057314749073967e-32 0.32396432757377625 1 True False
4663.648 4.104844093322754 -1.7205244503416957 2.0330045858966272 -1.8833571873106898 -1.5708087126361292 2.499445915222168 -0.1444539725780487 -0.025930676609277725 0.022826027125120163 0.0034946457017213106 0.00018444085435476154 0.24609129130840302 1 True False
4663.697999999999 4.098731994628906 -1.7216416798033656 2.033947292958395 -1.8831449947752894 -1.5707767645465296 2.509946346282959 -0.10505066066980362 -0.019810615107417107 0.017757326364517212 0.0034354771487414837 3.73589596687554e-20 0.17947494983673096 1 True False
4663.748 4.094498157501221 -1.722339769402975 2.0346720854388636 -1.8831178150572718 -1.5707605520831507 2.517080545425415 -0.06469500064849854 -0.012115877121686935 0.010103822685778141 0.0016437568701803684 5.674835588379283e-39 0.10792244970798492 1 True False
4663.798 4.092350959777832 -1.722649713555807 2.0349367300616663 -1.8830696545042933 -1.570824925099508 2.520725965499878 -0.022821437567472458 -0.001950262114405632 0.0023220537696033716 0.0014327062526717782 0.0 0.038009583950042725 1 True False
4663.848 4.092104911804199 -1.722642560998434 2.035255734120504 -1.8832570515074671 -1.5707891623126429 2.5211782455444336 0.0018341249087825418 0.012305960059165955 0.024610521271824837 -0.019385701045393944 0.0 -0.00027614657301455736 1 True False
4663.898 4.092087268829346 -1.7215506039061488 2.0372350851642054 -1.886575838128561 -1.5707686583148401 2.521177053451538 -0.00029195661772973835 0.031082304194569588 0.05126529186964035 -0.08558201789855957 0.0 0.0007860129699110985 1 True False
4663.947999999999 4.092083930969238 -1.7198711834349574 2.0400479475604456 -1.890966077844137 -1.570784870778219 2.5212297439575195 -0.0007195911020971835 0.03127117082476616 0.04537612572312355 -0.07703372091054916 0.0 0.0009266966953873634 1 True False
4663.998 4.092042446136475 -1.7185694179930628 2.0419843832599085 -1.894078870812887 -1.570813004170553 2.5212221145629883 -0.0006707109860144556 0.018641429021954536 0.02457158826291561 -0.042107582092285156 0.0 0.00023948670423123986 1 True False
4664.048 4.092049598693848 -1.7183391056456507 2.04232627550234 -1.8949490986266078 -1.570801083241598 2.521233081817627 -0.0002156298141926527 6.49394714855589e-05 -0.00020192003285046667 0.0002023365959757939 0.0 0.0001403200876666233 1 True False
4664.098 4.092067241668701 -1.7183476887144984 2.042338196431295 -1.894872327844137 -1.5707686583148401 2.5212783813476562 -0.00015564417117275298 0.00030122906900942326 -9.125553736804353e-27 3.4139734594873516e-08 0.0 9.434859384782612e-05 1 True False
4664.148 4.092034816741943 -1.7182871303954066 2.042394463215963 -1.8949529133238734 -1.5707724730121058 2.5212178230285645 -0.00015727711434010416 0.00043752542114816606 0.0001642890420043841 -0.0002885577850975096 0.0 4.182807258109461e-13 1 True False
4664.197999999999 4.0920586585998535 -1.7182914219298304 2.0424020926104944 -1.8949161968626917 -1.5708449522601526 2.5212416648864746 -0.00011761495989048854 0.0002960295241791755 0.00036979385185986757 -0.0011302756611257792 0.0 6.353693315241141e-32 1 True False
4664.248 4.092047214508057 -1.7182675800719203 2.042455498372213 -1.8949204883971156 -1.5708492437945765 2.5211973190307617 -8.018907101359218e-05 0.00023286959913093597 0.000272392004262656 -0.0006047138595022261 0.0 0.0 1 True False
4664.298 4.09206485748291 -1.7182523212828578 2.0424349943744105 -1.8949643574156703 -1.570756737385885 2.5212297439575195 -5.049732830849974e-31 0.00016243742720689625 0.00011975039524259046 -0.00016482890350744128 0.0 0.0 1 True False
4664.348 4.092072010040283 -1.7182227573790492 2.0424512068377894 -1.8949443302550257 -1.570784870778219 2.5212697982788086 0.0 0.00011319218174321577 0.00011505330621730536 -9.348149615107104e-05 0.0 0.0 1 True False
4664.398 4.0920515060424805 -1.7182642422118128 2.0424020926104944 -1.8949204883971156 -1.5707925001727503 2.521221160888672 0.0 8.0617937783245e-05 7.533140160376206e-05 -6.524362106574699e-05 0.0 0.0 1 True False
4664.447999999999 4.092055797576904 -1.7182404003539027 2.042384926472799 -1.8950001202025355 -1.5707767645465296 2.521209239959717 0.0 5.1077076479952404e-30 6.234303873497993e-05 -4.0174996027036854e-18 0.0 5.7147940424329136e-06 1 True False
4664.498 4.092031478881836 -1.718259950677389 2.0424144903766077 -1.8949562511839808 -1.5707767645465296 2.5212135314941406 0.0 0.0 9.161445559840948e-28 -6.102592482378885e-37 0.0 8.680788103613716e-25 1 True False
4664.548 4.092027187347412 -1.718248029748434 2.042426411305563 -1.8949643574156703 -1.5707886854754847 2.5212817192077637 0.0 2.7965968456555856e-06 0.0 -0.0 0.0 1.317220556465328e-43 1 True False
4664.598 4.092060565948486 -1.7182241878905238 2.0424349943744105 -1.89494051555776 -1.5707886854754847 2.5212621688842773 0.0 -2.6316385160020065e-42 0.0 -0.0 0.0 0.0 1 True False
4664.648 4.092039108276367 -1.718186994592184 2.0424144903766077 -1.8949481449522914 -1.5707772413836878 2.521254539489746 0.0 0.0 0.0 -0.0 0.0 0.0 1 True False
4664.697999999999 4.092027187347412 -1.7181936703123988 2.042417828236715 -1.8949805698790492 -1.570772949849264 2.5212340354919434 0.0 0.0 0.0 -0.0 0.0 0.0 1 True False
4664.748 4.092015266418457 -1.718276163140768 2.0424512068377894 -1.8949281177916468 -1.570784870778219 2.5212903022766113 0.0 0.0 0.0 -0.0 0.0 0.0 1 True False
4664.798 4.092022895812988 -1.718271871606344 2.0424426237689417 -1.8950048885741175 -1.570784870778219 2.5212903022766113 0.0 0.0 0.0 -0.0 0.0 0.0 1 True False
4664.848 4.092057228088379 -1.7182733021178187 2.0424020926104944 -1.8949362240233363 -1.5707686583148401 2.52125883102417 4.298206840758212e-05 0.0 0.0 -0.0 0.0 0.0 1 True False
4664.898 4.092022895812988 -1.7181974850096644 2.042410198842184 -1.8949643574156703 -1.5708087126361292 2.521282911300659 1.959097608050797e-05 0.0 0.0 -0.0 0.0 0.0 1 True False
4664.947999999999 4.09208869934082 -1.718231817285055 2.042434040700094 -1.8949724636473597 -1.5707648436175745 2.5212178230285645 1.2686890840996057e-05 -3.9797519946205284e-08 0.0 -0.0 0.0 0.0 1 True False
4664.998 4.091964244842529 -1.71828093151235 2.0424187819110315 -1.8949719868102015 -1.5707886854754847 2.521237373352051 5.514652472328853e-16 -1.9834048528976677e-38 0.0 -0.0 0.0 0.0 1 True False
4665.048 4.092039108276367 -1.718271871606344 2.0424721876727503 -1.894956728021139 -1.5707925001727503 2.5212783813476562 0.0 0.0 8.990848324351553e-35 -0.0 0.0 0.0 1 True False
4665.098 4.092042446136475 -1.718231817285055 2.0424144903766077 -1.894968648950094 -1.5707686583148401 2.5212621688842773 3.1042306157805563e-35 -4.973915565642528e-05 0.0 -0.0 0.0 7.36569749637539e-10 1 True False
4665.148 4.091989994049072 -1.7182733021178187 2.042405430470602 -1.8949362240233363 -1.5707805792437952 2.5212903022766113 0.0 -3.4055294236168265e-05 0.0 -0.0 0.0 1.118851186339779e-28 1 True False
4665.197999999999 4.092076301574707 -1.7182895145811976 2.0423930327044886 -1.8949481449522914 -1.5708087126361292 2.5212502479553223 0.0 -2.13252792545845e-32 0.0 -0.0 0.0 0.0 1 True False
4665.248 4.092039108276367 -1.7183062038817347 2.0424307028399866 -1.8949324093260707 -1.5708254019366663 2.521266460418701 0.0 0.0 0.0 -0.0 0.0 0.0 1 True False
4665.298 4.091994285583496 -1.7182690105833949 2.0424707571612757 -1.8949929676451625 -1.5707686583148401 2.5212783813476562 0.0 0.0 0.0 -0.0 0.0 0.0 1 True False
4665.348 4.092060565948486 -1.7182184658446253 2.0424349943744105 -1.8949643574156703 -1.570801083241598 2.5212740898132324 8.261610297299948e-18 0.0 0.0 -0.0 0.0 0.0 1 True False
4665.398 4.092048168182373 -1.718227048913473 2.0424230734454554 -1.8949524364867152 -1.570784870778219 2.5212254524230957 0.0 0.0 0.0 -0.0 0.0 0.0 1 True False
4665.447999999999 4.092018127441406 -1.7182198963561 2.042434040700094 -1.8949281177916468 -1.5707643667804163 2.5212740898132324 0.0 0.0 0.0 -0.0 0.0 0.0 1 True False
4665.498 4.091989994049072 -1.7182227573790492 2.042426411305563 -1.8949643574156703 -1.5707967917071741 2.521209239959717 0.0 -2.4100186049033207e-29 0.0 -0.0 0.0 0.0 1 True False
4665.548 4.092048168182373 -1.7183062038817347 2.0424216429339808 -1.8949080906310023 -1.5707967917071741 2.521181106567383 0.0 0.0 0.0 -0.0 0.0 0.0 1 True False
4665.598 4.092006206512451 -1.7182361088194789 2.042454544697897 -1.8949123821654261 -1.5708006064044397 2.5212903022766113 0.0 0.0 0.0 -0.0 0.0 0.0 1 True False
4665.648 4.092043399810791 -1.7182642422118128 2.042422119771139 -1.8949719868102015 -1.570784870778219 2.5212221145629883 0.0 0.0 0.0 -0.0 0.0 0.0 1 True False
4665.697999999999 4.092060565948486 -1.718215127984518 2.042438332234518 -1.8949443302550257 -1.570772949849264 2.521254539489746 0.0 0.0 0.0 -0.0 0.0 0.0 1 True False
4665.748 4.092043399810791 -1.71824373821401 2.0424307028399866 -1.8949762783446253 -1.5708006064044397 2.521286964416504 0.0 0.0 0.0 -0.0 0.0 0.0 1 True False
4665.798 4.092001914978027 -1.718292852441305 2.0424588362323206 -1.8949762783446253 -1.570772949849264 2.5212740898132324 0.0 0.0 0.0 -0.0 0.0 0.0 1 True False
4665.848 4.092080116271973 -1.718189378777975 2.0424469153033655 -1.8949762783446253 -1.5707810560809534 2.5212621688842773 0.0 0.0 0.0 -0.0 0.0 0.0 1 True False
4666.048 4.092039108276367 -1.718259950677389 2.042410198842184 -1.8949600658812464 -1.5707810560809534 2.5212340354919434 0.0 0.0 -0.0 -0.0 0.0 0.0 1 True False
4666.098 4.092027187347412 -1.7182017765440882 2.042426411305563 -1.8949643574156703 -1.5707443396197718 2.521184206008911 0.0 0.0 -0.0 -0.0 0.0 0.0 1 True False
4666.148 4.092043399810791 -1.7182198963561 2.0424678961383265 -1.8949724636473597 -1.5707686583148401 2.5212416648864746 0.0 0.0 -0.0 -0.0 0.0 0.0 1 True False
4666.197999999999 4.0920844078063965 -1.718259950677389 2.0424187819110315 -1.8949881992735804 -1.570772949849264 2.521242618560791 0.0 0.0 -0.0 -0.0 0.0 0.0 1 True False
4666.248 4.092018127441406 -1.7182523212828578 2.0424349943744105 -1.8949243030943812 -1.5708048979388636 2.5212416648864746 0.0 0.0 -0.0 -0.0 0.0 0.0 1 True False
4666.298 4.092039108276367 -1.71824373821401 2.042426411305563 -1.894968172112936 -1.5707967917071741 2.5212297439575195 0.0 0.0 -0.0 -0.0 0.0 0.0 1 True False
4666.348 4.092022895812988 -1.7182465992369593 2.0424426237689417 -1.8949524364867152 -1.5707572142230433 2.521327257156372 0.0 0.0 -0.0 -0.0 0.0 0.0 1 True False
4666.398 4.092022895812988 -1.7182613811888636 2.0424307028399866 -1.8949600658812464 -1.5707529226886194 2.521200656890869 0.0 0.0 -0.0 -0.0 0.0 0.0 1 True False
4666.447999999999 4.0920844078063965 -1.71828093151235 2.0424144903766077 -1.8949562511839808 -1.5707529226886194 2.521266460418701 0.0 0.0 -0.0 -0.0 0.0 0.0 1 True False
4666.498 4.092027187347412 -1.7182570896544398 2.0423858801471155 -1.8949247799315394 -1.5707486311541956 2.5212340354919434 0.0 0.0 -0.0 -0.0 0.0 0.0 1 True False
4666.548 4.092034816741943 -1.718292852441305 2.0424798170672815 -1.8949724636473597 -1.570824925099508 2.5212297439575195 0.0 0.0 -0.0 -0.0 0.0 0.0 1 True False
4666.598 4.092021465301514 -1.7182613811888636 2.0424674193011683 -1.8949762783446253 -1.5708125273333948 2.521238327026367 0.0 5.252355549600907e-05 -0.0 -0.0 0.0 0.0 1 True False
4666.648 4.092022895812988 -1.7182642422118128 2.0424349943744105 -1.89491667369985 -1.5708206335650843 2.5212340354919434 0.0 0.0 -0.0 -0.0 0.0 0.0 1 True False
4666.697999999999 4.0920515060424805 -1.7182361088194789 2.0424020926104944 -1.8949762783446253 -1.5707810560809534 2.521275043487549 0.0 0.0 -2.4276546051194003e-11 -0.0 0.0 0.0 1 True False
4666.748 4.092055797576904 -1.7182346783080042 2.0424512068377894 -1.8949443302550257 -1.5707891623126429 2.5212631225585938 0.0 0.0 -1.4040833207218384e-07 -0.0 0.0 0.0 1 True False
4666.798 4.0920844078063965 -1.7182404003539027 2.0424426237689417 -1.8949805698790492 -1.5707925001727503 2.5212697982788086 0.0 0.0 -3.303955511085556e-37 -0.0 0.0 0.0 1 True False
4666.848 4.092047214508057 -1.718259950677389 2.0424349943744105 -1.8949362240233363 -1.5707767645465296 2.5212502479553223 0.0 0.0 -0.0 -0.0 0.0 0.0 1 True False
4666.898 4.092030048370361 -1.7182690105833949 2.042466465626852 -1.8949767551817835 -1.5708048979388636 2.5212502479553223 0.0 0.0 -0.0 -0.0 0.0 0.0 1 True False
4666.947999999999 4.092039108276367 -1.718248029748434 2.0424469153033655 -1.8949524364867152 -1.5708091894732874 2.521254539489746 0.0 0.0 -0.0 -0.0 0.0 0.0 1 True False
4666.998 4.092052459716797 -1.7182766399779261 2.0424187819110315 -1.8949481449522914 -1.5707767645465296 2.5212221145629883 0.0 0.0 -0.0 -0.0 0.0 0.0 1 True False
4667.048 4.092060089111328 -1.71828093151235 2.042438332234518 -1.8949524364867152 -1.5707686583148401 2.521254539489746 0.0 0.0 -0.0 -0.0 0.0 0.0 1 True False
4667.098 4.092067241668701 -1.718227048913473 2.0424144903766077 -1.8949204883971156 -1.5707805792437952 2.5212502479553223 -2.2210070637706485e-25 0.0 -0.0 -0.0 0.0 0.0 1 True False
4667.148 4.092055797576904 -1.718206068078512 2.042417828236715 -1.8949324093260707 -1.570784870778219 2.521270751953125 0.0 0.0 -0.0 -0.0 0.0 0.0 1 True False
4667.197999999999 4.092031478881836 -1.718248029748434 2.0424144903766077 -1.8949524364867152 -1.5707529226886194 2.52125883102417 0.0 0.0 -0.0 -0.0 0.0 0.0 1 True False
4667.248 4.092062950134277 -1.7183062038817347 2.042459789906637 -1.8949643574156703 -1.5707648436175745 2.5212059020996094 0.0 0.0 -0.0 -0.0 0.0 0.0 1 True False
4667.298 4.092047691345215 -1.718227048913473 2.0424469153033655 -1.8949767551817835 -1.5708044211017054 2.5212297439575195 0.0 0.0 -0.0 -0.0 0.0 0.0 1 True False
4667.348 4.092001914978027 -1.7182346783080042 2.0425079504596155 -1.8949367008604945 -1.570801083241598 2.521188735961914 0.0 0.0 -0.0 -0.0 0.0 0.0 1 True False
4667.398 4.0919904708862305 -1.718231817285055 2.042483631764547 -1.8949843845763148 -1.5708254019366663 2.521266460418701 0.0 0.0 -0.0 -0.0 0.0 0.0 1 True False
4667.447999999999 4.091985702514648 -1.718206068078512 2.0424230734454554 -1.8949600658812464 -1.5707767645465296 2.5212340354919434 0.0 0.0 -0.0 -0.0 0.0 0.0 1 True False
4667.498 4.092083930969238 -1.7183014355101527 2.0424631277667444 -1.894940038720602 -1.5707605520831507 2.521176815032959 0.0 0.0 -0.0 -0.0 0.0 0.0 1 True False
4667.548 4.092039108276367 -1.7182733021178187 2.0424020926104944 -1.8949037990965785 -1.5707767645465296 2.521237373352051 0.0 0.0 -0.0 -0.0 0.0 0.0 1 True False
4667.598 4.092043399810791 -1.7182852230467738 2.0424426237689417 -1.894956728021139 -1.570784870778219 2.5212135314941406 0.0 0.0 -0.0 -0.0 0.0 0.0 1 True False
4667.648 4.092042922973633 -1.7183109722533167 2.042426411305563 -1.894996782342428 -1.5707767645465296 2.521209239959717 0.0 0.0 -0.0 -0.0 0.0 0.0 1 True False
4667.697999999999 4.0920515060424805 -1.7182733021178187 2.042426411305563 -1.894956728021139 -1.5708087126361292 2.5212912559509277 0.0 0.0 -0.0 -0.0 0.0 0.0 1 True False
4667.748 4.092031478881836 -1.7182642422118128 2.042455498372213 -1.8949805698790492 -1.5708168188678187 2.5212059020996094 0.0 0.0 -0.0 -0.0 0.0 0.0 1 True False
4667.798 4.0920186042785645 -1.7182780704894007 2.042434040700094 -1.894968648950094 -1.5708416144000452 2.5211973190307617 0.0 0.0 -0.0 -0.0 0.0 0.0 1 True False
4667.848 4.0920515060424805 -1.7182690105833949 2.0423978010760706 -1.8949243030943812 -1.5707886854754847 2.5212459564208984 0.0 0.0 -0.0 -0.0 0.0 0.0 1 True False
4667.898 4.092097282409668 -1.718210836450094 2.042427364979879 -1.894928594628805 -1.5707648436175745 2.521286964416504 0.0 0.0 -0.0 -0.0 0.0 0.0 1 True False
4667.947999999999 4.092026233673096 -1.718210836450094 2.0424674193011683 -1.894956728021139 -1.5707967917071741 2.5211853981018066 0.0 0.0 -0.0 -0.0 0.0 0.0 1 True False
4667.998 4.092034816741943 -1.7182523212828578 2.0423978010760706 -1.8949805698790492 -1.570813004170553 2.5212297439575195 0.0 0.0 -0.0 -0.0 0.0 0.0 1 True False
4668.048 4.092067241668701 -1.7182642422118128 2.0424144903766077 -1.8949805698790492 -1.5707967917071741 2.5212340354919434 0.0 0.0 -0.0 -0.0 0.0 0.0 1 True False
4668.098 4.092034816741943 -1.7182690105833949 2.0424426237689417 -1.8949767551817835 -1.570829216633932 2.521226406097412 0.0 0.0 -0.0 -0.0 0.0 0.0 1 True False
4668.148 4.092022895812988 -1.718358655969137 2.0424426237689417 -1.8949161968626917 -1.5707605520831507 2.5212221145629883 0.0 2.602228624352143e-38 -0.0 -0.0 0.0 0.0 1 True False
4668.197999999999 4.091986179351807 -1.718215127984518 2.04240590730776 -1.8949643574156703 -1.5708211104022425 2.521209239959717 0.0 0.0 -0.0 -0.0 0.0 0.0 1 True False
4668.248 4.0920023918151855 -1.718210836450094 2.042438332234518 -1.8949924908080042 -1.570813004170553 2.5212697982788086 0.0 0.0 -0.0 -0.0 0.0 0.0 1 True False
4668.298 4.092101573944092 -1.71828093151235 2.0424230734454554 -1.894928594628805 -1.5708087126361292 2.521270751953125 0.0 0.0 -0.0 -0.0 0.0 0.0 1 True False
4668.348 4.091994762420654 -1.7182523212828578 2.0424307028399866 -1.8949843845763148 -1.5707486311541956 2.5212783813476562 0.0 0.0 -0.0 -0.0 0.0 0.0 1 True False
4668.398 4.092022895812988 -1.7182823620238246 2.042393509541647 -1.8949204883971156 -1.5708048979388636 2.5212178230285645 0.0 0.0 -0.0 -0.0 0.0 0.0 1 True False
4668.447999999999 4.092060089111328 -1.7182346783080042 2.0424187819110315 -1.8949605427184046 -1.5707967917071741 2.5212502479553223 0.0 0.0 -0.0 -0.0 0.0 0.0 1 True False
4668.498 4.092047214508057 -1.7181984386839808 2.042393509541647 -1.8948923550047816 -1.570756737385885 2.521254539489746 0.0 0.0 -0.0 -0.0 0.0 0.0 1 True False
4668.548 4.092055797576904 -1.718309064904684 2.0424512068377894 -1.8949562511839808 -1.570829216633932 2.521275043487549 0.0 0.0 -0.0 -0.0 0.0 0.0 1 True False
4668.598 4.092060089111328 -1.7182184658446253 2.0424512068377894 -1.8949324093260707 -1.5708087126361292 2.5212621688842773 0.0 0.0 -0.0 -0.0 0.0 0.0 1 True False
4668.648 4.0920515060424805 -1.718301912347311 2.0424426237689417 -1.8949243030943812 -1.5708168188678187 2.5212783813476562 0.0 0.0 -0.0 -0.0 0.0 0.0 1 True False
4668.697999999999 4.092027187347412 -1.718259950677389 2.0424674193011683 -1.8949724636473597 -1.570824925099508 2.5212621688842773 0.0 0.0 -0.0 -0.0 0.0 0.0 1 True False
4668.748 4.092010974884033 -1.7182766399779261 2.0424674193011683 -1.8949805698790492 -1.5708168188678187 2.521270990371704 0.0 0.0 -0.0 -0.0 0.0 0.0 1 True False
4668.798 4.092010974884033 -1.718238969842428 2.042410198842184 -1.8949080906310023 -1.5707767645465296 2.5212621688842773 0.0 0.0 -0.0 -0.0 0.0 0.0 1 True False
4668.848 4.092039108276367 -1.71824373821401 2.042455498372213 -1.894944807092184 -1.5707891623126429 2.521303176879883 0.0 0.0 -0.0 -0.0 0.0 0.0 1 True False
4668.898 4.092071533203125 -1.7183181248106898 2.0424187819110315 -1.8949524364867152 -1.5707805792437952 2.521254539489746 0.0 0.0 -0.0 -0.0 0.0 0.0 1 True False
4668.947999999999 4.092022895812988 -1.7182136974730433 2.0424020926104944 -1.8949843845763148 -1.5708168188678187 2.521246910095215 0.0 0.0 -0.0 -0.0 0.0 0.0 1 True False
4668.998 4.092034816741943 -1.7183014355101527 2.042483154927389 -1.8949281177916468 -1.5707810560809534 2.5212340354919434 0.0 0.0 -0.0 -0.0 0.0 0.0 1 True False
4669.048 4.092069625854492 -1.7182971439757289 2.0424230734454554 -1.8949762783446253 -1.570829216633932 2.521188735961914 0.0 0.0 -0.0 -0.0 0.0 0.0 1 True False
4669.098 4.092006206512451 -1.718259950677389 2.0424187819110315 -1.894940038720602 -1.5707686583148401 2.5212340354919434 0.0 0.0 -0.0 -0.0 0.0 0.0 1 True False
4669.148 4.092022895812988 -1.7182198963561 2.0424144903766077 -1.89494051555776 -1.570784870778219 2.5212676525115967 0.0 0.0 -0.0 -0.0 0.0 0.0 1 True False
4669.197999999999 4.092067241668701 -1.718227048913473 2.0423978010760706 -1.894951959649557 -1.570784870778219 2.5212783813476562 0.0 0.0 -0.0 -0.0 0.0 0.0 1 True False
4669.248 4.0920257568359375 -1.7182852230467738 2.042426411305563 -1.8950206242003382 -1.570784870778219 2.5212340354919434 0.0 0.0 -0.0 -0.0 0.0 0.0 1 True False
4669.298 4.092062950134277 -1.718227048913473 2.0423978010760706 -1.894940038720602 -1.5708211104022425 2.5212340354919434 0.0 0.0 -0.0 -0.0 0.0 0.0 1 True False
4669.348 4.092062950134277 -1.7182523212828578 2.042426411305563 -1.8950091801085414 -1.570829216633932 2.5212340354919434 0.0 0.0 -0.0 -0.0 0.0 0.0 1 True False
4669.398 4.092031478881836 -1.7182766399779261 2.0424674193011683 -1.894968648950094 -1.5707805792437952 2.5212502479553223 0.0 0.0 -0.0 -0.0 0.0 0.0 1 True False
4669.447999999999 4.092042446136475 -1.718259950677389 2.0424349943744105 -1.8949805698790492 -1.5707967917071741 2.5212416648864746 0.0 0.0 -0.0 -0.0 0.0 0.0 1 True False
4669.498 4.092076301574707 -1.7182690105833949 2.042471233998434 -1.8949767551817835 -1.5707724730121058 2.521254539489746 0.0 0.0 -0.0 -0.0 0.0 0.0 1 True False
4669.548 4.092055797576904 -1.718189378777975 2.0424307028399866 -1.89494051555776 -1.570813004170553 2.521238327026367 0.0 0.0 -0.0 -0.0 0.0 0.0 1 True False
4669.598 4.092043399810791 -1.7182523212828578 2.0424020926104944 -1.894956728021139 -1.5707967917071741 2.521242618560791 5.595945287434724e-41 0.0 -0.0 -0.0 0.0 0.0 1 True False
4669.648 4.091985702514648 -1.718276163140768 2.0424144903766077 -1.894911905328268 -1.570829216633932 2.5212178230285645 0.0 0.0 -0.0 -0.0 0.0 0.0 1 True False
4669.697999999999 4.092072010040283 -1.7183062038817347 2.042450253163473 -1.8949886761107386 -1.5708168188678187 2.521242618560791 0.0 0.0 -0.0 -0.0 0.0 0.0 1 True False
4669.748 4.092060565948486 -1.718255182305807 2.0424187819110315 -1.8949724636473597 -1.570813004170553 2.521246910095215 0.0 0.0 -0.0 -0.0 0.0 0.0 1 True False
4669.798 4.092055797576904 -1.7182508907713832 2.0424144903766077 -1.8949886761107386 -1.570801083241598 2.5212502479553223 0.0 0.0 -0.0 -0.0 0.0 0.0 1 True False
4669.848 4.09198522567749 -1.7182404003539027 2.0424392859088343 -1.8949643574156703 -1.5708335081683558 2.5212221145629883 0.0 0.0 -0.0 -0.0 0.0 0.0 1 True False
4669.898 4.092043399810791 -1.718248029748434 2.042410198842184 -1.89491667369985 -1.570801083241598 2.521226406097412 0.0 0.0 -0.0 -0.0 0.0 0.0 1 True False
4669.947999999999 4.09206485748291 -1.7182117901244105 2.0424187819110315 -1.8949724636473597 -1.5708168188678187 2.521266460418701 0.0 0.0 -0.0 -0.0 0.0 0.0 1 True False
4669.998 4.092022895812988 -1.7182690105833949 2.0424440542804163 -1.894968172112936 -1.5707805792437952 2.5212297439575195 0.0 0.0 -0.0 -0.0 0.0 0.0 1 True False
4670.048 4.092039108276367 -1.7182184658446253 2.0424144903766077 -1.894968172112936 -1.5707925001727503 2.5212459564208984 0.0 0.0 -0.0 -0.0 0.0 0.0 1 True False
4670.098 4.0920515060424805 -1.718215127984518 2.042426411305563 -1.89494051555776 -1.5707686583148401 2.5212340354919434 0.0 0.0 -0.0 -0.0 0.0 0.0 1 True False
4670.148 4.092055797576904 -1.71824373821401 2.0424063841449183 -1.894968172112936 -1.5708044211017054 2.5212535858154297 0.0 0.0 -0.0 -0.0 0.0 0.0 1 True False
4670.197999999999 4.092072010040283 -1.71824373821401 2.042417351399557 -1.8949524364867152 -1.5708168188678187 2.521188735961914 0.0 0.0 -0.0 -0.0 0.0 0.0 1 True False
4670.248 4.092018127441406 -1.7182766399779261 2.0424559752093714 -1.8949643574156703 -1.5707724730121058 2.5212340354919434 0.0 0.0 -0.0 -0.0 0.0 0.0 1 True False
4670.298 4.092006206512451 -1.718276163140768 2.042410198842184 -1.8950048885741175 -1.570784870778219 2.521181106567383 0.0 0.0 -0.0 -0.0 0.0 0.0 1 True False
4670.348 4.092072010040283 -1.71824373821401 2.0424349943744105 -1.8949805698790492 -1.570756737385885 2.5212459564208984 0.0 0.0 -0.0 -0.0 0.0 0.0 1 True False
4670.398 4.092043399810791 -1.7182690105833949 2.0424469153033655 -1.894928594628805 -1.570801083241598 2.521181106567383 0.0 0.0 -0.0 -0.0 0.0 0.0 1 True False
4670.447999999999 4.092031478881836 -1.7182899914183558 2.0424707571612757 -1.8949881992735804 -1.5707925001727503 2.5212416648864746 0.0 0.0 -0.0 -0.0 0.0 0.0 1 True False
4670.498 4.092031478881836 -1.718259950677389 2.042460266743795 -1.8949443302550257 -1.5708335081683558 2.5212135314941406 0.0 0.0 -0.0 -0.0 0.0 0.0 1 True False
4670.548 4.091994285583496 -1.7182241878905238 2.0423811117755335 -1.894968172112936 -1.570756737385885 2.5212578773498535 0.0 0.0 -0.0 -0.0 0.0 0.0 1 True False
4670.598 4.092039108276367 -1.71824373821401 2.0424230734454554 -1.8949605427184046 -1.570813004170553 2.5212416648864746 0.0 0.0 -0.0 -0.0 0.0 0.0 1 True False
4670.648 4.092039108276367 -1.718259950677389 2.042405430470602 -1.8949524364867152 -1.5707810560809534 2.521193027496338 0.0 0.0 -0.0 -1.543898996710132e-16 0.0 0.0 1 True False
4670.697999999999 4.092076301574707 -1.7182570896544398 2.0424278418170374 -1.8949643574156703 -1.570784870778219 2.52128267288208 0.0 0.0 -0.0 -2.345185272259241e-35 0.0 0.0 1 True False
4670.748 4.091989994049072 -1.7182690105833949 2.0424750486956995 -1.894996782342428 -1.5707886854754847 2.5212838649749756 0.0 0.0 -0.0 -0.0 0.0 0.0 1 True False
4670.798 4.0919928550720215 -1.7182227573790492 2.0424397627459925 -1.894980093041891 -1.570784870778219 2.5212340354919434 0.0 0.0 -0.0 -0.0 0.0 0.0 1 True False
4670.848 4.092022895812988 -1.7182585201659144 2.0424144903766077 -1.8949324093260707 -1.5708335081683558 2.521238327026367 0.0 0.0 -0.0 -0.0 0.0 0.0 1 True False
4670.898 4.092027187347412 -1.7182733021178187 2.0423978010760706 -1.8949843845763148 -1.5707843939410608 2.5211973190307617 0.0 0.0 -0.0 -0.0 0.0 0.0 1 True False
4670.947999999999 4.092031955718994 -1.718255182305807 2.0424678961383265 -1.8949767551817835 -1.5707805792437952 2.5212016105651855 0.0 0.0 -0.0 -0.0 0.0 0.0 1 True False
4670.998 4.092006206512451 -1.7182508907713832 2.0424349943744105 -1.8949767551817835 -1.570784870778219 2.5212783813476562 2.285580505762679e-24 0.0 -0.0 -0.0 0.0 0.0 1 True False
4671.048 4.09206485748291 -1.71828093151235 2.042394463215963 -1.8949362240233363 -1.5708211104022425 2.521246910095215 0.0 0.0 -0.0 -0.0 0.0 0.0 1 True False
4671.098 4.09206485748291 -1.71824373821401 2.042426411305563 -1.8949843845763148 -1.5707648436175745 2.521209239959717 0.0 0.0 -0.0 -0.0 0.0 0.0 1 True False
4671.148 4.092018127441406 -1.7182361088194789 2.0424349943744105 -1.8949886761107386 -1.5707767645465296 2.5212578773498535 0.0 0.0 -0.0 -0.0 0.0 0.0 1 True False
4671.197999999999 4.092022895812988 -1.7182570896544398 2.042434040700094 -1.8949524364867152 -1.5708211104022425 2.5212502479553223 0.0 0.0 -0.0 -0.0 0.0 0.0 1 True False
4671.248 4.092001914978027 -1.7182642422118128 2.0424588362323206 -1.8950125179686488 -1.5707724730121058 2.5212221145629883 0.0 0.0 -0.0 -0.0 0.0 0.0 1 True False
4671.298 4.092013835906982 -1.7182971439757289 2.0424392859088343 -1.894968172112936 -1.5707886854754847 2.521221160888672 0.0 0.0 -0.0 -0.0 0.0 0.0 1 True False
4671.348 4.092034816741943 -1.7182179890074671 2.0424187819110315 -1.8950048885741175 -1.570784870778219 2.5212178230285645 0.0 0.0 -0.0 -0.0 0.0 0.0 1 True False
4671.398 4.092060565948486 -1.7182852230467738 2.0424349943744105 -1.8949481449522914 -1.5707805792437952 2.521210193634033 0.0 0.0 -0.0 -0.0 0.0 0.0 1 True False
4671.447999999999 4.092072010040283 -1.7182361088194789 2.04240590730776 -1.8949481449522914 -1.5708168188678187 2.52125883102417 0.0 0.0 -0.0 -0.0 0.0 0.0 1 True False
4671.498 4.092067241668701 -1.718259950677389 2.0424230734454554 -1.8949524364867152 -1.5707967917071741 2.5212621688842773 0.0 0.0 -0.0 -0.0 0.0 0.0 1 True False
4671.548 4.092043399810791 -1.718271871606344 2.042434040700094 -1.894968648950094 -1.5707967917071741 2.5212254524230957 0.0 0.0 -0.0 -0.0 0.0 0.0 1 True False
4671.598 4.0920562744140625 -1.718255182305807 2.042410198842184 -1.8949805698790492 -1.5707805792437952 2.5212793350219727 0.0 0.0 -0.0 -0.0 0.0 0.0 1 True False
4671.648 4.092015266418457 -1.71824373821401 2.042426411305563 -1.894968648950094 -1.570756737385885 2.5212297439575195 0.0 0.0 -0.0 -0.0 0.0 0.0 1 True False
4671.697999999999 4.092022895812988 -1.718301912347311 2.042422119771139 -1.8949481449522914 -1.570772949849264 2.5212535858154297 0.0 0.0 -0.0 -0.0 0.0 0.0 1 True False
4671.748 4.092055797576904 -1.71828093151235 2.0423696676837366 -1.8949324093260707 -1.5707891623126429 2.5212059020996094 0.0 0.0 -0.0 -0.0 0.0 0.0 1 True False
4671.798 4.091994285583496 -1.7182971439757289 2.0424230734454554 -1.8949605427184046 -1.570784870778219 2.521233081817627 0.0 0.0 -0.0 -0.0 0.0 0.0 1 True False
4671.848 4.092022895812988 -1.7182198963561 2.0424187819110315 -1.89494051555776 -1.570784870778219 2.521266460418701 0.0 0.0 -0.0 -0.0 0.0 0.0 1 True False
4671.898 4.092015266418457 -1.7182642422118128 2.042422119771139 -1.894940038720602 -1.5707886854754847 2.5212502479553223 0.0 0.0 -0.0 -0.0 0.0 0.0 1 True False
4671.947999999999 4.092072010040283 -1.718238969842428 2.0423858801471155 -1.895041128198141 -1.5707925001727503 2.5212254524230957 0.0 0.0 -0.0 -0.0 0.0 0.0 1 True False
4671.998 4.092104911804199 -1.7182690105833949 2.0423978010760706 -1.8949443302550257 -1.5708211104022425 2.521294593811035 0.0 0.0 -0.0 -0.0 0.0 0.0 1 True False
4672.048 4.092001914978027 -1.718271871606344 2.0424674193011683 -1.894956728021139 -1.5707686583148401 2.5212740898132324 0.0 0.0 -0.0 -0.0 0.0 0.0 1 True False
4672.098 4.0920844078063965 -1.7182198963561 2.042389218007223 -1.8949562511839808 -1.570813004170553 2.5212502479553223 0.0 0.0 -0.0 -0.0 0.0 0.0 1 True False
4672.148 4.092009544372559 -1.718182226220602 2.0424674193011683 -1.8949243030943812 -1.570813004170553 2.5212621688842773 0.0 0.0 -0.0 -0.0 0.0 0.0 1 True False
4672.197999999999 4.092034816741943 -1.718189378777975 2.0424674193011683 -1.8949524364867152 -1.5707767645465296 2.52128267288208 0.0 0.0 -0.0 -0.0 0.0 0.0 1 True False
4672.248 4.092015266418457 -1.7182361088194789 2.0424307028399866 -1.8950091801085414 -1.5708168188678187 2.521172523498535 0.0 0.0 -0.0 -0.0 0.0 0.0 1 True False
4672.298 4.092055797576904 -1.7182690105833949 2.0424187819110315 -1.8949648342528285 -1.570845905934469 2.5212535858154297 0.0 0.0 -0.0 -0.0 0.0 0.0 1 True False
4672.348 4.092055797576904 -1.7182642422118128 2.0424307028399866 -1.8949443302550257 -1.570813004170553 2.5212221145629883 0.0 0.0 -0.0 -0.0 0.0 0.0 1 True False
4672.398 4.092047214508057 -1.718248029748434 2.042434040700094 -1.894940038720602 -1.5708125273333948 2.521238327026367 0.0 0.0 -0.0 -0.0 0.0 0.0 1 True False
4672.447999999999 4.092027187347412 -1.718227048913473 2.0424512068377894 -1.8949724636473597 -1.5707643667804163 2.5211896896362305 0.0 0.0 -0.0 -0.0 0.0 0.0 1 True False
4672.498 4.092087268829346 -1.718238969842428 2.0424349943744105 -1.8948914013304652 -1.5707762877093714 2.521298885345459 0.0 0.0 -0.0 -0.0 0.0 0.0 1 True False
4672.548 4.0920305252075195 -1.718255182305807 2.0424307028399866 -1.8949929676451625 -1.5707843939410608 2.5211598873138428 0.0 0.0 -0.0 -0.0 0.0 0.0 1 True False
4672.598 4.091989994049072 -1.7183104954161585 2.0424230734454554 -1.8950163326659144 -1.5707967917071741 2.5212254524230957 0.0 0.0 -0.0 -0.0 0.0 0.0 1 True False
4672.648 4.092083930969238 -1.7182198963561 2.0424469153033655 -1.894996782342428 -1.570813004170553 2.5211896896362305 0.0 0.0 -0.0 -0.0 0.0 0.0 1 True False
4672.697999999999 4.0920186042785645 -1.71824373821401 2.0424426237689417 -1.8949161968626917 -1.570813004170553 2.5212416648864746 0.0 0.0 -0.0 -0.0 0.0 0.0 1 True False
4672.748 4.092060565948486 -1.7181984386839808 2.0424469153033655 -1.8949724636473597 -1.5707686583148401 2.5211973190307617 0.0 0.0 -0.0 -0.0 0.0 0.0 1 True False
4672.798 4.092034816741943 -1.7182523212828578 2.0424187819110315 -1.894984861413473 -1.570824925099508 2.5212502479553223 0.0 0.0 -0.0 -0.0 0.0 0.0 1 True False
4672.848 4.092022895812988 -1.718259950677389 2.042427364979879 -1.8949481449522914 -1.570801083241598 2.5212178230285645 0.0 0.0 -0.0 -0.0 0.0 0.0 1 True False
4672.898 4.092080593109131 -1.718238969842428 2.042426411305563 -1.8949843845763148 -1.5707529226886194 2.521193027496338 0.0 0.0 -0.0 -0.0 0.0 0.0 1 True False
4672.947999999999 4.092076301574707 -1.7182690105833949 2.0424230734454554 -1.8949481449522914 -1.570801083241598 2.521238327026367 0.0 0.0 -0.0 -0.0 0.0 0.0 1 True False
4672.998 4.092060089111328 -1.718255182305807 2.0424144903766077 -1.8949767551817835 -1.5707967917071741 2.5211973190307617 0.0 0.0 -0.0 -0.0 0.0 0.0 1 True False
4673.048 4.0920186042785645 -1.7181850872435511 2.0424469153033655 -1.8949805698790492 -1.5707648436175745 2.5211973190307617 0.0 0.0 -0.0 -0.0 0.0 0.0 1 True False
4673.098 4.092092990875244 -1.7182570896544398 2.0424793402301233 -1.8949247799315394 -1.570829216633932 2.5212297439575195 0.0 0.0 5.3158164519118145e-05 -0.0 0.0 0.0 1 True False
4673.148 4.092022895812988 -1.7182837925352992 2.042361084614889 -1.8949805698790492 -1.5707972685443323 2.521254539489746 0.0 0.0 5.249432096688098e-18 -0.0 0.0 0.0 1 True False
4673.197999999999 4.0920515060424805 -1.7181984386839808 2.042417828236715 -1.8950287304320277 -1.5708087126361292 2.521238327026367 0.0 0.0 0.0 -0.0 0.0 0.0 1 True False
4673.248 4.092006683349609 -1.718215127984518 2.0424512068377894 -1.8949324093260707 -1.5707767645465296 2.5212621688842773 0.0 0.0 0.0 -0.0 0.0 0.0 1 True False
4673.298 4.092073440551758 -1.71828093151235 2.0424307028399866 -1.8949724636473597 -1.5708406607257288 2.521226406097412 0.0 0.0 0.0 -0.0 0.0 0.0 1 True False
4673.348 4.092043399810791 -1.7182423077025355 2.04240590730776 -1.8949562511839808 -1.5708048979388636 2.521238327026367 0.0 0.0 0.0 -0.0 0.0 0.0 1 True False
4673.398 4.092080593109131 -1.718227048913473 2.0424230734454554 -1.894940038720602 -1.5707405249225062 2.5212459564208984 0.0 0.0 0.0 -0.0 0.0 0.0 1 True False
