Andreas691667/Digital_Twin_UR/src/controller_monitor/robot_output/vis_robot_output.csv
timestamp actual_q_0 actual_q_1 actual_q_2 actual_q_3 actual_q_4 actual_q_5 actual_qd_0 actual_qd_1 actual_qd_2 actual_qd_3 actual_qd_4 actual_qd_5 safety_status output_bit_register_65 output_bit_register_66

3453.3959999999997 3.712029457092285 -0.8254675430110474 0.8430169264422815 -1.5882932148375453 -1.5707648436175745 2.1413419246673584 0.0 0.0 0.0 -0.0 -0.0 0.0 1 False False

3453.446 3.712083101272583 -0.825495795612671 0.8429678122149866 -1.5883170566954554 -1.5707967917071741 2.141247272491455 0.0 0.0 0.0 -0.0 -0.0 0.0 1 False False

3453.4959999999996 3.712062358856201 -0.8254587215236207 0.8429501692401331 -1.5883170566954554 -1.5707529226886194 2.141231060028076 0.0 0.0 0.0 -0.0 -0.0 0.0 1 False False

3453.546 3.7120654582977295 -0.8254957360080262 0.842992130910055 -1.5882774792113246 -1.570813004170553 2.1413040161132812 0.0 0.0 0.0 -0.0 -0.0 0.0 1 False False

3453.596 3.7120535373687744 -0.8254631918719788 0.8430097738849085 -1.5883251629271449 -1.5707891623126429 2.141270875930786 0.0 0.0 0.0 -0.0 -0.0 0.0 1 False False

3453.6459999999997 3.7121024131774902 -0.8254497212222596 0.8430126349078577 -1.588269372979635 -1.5707891623126429 2.14125919342041 0.0 0.0 0.0 -0.0 -0.0 0.0 1 False False

3453.696 3.7120490074157715 -0.8254926365664979 0.8430007139789026 -1.5882369480528773 -1.570784870778219 2.1412839889526367 0.0 0.0 0.0 -0.0 -0.0 0.0 1 False False

3453.7459999999996 3.71211576461792 -0.8254365485957642 0.8429802099810999 -1.5882774792113246 -1.570801083241598 2.1412148475646973 0.0 0.0 0.0 -0.0 -0.0 0.0 1 False False

3453.796 3.7120492458343506 -0.8254926365664979 0.8429930845843714 -1.588268896142477 -1.5708377997027796 2.1412320137023926 0.0 0.0 0.0 -0.0 -0.0 0.0 1 False False

3453.846 3.712095022201538 -0.8254587215236207 0.8430126349078577 -1.588297029534811 -1.5708449522601526 2.1413333415985107 0.0 0.0 0.0 -0.0 -0.0 0.0 1 False False

3453.8959999999997 3.7121291160583496 -0.8254706424525757 0.8429845015155237 -1.5882889233031214 -1.5708211104022425 2.141295909881592 0.0 0.0 0.0 -0.0 -0.0 0.0 1 False False

3453.946 3.7120742797851562 -0.825457291012146 0.8429802099810999 -1.588292738000387 -1.5708044211017054 2.1413002014160156 0.0 0.0 0.0 -0.0 -0.0 0.0 1 False False

3453.9959999999996 3.7120773792266846 -0.8254260581782837 0.8429635206805628 -1.5882169208922328 -1.5707886854754847 2.1412546634674072 0.0 0.0 0.0 -0.0 -0.0 0.0 1 False False

3454.046 3.712062358856201 -0.825463132267334 0.8430126349078577 -1.5883499584593714 -1.5707724730121058 2.141291618347168 0.0 0.0 0.0 -0.0 -0.0 0.0 1 False False

3454.096 3.71207857131958 -0.8254543107799073 0.8429678122149866 -1.5883094273009242 -1.5707967917071741 2.141275405883789 0.0 0.0 0.0 -0.0 -0.0 0.0 1 False False

3454.1459999999997 3.712045907974243 -0.8254392904094239 0.8430007139789026 -1.5882889233031214 -1.570813004170553 2.141312837600708 0.0 0.0 0.0 -0.0 -0.0 0.0 1 False False

3454.196 3.712062358856201 -0.8254913848689576 0.8429721037494105 -1.5882889233031214 -1.5707891623126429 2.1412353515625 0.0 0.0 0.0 -0.0 -0.0 0.0 1 False False

3454.2459999999996 3.7120862007141113 -0.8254993122867127 0.8429802099810999 -1.5882488689818324 -1.570813004170553 2.141270875930786 0.0 0.0 0.0 -0.0 -0.0 0.0 1 False False

3454.296 3.712095022201538 -0.8254587215236207 0.8429845015155237 -1.5882817707457484 -1.5707767645465296 2.141291618347168 0.0 0.0 0.0 -0.0 -0.0 0.0 1 False False

3454.4959999999996 3.7121024131774902 -0.8254794639400025 0.8429845015155237 -1.5882774792113246 -1.570813004170553 2.14125919342041 0.0 0.0 0.0 -0.0 -0.0 0.0 1 False False

3454.546 3.712090492248535 -0.8254289788058777 0.8429635206805628 -1.588245531121725 -1.5708168188678187 2.1413044929504395 0.0 0.0 0.0 -0.0 -0.0 0.0 1 False False

3454.596 3.7120611667633057 -0.8254706424525757 0.8429802099810999 -1.5882774792113246 -1.5707767645465296 2.1412384510040283 0.0 0.0 0.0 -0.0 -0.0 0.0 1 False False

3454.6459999999997 3.712090492248535 -0.8254468005946656 0.8430212179767054 -1.5883094273009242 -1.5707648436175745 2.141279697418213 0.0 0.0 0.0 -0.0 -0.0 0.0 1 False False

3454.696 3.7119970321655273 -0.8254468005946656 0.8429763952838343 -1.588285585443014 -1.5707767645465296 2.1413002014160156 0.0 0.0 0.0 -0.0 -0.0 0.0 1 False False

3454.7459999999996 3.7120580673217773 -0.8254794639400025 0.8429635206805628 -1.588273664514059 -1.5707767645465296 2.141279697418213 0.0 0.0 0.0 -0.0 -0.0 0.0 1 False False

3454.796 3.7120165824890137 -0.825466052894928 0.8429520765887659 -1.5883013210692347 -1.5707886854754847 2.1412763595581055 0.0 0.0 0.0 -0.0 -0.0 0.0 1 False False

3454.846 3.7120165824890137 -0.825463132267334 0.8430126349078577 -1.5882650814452113 -1.5707486311541956 2.1413044929504395 0.0 0.0 0.0 -0.0 -0.0 0.0 1 False False

3454.8959999999997 3.7120862007141113 -0.8254993122867127 0.8429396788226526 -1.5882488689818324 -1.5707610289203089 2.1412546634674072 0.0 0.0 0.0 -0.0 -0.0 0.0 1 False False

3454.946 3.7121036052703857 -0.8254794043353577 0.8429721037494105 -1.588273664514059 -1.5708087126361292 2.1412222385406494 0.0 0.0 0.0 -0.0 -0.0 0.0 1 False False

3454.9959999999996 3.7120208740234375 -0.8254913848689576 0.8429964224444788 -1.588269372979635 -1.5707767645465296 2.141291618347168 0.0 0.0 0.0 -0.0 -0.0 0.0 1 False False

3455.046 3.7120656967163086 -0.8254468005946656 0.8430169264422815 -1.5882817707457484 -1.570784870778219 2.1413002014160156 0.0 0.0 0.0 -0.0 -0.0 0.0 1 False False

3455.096 3.712070941925049 -0.825451211338379 0.8429802099810999 -1.588269372979635 -1.5707767645465296 2.141275405883789 0.0 0.0 0.0 -0.0 -0.0 0.0 1 False False

3455.1459999999997 3.7120370864868164 -0.8254333895495911 0.8429964224444788 -1.588297506371969 -1.5707967917071741 2.141279697418213 0.0 0.0 0.0 -0.0 -0.0 0.0 1 False False

3455.196 3.7121024131774902 -0.8254914444736023 0.8429845015155237 -1.5882774792113246 -1.5707810560809534 2.141258955001831 0.0 0.0 0.0 -0.0 -0.0 0.0 1 False False

3455.2459999999996 3.7120254039764404 -0.8254543107799073 0.8429802099810999 -1.5883132419981898 -1.5707929770099085 2.1412558555603027 0.0 0.0 0.0 -0.0 -0.0 0.0 1 False False

3455.296 3.7121024131774902 -0.8254779738238831 0.8430336157428187 -1.588245531121725 -1.5707767645465296 2.141254186630249 0.0 0.0 0.0 -0.0 -0.0 0.0 1 False False

3455.346 3.712062358856201 -0.8254750531962891 0.8429563681231897 -1.5882851086058558 -1.5707929770099085 2.141270637512207 0.0 0.0 0.0 -0.0 -0.0 0.0 1 False False

3455.3959999999997 3.7120580673217773 -0.8254261177829285 0.8429935614215296 -1.588217397729391 -1.5708006064044397 2.141267776489258 0.0 0.0 0.0 -0.0 -0.0 0.0 1 False False

3455.446 3.712062358856201 -0.8254913848689576 0.8430379072772425 -1.5883289776244105 -1.570813004170553 2.141287088394165 0.0 0.0 0.0 -0.0 -0.0 0.0 1 False False

3455.4959999999996 3.7120819091796875 -0.8254543107799073 0.8429845015155237 -1.588269372979635 -1.5707967917071741 2.141263246536255 0.0 0.0 0.0 -0.0 -0.0 0.0 1 False False

3455.546 3.7120416164398193 -0.8255202931216736 0.8429515997516077 -1.5883246860899867 -1.5708125273333948 2.141296148300171 0.0 0.0 0.0 -0.0 -0.0 0.0 1 False False

3455.596 3.7121024131774902 -0.8254823845675965 0.842992130910055 -1.5882851086058558 -1.5707810560809534 2.141282558441162 0.0 0.0 0.0 -0.0 -0.0 0.0 1 False False

3455.6459999999997 3.7120327949523926 -0.8254468601993104 0.8429721037494105 -1.588245531121725 -1.5708087126361292 2.141313076019287 0.0 0.0 0.0 -0.0 -0.0 0.0 1 False False

3455.696 3.7120699882507324 -0.8254543107799073 0.8430007139789026 -1.5882894001402796 -1.570772949849264 2.141279697418213 0.0 0.0 0.0 -0.0 -0.0 0.0 1 False False

3455.7459999999996 3.7120981216430664 -0.8254304689219971 0.8429845015155237 -1.588245531121725 -1.5707886854754847 2.141296148300171 0.0 0.0 0.0 -0.0 -0.0 0.0 1 False False

3455.796 3.7120981216430664 -0.8254750531962891 0.8429845015155237 -1.5883094273009242 -1.5707648436175745 2.141279697418213 0.0 0.0 0.0 -0.0 -0.0 0.0 1 False False

3455.846 3.712094783782959 -0.8254869741252442 0.8429721037494105 -1.588245531121725 -1.5707572142230433 2.141247034072876 0.0 0.0 0.0 -0.0 -0.0 0.0 1 False False

3455.8959999999997 3.7120862007141113 -0.8254808944514771 0.8429515997516077 -1.5883056126036585 -1.570829216633932 2.14131760597229 0.0 0.0 0.0 -0.0 -0.0 0.0 1 False False

3455.946 3.712111473083496 -0.8254543107799073 0.8430007139789026 -1.5883175335326136 -1.570784870778219 2.1413040161132812 0.0 0.0 0.0 -0.0 -0.0 0.0 1 False False

3455.9959999999996 3.7120161056518555 -0.825463132267334 0.8430054823504847 -1.5882817707457484 -1.5708006064044397 2.141263246536255 0.0 0.0 0.0 -0.0 -0.0 0.0 1 False False

3456.046 3.7120981216430664 -0.825454370384552 0.8430426756488245 -1.5883170566954554 -1.5708206335650843 2.141258955001831 0.0 0.0 0.0 -0.0 -0.0 0.0 1 False False

3456.096 3.7120490074157715 -0.8255290550044556 0.8430054823504847 -1.5882774792113246 -1.5708416144000452 2.14127516746521 0.0 0.0 0.0 -0.0 -0.0 0.0 1 False False

3456.346 3.712035655975342 -0.825466052894928 0.8430007139789026 -1.5883127651610316 -1.5707648436175745 2.141247034072876 0.0 0.0 0.0 -0.0 -0.0 0.0 1 False False

3456.3959999999997 3.7120697498321533 -0.8254720133594056 0.8430126349078577 -1.588252683679098 -1.5707967917071741 2.1412723064422607 0.0 0.0 0.0 -0.0 -0.0 0.0 1 False False

3456.446 3.7120862007141113 -0.8254706424525757 0.8429811636554163 -1.5883094273009242 -1.5708211104022425 2.141287088394165 0.0 0.0 0.0 -0.0 -0.0 0.0 1 False False

3456.4959999999996 3.7121071815490723 -0.8255127233317872 0.8429587523089808 -1.5882569752135218 -1.570784870778219 2.141291618347168 0.0 0.0 0.0 -0.0 -0.0 0.0 1 False False

3456.546 3.7120654582977295 -0.8254869741252442 0.8430054823504847 -1.588269372979635 -1.5707362333880823 2.1412930488586426 0.0 0.0 0.0 -0.0 -0.0 0.0 1 False False

3456.596 3.712045669555664 -0.8255083125880738 0.8429606596576136 -1.5882650814452113 -1.5707805792437952 2.141329526901245 0.0 0.0 0.0 -0.0 -0.0 0.0 1 False False

3456.6459999999997 3.712132453918457 -0.8255157035640259 0.8429563681231897 -1.588297029534811 -1.5708168188678187 2.141291618347168 0.0 0.0 0.0 -0.0 -0.0 0.0 1 False False

3456.696 3.7120609283447266 -0.8255039614490052 0.8429892698871058 -1.5882932148375453 -1.5707967917071741 2.141249656677246 0.0 0.0 0.0 -0.0 -0.0 0.0 1 False False

3456.7459999999996 3.7120697498321533 -0.825495795612671 0.8429802099810999 -1.5882774792113246 -1.5708168188678187 2.141247034072876 0.0 0.0 0.0 -0.0 -0.0 0.0 1 False False

3456.796 3.712095260620117 -0.8255128425410767 0.8429845015155237 -1.588313718835348 -1.5708048979388636 2.1413309574127197 0.0 0.0 0.0 -0.0 -0.0 0.0 1 False False

3456.846 3.712095260620117 -0.8255090874484559 0.8430293242083948 -1.5882536373534144 -1.5708044211017054 2.141296148300171 0.0 0.0 0.0 -0.0 -0.0 0.0 1 False False

3456.8959999999997 3.7120697498321533 -0.8254794639400025 0.8429515997516077 -1.5882250271239222 -1.570772949849264 2.14127516746521 0.0 0.0 0.0 -0.0 -0.0 0.0 1 False False

3456.946 3.712036609649658 -0.8254229587367554 0.8429892698871058 -1.5882569752135218 -1.5708168188678187 2.141242504119873 0.0 0.0 0.0 -0.0 -0.0 0.0 1 False False

3456.9959999999996 3.7120907306671143 -0.8254869741252442 0.8429802099810999 -1.588320871392721 -1.5708168188678187 2.14131760597229 0.0 0.0 0.0 -0.0 -0.0 0.0 1 True False

3457.046 3.71209979057312 -0.8254869145205994 0.842992130910055 -1.5883094273009242 -1.5708211104022425 2.141254186630249 0.0 0.0 0.0 -0.0 -0.0 0.00028989784186705947 1 True False

3457.096 3.712116003036499 -0.8254423898509522 0.8430007139789026 -1.5883013210692347 -1.5707605520831507 2.141270637512207 0.0 0.0 0.0 -0.0 -0.0 3.193392694811337e-05 1 True False

3457.1459999999997 3.7120907306671143 -0.8254707020572205 0.8429630438434046 -1.588313718835348 -1.5708091894732874 2.141226053237915 0.0 0.0 0.0 -0.0 -0.0 1.6905429220059887e-05 1 True False

3457.196 3.7120697498321533 -0.8254795235446473 0.8429721037494105 -1.5882288418211878 -1.570829216633932 2.1413414478302 0.0 0.0 0.0 -0.0 -0.0 1.1503245332278311e-05 1 True False

3457.2459999999996 3.712083339691162 -0.825488345032074 0.8429630438434046 -1.5882412395873011 -1.570784870778219 2.1412765979766846 0.0 0.0 0.0 -0.0 -0.0 1.6340225876139403e-15 1 True False

3457.296 3.71209979057312 -0.8254543107799073 0.8430040518390101 -1.588285585443014 -1.5707805792437952 2.141284227371216 0.0 0.0 0.0 -0.0 -0.0 2.4820831836438863e-34 1 True False

3457.346 3.712071418762207 -0.825437919502594 0.8430174032794397 -1.588297029534811 -1.5707486311541956 2.141279697418213 0.0 0.0 0.0 -0.0 -0.0 0.0 1 True False

3457.3959999999997 3.712083339691162 -0.8254993718913575 0.8429587523089808 -1.5882650814452113 -1.5708211104022425 2.141263246536255 0.0 0.0 0.0 -0.0 -0.0 0.0 1 True False

3457.446 3.71209979057312 -0.8254913848689576 0.8430307547198694 -1.5883013210692347 -1.570813004170553 2.141279697418213 0.0 0.0 0.0 -0.0 -0.0 3.340845378119184e-09 1 True False

3457.4959999999996 3.712095260620117 -0.825470582847931 0.8429763952838343 -1.5882846317686976 -1.5707805792437952 2.141270637512207 0.0 0.0 0.0 -0.0 -0.0 -0.000717197370249778 1 True False

3457.546 3.712111473083496 -0.8254497212222596 0.8429845015155237 -1.5883294544615687 -1.5707891623126429 2.1413183212280273 0.0 0.0 0.0 -0.0 0.0028255365323275328 9.337899768979696e-07 1 True False

3457.596 3.7120935916900635 -0.8254543107799073 0.8429845015155237 -1.5882650814452113 -1.5707925001727503 2.1412994861602783 0.0 5.5659575002981734e-42 0.0 -0.0 -4.5614833652507514e-05 5.187836359255016e-05 1 True False

3457.6459999999997 3.712062358856201 -0.8254927557757874 0.8429496924029749 -1.5883251629271449 -1.5707686583148401 2.141313076019287 0.0 0.0 0.0 -0.0 -7.462241762012933e-12 1.0923163336574773e-21 1 True False

3457.696 3.712402105331421 -0.8256592911532898 0.8432238737689417 -1.5883170566954554 -1.5708935896502894 2.141188859939575 0.03291391581296921 -0.015003527514636517 0.024457288905978203 -0.006026303395628929 5.943999682123295e-20 -0.016071781516075134 1 True False

3457.7459999999996 3.715771436691284 -0.827125684624054 0.8456381003009241 -1.5892988644041957 -1.5707925001727503 2.1396381855010986 0.10050088167190552 -0.049937039613723755 0.08158758282661438 -0.027824226766824722 9.028945757528628e-39 -0.043501365929841995 1 True False

3457.796 3.7229156494140625 -0.8308105033687134 0.8513191382037562 -1.5910684070982875 -1.570801083241598 2.136629343032837 0.17426785826683044 -0.0925624743103981 0.13297221064567566 -0.048001520335674286 0.0 -0.07590017467737198 1 True False

3457.846 3.733132839202881 -0.8362329763225098 0.8593638578998011 -1.593839784661764 -1.5708254019366663 2.1319894790649414 0.24264658987522125 -0.1278005987405777 0.1834591031074524 -0.05748820677399635 0.0 -0.10611093789339066 1 True False

3457.8959999999997 3.747096300125122 -0.8432814639857789 0.8701556364642542 -1.5974446735777796 -1.5707724730121058 2.125856637954712 0.3090988099575043 -0.15396761894226074 0.24341100454330444 -0.08688001334667206 0.00011361321230651811 -0.13603384792804718 1 True False

3457.946 3.7643303871154785 -0.8522994679263611 0.8836234251605433 -1.6020380459227503 -1.570784870778219 2.118309497833252 0.381269246339798 -0.19434024393558502 0.2944861352443695 -0.10014410316944122 7.972156163305044e-05 -0.16748736798763275 1 True False

3457.9959999999996 3.785191774368286 -0.862963394527771 0.8997452894793909 -1.607633729974264 -1.5707767645465296 2.1090900897979736 0.45266860723495483 -0.23493005335330963 0.34896352887153625 -0.11561792343854904 0.00010105211549671367 -0.19894273579120636 1 True False

3458.046 3.809584140777588 -0.8754317325404664 0.9187725226031702 -1.61395325283193 -1.570801083241598 2.0983872413635254 0.5230458974838257 -0.261638879776001 0.4062731862068176 -0.13947276771068573 5.36599472980015e-05 -0.22895486652851105 1 True False

3458.096 3.8371801376342773 -0.8897575897029419 0.9401896635638636 -1.6215220890440882 -1.570857350026266 2.086075782775879 0.5836379528045654 -0.30236461758613586 0.4592744708061218 -0.1551579236984253 6.8904938178848685e-12 -0.2590904235839844 1 True False

3458.1459999999997 3.868610143661499 -0.9057381910136719 0.9645870367633265 -1.629646440545553 -1.5708449522601526 2.0724096298217773 0.651598334312439 -0.33847635984420776 0.5100219249725342 -0.16915413737297058 1.454784069210291e-06 -0.29023733735084534 1 True False

3458.196 3.903400421142578 -0.9235311311534424 0.9916046301471155 -1.638735910455221 -1.5707925001727503 2.056971549987793 0.7297490835189819 -0.3722005784511566 0.5700901746749878 -0.185535728931427 -4.6317988326074135e-17 -0.31677815318107605 1 True False

3458.2459999999996 3.941673755645752 -0.9433081907084961 1.021285359059469 -1.649038930932516 -1.5708048979388636 2.0400781631469727 0.8003710508346558 -0.4090949296951294 0.6191648244857788 -0.22283384203910828 -6.167786523292307e-06 -0.35582235455513 1 True False

3458.296 3.9835054874420166 -0.9645409745028992 1.0538666884051722 -1.6598478756346644 -1.5707686583148401 2.0216057300567627 0.8727868795394897 -0.4365305006504059 0.6765170097351074 -0.22783596813678741 -1.6147944847944018e-07 -0.3810797929763794 1 True False

3458.346 4.028793811798096 -0.9877969783595582 1.088771168385641 -1.671976228753561 -1.570829216633932 2.001655101776123 0.9314049482345581 -0.4825153946876526 0.7293779850006104 -0.24607893824577332 -2.4528768571976232e-26 -0.4154687225818634 1 True False

3458.3959999999997 4.0774712562561035 -1.0128156703761597 1.1267474333392542 -1.684756418267721 -1.570784870778219 1.9802829027175903 1.0120267868041992 -0.5205784440040588 0.7838805317878723 -0.2675747573375702 4.844872604232303e-14 -0.4424110949039459 1 True False

3458.446 4.129415988922119 -1.0393545788577576 1.1671980063067835 -1.6984859905638636 -1.570700470601217 1.9573827981948853 1.051733374595642 -0.5392553806304932 0.8068485856056213 -0.2808935046195984 7.359371931787001e-33 -0.45975461602211 1 True False

3458.4959999999996 4.181812763214111 -1.0662571352771302 1.207867447529928 -1.7120877705016078 -1.570801083241598 1.9341617822647095 1.04412043094635 -0.5311755537986755 0.8099066019058228 -0.27730798721313477 -0.0001357734581688419 -0.4533669948577881 1 True False

3458.546 4.234033107757568 -1.093041644697525 1.2484787146197718 -1.7261182270445765 -1.5708048979388636 1.91116201877594 1.0513978004455566 -0.5283113121986389 0.8153061270713806 -0.2763681709766388 -0.00012254902685526758 -0.46376141905784607 1 True False

3458.596 4.2864460945129395 -1.1199264389327546 1.2890380064593714 -1.7400032482542933 -1.5708416144000452 1.8881770372390747 1.0482978820800781 -0.5403513312339783 0.8172749280929565 -0.27456536889076233 -0.00019230360339861363 -0.4662025272846222 1 True False

3458.6459999999997 4.338840961456299 -1.1467985969832917 1.3297084013568323 -1.7538286648192347 -1.5707925001727503 1.8650920391082764 1.0419660806655884 -0.5371488332748413 0.8173319101333618 -0.2633844017982483 -0.00010140787344425917 -0.4595052897930145 1 True False

3458.696 4.391183376312256 -1.1736366015723725 1.3702152411090296 -1.7676626644530238 -1.570801083241598 1.8418877124786377 1.054847240447998 -0.5359826683998108 0.815886914730072 -0.28397125005722046 -3.789034963119775e-05 -0.4565802216529846 1 True False

3458.7459999999996 4.442814350128174 -1.2000482243350525 1.4103406111346644 -1.7812773189940394 -1.5707772413836878 1.8193002939224243 1.0016824007034302 -0.5129975080490112 0.7782521843910217 -0.27231815457344055 -7.543587976499566e-11 -0.4505607783794403 1 True False

3458.796 4.491183280944824 -1.2248407167247315 1.4481647650348108 -1.793910642663473 -1.5707772413836878 1.797874927520752 0.9340712428092957 -0.4794270396232605 0.7215906977653503 -0.259005606174469 0.00012984508066438138 -0.41077208518981934 1 True False

3458.846 4.5359272956848145 -1.2478462022593995 1.4829171339618128 -1.8056837520995082 -1.5708449522601526 1.7781331539154053 0.8645768761634827 -0.4431074559688568 0.6711097955703735 -0.21528559923171997 -0.0004715127870440483 -0.3723596930503845 1 True False

3458.8959999999997 4.577251434326172 -1.2690757376006623 1.5148890654193323 -1.8167640171446742 -1.5707805792437952 1.7599902153015137 0.7965536117553711 -0.4051651656627655 0.6173112988471985 -0.20213168859481812 -1.1041818154255978e-10 -0.3553612232208252 1 True False

3458.946 4.615254878997803 -1.2885233622840424 1.5443390051471155 -1.8266989193358363 -1.5707767645465296 1.743165373802185 0.7199533581733704 -0.3738453984260559 0.5579308867454529 -0.194938525557518 -1.4810135268768926e-13 -0.31658634543418884 1 True False

3458.9959999999996 4.649664878845215 -1.3060519856265564 1.5711587111102503 -1.835839410821432 -1.5708487669574183 1.7280373573303223 0.6504161357879639 -0.3371087610721588 0.5051394701004028 -0.17786571383476257 -0.0004030728305224329 -0.28926336765289307 1 True False

3459.046 4.68048095703125 -1.3219688546708603 1.5948570410357874 -1.8440357647337855 -1.5708449522601526 1.7144386768341064 0.5804860591888428 -0.2957724928855896 0.4522354304790497 -0.14488008618354797 3.672128157106158e-09 -0.2534932494163513 1 True False

3459.096 4.707831859588623 -1.3358906668475647 1.616265598927633 -1.8511320553221644 -1.5707805792437952 1.7023414373397827 0.5123608112335205 -0.2662198543548584 0.39951398968696594 -0.14130844175815582 1.4426350389840081e-06 -0.22934560477733612 1 True False

3459.1459999999997 4.731849670410156 -1.3483059269240876 1.6348546187030237 -1.8574487171568812 -1.5708335081683558 1.6917493343353271 0.44085678458213806 -0.2212551385164261 0.3480169177055359 -0.10980492830276489 -0.0002763654920272529 -0.1962265521287918 1 True False

3459.196 4.7523579597473145 -1.3587874633124848 1.6506722609149378 -1.8630429706969203 -1.570801083241598 1.6827467679977417 0.37012365460395813 -0.19837725162506104 0.28704482316970825 -0.09714309871196747 -2.4509354032528803e-14 -0.16508978605270386 1 True False

3459.2459999999996 4.7693634033203125 -1.3673591774753113 1.664081875477926 -1.8671924076476039 -1.5707805792437952 1.6753116846084595 0.30647382140159607 -0.15908768773078918 0.2357155829668045 -0.08645530045032501 2.8602771439915704e-20 -0.13715864717960358 1 True False

3459.296 4.782670974731445 -1.3742179733565827 1.6742947737323206 -1.870913644830221 -1.5707805792437952 1.6693859100341797 0.23910915851593018 -0.11835522204637527 0.18149547278881073 -0.0652083158493042 -4.5800628868164495e-05 -0.10472472012042999 1 True False

3459.346 4.792625427246094 -1.3793863517097016 1.6820667425738733 -1.873441835443014 -1.570784870778219 1.6650291681289673 0.1685648262500763 -0.08533819019794464 0.1286524087190628 -0.03950411081314087 -6.957124461907863e-24 -0.07518798112869263 1 True False

3459.3959999999997 4.799140453338623 -1.3827340763858338 1.6870954672442835 -1.875286718408102 -1.570784870778219 1.6621572971343994 0.09307710826396942 -0.04857739433646202 0.07807721942663193 -0.023472467437386513 -1.056579042100912e-42 -0.04219549894332886 1 True False

3459.446 4.802114009857178 -1.384351984863617 1.6894319693194788 -1.87603821376943 -1.5707767645465296 1.6608116626739502 0.025514323264360428 -0.015135614201426506 0.018182966858148575 -0.004494805820286274 -1.4702147382195108e-05 -0.011649483814835548 1 True False

3459.4959999999996 4.802232265472412 -1.3840774607709427 1.6901033560382288 -1.8768636188902796 -1.5708492437945765 1.6608210802078247 -0.0004548258148133755 0.013342141173779964 0.03031497821211815 -0.035565029829740524 -1.527317929720935e-16 6.968588422751054e-05 1 True False

3459.546 4.802256107330322 -1.3827103090337296 1.692716423665182 -1.8807593784727992 -1.5708044211017054 1.660780906677246 0.00019866305228788406 0.04029872268438339 0.07352765649557114 -0.11708112061023712 -3.1370336177524285e-19 -0.0010958104394376278 1 True False

3459.596 4.802270412445068 -1.379993276005127 1.6974991003619593 -1.888284822503561 -1.5707839171039026 1.6608058214187622 0.0006904540350660682 0.06931901723146439 0.11655750870704651 -0.18126718699932098 4.567213181871921e-05 -0.0004149434098508209 1 True False

3459.6459999999997 4.802257537841797 -1.3757903289845963 1.7043703238116663 -1.8993498287596644 -1.5707925001727503 1.6607075929641724 0.0003079619782511145 0.09339605271816254 0.1584833413362503 -0.24728287756443024 5.519672413356602e-05 -0.00026617440744303167 1 True False

3459.696 4.802335262298584 -1.3704771411469956 1.7135761419879358 -1.9137317142882289 -1.5707925001727503 1.6607451438903809 0.00012719545338768512 0.11795016378164291 0.2083824872970581 -0.32110974192619324 7.597094372613356e-05 -0.00014791774447076023 1 True False

3459.7459999999996 4.802302837371826 -1.3640171450427552 1.724828068410055 -1.9317909679808558 -1.5708487669574183 1.660678505897522 0.0001870967826107517 0.1436212807893753 0.2484033852815628 -0.3944754898548126 2.8074966795799128e-09 -9.77231320575811e-05 1 True False

3459.796 4.802350997924805 -1.3560179334929963 1.7385533491717737 -1.9532305202879847 -1.5708168188678187 1.660757064819336 0.00015772624465171248 0.17154058814048767 0.28590765595436096 -0.46686315536499023 4.264595342541406e-28 -4.908434769745895e-11 1 True False

3459.846 4.802297592163086 -1.3467550587705155 1.754263703023092 -1.9781629047789515 -1.570784870778219 1.6607646942138672 0.00012154650175943971 0.1955300271511078 0.3399428129196167 -0.5289249420166016 3.069899889851513e-11 -7.455924063762836e-30 1 True False

3459.8959999999997 4.802334308624268 -1.3366055947593232 1.7717235724078577 -2.0057579479613246 -1.570784870778219 1.6607364416122437 0.0001520118530606851 0.19384163618087769 0.3382496237754822 -0.5371930003166199 4.6631830804464764e-30 -0.0 1 True False

3459.946 4.802335262298584 -1.3275270921042939 1.7876914183246058 -2.0309087238707484 -1.5707686583148401 1.660740852355957 -3.1478924938710406e-05 0.17388907074928284 0.301138311624527 -0.46792444586753845 0.0 -0.0 1 True False

3459.9959999999996 4.802334308624268 -1.319526658659317 1.8011649290667933 -2.0525666675963343 -1.5707772413836878 1.660703420639038 0.0 0.14847968518733978 0.2519308924674988 -0.3988680839538574 0.0 -3.0467456326732645e-06 1 True False

3460.046 4.802318096160889 -1.312730388050415 1.8127520720111292 -2.070693632165426 -1.5707529226886194 1.6607657670974731 0.0 0.11990154534578323 0.20725664496421814 -0.34189361333847046 0.0 -4.628012737850439e-25 1 True False

3460.096 4.802366733551025 -1.3074694734862824 1.8222382704364222 -2.085372587243551 -1.5707529226886194 1.660728931427002 0.0 0.09687919169664383 0.16632936894893646 -0.2591311037540436 0.0 -7.006492321624085e-44 1 True False

3460.1459999999997 4.802363872528076 -1.303433434372284 1.8290146032916468 -2.0966831646361292 -1.5708087126361292 1.6607332229614258 0.0 0.0684557557106018 0.11832010000944138 -0.19688358902931213 0.0 -0.0 1 True False

3460.196 4.802358150482178 -1.3005325657180329 1.8339598814593714 -2.1042973003783167 -1.5707925001727503 1.6607321500778198 0.0 0.04661755636334419 0.07718764245510101 -0.13146552443504333 0.0 -0.0 1 True False

3460.2459999999996 4.80239200592041 -1.2989344757846375 1.8366501967059534 -2.1083384952940882 -1.5708048979388636 1.660715937614441 0.0 0.021131420508027077 0.034908030182123184 -0.049279969185590744 0.0 -0.0 1 True False

3460.446 4.802334308624268 -1.2987211507609864 1.8372085730182093 -2.109288831750387 -1.5707886854754847 1.660752773284912 0.0 0.0003379206173121929 8.523240830982104e-05 2.956739759725364e-43 5.505561536485774e-41 -0.0 1 True False

3460.4959999999996 4.802313804626465 -1.2987211507609864 1.8371709028827112 -2.1092683277525843 -1.5708006064044397 1.6607646942138672 0.0 0.00021389793255366385 8.148697088472545e-05 0.0 0.0 -0.0 1 True False

3460.546 4.802408695220947 -1.2987137001803895 1.837175194417135 -2.1093045673766078 -1.5707691351519983 1.6607208251953125 0.0 0.00012162841449026018 8.892982441466302e-05 -0.00011510142212500796 0.0 -0.0 1 True False

3460.596 4.802297592163086 -1.298680917625763 1.8371828238116663 -2.109260698358053 -1.5707648436175745 1.660810112953186 0.0 0.00010161668615182862 8.399222133448347e-05 -9.949726518243551e-05 0.0 -0.0 1 True False

3460.6459999999997 4.80232572555542 -1.2987270516208191 1.8371828238116663 -2.109232564965719 -1.570829216633932 1.660740852355957 0.0 0.00011310169793432578 8.080324914772063e-05 -2.6010484361904673e-05 0.0 -0.0 1 True False

3460.696 4.802317142486572 -1.2987164717963715 1.8371618429767054 -2.109248777429098 -1.5708006064044397 1.660707712173462 -1.4732416207403126e-36 0.0001150240350398235 2.2955321128392825e-06 -3.872551314998418e-05 0.0 -0.0 1 True False

3460.7459999999996 4.802338123321533 -1.2987270516208191 1.8371904532061976 -2.1093045673766078 -1.570728603993551 1.660715937614441 -2.2364725737133995e-05 8.421445090789348e-05 5.4016307942900954e-36 -5.8824127079318706e-24 0.0 -0.0 1 True False

3460.796 4.802358150482178 -1.2986570757678528 1.8372018972979944 -2.1092969379820765 -1.5707767645465296 1.6607441902160645 -1.379487912345212e-05 7.069006096571684e-05 5.0644768634811044e-05 -8.940284202392333e-43 0.0 -0.0 1 True False

3460.846 4.802310466766357 -1.298689828520157 1.8371952215777796 -2.109260221520895 -1.570784870778219 1.660757064819336 -9.973269698093645e-06 0.0 1.3857323970876167e-32 -0.0 0.0 -0.0 1 True False

3460.8959999999997 4.802281379699707 -1.298793153171875 1.837017838154928 -2.1094194851317347 -1.5708168188678187 1.6607818603515625 -1.6923208536088435e-18 0.0002086708409478888 -0.00018831505440175533 -0.0005709038232453167 6.565428338944912e-05 -0.0005059418617747724 1 True False

3460.946 4.8023223876953125 -1.2987440091422577 1.837137524281637 -2.1094800434508265 -1.5708048979388636 1.6607613563537598 2.4878858312149532e-05 0.00023205969773698598 -2.5195690748104882e-24 -3.483362576162108e-08 2.323577609786298e-05 -3.710986493388191e-05 1 True False

3460.9959999999996 4.802347183227539 -1.2987573903850098 1.8370779196368616 -2.1094800434508265 -1.5707886854754847 1.6607362031936646 0.0 0.0006398985860869288 0.0009193734731525183 0.0007056199829094112 1.412071014783578e-05 -1.8270711734658107e-05 1 True True

3461.046 4.802334308624268 -1.2990915340236207 1.8366096655475062 -2.1076446972289027 -1.5707648436175745 1.6607117652893066 0.0 -0.016477705910801888 -0.032931409776210785 0.05816452577710152 2.0284642232581973e-05 -1.6354681065422483e-05 1 True True

3461.096 4.8023295402526855 -1.3008172375014802 1.833426300679342 -2.103136201898092 -1.570801083241598 1.6607986688613892 0.0 -0.05646773427724838 -0.09506869316101074 0.13266430795192719 4.07898643290908e-23 -3.350662412457406e-12 1 True True

3461.1459999999997 4.802350997924805 -1.3038678926280518 1.8281005064593714 -2.0945707760252894 -1.5707648436175745 1.6607987880706787 0.0 -0.07449295371770859 -0.1314021199941635 0.20532868802547455 6.196541809244341e-42 -5.089660612365484e-31 1 True True

3461.196 4.8023600578308105 -1.3084225815585633 1.8203957716571253 -2.0827704868712367 -1.5708168188678187 1.6607614755630493 0.0 -0.09664814919233322 -0.16903991997241974 0.2617415487766266 0.0 9.577969385492213e-14 1 True True

3461.2459999999996 4.802271366119385 -1.3141528528979798 1.8104608694659632 -2.067552228967184 -1.5707967917071741 1.6607614755630493 0.0 -0.12309650331735611 -0.21216435730457306 0.33581453561782837 0.0 1.4548951051437415e-32 1 True True

3461.296 4.802338600158691 -1.3209548753551026 1.7987759749041956 -2.048436780969137 -1.57082444826235 1.6607495546340942 0.0 -0.15059024095535278 -0.26335060596466064 0.40722694993019104 0.0 0.0 1 True True

3461.346 4.802334308624268 -1.3291218888810654 1.784522835408346 -2.0261999569334925 -1.5707533995257776 1.6607451438903809 0.0 -0.17804303765296936 -0.30726897716522217 0.476850301027298 0.0 0.0 1 True True

3461.3959999999997 4.802314758300781 -1.3387263727239151 1.7682927290545862 -2.0004402599730433 -1.5707767645465296 1.6607942581176758 0.0 -0.20128019154071808 -0.34664562344551086 0.5478613972663879 0.0 0.0 1 True True

3461.446 4.80233097076416 -1.3488558691791077 1.7507393995868128 -1.9730454883971156 -1.5707891623126429 1.6607779264450073 0.0 -0.18658475577831268 -0.3345296382904053 0.5263184905052185 0.0 0.0 1 True True

3461.4959999999996 4.80237340927124 -1.3576357972672959 1.735770050679342 -1.948662897149557 -1.570756737385885 1.6607362031936646 0.0 -0.1688465029001236 -0.2833572328090668 0.4543720781803131 0.0 0.0 1 True True

3461.546 4.802380084991455 -1.3653304737857361 1.7223709265338343 -1.9279076061644496 -1.570801083241598 1.660785436630249 0.0 -0.13942639529705048 -0.23732693493366241 0.38221752643585205 0.0 0.0 1 True True

3461.596 4.802364349365234 -1.3717045348933716 1.711663071309225 -1.9105731449522914 -1.5708211104022425 1.6607779264450073 0.0 -0.11183132231235504 -0.2008247971534729 0.313499391078949 0.0 0.0 1 True True

3461.6459999999997 4.802366733551025 -1.3767231118730088 1.7029030958758753 -1.89683260540151 -1.5707605520831507 1.6607526540756226 0.0 -0.0874253511428833 -0.1563439816236496 0.23146921396255493 0.0 0.0 1 True True

3461.696 4.802368640899658 -1.380483792429306 1.6963346640216272 -1.8865953884520472 -1.5708087126361292 1.6607288122177124 0.0 -0.06188235804438591 -0.11615292727947235 0.17724263668060303 0.0 0.0 1 True True

3461.7459999999996 4.802301406860352 -1.3829946231893082 1.692024056111471 -1.8796431026854457 -1.570813004170553 1.6608107089996338 0.0 -0.03541778028011322 -0.06296537816524506 0.11276166141033173 0.0 0.0 1 True True

3461.796 4.8023295402526855 -1.3843056124499817 1.6897833983050745 -1.8764711819090785 -1.5707843939410608 1.660719871520996 0.0 -0.01404666155576706 -0.020643316209316254 0.029833469539880753 0.0 0.0 1 True True

3461.846 4.80179500579834 -1.384296716456749 1.6897175947772425 -1.8762084446349085 -1.570772949849264 1.6606597900390625 -0.03781990706920624 0.000478359404951334 -0.0001262999139726162 0.000619747384916991 0.0 -0.007119894027709961 1 True True

3461.8959999999997 4.798320293426514 -1.3843222123435517 1.6896260420428675 -1.8760529957213343 -1.5707891623126429 1.6601120233535767 -0.10868465900421143 0.0011034510098397732 -0.0019551943987607956 0.0045512947253882885 0.0 -0.011002624407410622 1 True True

3461.946 4.790998935699463 -1.384176791911461 1.6893599669085901 -1.8760529957213343 -1.5707929770099085 1.6592621803283691 -0.17602169513702393 0.004179548006504774 -0.004716433119028807 0.0016575136687606573 -2.5383712136930074e-19 -0.02261313796043396 1 True True

3461.9959999999996 4.780365943908691 -1.3839278233102341 1.6890366713153284 -1.8759061298766078 -1.570813004170553 1.6578587293624878 -0.2509373128414154 0.0063816942274570465 -0.007758552674204111 0.001453823409974575 -3.8557901534010446e-38 -0.030673883855342865 1 True True

3462.046 4.76609992980957 -1.3835196954062958 1.6886261145221155 -1.8759309254088343 -1.5708087126361292 1.6561062335968018 -0.315523236989975 0.008648567833006382 -0.010120212100446224 0.001275583985261619 -0.0005308407708071172 -0.038222432136535645 1 True True

3462.096 4.748626708984375 -1.383169026379921 1.6880739370929163 -1.875779768029684 -1.5707929770099085 1.6538575887680054 -0.3887033462524414 0.00954060535877943 -0.010071612894535065 0.004404476843774319 -3.5636632674140856e-05 -0.04827537760138512 1 True True

3462.1459999999997 4.727345943450928 -1.3826530587724228 1.6875651518451136 -1.8756638966002406 -1.570801083241598 1.6510289907455444 -0.453701913356781 0.010521119460463524 -0.012928053736686707 0.0020186237525194883 -3.5812849091598764e-05 -0.059770066291093826 1 True True

3462.196 4.702700614929199 -1.3821117889932175 1.6868975798236292 -1.8755327663817347 -1.5707886854754847 1.647909164428711 -0.528542160987854 0.01273863110691309 -0.015311692841351032 0.0024606671649962664 -1.0125384205874623e-15 -0.06629101932048798 1 True True

3462.2459999999996 4.67462682723999 -1.3815017503551026 1.685998264943258 -1.875357290307516 -1.5707486311541956 1.6442500352859497 -0.596850574016571 0.014391155913472176 -0.017831619828939438 0.0031364813912659883 -1.538047688301464e-34 -0.07800077646970749 1 True True

3462.296 4.643125057220459 -1.3808046144298096 1.6852014700519007 -1.8751355610289515 -1.5707972685443323 1.6401723623275757 -0.6637961268424988 0.014395587146282196 -0.019183332100510597 0.00448371609672904 0.0007448695250786841 -0.08639542758464813 1 True True

3462.346 4.608135223388672 -1.379929096703865 1.6840956846820276 -1.8749367199339808 -1.5707891623126429 1.6356472969055176 -0.7328787446022034 0.016468657180666924 -0.019649434834718704 0.006805284880101681 0.0009760776301845908 -0.0965912789106369 1 True True

3462.3959999999997 4.569483280181885 -1.3790997129729767 1.683009449635641 -1.8747011623778285 -1.570732895527975 1.6306520700454712 -0.8044822812080383 0.017557945102453232 -0.02454661764204502 0.005103889852762222 0.0006959181046113372 -0.10315881669521332 1 True True

3462.596 4.380732536315918 -1.3746800881675263 1.6775482336627405 -1.8737040958800257 -1.5708368460284632 1.606342077255249 -1.0456520318984985 0.024291014298796654 -0.03106056898832321 0.0061431401409208775 -4.2182356449302944e-20 -0.13641485571861267 1 True True

3462.6459999999997 4.328349590301514 -1.3735091251185914 1.6760438124286097 -1.8734022579588832 -1.570784870778219 1.599584698677063 -1.0450963973999023 0.022977234795689583 -0.030291955918073654 0.007778050843626261 5.681501380472298e-10 -0.13626566529273987 1 True True

3462.696 4.27603006362915 -1.3722539705089112 1.6745908896075647 -1.8731237850584925 -1.570829216633932 1.5928300619125366 -1.0516746044158936 0.024684039875864983 -0.03050537221133709 0.00499347411096096 0.00014918421220500022 -0.1308961659669876 1 True True

3462.7459999999996 4.223628997802734 -1.3710534435561677 1.6732280890094202 -1.8728658161559046 -1.5707767645465296 1.5860952138900757 -1.0446017980575562 0.023995291441679 -0.02779635787010193 0.0036503509618341923 1.344071203076766e-13 -0.13408175110816956 1 True True

3462.796 4.17130184173584 -1.3699194353869935 1.67165452638735 -1.8724991283812464 -1.570723835621969 1.5793479681015015 -1.0463449954986572 0.02238357439637184 -0.03094721958041191 0.008959047496318817 2.912090346640639e-09 -0.13454854488372803 1 True True

3462.846 4.119006156921387 -1.3687203240445633 1.6700814406024378 -1.872204919854635 -1.5708168188678187 1.572558879852295 -1.0512639284133911 0.022413957864046097 -0.03084265999495983 0.004590149968862534 4.4234720444087145e-28 -0.13864924013614655 1 True True

3462.8959999999997 4.066664695739746 -1.3674431902221222 1.6686456839190882 -1.8719388447203578 -1.5708254019366663 1.5657862424850464 -1.0483440160751343 0.024292388930916786 -0.029623037204146385 0.004707306157797575 3.730325307004824e-14 -0.13669630885124207 1 True True

3462.946 4.014161109924316 -1.3662391763976593 1.6671283880816858 -1.8716374836363734 -1.5708449522601526 1.5590571165084839 -1.0440126657485962 0.02278706431388855 -0.02733132801949978 0.008780570700764656 5.666372805170925e-33 -0.13434287905693054 1 True True

3462.9959999999996 3.961904525756836 -1.3650575441173096 1.6657121817218226 -1.8712941608824671 -1.5707925001727503 1.5523459911346436 -1.050951361656189 0.023749252781271935 -0.03161877766251564 0.0064169722609221935 0.0 -0.1348189115524292 1 True True

3463.046 3.9094295501708984 -1.3638238918832322 1.66406757036318 -1.8710085354247035 -1.5707686583148401 1.5454727411270142 -1.0445456504821777 0.025572601705789566 -0.031034715473651886 0.005952068604528904 5.473204355010974e-13 -0.13453945517539978 1 True True

3463.096 3.857084035873413 -1.3627349597266694 1.662591282521383 -1.8707620106139125 -1.5707247892962855 1.5387526750564575 -1.045555591583252 0.023499172180891037 -0.028755197301506996 0.0074441744945943356 6.949059105920696e-09 -0.13871240615844727 1 True True

3463.1459999999997 3.8047714233398438 -1.3614531618407746 1.6611350218402308 -1.870427747766012 -1.5708406607257288 1.5320608615875244 -1.051624059677124 0.023596948012709618 -0.028034573420882225 0.004532348830252886 3.6591496609617025e-05 -0.13158421218395233 1 True True

3463.196 3.7523794174194336 -1.3602255147746583 1.6595872084247034 -1.8701416454710902 -1.570801083241598 1.52525794506073 -1.0455772876739502 0.025611532852053642 -0.027258537709712982 0.004166610538959503 8.292499842355028e-05 -0.13172785937786102 1 True True

3463.2459999999996 3.7000131607055664 -1.358997793202736 1.6581857840167444 -1.8698512516417445 -1.570813004170553 1.5184687376022339 -1.039825439453125 0.022369908168911934 -0.03094159997999668 0.005790178198367357 1.187371927034947e-21 -0.13454198837280273 1 True True

3463.296 3.6477396488189697 -1.3578598362258454 1.6565874258624476 -1.869573255578512 -1.5708168188678187 1.5117244720458984 -1.0504083633422852 0.023558154702186584 -0.030358579009771347 0.005438051652163267 3.25929045175144e-06 -0.1333252191543579 1 True True

3463.346 3.5953564643859863 -1.3566196274808426 1.6551054159747522 -1.869258543054098 -1.5707967917071741 1.5050102472305298 -1.0468851327896118 0.02613694593310356 -0.030430085957050323 0.00585306528955698 4.950866882301848e-25 -0.13286104798316956 1 True True

3463.546 3.385890007019043 -1.3518131089261551 1.6491287390338343 -1.8680502376952113 -1.5707805792437952 1.4780000448226929 -1.0318949222564697 0.02278945967555046 -0.02767695114016533 0.0069663869217038155 0.0 -0.13465508818626404 1 True True

3463.596 3.335822105407715 -1.3507151317647477 1.6477072874652308 -1.8677922687926234 -1.5708254019366663 1.4714986085891724 -0.9749332666397095 0.021013515070080757 -0.027895983308553696 0.004290340002626181 -2.461654469675112e-13 -0.12404149770736694 1 True True

3463.6459999999997 3.288952350616455 -1.3495758187821885 1.6464446226703089 -1.8675586185851039 -1.5707925001727503 1.465434193611145 -0.9007790684700012 0.020128773525357246 -0.024226665496826172 0.005986370611935854 0.00036780512891709805 -0.11614030599594116 1 True True

3463.696 3.245643377304077 -1.3485400390676041 1.645184342061178 -1.8673035107054652 -1.5708168188678187 1.4598395824432373 -0.8327464461326599 0.019078314304351807 -0.025032006204128265 0.004494413733482361 6.264058902161196e-05 -0.1091986671090126 1 True True

3463.7459999999996 3.205845594406128 -1.3477050525001069 1.644022289906637 -1.8670760593810023 -1.5708368460284632 1.4547433853149414 -0.76263028383255 0.01742146909236908 -0.02318624034523964 0.005375754088163376 -6.744748679921031e-05 -0.09814731031656265 1 True True

3463.796 3.1696524620056152 -1.3469307136586686 1.6429293791400355 -1.8667856655516566 -1.570784870778219 1.4500477313995361 -0.6882982850074768 0.014785746112465858 -0.020030103623867035 0.004060035105794668 -1.47244379142324e-21 -0.09134583175182343 1 True True

3463.846 3.1369223594665527 -1.3460428279689332 1.64199144044985 -1.8666554890074671 -1.5707686583148401 1.4457648992538452 -0.619489848613739 0.013647913001477718 -0.015457210130989552 0.005317217204719782 2.979777536018148e-19 -0.08322026580572128 1 True True

3463.8959999999997 3.107614040374756 -1.3455155801824112 1.6411646048175257 -1.8665162525572718 -1.570784870778219 1.4419989585876465 -0.5499966740608215 0.010711472481489182 -0.01699240319430828 0.0025720102712512016 -5.733885366510094e-09 -0.07088013738393784 1 True True

3463.946 3.081796407699585 -1.3448905062726517 1.6404665152179163 -1.8663612804808558 -1.570801083241598 1.4386931657791138 -0.4811757206916809 0.01122113224118948 -0.012383139692246914 0.004645744804292917 -3.8401358892770077e-07 -0.06237489730119705 1 True True

3463.9959999999996 3.0594563484191895 -1.3443595629981537 1.6398051420794886 -1.866249223748678 -1.5708168188678187 1.4358251094818115 -0.4081553816795349 0.007991471327841282 -0.010307952761650085 0.003575119422748685 0.00033856433583423495 -0.0528772808611393 1 True True

3464.046 3.0404958724975586 -1.3439427030137558 1.6392548719989222 -1.8661500416197718 -1.570857350026266 1.4333975315093994 -0.34134548902511597 0.00861508958041668 -0.009831318631768227 0.0018833080539479852 5.700883515258326e-11 -0.04439127817749977 1 True True

3464.196 3.0051167011260986 -1.3431571435979386 1.6383479277240198 -1.865887304345602 -1.5707724730121058 1.428820252418518 -0.1332385540008545 0.0025169968139380217 -0.004169717896729708 0.0009130979888141155 1.5414283107572988e-44 -0.017993206158280373 1 True True

3464.2459999999996 3.000288963317871 -1.3429997724345704 1.6381610075580042 -1.865932127038473 -1.5708335081683558 1.428224802017212 -0.06292727589607239 0.0016396063147112727 -0.001997094601392746 0.0006602511857636273 0.0 -0.006701572332531214 1 True True

3464.296 2.9987852573394775 -1.342950926428177 1.6380823294269007 -1.8659407101073207 -1.5707967917071741 1.4281013011932373 0.004137593787163496 0.005461942404508591 -0.0002742933575063944 4.1739767766557634e-05 0.0 -0.0003182400541845709 1 True True

3464.346 2.998833179473877 -1.3419705492309113 1.6391890684710901 -1.8679877720274867 -1.5707805792437952 1.428004264831543 -0.0006749581079930067 0.02754422463476658 0.04742027446627617 -0.08254814893007278 1.6841023367519803e-11 -0.0011132039362564683 1 True True

3464.3959999999997 2.99880051612854 -1.3401430708220978 1.6426389853106897 -1.8735705814757289 -1.570829216633932 1.4280143976211548 -0.0007691369974054396 0.05244038999080658 0.09885876625776291 -0.13733384013175964 2.5581555690843414e-30 -0.0003450571675784886 1 True True

3464.446 2.998837471008301 -1.33689700186763 1.6487892309771937 -1.8827315769591273 -1.5707805792437952 1.4279800653457642 -0.0008627426577731967 0.07465653121471405 0.14243322610855103 -0.23289209604263306 0.0 -0.00017085841682273895 1 True True

3464.4959999999996 2.9988224506378174 -1.3323299300721665 1.656830135975973 -1.8953577480711878 -1.570784870778219 1.428017497062683 -0.0005099204136058688 0.10433574765920639 0.1823764145374298 -0.27996259927749634 -5.564187085838057e-05 -5.4196749260881916e-05 1 True True

3464.546 2.998760223388672 -1.326536388402321 1.6673458258258265 -1.911415239373678 -1.5707724730121058 1.4280426502227783 -0.00020229179062880576 0.12877827882766724 0.22566437721252441 -0.3612722158432007 -1.0708596168561261e-16 -4.342293915223139e-21 1 True True

3464.596 2.9987809658050537 -1.3194650274566193 1.679596249257223 -1.931016584435934 -1.5708697477923792 1.4279890060424805 -0.00010871732956729829 0.15309296548366547 0.2741561532020569 -0.4238218665122986 -5.9280548157403246e-05 -6.595953910530844e-40 1 True True

3464.6459999999997 2.9987809658050537 -1.3110672396472474 1.694610897694723 -1.9540726147093714 -1.5708087126361292 1.4279977083206177 -0.00011789976997533813 0.1732853800058365 0.3180733025074005 -0.49082621932029724 -2.7267289920657016e-14 -0.0 1 True True

3464.696 2.998765707015991 -1.3015433114818116 1.7113340536700647 -1.9806152782835902 -1.5707529226886194 1.4279730319976807 -7.627243030583486e-05 0.19958707690238953 0.3584597706794739 -0.5690422654151917 -3.355456647113897e-05 -0.0 1 True True

3464.7459999999996 2.9987452030181885 -1.2920930248549958 1.7283757368670862 -2.0069734058775843 -1.5707805792437952 1.4279356002807617 -3.0390498068300076e-05 0.18105562031269073 0.3174600601196289 -0.5041360259056091 -9.996579319704324e-05 -0.0 1 True True

3464.796 2.9987895488739014 -1.283710704450943 1.7429397741900843 -2.030081888238424 -1.5707686583148401 1.4279773235321045 -2.1370424292399548e-05 0.1514672189950943 0.27621594071388245 -0.43841713666915894 -2.4692465733353065e-20 -0.0 1 True True

3464.846 2.9987571239471436 -1.2766491335681458 1.7553780714618128 -2.0494891605772914 -1.5707886854754847 1.428038239479065 -1.2569647224993609e-42 0.12606917321681976 0.23205198347568512 -0.36468732357025146 -3.750791139728879e-39 -0.0 1 True True

3464.8959999999997 2.998826742172241 -1.2709394258311768 1.7656696478473108 -2.065665384332174 -1.5708373228656214 1.4280306100845337 0.0 0.10377348214387894 0.1794419288635254 -0.28325414657592773 -0.0 -0.0 1 True True

3464.946 2.9988298416137695 -1.266406850223877 1.77360707918276 -2.078080793420309 -1.5707967917071741 1.428017497062683 0.0 0.07691426575183868 0.1418585330247879 -0.21970510482788086 -0.0 -0.0 1 True True

3464.9959999999996 2.9987852573394775 -1.2631335419467469 1.7793176809894007 -2.0870701275267542 -1.5707925001727503 1.4280065298080444 0.0 0.05283200368285179 0.09277887642383575 -0.14117971062660217 -0.0 -0.0 1 True True

3465.046 2.998764753341675 -1.2611776751330872 1.7830026785479944 -2.0927635631956996 -1.570864502583639 1.4279568195343018 0.0 0.027887558564543724 0.05137499421834946 -0.08000436425209045 -2.0275065253372304e-05 -0.0 1 True True

3465.096 2.9988057613372803 -1.260781006222107 1.7836721579181116 -2.094937940637106 -1.5708254019366663 1.4279239177703857 0.0 0.0019091571448370814 0.004662385210394859 -0.008317656815052032 1.0042119913400427e-10 -0.0 1 True True

3465.1459999999997 2.9988179206848145 -1.2607506078532715 1.7837231794940394 -2.0949422321715296 -1.5708168188678187 1.4279924631118774 0.0 0.0059520043432712555 0.007194126024842262 0.0013299728743731976 1.525399860994268e-29 1.5259402630363184e-07 1 True True

3465.196 2.9987971782684326 -1.259513185625412 1.7854879538165491 -2.0936886272826136 -1.5707324186908167 1.4280413389205933 3.245598234613567e-10 0.005629211198538542 0.01105302944779396 0.017361491918563843 9.71888539424981e-07 2.317906608174197e-26 1 True True

3465.2459999999996 2.998810291290283 -1.2601264280131836 1.7846463362323206 -2.094600816766256 -1.5707734266864222 1.4279698133468628 0.0 -0.0009907810017466545 -0.0011820612708106637 -0.0012751735048368573 -4.1473675082670525e-05 0.0011286395601928234 1 True False

3465.296 2.9987733364105225 -1.2602289480021973 1.7844412962542933 -2.094651838342184 -1.5707929770099085 1.4280098676681519 0.0 -0.0037135817110538483 -0.004683006089180708 -0.004354375414550304 -5.515620078722083e-12 0.0008251420804299414 1 True False

3465.346 2.9988014698028564 -1.2604155403426667 1.7843616644488733 -2.094776292840475 -1.5707686583148401 1.42798912525177 0.0 -0.0027503890451043844 -0.005414149723947048 -0.004929573740810156 -8.378239124751346e-31 -4.961913901979642e-08 1 True False

3465.3959999999997 2.9987528324127197 -1.2603824895671387 1.7842825094806116 -2.094743867913717 -1.5708172957049769 1.4280098676681519 0.0 0.0 -0.0009012661757878959 -0.00022113283921498805 -4.5327898988034576e-05 -7.537156111494602e-27 1 True False

3465.446 2.9988057613372803 -1.2606157523444672 1.7840154806720179 -2.094273706475729 -1.5707600752459925 1.428021788597107 0.0 -0.01801258884370327 -0.023290809243917465 0.021154256537556648 -2.781496732495725e-05 -1.401298464324817e-45 1 True False

3465.4959999999996 2.9988057613372803 -1.2617786687663575 1.7818191687213343 -2.090707918206686 -1.5707605520831507 1.4280219078063965 0.0 -0.03419625014066696 -0.06190492585301399 0.10749384760856628 -4.0090217225952074e-05 -0.0 1 True False

3465.546 2.998764753341675 -1.264353559618332 1.777135197316305 -2.0837370357909144 -1.5707967917071741 1.4279816150665283 5.978560875519179e-05 -0.06317068636417389 -0.10884105414152145 0.16754339635372162 -1.4414011239934962e-23 -0.0 1 True False

3465.596 2.9987971782684326 -1.2680707734874268 1.7704818884478968 -2.0732256374754847 -1.5707891623126429 1.4280173778533936 2.3308763467378357e-23 -0.08805444836616516 -0.16043053567409515 0.2532080411911011 -6.477126613522156e-17 -0.0 1 True False

3465.6459999999997 2.998835325241089 -1.273145393734314 1.761688534413473 -2.059124609033102 -1.5708048979388636 1.4279975891113281 0.0 -0.11396680772304535 -0.1965116709470749 0.3176825940608978 -9.838770769617908e-36 -0.0 1 True False

3465.696 2.9988057613372803 -1.2795202893069764 1.7502220312701624 -2.041610380212301 -1.5707886854754847 1.4279968738555908 0.0 -0.13585586845874786 -0.24749530851840973 0.3814583122730255 -8.330900163855404e-05 -0.0 1 True False

3465.7459999999996 2.99878191947937 -1.2870624226382752 1.737053696309225 -2.020609518090719 -1.5708335081683558 1.428005576133728 0.0 -0.16447919607162476 -0.29584240913391113 0.4527856707572937 -5.015403075958602e-05 -0.0 1 True False

3465.796 2.9988179206848145 -1.2959310871413727 1.7212126890765589 -1.9962064228453578 -1.5707524458514612 1.428021788597107 0.0 -0.19112437963485718 -0.32972007989883423 0.532330334186554 -1.8022694893913742e-23 -0.0 1 True False

3465.846 2.99877667427063 -1.3058061760715027 1.7038582007037562 -1.9689275226988734 -1.570772949849264 1.428049921989441 0.0 -0.19966202974319458 -0.3544996678829193 0.5379460453987122 -1.8196093520828072e-09 -0.0 1 True False

3465.8959999999997 2.9988179206848145 -1.314881132250168 1.6877787748919886 -1.943857809106344 -1.5708211104022425 1.4279968738555908 0.0 -0.16588394343852997 -0.30159252882003784 0.46635282039642334 -2.763990896708807e-28 -0.0 1 True False

3465.946 2.998788595199585 -1.32260154307399 1.6740945021258753 -1.922250886956686 -1.5707648436175745 1.4279600381851196 0.0 -0.1425008475780487 -0.25490573048591614 0.39386075735092163 -0.0 -0.0 1 True False

3465.9959999999996 2.99877667427063 -1.3291626584580918 1.6624987761126917 -1.9040686092772425 -1.570784870778219 1.4279698133468628 0.0 -0.12070706486701965 -0.21194283664226532 0.33240872621536255 -0.0 -0.0 1 True False

3466.046 2.998792886734009 -1.3344509315541764 1.653222386037008 -1.8894735775389613 -1.5707648436175745 1.427984595298767 0.0 -0.09335676580667496 -0.16367001831531525 0.24777908623218536 -0.0 -0.0 1 True False

3466.096 2.998793840408325 -1.3384080988219758 1.646144215260641 -1.8784061870970667 -1.5707886854754847 1.4279760122299194 0.0 -0.06807564944028854 -0.12195228040218353 0.19322259724140167 -0.0 -0.0 1 True False

3466.1459999999997 2.9987852573394775 -1.3411594492248078 1.6413291136371058 -1.870805402795309 -1.570756737385885 1.4279283285140991 0.0 -0.04292033985257149 -0.07820580154657364 0.11144386231899261 -0.0 -0.0 1 True False

3466.196 2.9988601207733154 -1.3426521581462403 1.6385915915118616 -1.8666068516173304 -1.5707648436175745 1.4280130863189697 0.0 -0.016926772892475128 -0.028797650709748268 0.05360338091850281 -0.0 -0.0 1 True False

3466.2459999999996 2.9987971782684326 -1.3428931844285508 1.638212029133932 -1.8659445248045863 -1.5707767645465296 1.427964448928833 0.0 1.0790173144087714e-13 -2.399452401905585e-14 -0.00036555746919475496 -0.0 -0.0 1 False False

3466.296 2.9987645149230957 -1.3429006797126313 1.6381524244891565 -1.8659078083434046 -1.5708125273333948 1.4280380010604858 0.0 0.0 -0.0012122195912525058 -5.9864607464987785e-05 -0.0 -0.0 1 False False

3466.346 2.9988105297088623 -1.342883290057518 1.6381390730487269 -1.865892072717184 -1.570772949849264 1.427960991859436 0.0 -0.00048190884990617633 -0.0025060088373720646 -3.2683881727280095e-05 -0.0 -0.0 1 False False

3466.3959999999997 2.9988510608673096 -1.3429529976895829 1.638068977986471 -1.8658720455565394 -1.5707648436175745 1.4279890060424805 0.0 -0.001021476462483406 -0.0003798231191467494 -2.247903830721043e-05 -0.0 2.8762900047829554e-11 1 False False

3466.446 2.998746633529663 -1.3429356080344697 1.6380732695208948 -1.865920206109518 -1.5707810560809534 1.4279760122299194 0.0 -0.00025899449246935546 -0.0001685993920546025 -1.5724528744087685e-16 -0.0 4.369088687882046e-30 1 False False

3466.4959999999996 2.998783826828003 -1.3430183094790955 1.6380212942706507 -1.8658763370909632 -1.5707810560809534 1.4280173778533936 0.0 -0.00014411208394449204 -0.00010116475459653884 -2.3885601815453994e-35 -0.0 0.0 1 False False

3466.546 2.9987852573394775 -1.3429846477559586 1.6380327383624476 -1.8659116230406703 -1.5708087126361292 1.4280292987823486 0.0 -0.00011525437003001571 -7.218600512715057e-05 -0.0 -0.0 0.0 1 False False

3466.596 2.9987897872924805 -1.342923642402031 1.6380732695208948 -1.8658844433226527 -1.5707691351519983 1.428001880645752 0.0 -6.722740363329649e-05 -1.1638618468056463e-30 -0.0 -0.0 4.725002398890676e-13 1 False False

3466.6459999999997 2.9987852573394775 -1.3429474544576188 1.63804799715151 -1.8658801517882289 -1.570784870778219 1.4279968738555908 0.0 -1.825871862592976e-07 -0.0 -0.0 -0.0 7.177290501706918e-32 1 False False

3466.696 2.9987852573394775 -1.3429236871055146 1.6380327383624476 -1.8658682308592738 -1.5707810560809534 1.427952527999878 0.0 0.0 -0.0 -0.0 -0.0 0.0 1 False False

3466.8959999999997 2.99875545501709 -1.3429683905890961 1.638057057057516 -1.8659116230406703 -1.5707929770099085 1.428030252456665 0.0 0.0 0.0 1.907887892853527e-30 -0.0 0.0 1 False False

3466.946 2.9988138675689697 -1.3429510307363053 1.6380613485919397 -1.865920206109518 -1.570772949849264 1.428004503250122 0.0 0.0 0.0 0.0 -0.0 0.0 1 False False

3466.9959999999996 2.998804807662964 -1.342959688310959 1.6381014029132288 -1.86586393932485 -1.5707529226886194 1.4279968738555908 0.0 0.0 0.0 0.0 -0.0 0.0 1 False False

3467.046 2.9988303184509277 -1.3429846477559586 1.6380866209613245 -1.865915914575094 -1.5708335081683558 1.4280260801315308 0.0 0.0 0.0 0.0 -0.0 0.0 1 False False

3467.096 2.9987478256225586 -1.3429604929736634 1.6380165258990687 -1.865915914575094 -1.570784870778219 1.4279557466506958 0.0 0.0 0.0 0.0 -0.0 0.0 1 False False

3467.1459999999997 2.9987807273864746 -1.3429518652013321 1.6380732695208948 -1.8659240208067835 -1.5707929770099085 1.4280130863189697 0.0 0.0 0.0 0.0 -0.0 0.0 1 True False

3467.196 2.9988183975219727 -1.342946619992592 1.6380451361285608 -1.8659240208067835 -1.5708211104022425 1.428008794784546 0.0 0.0 0.0 0.0 -0.0 0.0 1 True False

3467.2459999999996 2.998734474182129 -1.3429117661765595 1.6380928198443812 -1.86586393932485 -1.5707686583148401 1.428004503250122 0.0 0.0 0.0 0.0 -0.0 0.0 1 True False

3467.296 2.9987761974334717 -1.342971609239914 1.638036076222555 -1.865972181359762 -1.570829216633932 1.4279611110687256 0.0 0.0 0.0 0.0 -0.0 0.0 1 True False

3467.346 2.998825788497925 -1.342943162923195 1.63808519044985 -1.8659035168089808 -1.5707967917071741 1.4280421733856201 0.0 0.0 0.0 0.0 -0.0 0.0 1 True False

3467.3959999999997 2.998809337615967 -1.342975841169693 1.6380327383624476 -1.8658563099303187 -1.570784870778219 1.4279683828353882 0.0 0.0 4.026080549358316e-34 0.0 -0.0 0.0 1 True False

3467.446 2.9987986087799072 -1.3429964494756241 1.6380894819842737 -1.8658973179259242 -1.5707805792437952 1.428022027015686 0.0 0.0 0.0 0.0 -0.0 0.0 1 True False

3467.4959999999996 2.9987881183624268 -1.342963994746544 1.6380775610553187 -1.8658634624876917 -1.570813004170553 1.4280294179916382 0.0 0.0 0.0 0.0 -0.0 0.0 1 True False

3467.546 2.9987943172454834 -1.342951850300171 1.6380775610553187 -1.8658763370909632 -1.570853058491842 1.427943229675293 0.0 0.0 0.0 0.0 -0.0 0.0 1 True False

3467.596 2.9988138675689697 -1.3429312121919175 1.6380646864520472 -1.8659044704832972 -1.5707886854754847 1.4279654026031494 0.0 0.0 0.0 0.0 4.9761822266958244e-12 0.0002178378199459985 1 True False

3467.6459999999997 2.9987943172454834 -1.3429117959788819 1.6380613485919397 -1.8659445248045863 -1.5708611647235315 1.4279978275299072 0.0 0.0 5.464485989083146e-21 0.0 -0.001101457979530096 -0.002321369480341673 1 True False

3467.696 2.9988062381744385 -1.3429063868573685 1.6380646864520472 -1.865847726861471 -1.5707486311541956 1.4280205965042114 0.0 0.0 0.0 0.0 0.0022962309885770082 -2.2134838218335062e-05 1 True False

3467.7459999999996 2.9987778663635254 -1.3429268610528489 1.6381381193744105 -1.8659244976439417 -1.5707724730121058 1.428017497062683 0.0 0.0 0.0 0.0 -0.0007081644725985825 -9.434403125396784e-08 1 True False

3467.796 2.9987733364105225 -1.3429074597409745 1.6380732695208948 -1.8658400974669398 -1.570784870778219 1.4279934167861938 0.0 0.0 0.0 0.0 -4.544421244645491e-06 -1.433087244957662e-26 1 True False

3467.846 2.9992835521698 -1.3429889690927048 1.6380818525897425 -1.8659116230406703 -1.5708449522601526 1.4280011653900146 0.03510187938809395 0.0 0.0008996955002658069 0.0 -6.902985529628224e-25 -2.802596928649634e-45 1 True False

3467.8959999999997 3.002605676651001 -1.3431723278811951 1.6383402983294886 -1.8659445248045863 -1.5708325544940394 1.4282234907150269 0.1058032363653183 -0.009376800619065762 0.011230703443288803 -0.0007224761648103595 -1.0509738482436128e-43 0.008256785571575165 1 True False

3467.946 3.009823799133301 -1.3437281858972092 1.6388781706439417 -1.8660150967040003 -1.570784870778219 1.4287561178207397 0.17623281478881836 -0.011086268350481987 0.012574038468301296 -0.003710751421749592 -0.0 0.010567300021648407 1 True False

3467.9959999999996 3.0204782485961914 -1.344379262333252 1.6396597067462366 -1.8661300144591273 -1.570813004170553 1.4293781518936157 0.2422870248556137 -0.0157412588596344 0.019301751628518105 -0.003282050369307399 -0.0 0.015642976388335228 1 True False

3468.046 3.03426194190979 -1.3452457350543519 1.6407635847674769 -1.8663331470885218 -1.5707967917071741 1.4303480386734009 0.3167968690395355 -0.020149974152445793 0.02692965231835842 -0.0035813741851598024 -0.0 0.02017129212617874 1 True False

3468.096 3.0517704486846924 -1.3464279931834717 1.6421578566180628 -1.8666640720763148 -1.570829216633932 1.4314358234405518 0.38427114486694336 -0.02540656551718712 0.03145414590835571 -0.00577374454587698 4.219941911287606e-05 0.02325557731091976 1 True False

3468.1459999999997 3.072688102722168 -1.3478201788714905 1.6438267866717737 -1.8669454059996546 -1.5707767645465296 1.4328079223632812 0.45437130331993103 -0.027679983526468277 0.03554806113243103 -0.005928440950810909 1.5690102372900583e-07 0.031129678711295128 1 True False

3468.196 3.0972161293029785 -1.3493538063815613 1.6458480993853968 -1.867251535455221 -1.5707686583148401 1.4344373941421509 0.5221422910690308 -0.03470615670084953 0.03853290528059006 -0.009823706932365894 2.3833285994922847e-26 0.035044312477111816 1 True False

3468.2459999999996 3.125286340713501 -1.3512410682490845 1.6480796972857874 -1.8676096401610316 -1.5707686583148401 1.4362667798995972 0.5934492945671082 -0.038098808377981186 0.048903852701187134 -0.006040537264198065 3.536377123753397e-14 0.039074935019016266 1 True False

3468.296 3.1567745208740234 -1.3532637816718598 1.6505702177630823 -1.8680468998351039 -1.5707362333880823 1.4383046627044678 0.669905424118042 -0.044711869210004807 0.05563448742032051 -0.0061800237745046616 0.0016087013063952327 0.040445223450660706 1 True False

3468.346 3.1916065216064453 -1.3555622112802048 1.6532910505877894 -1.8684841595091761 -1.5707891623126429 1.4405711889266968 0.7416678071022034 -0.04914696887135506 0.05761890485882759 -0.004035689868032932 0.001852479879744351 0.04954971745610237 1 True False

3468.3959999999997 3.229969024658203 -1.3580586177161713 1.6562798658954065 -1.8689848385252894 -1.5708168188678187 1.4430935382843018 0.8057100176811218 -0.05316804349422455 0.06704181432723999 -0.00714541133493185 -2.4248745372768e-11 0.05242709442973137 1 True False

3468.446 3.2719063758850098 -1.3607890617898484 1.6596625486956995 -1.8695737324156703 -1.5708368460284632 1.4458359479904175 0.8686502575874329 -0.057499270886182785 0.0653701201081276 -0.015082592144608498 8.829660866539101e-19 0.05949141085147858 1 True False

3468.4959999999996 3.3173017501831055 -1.3637679827264328 1.6632168928729456 -1.8701697788634242 -1.5708254019366663 1.4488126039505005 0.9443672895431519 -0.060687609016895294 0.07345107942819595 -0.012778962031006813 0.0007033420260995626 0.06059563159942627 1 True False

3468.546 3.366225481033325 -1.3669765156558533 1.6671059767352503 -1.8707934818663539 -1.5708211104022425 1.4520189762115479 1.009676456451416 -0.06707679480314255 0.07530863583087921 -0.014752291142940521 -8.066325244726613e-05 0.06957824528217316 1 True False

3468.596 3.4181718826293945 -1.3704292637160798 1.6711304823504847 -1.8715254269041957 -1.5707853476153772 1.455426812171936 1.0498968362808228 -0.06804175674915314 0.08300222456455231 -0.014522760175168514 0.00037730185431428254 0.0662916973233223 1 True False

3468.6459999999997 3.4705777168273926 -1.3737998467734833 1.6751702467547815 -1.8721972904601039 -1.5707929770099085 1.4588388204574585 1.0460166931152344 -0.06942816823720932 0.08245626837015152 -0.011917423456907272 9.434209436138662e-20 0.0693245530128479 1 True False

3468.696 3.5229952335357666 -1.377201722269394 1.6793602148639124 -1.8729611835875453 -1.5707648436175745 1.4621658325195312 1.0460022687911987 -0.06604506820440292 0.08655259013175964 -0.0125999441370368 -0.00010082153312396258 0.06920469552278519 1 True False

3468.7459999999996 3.5752735137939453 -1.3806859713843842 1.6834242979632776 -1.8736759624876917 -1.5707686583148401 1.46559739112854 1.0502007007598877 -0.06922385096549988 0.08230847865343094 -0.01833420991897583 -7.013155845925212e-05 0.06605760008096695 1 True False

3468.796 3.627617835998535 -1.3841039699367066 1.6877401510821741 -1.8743921718993128 -1.5708168188678187 1.4690417051315308 1.0483063459396362 -0.06874176859855652 0.08198267966508865 -0.014684456400573254 -6.445638064178638e-06 0.06573189795017242 1 True False

3468.846 3.6800754070281982 -1.3875033867410203 1.6918633619891565 -1.8750716648497523 -1.5707605520831507 1.4724421501159668 1.0449795722961426 -0.06551100313663483 0.08452736586332321 -0.011054892092943192 -9.790937264389273e-25 0.0685480535030365 1 True False

3468.8959999999997 3.7323520183563232 -1.3908336770585557 1.6959713141070765 -1.875798841516012 -1.5707967917071741 1.4758696556091309 1.049627423286438 -0.06867434829473495 0.07897084951400757 -0.016402309760451317 -0.00017683897749520838 0.06810295581817627 1 True False

3468.946 3.78464674949646 -1.3943158847144623 1.7001002470599573 -1.8764554462828578 -1.57074481645693 1.479322910308838 1.0476508140563965 -0.06881381571292877 0.08172537386417389 -0.011756780557334423 9.719005156227922e-09 0.07030708342790604 1 True False

3468.9959999999996 3.8370521068573 -1.397808165555336 1.7040212790118616 -1.8771420917906703 -1.5708487669574183 1.482757806777954 1.0425423383712769 -0.06956563889980316 0.08279486745595932 -0.01469902228564024 1.4763189025681135e-27 0.06787879765033722 1 True False

3469.046 3.889389753341675 -1.4011562329581757 1.7083032766925257 -1.8777967892088832 -1.570772949849264 1.4861663579940796 1.0486170053482056 -0.06785550713539124 0.0798054113984108 -0.01797674223780632 0.0 0.0683392733335495 1 True False

3469.096 3.94176983833313 -1.4046110969832917 1.7123730818377894 -1.8785754642882289 -1.5707805792437952 1.4895622730255127 1.0436859130859375 -0.0692209005355835 0.08604435622692108 -0.011635060422122478 -1.1657183677016292e-05 0.06742409616708755 1 True False

3469.1459999999997 3.994229555130005 -1.4080177408507843 1.7164724508868616 -1.8792978725829066 -1.5708168188678187 1.4929779767990112 1.044701337814331 -0.06783837825059891 0.08264913409948349 -0.013287154957652092 -7.101579307250416e-12 0.06905152648687363 1 True False

3469.196 4.0464935302734375 -1.4114331167987366 1.7206643263446253 -1.880012651483053 -1.5708006064044397 1.4963651895523071 1.0492767095565796 -0.06750253587961197 0.0833604633808136 -0.01644136942923069 0.0006685202242806554 0.0678706169128418 1 True False

3469.2459999999996 4.098794937133789 -1.4148580890944977 1.7248190085040491 -1.8807226620116175 -1.5707529226886194 1.499843716621399 1.0511634349822998 -0.06976378709077835 0.08369699120521545 -0.01172441802918911 -5.377156412578188e-05 0.06619453430175781 1 True False

3469.296 4.151183605194092 -1.418192745452263 1.7290886084186 -1.8814736805357875 -1.5708449522601526 1.5032107830047607 1.0424906015396118 -0.06692581623792648 0.07945277541875839 -0.014094548299908638 1.3029447742951561e-08 0.06968709081411362 1 True False

3469.346 4.203543663024902 -1.4216941756061097 1.7330988089190882 -1.8821755848326625 -1.5708168188678187 1.5067131519317627 1.0465543270111084 -0.06787090748548508 0.08000791817903519 -0.014893713407218456 -1.7106179805992383e-09 0.07026611268520355 1 True False

3469.3959999999997 4.2558770179748535 -1.4250888687423249 1.737154785786764 -1.8828264675536097 -1.5707891623126429 1.5101041793823242 1.0473501682281494 -0.07117626816034317 0.08144667744636536 -0.015113769099116325 -2.598432903123176e-28 0.07156658172607422 1 True False

3469.596 4.4450225830078125 -1.4375305634788056 1.7520197073565882 -1.8853684864439906 -1.57074481645693 1.522454023361206 0.8114089369773865 -0.052901268005371094 0.06613415479660034 -0.008975248783826828 0.0007698616245761514 0.051731422543525696 1 True False

3469.6459999999997 4.483716011047363 -1.4400266271880646 1.7551735083209437 -1.8858400783934535 -1.570813004170553 1.5249477624893188 0.7430752515792847 -0.0466601736843586 0.05715864896774292 -0.008693793788552284 0.0003229260619264096 0.05152101442217827 1 True False

3469.696 4.518867015838623 -1.4423501950553437 1.7578938643084925 -1.886407037774557 -1.5708368460284632 1.5272798538208008 0.6727986931800842 -0.04284655302762985 0.05124126002192497 -0.010918044485151768 1.0763876318025935e-17 0.04375343397259712 1 True False

3469.946 4.642697334289551 -1.4503970381668587 1.767632309590475 -1.8880440197386683 -1.5708368460284632 1.5352742671966553 0.3235161602497101 -0.02148526720702648 0.027105553075671196 -0.0025719539262354374 -4.396068470668979e-05 0.019927246496081352 1 True False

3469.9959999999996 4.656876564025879 -1.4513489764979859 1.768775765095846 -1.8882633648314417 -1.5708048979388636 1.5362416505813599 0.25061365962028503 -0.016699522733688354 0.02082699164748192 -0.0017541879788041115 -7.033054316707421e-08 0.015307285822927952 1 True False

3470.046 4.667599201202393 -1.4520842742970963 1.7696264425860804 -1.8883420429625453 -1.5707605520831507 1.5369598865509033 0.18614669144153595 -0.012474995106458664 0.016849439591169357 -0.0014510313048958778 -1.0683228927641239e-26 0.011979667469859123 1 True False

3470.2459999999996 4.679239273071289 -1.4517554354718705 1.7728055159198206 -1.8919955692686976 -1.5708087126361292 1.5377426147460938 7.21915130270645e-05 0.03768070042133331 0.0607074610888958 -0.10135599970817566 -0.0 0.0006497118738479912 1 True False

3470.296 4.6792802810668945 -1.4491355878165741 1.776984993611471 -1.898806711236471 -1.570772949849264 1.5377172231674194 0.00018555152928456664 0.06522536277770996 0.1044720783829689 -0.15570756793022156 -0.0 0.00017134673544205725 1 True False

3470.346 4.6793084144592285 -1.4453040820411225 1.7832544485675257 -1.9089485607542933 -1.5707767645465296 1.5377126932144165 0.00035924138501286507 0.09162227064371109 0.15079118311405182 -0.22932419180870056 -0.0 0.00011146647739224136 1 True False

3470.3959999999997 4.67930793762207 -1.4400238704732438 1.7920096556292933 -1.9224807224669398 -1.5707925001727503 1.5377126932144165 0.0002948848414234817 0.11713480949401855 0.18476234376430511 -0.2969891428947449 -0.0 7.728132186457515e-05 1 True False

3470.446 4.679315090179443 -1.4335841995528718 1.8025196234332483 -1.9397436581053675 -1.570801083241598 1.537733554840088 0.00011555666424101219 0.13924451172351837 0.23529891669750214 -0.3838142156600952 8.323868678417057e-05 4.090786977795271e-17 1 True False

3470.4959999999996 4.679340362548828 -1.4258040201715012 1.8153932730304163 -1.9603578052916468 -1.5707767645465296 1.53779935836792 9.852595394477248e-05 0.1686890423297882 0.28089335560798645 -0.45300641655921936 7.009768160060048e-05 6.213913964145493e-36 1 True False

3470.546 4.679286479949951 -1.416749746804573 1.830705467854635 -1.9843765697874964 -1.5707967917071741 1.5377410650253296 8.095142402453348e-05 0.195736363530159 0.3231617510318756 -0.5119397640228271 2.5189614546982417e-23 5.967152119645824e-12 1 True False

3470.596 4.679339408874512 -1.4063286495259781 1.8476312796222132 -2.012077947656149 -1.570801083241598 1.5377172231674194 0.00033228733809664845 0.21224522590637207 0.3558644950389862 -0.5770678520202637 3.8269461060710754e-42 9.064119389755577e-31 1 True False

3470.796 4.6793107986450195 -1.3738805961659928 1.901581112538473 -2.0988103351988734 -1.5707724730121058 1.5377424955368042 2.3248751465659348e-25 0.10734713077545166 0.18743881583213806 -0.28951317071914673 9.668959403841238e-44 1.6863880490615088e-14 1 True False

3470.846 4.679318904876709 -1.3690364521792908 1.909757439290182 -2.111660142938131 -1.5707724730121058 1.5377216339111328 0.0 0.08152711391448975 0.13958662748336792 -0.23027771711349487 0.0 2.56162626905239e-33 1 True False

3470.8959999999997 4.6793107986450195 -1.3654548984817048 1.915851895009176 -2.12102808574819 -1.5707767645465296 1.5377005338668823 0.0 0.057779207825660706 0.09385520964860916 -0.15534710884094238 0.0 0.0 1 True False

3470.946 4.679347991943359 -1.3631999355605622 1.919417683278219 -2.1269947491087855 -1.570813004170553 1.5377379655838013 -2.832156557456462e-21 0.031458646059036255 0.052056171000003815 -0.08078821003437042 0.0 0.0 1 True False

3470.9959999999996 4.679335117340088 -1.36225380123172 1.9210055510150355 -2.129470010797018 -1.5708168188678187 1.5377261638641357 0.0 0.003708987031131983 0.008766302838921547 -0.017680872231721878 0.0 0.0 1 True False

3471.046 4.679286479949951 -1.3622327905944367 1.9210131804095667 -2.1294523678221644 -1.570784870778219 1.5377469062805176 0.0 0.0001557040523039177 -8.755642193136737e-05 0.00012539184535853565 0.0 0.0 1 True False

3471.096 4.679372310638428 -1.3622836482575913 1.9210322538958948 -2.129501005212301 -1.5708087126361292 1.5377424955368042 0.0 0.00013623677659779787 6.19992206338793e-05 5.8013723901240155e-05 0.0 0.0 1 True False

3471.1459999999997 4.679315090179443 -1.3622866731933136 1.920983616505758 -2.1294528446593226 -1.5707925001727503 1.5377005338668823 0.0 0.00023224204778671265 7.238079706439748e-05 1.2579972462845035e-05 0.0 0.0 1 True False

3471.196 4.679330825805664 -1.362262801533081 1.920999828969137 -2.1295248470702113 -1.5707529226886194 1.5377261638641357 0.0 0.000182487114216201 0.00010991907038260251 -0.00043196394108235836 0.0 0.0 1 True False

3471.446 4.6793365478515625 -1.3622476172498246 1.9209750334369105 -2.1295606098570765 -1.570824925099508 1.5376975536346436 0.0 5.8986261137761176e-05 3.8410670882996904e-24 -5.584587779594585e-05 0.0 0.0 1 True False

3471.4959999999996 4.679372310638428 -1.362250880604126 1.9210041205035608 -2.1295768223204554 -1.5707610289203089 1.5377423763275146 0.0 1.3026636224822141e-05 7.034333975752816e-05 -1.6524714151913922e-16 0.0 0.0 1 True False

3471.546 4.679319858551025 -1.3622341615012665 1.921027962361471 -2.1295606098570765 -1.570829216633932 1.5377050638198853 -6.333611857201049e-09 9.098982418215273e-13 3.2348343352006584e-18 -2.510107187076793e-35 0.0 0.0 1 True False

3471.596 4.679319858551025 -1.3622866433909913 1.9208596388446253 -2.1296163998045863 -1.5708091894732874 1.5377379655838013 0.0 0.0005421459209173918 -0.00034273930941708386 -0.0013850143877789378 -4.3812592442904474e-10 -0.00030522362794727087 1 True False

3471.6459999999997 4.679344177246094 -1.3622775834849854 1.9209235350238245 -2.129648347894186 -1.5707929770099085 1.537758708000183 0.0 0.00024926691548898816 0.00028950718115083873 -0.00023859208158683032 -6.655146617474205e-29 -8.114499360090122e-05 1 True False

3471.696 4.679332256317139 -1.3623287391713639 1.9209721724139612 -2.1295916042723597 -1.570829216633932 1.5377410650253296 0.0 0.00020606713951565325 0.00042043213034048676 -0.00011417528003221378 -0.0 -4.6330023906193674e-05 1 True True

3471.7459999999996 4.6793036460876465 -1.3624711495688935 1.9206722418414515 -2.1286093197264613 -1.5708125273333948 1.5376931428909302 0.0 -0.013933034613728523 -0.024681665003299713 0.05169977992773056 7.05427592038177e-05 -3.2421256037196144e-05 1 True True

3471.796 4.679290294647217 -1.3640289318612595 1.9179523626910608 -2.1245604954161585 -1.5707648436175745 1.5377172231674194 0.0 -0.049338918179273605 -0.08127392828464508 0.12217338383197784 5.071375926490873e-05 -8.443060429674427e-19 1 True True

3471.846 4.6793060302734375 -1.366943897014 1.913065258656637 -2.1166583500304164 -1.57082444826235 1.5377304553985596 0.0 -0.0722082331776619 -0.12162433564662933 0.18703018128871918 1.0197897115871313e-22 -1.2825027704403564e-37 1 True True

3471.8959999999997 4.679315090179443 -1.3713317674449463 1.9058640638934534 -2.1053835354247035 -1.5708406607257288 1.5377378463745117 0.0 -0.09443613886833191 -0.16025672852993011 0.2576647400856018 1.5489953224646528e-41 -1.5453767052436212e-17 1 True True

3471.946 4.679301738739014 -1.3768900644830246 1.8967340628253382 -2.090642591516012 -1.5708368460284632 1.5376975536346436 0.0 -0.12444981187582016 -0.21080569922924042 0.32109835743904114 0.0 -2.347430614267063e-36 1 True True

3471.9959999999996 4.6793060302734375 -1.3836515557817002 1.8854969183551233 -2.0725790462889613 -1.5707691351519983 1.5376561880111694 0.0 -0.1463555097579956 -0.25006720423698425 0.39727872610092163 0.0 -0.0 1 True True

3472.046 4.679319858551025 -1.391832174067833 1.8717477957354944 -2.0508161983885707 -1.570784870778219 1.5377006530761719 0.0 -0.1744983196258545 -0.29019078612327576 0.4654475152492523 0.0 -8.595694453106262e-06 1 True True

3472.096 4.679332256317139 -1.4013061386397858 1.8561714331256312 -2.0256902180113734 -1.5707686583148401 1.5376975536346436 0.0 -0.20466837286949158 -0.33888357877731323 0.5317540764808655 0.0 2.8151187052571913e-06 1 True True

3472.1459999999997 4.679315090179443 -1.4119315308383484 1.8385255972491663 -1.9977065525450648 -1.5708006064044397 1.5377050638198853 0.0 -0.20876741409301758 -0.34939733147621155 0.5513851642608643 0.0 4.276171406398618e-25 1 True True

3472.196 4.679348468780518 -1.4214530301145096 1.8226631323443812 -1.9717236957945765 -1.5708048979388636 1.5377129316329956 0.0 -0.18412193655967712 -0.30306804180145264 0.47934040427207947 0.0 6.445972935894159e-44 1 True True

3472.2459999999996 4.6793107986450195 -1.4299146097949524 1.8084400335894983 -1.9494692287840785 -1.5708254019366663 1.5377378463745117 0.0 -0.1541469544172287 -0.2549615800380707 0.41245678067207336 0.0 0.0 1 True True

3472.296 4.679323196411133 -1.4370895338109513 1.7968457380877894 -1.9305287800230921 -1.5708168188678187 1.5377050638198853 0.0 -0.127468541264534 -0.2125246375799179 0.33085379004478455 0.0 0.0 1 True True

3472.346 4.679286956787109 -1.4427687686732789 1.787344757710592 -1.9151231251158656 -1.5707925001727503 1.5377552509307861 0.0 -0.10141686350107193 -0.17300744354724884 0.2771725654602051 0.0 0.0 1 True True

3472.3959999999997 4.6793365478515625 -1.4472782102278252 1.7797845045672815 -1.9031483135619105 -1.5708406607257288 1.5377585887908936 0.0 -0.0737297534942627 -0.12626849114894867 0.20157483220100403 0.0 0.0 1 True True

3472.446 4.679315090179443 -1.4504762229374428 1.7745922247516077 -1.8949147663512171 -1.5707605520831507 1.537733554840088 0.0 -0.04927467554807663 -0.08691219240427017 0.13442018628120422 2.190008767323677e-15 0.0 1 True True

3472.4959999999996 4.679357528686523 -1.452210896914341 1.7715113798724573 -1.890050550500387 -1.5708406607257288 1.5377007722854614 0.0 -0.026041725650429726 -0.04090584069490433 0.06195630133152008 3.326626513130515e-34 0.0 1 True True

3472.546 4.679290294647217 -1.4526893657496949 1.7706659475909632 -1.8886295757689417 -1.5707524458514612 1.5376888513565063 -0.006400302518159151 -1.3574035229169112e-09 0.0016020003240555525 -0.0027538957074284554 0.0 0.0 1 True True

3472.596 4.677203178405762 -1.4527534928968926 1.77067739168276 -1.8886224232115687 -1.5707648436175745 1.5356732606887817 -0.07313385605812073 -0.002598969964310527 0.00021994633425492793 3.926483987015672e-05 0.0 -0.07559606432914734 1 True True

3472.6459999999997 4.671658992767334 -1.4530415770462533 1.7707160154925745 -1.8885537586607875 -1.5707891623126429 1.5300657749176025 -0.14416928589344025 -0.007716713473200798 0.005787368398159742 0.0003873627574648708 0.0 -0.14302361011505127 1 True True

3472.696 4.66256856918335 -1.4534233298948784 1.7710917631732386 -1.8885818920531214 -1.570813004170553 1.5210161209106445 -0.21593275666236877 -0.008033046498894691 0.008070994168519974 0.00016514571325387806 0.0 -0.21399256587028503 1 True True

3472.7459999999996 4.6499834060668945 -1.453854778116085 1.7715981642352503 -1.888589998284811 -1.570784870778219 1.5084062814712524 -0.2871851325035095 -0.009654548950493336 0.011296246200799942 5.464060450321995e-05 -5.3327163186622784e-05 -0.29037028551101685 1 True True

3472.796 4.634011268615723 -1.4544152927449723 1.7721384207354944 -1.888658185998434 -1.5707686583148401 1.492380142211914 -0.3511572778224945 -0.012311202473938465 0.012419894337654114 -0.002165180630981922 -0.00014193453534971923 -0.3473941385746002 1 True True

3472.846 4.614321708679199 -1.4549939420870324 1.772898022328512 -1.8887373409666957 -1.5708048979388636 1.4728245735168457 -0.4251849055290222 -0.013422373682260513 0.01719031296670437 -0.002585298614576459 -4.682157305069268e-05 -0.42852288484573364 1 True True

3472.8959999999997 4.591468811035156 -1.4557476353696366 1.773719612752096 -1.8888699016966761 -1.5708048979388636 1.4498666524887085 -0.498412549495697 -0.01786266639828682 0.020003536716103554 -0.0021045932080596685 -6.7815985858032946e-06 -0.4956980049610138 1 True True

3472.946 4.565009593963623 -1.4565797609141846 1.7747185865985315 -1.8889485798277796 -1.570801083241598 1.4233626127243042 -0.5623742938041687 -0.019992375746369362 0.023951247334480286 -0.0015301596140488982 0.00023104420688468963 -0.5649733543395996 1 True True

3472.9959999999996 4.534836769104004 -1.4576244589737435 1.775870148335592 -1.889108797112936 -1.5708406607257288 1.3932733535766602 -0.6313765645027161 -0.021076910197734833 0.02233569696545601 -0.0030983351171016693 -0.0006766319274902344 -0.6308801770210266 1 True True

3473.046 4.501289367675781 -1.4587003600648423 1.7771123091327112 -1.8891807995238246 -1.5708687941180628 1.3598005771636963 -0.7096228003501892 -0.023996151983737946 0.023272620514035225 -0.0055944351479411125 -0.001126991817727685 -0.7061652541160583 1 True True

3473.096 4.464332580566406 -1.4600025874427338 1.7784674803363245 -1.889331956902975 -1.5708568731891077 1.3228570222854614 -0.7776455879211426 -0.023638470098376274 0.029906580224633217 -0.004341962747275829 -0.0011065093567594886 -0.7722871899604797 1 True True

3473.1459999999997 4.423798561096191 -1.4613575649312516 1.779957119618551 -1.8895002804198207 -1.5707648436175745 1.282291293144226 -0.8395364880561829 -0.029962295666337013 0.03173311427235603 -0.004033029545098543 -9.706622950034216e-05 -0.8457595705986023 1 True True

3473.196 4.37984037399292 -1.4628188920072098 1.7816584745990198 -1.889616151849264 -1.570784870778219 1.238254427909851 -0.9102941751480103 -0.029376817867159843 0.03531666100025177 -0.005531540140509605 2.5205936253769323e-05 -0.9072660207748413 1 True True

3473.2459999999996 4.332502365112305 -1.4644106116941948 1.783459488545553 -1.889799257318014 -1.5707724730121058 1.1908942461013794 -0.9866417050361633 -0.034300755709409714 0.037025097757577896 -0.0030872072093188763 -0.0006622663349844515 -0.9834086894989014 1 True True

3473.296 4.28152322769165 -1.4661089417389412 1.7852419058429163 -1.8900076351561488 -1.5707686583148401 1.139948844909668 -1.0447295904159546 -0.03320958837866783 0.038340672850608826 -0.004550111014395952 1.2875692774071048e-14 -1.0438274145126343 1 True True

3473.346 4.229165077209473 -1.4678860765746613 1.787253204976217 -1.8901425800719203 -1.5708335081683558 1.087609052658081 -1.0427278280258179 -0.03591523692011833 0.03834932669997215 -0.002133559202775359 0.0010849947575479746 -1.0445557832717896 1 True True

3473.3959999999997 4.176905632019043 -1.4696394217065354 1.7892420927630823 -1.890306135217184 -1.5707648436175745 1.035212516784668 -1.0487440824508667 -0.03427116945385933 0.040317874401807785 -0.003001927165314555 -0.00021316952188499272 -1.0458135604858398 1 True True

3473.446 4.12453031539917 -1.4713527646711846 1.7911503950702112 -1.8905297718443812 -1.5708406607257288 0.9828450083732605 -1.0486077070236206 -0.03380557894706726 0.036013614386320114 -0.003387303091585636 0.00022147285926621407 -1.0488678216934204 1 True True

3473.4959999999996 4.072113513946533 -1.4731750351241608 1.7930792013751429 -1.8907176456847132 -1.570829216633932 0.9305399656295776 -1.043555498123169 -0.03485272079706192 0.03795536607503891 -0.0026763135101646185 2.1070014222940303e-12 -1.0482796430587769 1 True True

3473.546 4.019794464111328 -1.4748822462609787 1.7950270811664026 -1.890864988366598 -1.570784870778219 0.8782090544700623 -1.0470339059829712 -0.03629085421562195 0.03935029357671738 -0.003678348381072283 7.859482309413579e-08 -1.0500930547714233 1 True True

3473.596 3.9673709869384766 -1.4766342726400872 1.7968948523150843 -1.8910843334593714 -1.5707925001727503 0.8258398771286011 -1.0488530397415161 -0.034583497792482376 0.03994037210941315 -0.0029639615677297115 0.00015773299674037844 -1.0440497398376465 1 True True

3473.6459999999997 3.9149858951568604 -1.4783549544266243 1.7988031546222132 -1.8912927112975062 -1.5708211104022425 0.7734382748603821 -1.0441205501556396 -0.03522288799285889 0.03688206523656845 -0.004613624420017004 -5.137018774803437e-07 -1.0467536449432373 1 True True

3473.696 3.86265230178833 -1.480117344563343 1.8007491270648401 -1.891451974908346 -1.570784870778219 0.721087634563446 -1.0490713119506836 -0.035221341997385025 0.042166564613580704 -0.005248133093118668 -0.0004260665737092495 -1.0463563203811646 1 True True

3473.7459999999996 3.810335636138916 -1.4818754878691216 1.8027637640582483 -1.8916918239989222 -1.5707967917071741 0.6687067151069641 -1.0493367910385132 -0.03601304441690445 0.039403632283210754 -0.0039058623369783163 -7.383734249022389e-12 -1.0501573085784912 1 True True

3473.796 3.7579777240753174 -1.4836707201651116 1.8047335783587855 -1.8917581043639125 -1.5708048979388636 0.6163239479064941 -1.0452152490615845 -0.03590864688158035 0.03664924576878548 -0.0036810513120144606 -1.1215906937918846e-30 -1.0488685369491577 1 True True

3473.846 3.7056291103363037 -1.4854423490217705 1.8065841833697718 -1.8919946155943812 -1.5708449522601526 0.5639181137084961 -1.0451374053955078 -0.035771604627370834 0.038839563727378845 -0.003375768894329667 -9.451701845231836e-15 -1.0476628541946411 1 True True

3473.8959999999997 3.6532673835754395 -1.487081841831543 1.8086145559894007 -1.8921863041319789 -1.5707767645465296 0.5116190314292908 -1.0500741004943848 -0.03642275929450989 0.03700534254312515 -0.0038753340486437082 -6.393866351572797e-05 -1.0470491647720337 1 True True

3473.946 3.600822925567627 -1.4888442170671006 1.810554329548971 -1.8923655949034632 -1.570784870778219 0.459354043006897 -1.0438610315322876 -0.03266819566488266 0.03878356143832207 -0.0031120593193918467 7.755732804071158e-05 -1.0476937294006348 1 True True

3473.9959999999996 3.5484516620635986 -1.4906068605235596 1.812441651021139 -1.892625471154684 -1.570784870778219 0.4068797826766968 -1.0486572980880737 -0.03609916940331459 0.03792048990726471 -0.004268426913768053 -5.3155788918957114e-05 -1.0392853021621704 1 True True

3474.046 3.4961674213409424 -1.4923105475357552 1.8144310156451624 -1.8927818737425746 -1.5707967917071741 0.3544978201389313 -1.0523842573165894 -0.033505965024232864 0.03878096491098404 -0.005034813191741705 -5.9869928185523615e-22 -1.0488628149032593 1 True True

3474.096 3.443763256072998 -1.4941813808730622 1.8163631598102015 -1.8929606876769007 -1.5707891623126429 0.3022720217704773 -1.0465232133865356 -0.03522072359919548 0.03887214884161949 -0.004235255531966686 -7.804848607673679e-18 -1.0488642454147339 1 True True

3474.1459999999997 3.3914499282836914 -1.4958537083915253 1.8183916250811976 -1.8931476078429164 -1.5708048979388636 0.24989773333072662 -1.0464369058609009 -0.035343289375305176 0.035931698977947235 -0.005664492025971413 -2.4201954764541903e-16 -1.0464165210723877 1 True True

3474.196 3.3398795127868652 -1.4975954753211518 1.8202064673053187 -1.8933474026122035 -1.5708406607257288 0.19827215373516083 -1.007259726524353 -0.03313220292329788 0.03718285635113716 -0.004004172049462795 -3.676282243940523e-35 -1.0056120157241821 1 True True

3474.2459999999996 3.2914540767669678 -1.4992574837854882 1.8219736258136194 -1.8935028515257777 -1.5708048979388636 0.14990201592445374 -0.9308039546012878 -0.03284506872296333 0.03489600494503975 -0.00154974649194628 -0.0 -0.9376053214073181 1 True True

3474.296 3.2464914321899414 -1.500786454682686 1.8236945311175745 -1.893691202203268 -1.5708730856524866 0.1048852801322937 -0.8658931255340576 -0.028648201376199722 0.0317206084728241 -0.003265164326876402 -0.00023490858438890427 -0.8617343902587891 1 True True

3474.346 3.2050960063934326 -1.502102406030037 1.8252142111407679 -1.893914361993307 -1.5708168188678187 0.0635310709476471 -0.7945461273193359 -0.02627226896584034 0.028437085449695587 -0.002715828362852335 0.0003789355978369713 -0.7867104411125183 1 True True

3474.3959999999997 3.167233467102051 -1.5034375575235863 1.8265460173236292 -1.8939625225462855 -1.570772949849264 0.0256775114685297 -0.7213556170463562 -0.026090005412697792 0.0269462987780571 -0.0013834488345310092 1.0039223915218242e-17 -0.727979302406311 1 True True

3474.446 3.1328530311584473 -1.5045917716673394 1.8278473059283655 -1.8940783939757289 -1.570801083241598 -0.008695904408590138 -0.6554914712905884 -0.020717144012451172 0.022946886718273163 -0.001848966465331614 0.0005116383545100689 -0.6616582870483398 1 True True

3474.4959999999996 3.101928949356079 -1.5055672985366364 1.8289902845965784 -1.894193788568014 -1.5707686583148401 -0.03962594667543584 -0.5858117938041687 -0.01835297793149948 0.020215652883052826 -0.002510106423869729 0.0002995591494254768 -0.585903525352478 1 True True

3474.546 3.074491262435913 -1.5065265160850068 1.8299968878375452 -1.8942614994444789 -1.570813004170553 -0.06698114076723272 -0.5139678120613098 -0.017623577266931534 0.020405616611242294 -0.001357118133455515 0.0003259710210841149 -0.5196998715400696 1 True True

3474.596 3.050778865814209 -1.5073418629220505 1.8309596220599573 -1.8943935833373011 -1.570784870778219 -0.09105092683901006 -0.447322279214859 -0.01655442826449871 0.016242966055870056 -0.0004300706787034869 0.00042544331518001854 -0.4414544701576233 1 True True

3474.6459999999997 3.0302317142486572 -1.507971317773201 1.8316920439349573 -1.8944579563536585 -1.5707767645465296 -0.11143380800356084 -0.370670348405838 -0.013426843099296093 0.014807493425905704 -0.0007031069253571332 0.00027917366242036223 -0.37850475311279297 1 True True

3474.696 3.0131289958953857 -1.508546808069088 1.8323066870318812 -1.8945533237852992 -1.5707886854754847 -0.12836105028261358 -0.3029375672340393 -0.01113836094737053 0.01097593642771244 -0.0005919124814681709 2.6658102808552187e-13 -0.31048300862312317 1 True True

3474.7459999999996 2.9997549057006836 -1.508960561161377 1.8327797094928187 -1.894609113732809 -1.570801083241598 -0.14195615450014287 -0.2366829514503479 -0.006989548914134502 0.008589294739067554 -0.0007324351463466883 -2.509067975609014e-08 -0.2358192652463913 1 True True

3474.796 2.989814519882202 -1.5092634943178673 1.8330872694598597 -1.8946052990355433 -1.5708211104022425 -0.15188342729677373 -0.16546431183815002 -0.005267426371574402 0.005439217668026686 -0.0006037577986717224 -3.811279389288266e-27 -0.16632822155952454 1 True True

3474.846 2.983261823654175 -1.5094727662256737 1.8333271185504358 -1.8946901760497035 -1.570784870778219 -0.15831548372377569 -0.09508176147937775 -0.003751536598429084 0.0032769206445664167 -0.0004079319769516587 -0.0 -0.09781935065984726 1 True True

3474.8959999999997 2.980254888534546 -1.5095741686275979 1.833447281514303 -1.8946291408934535 -1.5707529226886194 -0.16131765047182256 -0.026523202657699585 -0.0011798602063208818 0.0016793718095868826 -0.0002999416028615087 -0.0 -0.028363902121782303 1 True True

3474.946 2.9801077842712402 -1.509389029150345 1.8340757528888147 -1.8956948719420375 -1.5707443396197718 -0.1615083853351038 0.0005095648812130094 0.013940754346549511 0.028563447296619415 -0.03374335169792175 -0.0 -0.00016101449728012085 1 True True

3474.9959999999996 2.980120897293091 -1.5080285531333466 1.836527172719137 -1.899356027642721 -1.5707686583148401 -0.1614916960345667 -0.00032168254256248474 0.044702112674713135 0.0708550214767456 -0.10986529290676117 8.198397465081375e-19 -0.0004942198283970356 1 True True

3475.046 2.9801132678985596 -1.505083331172802 1.8410757223712366 -1.9068643055357875 -1.5707362333880823 -0.16152745882143194 -0.0013298209523782134 0.07128047198057175 0.11078456789255142 -0.1801205277442932 -2.1871715944143943e-05 -0.0004775854176841676 1 True True

3475.096 2.9800891876220703 -1.500850835149624 1.8479674498187464 -1.9177781544127406 -1.570857350026266 -0.16157704988588506 -0.0006038543069735169 0.0964212417602539 0.1620437651872635 -0.26233941316604614 -4.5566022890852764e-05 -0.0002180461451644078 1 True True

3475.1459999999997 2.9800405502319336 -1.4954239514521142 1.8570407072650355 -1.932328840295309 -1.5707767645465296 -0.16156036058534795 -0.0002496347588021308 0.12454353272914886 0.20056447386741638 -0.3273178040981293 -6.281677633523941e-05 -0.00015299332153517753 1 True True

3475.196 2.9800567626953125 -1.4885042917779465 1.8679598013507288 -1.950355669061178 -1.5707886854754847 -0.1615513006793421 -0.00016253170906566083 0.14811643958091736 0.2413540482521057 -0.38413354754447937 -9.828488023444493e-10 -5.5990993132581934e-05 1 True True

3475.2459999999996 2.98006534576416 -1.4804217305830498 1.8812974135028284 -1.9718290768065394 -1.570801083241598 -0.16156036058534795 -0.00011507424642331898 0.17534123361110687 0.28538599610328674 -0.45757898688316345 -1.492949596527389e-28 -3.68732180504594e-05 1 True True

3475.296 2.9800164699554443 -1.4707922723940392 1.8967388311969202 -1.996559282342428 -1.5708168188678187 -0.16155606905092412 -5.549543857341632e-05 0.20249976217746735 0.32570067048072815 -0.538972020149231 -2.4515038603567518e-05 -2.845371507853578e-11 1 True True

3475.346 2.980053663253784 -1.460091308956482 1.9143427054034632 -2.0248686275877894 -1.5708654562579554 -0.16158610979189092 -3.6658369936048985e-05 0.21571135520935059 0.3590865135192871 -0.5599856972694397 5.101086220093975e-10 1.5738972625189973e-13 1 True True

3475.3959999999997 2.9800000190734863 -1.4499545109323044 1.9307296911822718 -2.0518623791136683 -1.5707967917071741 -0.1615513006793421 1.4986159218416915e-14 0.1921556293964386 0.3047928810119629 -0.506878137588501 7.748561445185354e-29 2.390752736797016e-32 1 True True

3475.446 2.980025053024292 -1.4409105789712449 1.945388142262594 -2.075146337548727 -1.5707724730121058 -0.16155606905092412 0.0 0.16413775086402893 0.26979032158851624 -0.43300503492355347 0.0 0.0 1 True True

3475.4959999999996 2.980074167251587 -1.4333439779332657 1.9576566855060022 -2.0951839886107386 -1.5708044211017054 -0.16154462495912725 0.0 0.13421423733234406 0.2246389091014862 -0.36004188656806946 0.0 0.0 1 True True

3475.546 2.9800286293029785 -1.4270945352366944 1.9678519407855433 -2.111499925652975 -1.5707972685443323 -0.16157704988588506 0.0 0.11334076523780823 0.1847458779811859 -0.3070169985294342 0.0 0.0 1 True True

3475.596 2.98006534576416 -1.4222357285073777 1.97593862215151 -2.1245089970030726 -1.5708373228656214 -0.16154891649355108 0.0 0.0865907371044159 0.14466805756092072 -0.2322637289762497 0.0 0.0 1 True True

3475.6459999999997 2.980048179626465 -1.4186371129802247 1.9818490187274378 -2.1341101131834925 -1.5707891623126429 -0.161506477986471 0.0 0.05998639017343521 0.09004990756511688 -0.1554880291223526 0.0 0.0 1 True True

3475.696 2.9800045490264893 -1.4163330358317872 1.9854543844806116 -2.139982362786764 -1.5707805792437952 -0.16155797639955694 1.3687506767231801e-31 0.03272561356425285 0.05040334165096283 -0.0822039321064949 0.0 0.0 1 True True

3475.7459999999996 2.9799959659576416 -1.4156367045691987 1.9866541067706507 -2.1426292858519496 -1.570813004170553 -0.16157275835146123 0.0 0.00476945610716939 0.012173046357929707 -0.01803031750023365 9.088282968150452e-05 0.0 1 True True

3475.796 2.9800074100494385 -1.4155794394067307 1.98674184480776 -2.142608781854147 -1.570820156727926 -0.16150075594057256 5.333254739525728e-05 0.0015789460157975554 0.005258959252387285 0.00022085527598392218 2.5765044483705424e-05 2.680438342395064e-07 1 True True

3475.846 2.9800000190734863 -1.4151373219541092 1.9874990622149866 -2.142204900781149 -1.570813004170553 -0.16152459779848272 7.681918181428647e-42 0.0003343035641591996 0.002068142406642437 0.0019256279338151217 5.421300738817081e-05 4.071590006501589e-26 1 True True

3475.8959999999997 2.9800448417663574 -1.4152316761067887 1.9873583952533167 -2.14235319713735 -1.570801083241598 -0.16155797639955694 0.0 -0.00023842671362217516 -0.00012771842011716217 -2.384615811479307e-07 5.1803796441343e-14 0.0006620335625484586 1 True False

3475.946 2.980058193206787 -1.415227250461914 1.9872906843768519 -2.142449041406149 -1.570756737385885 -0.16157275835146123 -4.009061012766324e-05 -0.0005744061782024801 -0.0005594235844910145 -0.0004653796786442399 7.515642863609173e-08 0.0008484486606903374 1 True False

3475.9959999999996 2.9800658226013184 -1.415336624985077 1.9872034231769007 -2.14245667080068 -1.5707767645465296 -0.16154891649355108 -1.9365119412173485e-38 -0.0006663079839199781 -0.0011007647262886167 -0.0007560529047623277 1.1416274842329953e-26 -2.283860653154164e-15 1 True False

3476.046 2.9800493717193604 -1.415347085600235 1.9870851675616663 -2.1425568066039027 -1.5707605520831507 -0.16158038774599248 0.0 -0.0004050529096275568 -0.0007498548948206007 -0.000491639890242368 1.401298464324817e-45 -3.469189871067517e-34 1 True False

3476.096 2.9800612926483154 -1.4153964680484314 1.987053696309225 -2.142376562158102 -1.5707967917071741 -0.16154700914491826 0.0 -0.01015042420476675 -0.019023558124899864 0.017455030232667923 0.0 -0.0 1 True False

3476.1459999999997 2.9800612926483154 -1.416419730787613 1.9854887167560022 -2.1400486431517542 -1.5707686583148401 -0.16157704988588506 0.0 -0.028058715164661407 -0.046350058168172836 0.087925486266613 0.0 -0.0 1 True False

3476.196 2.9800195693969727 -1.4185813081315537 1.9818266073810022 -2.1338874302306117 -1.5707810560809534 -0.16151124635805303 0.0 -0.05879826098680496 -0.10274334996938705 0.1421392261981964 0.0 -0.0 1 True False

3476.2459999999996 2.9800822734832764 -1.4222264748862763 1.9757664839373987 -2.124359746972555 -1.5707810560809534 -0.16157704988588506 0.0 -0.0878402441740036 -0.1348244547843933 0.22209669649600983 -5.276598585624015e-06 -0.0 1 True False

3476.296 2.9800448417663574 -1.4272429657033463 1.9676340262042444 -2.1113344631590785 -1.5708287397967737 -0.1615231672870081 0.0 -0.11335326731204987 -0.18360280990600586 0.28943270444869995 -8.015166007234725e-25 7.114466279745102e-05 1 True False

