Andreas691667/Digital_Twin_UR/src/controller_monitor/robot_output/vis_robot_output.csv
timestamp actual_q_0 actual_q_1 actual_q_2 actual_q_3 actual_q_4 actual_q_5 actual_qd_0 actual_qd_1 actual_qd_2 actual_qd_3 actual_qd_4 actual_qd_5 safety_status output_bit_register_65 output_bit_register_66
10659.322 3.7121057510375977 -0.825483576660492 0.8430007139789026 -1.588273664514059 -1.5707805792437952 2.141258955001831 0.0 0.0 0.0 0.0 0.0 -0.0 1 False False
10659.372 3.712095022201538 -0.8255037826350708 0.8429802099810999 -1.588292738000387 -1.5707843939410608 2.1412723064422607 0.0 0.0 0.0 0.0 0.0 -0.0 1 False False
10659.421999999999 3.7120325565338135 -0.8254869741252442 0.8430007139789026 -1.5882889233031214 -1.5708568731891077 2.141300678253174 0.0 0.0 0.0 0.0 0.0 -0.0 1 False False
10659.472 3.7120742797851562 -0.8254383963397522 0.8430054823504847 -1.5883013210692347 -1.5707929770099085 2.141296148300171 0.0 0.0 0.0 0.0 0.0 -0.0 1 False False
10659.521999999999 3.7120282649993896 -0.8254663509181519 0.8429964224444788 -1.5882846317686976 -1.5708335081683558 2.141284227371216 0.0 0.0 0.0 0.0 0.0 -0.0 1 False False
10659.572 3.71207857131958 -0.8254459065249939 0.8430412451373499 -1.5882612667479457 -1.5707805792437952 2.141284227371216 0.0 0.0 0.0 0.0 0.0 -0.0 1 False False
10659.622 3.7120580673217773 -0.8254631918719788 0.8429845015155237 -1.5882846317686976 -1.5708373228656214 2.141279697418213 0.0 0.0 0.0 0.0 0.0 -0.0 1 False False
10659.671999999999 3.71207857131958 -0.825458900337555 0.8430259863482874 -1.5882650814452113 -1.5707805792437952 2.14127516746521 0.0 0.0 0.0 0.0 0.0 -0.0 1 False False
10659.722 3.7120413780212402 -0.825487033729889 0.8429630438434046 -1.588292738000387 -1.5707724730121058 2.141350269317627 0.0 0.0 0.0 0.0 0.0 -0.0 1 False False
10659.771999999999 3.7120776176452637 -0.8254674238017579 0.8429845015155237 -1.5882846317686976 -1.570829216633932 2.141279697418213 0.0 0.0 0.0 0.0 0.0 -0.0 1 False False
10659.822 3.7121024131774902 -0.8254546088031312 0.8430259863482874 -1.5882889233031214 -1.5707724730121058 2.141308546066284 0.0 0.0 0.0 0.0 0.0 -0.0 1 False False
10659.872 3.7120208740234375 -0.825491265659668 0.8429763952838343 -1.588313718835348 -1.570813004170553 2.141230583190918 0.0 0.0 0.0 0.0 0.0 -0.0 1 False False
10659.921999999999 3.712094783782959 -0.8254469198039551 0.8429845015155237 -1.5883051357665003 -1.5707925001727503 2.141324996948242 0.0 0.0 0.0 0.0 0.0 -0.0 1 False False
10659.972 3.712090492248535 -0.8255038422397156 0.8430216948138636 -1.588269372979635 -1.5707925001727503 2.141226053237915 0.0 0.0 0.0 0.0 0.0 -0.0 1 False False
10660.021999999999 3.7120611667633057 -0.825491265659668 0.8429802099810999 -1.588313718835348 -1.5708087126361292 2.141322135925293 0.0 0.0 0.0 0.0 0.0 -0.0 1 False False
10660.072 3.7120699882507324 -0.8254426878741761 0.842992130910055 -1.5882607899107875 -1.5707891623126429 2.1412885189056396 0.0 0.0 0.0 0.0 0.0 -0.0 1 False False
10660.122 3.7121307849884033 -0.8254997295192261 0.8429802099810999 -1.5883413753905238 -1.570813004170553 2.141284227371216 0.0 0.0 0.0 0.0 0.0 -0.0 1 False False
10660.171999999999 3.7120656967163086 -0.8254793447307129 0.8429802099810999 -1.588245531121725 -1.5707805792437952 2.141237735748291 0.0 0.0 0.0 0.0 0.0 -0.0 1 False False
10660.222 3.7120699882507324 -0.8255328100970765 0.842992130910055 -1.5883170566954554 -1.5707925001727503 2.141233444213867 0.0 0.0 0.0 0.0 0.0 -0.0 1 False False
10660.271999999999 3.712106704711914 -0.8254383963397522 0.8429845015155237 -1.5882374248900355 -1.570829216633932 2.141308546066284 0.0 0.0 0.0 0.0 0.0 -0.0 1 False False
10660.322 3.7120742797851562 -0.8254662913135071 0.8429845015155237 -1.5882774792113246 -1.570784870778219 2.14127516746521 0.0 0.0 0.0 0.0 0.0 -0.0 1 False False
10660.372 3.7120819091796875 -0.8254912060550232 0.8429635206805628 -1.5883013210692347 -1.5707805792437952 2.141266107559204 0.0 0.0 0.0 0.0 0.0 -0.0 1 False False
10660.421999999999 3.712094783782959 -0.825491265659668 0.8430259863482874 -1.5882650814452113 -1.570813004170553 2.141279697418213 0.0 0.0 0.0 0.0 0.0 -0.0 1 False False
10660.472 3.7121317386627197 -0.8255370420268555 0.8429835478412073 -1.5882288418211878 -1.570801083241598 2.141300678253174 0.0 0.0 0.0 0.0 0.0 -0.0 1 False False
10660.521999999999 3.7120862007141113 -0.825430766945221 0.8429930845843714 -1.588269372979635 -1.570772949849264 2.1413004398345947 0.0 0.0 0.0 0.0 0.0 -0.0 1 False False
10660.572 3.7120492458343506 -0.825463132267334 0.8430169264422815 -1.5883013210692347 -1.570784870778219 2.141279697418213 0.0 0.0 0.0 0.0 0.0 -0.0 1 False False
10660.622 3.7120580673217773 -0.8254674238017579 0.842992130910055 -1.5883289776244105 -1.570853058491842 2.141308546066284 0.0 0.0 0.0 0.0 0.0 -0.0 1 False False
10660.671999999999 3.7121024131774902 -0.8254588407329102 0.8429678122149866 -1.5882731876769007 -1.5707686583148401 2.141296148300171 0.0 0.0 0.0 0.0 0.0 -0.0 1 False False
10660.722 3.7120449542999268 -0.8254750531962891 0.8430050055133265 -1.5882817707457484 -1.570829216633932 2.141237735748291 0.0 0.0 0.0 0.0 0.0 -0.0 1 False False
10660.771999999999 3.712110996246338 -0.825450138454773 0.8430374304400843 -1.5883294544615687 -1.5708211104022425 2.1413004398345947 0.0 0.0 0.0 0.0 0.0 -0.0 1 False False
10660.822 3.712123155593872 -0.825450138454773 0.8430007139789026 -1.588245531121725 -1.5707724730121058 2.141296148300171 0.0 0.0 0.0 0.0 0.0 -0.0 1 False False
10660.872 3.712118625640869 -0.8254750531962891 0.8429759184466761 -1.5882731876769007 -1.5707281271563929 2.141261577606201 0.0 0.0 0.0 0.0 0.0 -0.0 1 False False
10660.921999999999 3.712094783782959 -0.8254577678493042 0.8429678122149866 -1.5882607899107875 -1.5708254019366663 2.14127516746521 0.0 0.0 0.0 0.0 0.0 -0.0 1 False False
10660.972 3.7120819091796875 -0.825483576660492 0.8429802099810999 -1.5883013210692347 -1.5707891623126429 2.141296148300171 0.0 0.0 0.0 0.0 0.0 -0.0 1 False False
10661.021999999999 3.7120611667633057 -0.8254954975894471 0.8429930845843714 -1.5882817707457484 -1.5708087126361292 2.141266107559204 0.0 0.0 0.0 0.0 0.0 -0.0 1 False False
10661.072 3.7120776176452637 -0.8254546088031312 0.8430169264422815 -1.588285585443014 -1.5707805792437952 2.141279697418213 0.0 0.0 0.0 0.0 0.0 -0.0 1 False False
10661.122 3.7121469974517822 -0.825434998875 0.8430007139789026 -1.5882889233031214 -1.5708087126361292 2.141324996948242 0.0 0.0 0.0 0.0 0.0 -0.0 1 False False
10661.171999999999 3.7120699882507324 -0.8254869741252442 0.8430007139789026 -1.5882932148375453 -1.5707810560809534 2.1412408351898193 0.0 0.0 0.0 0.0 0.0 -0.0 1 False False
10661.222 3.7120614051818848 -0.8255155247500916 0.8430007139789026 -1.5882932148375453 -1.5708325544940394 2.141313076019287 0.0 0.0 0.0 0.0 0.0 -0.0 1 False False
10661.271999999999 3.7120518684387207 -0.825491265659668 0.8429802099810999 -1.5882569752135218 -1.5708048979388636 2.141291618347168 0.0 0.0 0.0 0.0 0.0 -0.0 1 False False
10661.322 3.7120862007141113 -0.8254708212665101 0.8429678122149866 -1.5882250271239222 -1.570801083241598 2.141313076019287 0.0 0.0 0.0 0.0 0.0 -0.0 1 False False
10661.372 3.7121026515960693 -0.825463132267334 0.8429887930499476 -1.5882817707457484 -1.5707805792437952 2.141333818435669 0.0 0.0 0.0 0.0 0.0 -0.0 1 False False
10661.421999999999 3.712062358856201 -0.825458900337555 0.8430050055133265 -1.5883294544615687 -1.570756737385885 2.141247034072876 0.0 0.0 0.0 0.0 0.0 -0.0 1 False False
10661.472 3.7120816707611084 -0.8254546088031312 0.8429964224444788 -1.5882607899107875 -1.5707805792437952 2.141221523284912 0.0 0.0 0.0 0.0 0.0 -0.0 1 False False
10661.521999999999 3.712106943130493 -0.8254630726626893 0.8430050055133265 -1.5882731876769007 -1.5708168188678187 2.141279697418213 0.0 0.0 0.0 0.0 0.0 -0.0 1 False False
10661.572 3.712111473083496 -0.825483576660492 0.8429802099810999 -1.5882607899107875 -1.570756737385885 2.141258955001831 0.0 0.0 0.0 0.0 0.0 -0.0 1 False False
10661.622 3.712111473083496 -0.8254869741252442 0.842992130910055 -1.588297029534811 -1.5707486311541956 2.141284227371216 0.0 0.0 0.0 0.0 0.0 -0.0 1 False False
10661.671999999999 3.712099552154541 -0.8254951399615784 0.8430007139789026 -1.5882932148375453 -1.570784870778219 2.141242504119873 0.0 0.0 0.0 0.0 0.0 -0.0 1 False False
10661.722 3.7120697498321533 -0.8254750531962891 0.8429754416095179 -1.5882374248900355 -1.5707443396197718 2.1413040161132812 0.0 0.0 0.0 0.0 0.0 -0.0 1 False False
10661.771999999999 3.7120862007141113 -0.8255037826350708 0.8430174032794397 -1.5882889233031214 -1.5707967917071741 2.141287088394165 0.0 0.0 0.0 0.0 0.0 -0.0 1 False False
10661.822 3.7120490074157715 -0.8254750531962891 0.8429721037494105 -1.588297029534811 -1.570813004170553 2.141266107559204 0.0 0.0 0.0 0.0 0.0 -0.0 1 False False
10661.872 3.712111473083496 -0.8254546088031312 0.8429587523089808 -1.5882889233031214 -1.5707772413836878 2.1412885189056396 0.0 0.0 0.0 0.0 0.0 -0.0 1 False False
10661.921999999999 3.7121191024780273 -0.825451211338379 0.8430259863482874 -1.5882650814452113 -1.570813004170553 2.1413040161132812 0.0 0.0 0.0 0.0 0.0 -0.0 1 False False
10661.972 3.712095022201538 -0.8254620593837281 0.8430174032794397 -1.5883056126036585 -1.5708048979388636 2.1412081718444824 0.0 0.0 0.0 0.0 0.0 -0.0 1 False False
10662.021999999999 3.7120728492736816 -0.8254546684077759 0.8430216948138636 -1.5882331333556117 -1.5707767645465296 2.141279697418213 0.0 0.0 0.0 0.0 0.0 -0.0 1 False False
10662.072 3.712045669555664 -0.8254673641971131 0.8429721037494105 -1.5883375606932582 -1.5707805792437952 2.141266107559204 0.0 0.0 0.0 0.0 0.0 -0.0 1 False False
10662.122 3.712144613265991 -0.8254793447307129 0.8430293242083948 -1.5882774792113246 -1.570723835621969 2.141313076019287 0.0 0.0 0.0 0.0 0.0 -0.0 1 False False
10662.171999999999 3.712062358856201 -0.8254869741252442 0.8429630438434046 -1.588269372979635 -1.5707724730121058 2.141234874725342 0.0 0.0 0.0 0.0 0.0 -0.0 1 False False
10662.222 3.712062358856201 -0.8254750531962891 0.8430174032794397 -1.588252683679098 -1.5707362333880823 2.141249656677246 0.0 0.0 0.0 0.0 0.0 2.6859616899696056e-19 1 False False
10662.271999999999 3.7120862007141113 -0.8254869741252442 0.8430174032794397 -1.5882889233031214 -1.5708335081683558 2.141258955001831 0.0 0.0 0.0 0.0 0.0 4.079981932890522e-38 1 False False
10662.322 3.7120532989501953 -0.8255242270282288 0.8429811636554163 -1.5882607899107875 -1.570801083241598 2.1412994861602783 0.0 0.0 0.0 0.0 0.0 0.0 1 False False
10662.372 3.712116003036499 -0.8255039614490052 0.8429845015155237 -1.5882607899107875 -1.5707686583148401 2.1413040161132812 0.0 0.0 0.0 0.0 0.0 0.0 1 False False
10662.421999999999 3.712161064147949 -0.8255530756763001 0.8430307547198694 -1.5883289776244105 -1.5707925001727503 2.141279697418213 0.0 0.0 0.0 0.0 0.0 0.0 1 False False
10662.472 3.7120203971862793 -0.8254825633815308 0.8430216948138636 -1.5882731876769007 -1.5708211104022425 2.14127516746521 0.0 0.0 0.0 0.0 0.0 0.0 1 False False
10662.521999999999 3.7120862007141113 -0.8254951399615784 0.8430007139789026 -1.5882569752135218 -1.5708254019366663 2.1412885189056396 0.0 0.0 0.0 0.0 0.0 0.0 1 False False
10662.572 3.7120981216430664 -0.8255165380290528 0.8430007139789026 -1.588325639764303 -1.5707529226886194 2.1413040161132812 0.0 0.0 0.0 0.0 0.0 0.0 1 False False
10662.622 3.712095260620117 -0.8254869741252442 0.8429473082171839 -1.5882894001402796 -1.5707886854754847 2.141266107559204 0.0 0.0 0.0 0.0 0.0 0.0 1 True False
10662.671999999999 3.712041139602661 -0.8254673641971131 0.8429754416095179 -1.5882774792113246 -1.5707967917071741 2.141308546066284 0.0 0.0 0.0 0.0 0.0 0.00012433517258614302 1 True False
10662.722 3.71209979057312 -0.8254501980594178 0.8429935614215296 -1.5883094273009242 -1.570801083241598 2.141296148300171 0.0 0.0 0.0 0.0 0.0 2.7783719335622292e-12 1 True False
10662.771999999999 3.7120742797851562 -0.8255080741694947 0.8429845015155237 -1.5882488689818324 -1.5707805792437952 2.14131760597229 0.0 0.0 0.0 0.0 0.0 4.220351506881541e-31 1 True False
10662.822 3.712036609649658 -0.8254750531962891 0.8430007139789026 -1.5883094273009242 -1.5707891623126429 2.141322135925293 0.0 0.0 0.0 0.0 0.0 0.0 1 True False
10662.872 3.712095260620117 -0.8254826229861756 0.8429892698871058 -1.588280817071432 -1.5707891623126429 2.141270637512207 0.0 0.0 0.0 0.0 0.0 0.0 1 True False
10662.921999999999 3.7120652198791504 -0.8254912060550232 0.8430083433734339 -1.5882932148375453 -1.5707805792437952 2.141205072402954 0.0 0.0 0.0 0.0 0.0 0.0 1 True False
10662.972 3.7120158672332764 -0.8254792851260682 0.8430455366717737 -1.5883289776244105 -1.5707967917071741 2.141270637512207 0.0 0.0 0.0 0.0 -2.1100948288221844e-05 -1.2551354053313979e-11 1 True False
10663.021999999999 3.7120771408081055 -0.8254708212665101 0.8429802099810999 -1.588229318658346 -1.5707967917071741 2.141233205795288 0.0 0.0 0.0 0.0 -1.3302877960086334e-05 -1.906554035903762e-30 1 True False
10663.072 3.7120532989501953 -0.8254588407329102 0.8429964224444788 -1.588297029534811 -1.5707891623126429 2.141254186630249 0.0 0.0 0.0 0.0 -1.90048757560029e-18 -9.410423808731139e-05 1 True False
10663.122 3.7121191024780273 -0.825438455944397 0.8430259863482874 -1.5883132419981898 -1.5707724730121058 2.14131760597229 0.0 0.0 0.0 0.0 -2.8868454586101394e-37 3.6895416997140273e-05 1 True False
10663.171999999999 3.7121026515960693 -0.8254835170558472 0.8429964224444788 -1.588273664514059 -1.5707686583148401 2.141279697418213 0.0 0.0 0.0 0.0 -2.1891426513320766e-05 -2.4815293916957692e-11 1 True False
10663.222 3.712095260620117 -0.825524167423584 0.8430126349078577 -1.5882889233031214 -1.5707767645465296 2.1412558555603027 0.0 0.0 0.0 0.0 -5.2206288181366745e-09 -3.769448518906119e-30 1 True False
10663.271999999999 3.7130537033081055 -0.8261271876147767 0.8439520041095179 -1.588571687737936 -1.5707891623126429 2.142274856567383 0.05021987482905388 -0.038654573261737823 0.05262273550033569 -0.013110962696373463 -9.279541700379923e-05 0.05092857778072357 1 True False
10663.322 3.7170114517211914 -0.8293634814075013 0.8486064116107386 -1.5899163685240687 -1.5707967917071741 2.146421194076538 0.11202908307313919 -0.09490955621004105 0.131657212972641 -0.03251374512910843 -2.1980322344461456e-05 0.10978268086910248 1 True False
10663.372 3.7243473529815674 -0.8354343932918091 0.8569858709918421 -1.592297216454977 -1.5708335081683558 2.1535415649414062 0.1752476990222931 -0.14707323908805847 0.19825151562690735 -0.05442335084080696 -2.0258838009934443e-13 0.1699315458536148 1 True False
10663.421999999999 3.734529733657837 -0.8439328831485291 0.8686288038836878 -1.5954348049559535 -1.5707767645465296 2.1636910438537598 0.23371852934360504 -0.18635380268096924 0.26858845353126526 -0.07708349078893661 -3.0773225467874386e-32 0.2276921421289444 1 True False
10663.472 3.747837543487549 -0.8548513215831299 0.8838494459735315 -1.5997168026366175 -1.5707967917071741 2.1769051551818848 0.2909218668937683 -0.2438206821680069 0.3337530791759491 -0.09270092099905014 -0.0 0.2913747727870941 1 True False
10663.521999999999 3.7639758586883545 -0.8682781022838135 0.9024322668658655 -1.604781290093893 -1.5707886854754847 2.193279266357422 0.35741692781448364 -0.29184409976005554 0.40734508633613586 -0.1154814139008522 -0.0 0.3525448441505432 1 True False
10663.572 3.7834789752960205 -0.8841693562320252 0.9244626204120081 -1.6109501324095667 -1.5707772413836878 2.2124879360198975 0.418480783700943 -0.3416571021080017 0.4746161997318268 -0.13785254955291748 9.466553929637911e-11 0.4186045229434967 1 True False
10663.622 3.8057799339294434 -0.9026647967151185 0.950174633656637 -1.6180387936034144 -1.5708325544940394 2.2348904609680176 0.4776666760444641 -0.3873569071292877 0.5421628952026367 -0.14621515572071075 1.4379719702422555e-29 0.4756527543067932 1 True False
10663.671999999999 3.8310799598693848 -0.9235571187785645 0.9791157881366175 -1.62640442470693 -1.5708211104022425 2.2603724002838135 0.5349652767181396 -0.4463507831096649 0.6125182509422302 -0.18020203709602356 2.236606011507547e-09 0.5312832593917847 1 True False
10663.722 3.859713554382324 -0.9471092981151124 1.011763874684469 -1.6355401478209437 -1.5707686583148401 2.2889835834503174 0.5976439714431763 -0.49745839834213257 0.6766092777252197 -0.19585108757019043 0.0001559543306939304 0.5942667722702026 1 True False
10663.771999999999 3.891211986541748 -0.9730299276164551 1.0478914419757288 -1.645374437371725 -1.5707925001727503 2.320523977279663 0.6648200154304504 -0.5385556221008301 0.7546089291572571 -0.19788990914821625 -6.260703422160917e-15 0.6543222069740295 1 True False
10663.822 3.9258458614349365 -1.0015280407718201 1.0872657934771937 -1.656548639337057 -1.5707886854754847 2.355069637298584 0.7203027606010437 -0.585920512676239 0.8266879320144653 -0.23759254813194275 -9.51002480464078e-34 0.7156744599342346 1 True False
10663.872 3.963488817214966 -1.0324308437160035 1.1304100195514124 -1.6685158214964808 -1.5708254019366663 2.392604351043701 0.7767350673675537 -0.6391221880912781 0.8952550888061523 -0.25957831740379333 -0.0 0.7817060947418213 1 True False
10663.921999999999 4.004357814788818 -1.066150740986206 1.1769316832171839 -1.681425233880514 -1.5707529226886194 2.433445692062378 0.8417513966560364 -0.6907562613487244 0.9704585075378418 -0.25405436754226685 -1.1023929329467296e-16 0.8452224135398865 1 True False
10663.972 4.0480122566223145 -1.1020708841136475 1.2269929091082972 -1.6955281696715296 -1.5708044211017054 2.4773786067962646 0.9063379168510437 -0.7455794215202332 1.0326045751571655 -0.30091509222984314 8.358337072422728e-05 0.9020318984985352 1 True False
10664.021999999999 4.093758583068848 -1.1397825640491028 1.2791793982135218 -1.7099963627257289 -1.570801083241598 2.522899627685547 0.914029061794281 -0.7566701769828796 1.0446562767028809 -0.31306397914886475 3.177870189219334e-09 0.9237990975379944 1 True False
10664.072 4.139624118804932 -1.177476630812027 1.3314116636859339 -1.7248951397337855 -1.5708211104022425 2.5689406394958496 0.9213449954986572 -0.7570708394050598 1.0418295860290527 -0.2952214181423187 -0.0004963641986250877 0.9121463298797607 1 True False
10664.122 4.1855645179748535 -1.2152419549277802 1.3838546911822718 -1.7395440540709437 -1.5707843939410608 2.614553928375244 0.9103152751922607 -0.7552300691604614 1.047398328781128 -0.30045053362846375 -1.1090530716018066e-09 0.918935239315033 1 True False
10664.171999999999 4.2312469482421875 -1.252946601515152 1.4362476507769983 -1.754054685632223 -1.5707529226886194 2.660553216934204 0.9212398529052734 -0.7499399185180664 1.0508219003677368 -0.28339123725891113 0.0003760896797757596 0.9156095385551453 1 True False
10664.222 4.277095794677734 -1.2907568675330658 1.4886720816241663 -1.768637319604391 -1.5708239714251917 2.7060492038726807 0.9150718450546265 -0.7546058893203735 1.0525320768356323 -0.2692592442035675 -0.0020931020844727755 0.9170680046081543 1 True False
10664.271999999999 4.322852611541748 -1.3284284335425873 1.5408766905414026 -1.7833458385863246 -1.5707843939410608 2.752166271209717 0.9178490042686462 -0.7571385502815247 1.03603994846344 -0.30243417620658875 -0.0002130453649442643 0.9177021980285645 1 True False
10664.322 4.367732048034668 -1.3652288180640717 1.5919869581805628 -1.7975665531554164 -1.5707891623126429 2.7969040870666504 0.8623080253601074 -0.710981011390686 0.9822164177894592 -0.27777326107025146 -0.0004963257233612239 0.8597981929779053 1 True False
10664.372 4.409542560577393 -1.3996993613294144 1.6397345701800745 -1.8110577068724574 -1.5707529226886194 2.838624954223633 0.8052111864089966 -0.6647186279296875 0.9188393950462341 -0.25385668873786926 0.0019066609675064683 0.8189858198165894 1 True False
10664.421999999999 4.448286533355713 -1.4314983946136017 1.6840112845050257 -1.8232842884459437 -1.5707524458514612 2.877450942993164 0.746563196182251 -0.6159521341323853 0.8472128510475159 -0.2337431162595749 0.0009417538531124592 0.7427893280982971 1 True False
10664.472 4.48389196395874 -1.4608050894788285 1.7245195547686976 -1.8347970447936 -1.5707772413836878 2.913109064102173 0.6847677230834961 -0.5637607574462891 0.7830866575241089 -0.22891737520694733 -0.0003175681922584772 0.6829898953437805 1 True False
10664.521999999999 4.516456127166748 -1.4877357569387932 1.7618706862079065 -1.8453718624510707 -1.570829216633932 2.9456889629364014 0.6231898069381714 -0.518855631351471 0.7057508230209351 -0.19734494388103485 0.0004327363276388496 0.6200509667396545 1 True False
10664.572 4.545933246612549 -1.5121164222112675 1.795783821736471 -1.8545242748656214 -1.5708325544940394 2.9752814769744873 0.559613823890686 -0.46492233872413635 0.6370897889137268 -0.19406811892986298 -0.002282755682244897 0.5576643347740173 1 True False
10664.622 4.572412967681885 -1.533991054897644 1.826216999684469 -1.863047262231344 -1.5707967917071741 3.0016844272613525 0.4994904100894928 -0.4105505347251892 0.5691003203392029 -0.16829761862754822 -0.0002569231146480888 0.4968685507774353 1 True False
10664.671999999999 4.59601354598999 -1.5530764304897566 1.852757755910055 -1.870573183099264 -1.5707891623126429 3.0251190662384033 0.4340342879295349 -0.3640367090702057 0.5082521438598633 -0.1387322098016739 0.00013624689017888159 0.4527284502983093 1 True False
10664.722 4.616410732269287 -1.5700247388197859 1.8759492079364222 -1.877103944818014 -1.5707486311541956 3.0454699993133545 0.37709614634513855 -0.31195318698883057 0.4283932149410248 -0.1118226945400238 0.0005321241333149374 0.37754756212234497 1 True False
10664.771999999999 4.633532524108887 -1.5839630566039027 1.8959806601153772 -1.8824883900084437 -1.570824925099508 3.062927007675171 0.32053449749946594 -0.2634316682815552 0.35896793007850647 -0.11749148368835449 -5.395434709498659e-05 0.31267818808555603 1 True False
10664.822 4.648017883300781 -1.596046587029928 1.912154499684469 -1.8870178661742152 -1.5707605520831507 3.077082633972168 0.25172102451324463 -0.20142415165901184 0.3004363477230072 -0.0731990784406662 -0.0002493284991942346 0.2579343616962433 1 True False
10664.872 4.659115314483643 -1.6052261791624964 1.9249494711505335 -1.8907295666136683 -1.5708006064044397 3.088334321975708 0.1933947056531906 -0.15986062586307526 0.2149563431739807 -0.05735361576080322 -6.699612517318751e-14 0.19286423921585083 1 True False
10664.921999999999 4.667287349700928 -1.6118484936156214 1.934359375630514 -1.893184324304098 -1.5708048979388636 3.0965209007263184 0.13605070114135742 -0.1132807806134224 0.15156400203704834 -0.046395041048526764 -4.05071421302014e-18 0.13268013298511505 1 True False
10664.972 4.67241096496582 -1.6160932979979457 1.9400513807879847 -1.8948642216124476 -1.570784870778219 3.101635694503784 0.073704294860363 -0.060124874114990234 0.0870547741651535 -0.025948375463485718 -6.153045504911699e-37 0.07281961292028427 1 True False
10665.021999999999 4.6744818687438965 -1.61785950283193 1.942479435597555 -1.8955346546568812 -1.5707886854754847 3.1036536693573 0.011730472557246685 -0.010280719958245754 0.01382287684828043 -0.0009090201929211617 -0.0 0.01243346557021141 1 True False
10665.072 4.674435615539551 -1.6173135242857875 1.943350617085592 -1.8968569240965785 -1.570772949849264 3.1036789417266846 0.0003698817454278469 0.019719991832971573 0.03450699895620346 -0.048476919531822205 -0.0 -3.0344907689782027e-16 1 True False
10665.122 4.674389839172363 -1.6157709560790003 1.9462292830096644 -1.9013596973814906 -1.5707610289203089 3.10371470451355 0.0009662112570367754 0.04731771722435951 0.08022427558898926 -0.12345846742391586 7.952386658871546e-05 0.0004832326958421618 1 True False
10665.171999999999 4.674504280090332 -1.6127058468260707 1.9513228575335901 -1.9095236263670863 -1.5708611647235315 3.103668212890625 0.0008276002481579781 0.07468686252832413 0.11761720478534698 -0.19585147500038147 3.77815704268869e-05 0.000308535760268569 1 True False
10665.222 4.674462795257568 -1.608107706109518 1.9583776632892054 -1.9210435352721156 -1.5707810560809534 3.103672981262207 0.0008597979322075844 0.10742924362421036 0.1631639003753662 -0.25757530331611633 3.7167548725847155e-05 0.0001338444562861696 1 True False
10665.271999999999 4.674531936645508 -1.602269788781637 1.9676287809955042 -1.9362408123412074 -1.5708048979388636 3.103767156600952 0.00019345282635185868 0.1319090723991394 0.20583906769752502 -0.3271705210208893 1.0420126567156629e-10 6.514351844089106e-05 1 True False
10665.322 4.674588680267334 -1.5950075588622035 1.9793832937823694 -1.95485319713735 -1.5707929770099085 3.103717565536499 0.00010001839109463617 0.15466055274009705 0.24717576801776886 -0.40134963393211365 7.73943611420691e-07 3.419669883442111e-05 1 True False
10665.372 4.6745758056640625 -1.586625715295309 1.9926098028766077 -1.9770289860167445 -1.5707967917071741 3.103668212890625 5.1927789172623307e-05 0.18099217116832733 0.28778812289237976 -0.4764364957809448 1.1756225204971215e-25 2.3184518795460463e-05 1 True False
10665.421999999999 4.674540042877197 -1.5767914257445277 2.00858718553652 -2.002519269982809 -1.570824925099508 3.103722095489502 3.506719076540321e-05 0.2106574922800064 0.33331429958343506 -0.5516247153282166 7.040075433906168e-05 1.1970789688827387e-14 1 True False
10665.472 4.6745076179504395 -1.5656195113300164 2.026332203541891 -2.031532426873678 -1.5707929770099085 3.103788375854492 7.133337809666678e-28 0.21903476119041443 0.35752221941947937 -0.6014541983604431 4.7282621380873024e-05 1.818366701157227e-33 1 True False
10665.521999999999 4.674461841583252 -1.5549465876868744 2.0435736815081995 -2.059280057946676 -1.5707810560809534 3.1037256717681885 1.308314351747559e-18 0.20031723380088806 0.32339197397232056 -0.5152790546417236 3.2229956008732186e-13 0.0 1 True False
10665.572 4.6745076179504395 -1.5457298134318371 2.058300320302145 -2.0836879215636195 -1.5708006064044397 3.1037256717681885 0.0 0.17739783227443695 0.2794913053512573 -0.4533096253871918 4.89573766361824e-32 0.0 1 True False
10665.622 4.674552917480469 -1.5375461739352723 2.0713651815997522 -2.104574819604391 -1.5707767645465296 3.103713035583496 0.0 0.14620541036128998 0.23552221059799194 -0.39512601494789124 0.0 0.0 1 True False
10665.671999999999 4.674531936645508 -1.5308186386576672 2.0820944944964808 -2.121974607507223 -1.5707691351519983 3.1037256717681885 0.0 0.11637299507856369 0.18826808035373688 -0.3143104016780853 1.9535088675273933e-14 0.0 1 True False
10665.722 4.674475193023682 -1.525579923098423 2.0906193892108362 -2.135799547235006 -1.5707810560809534 3.1037509441375732 0.0 0.09212125837802887 0.14992815256118774 -0.2356366664171219 2.9673834090692272e-33 0.0 1 True False
10665.771999999999 4.67452335357666 -1.5216315773180504 2.0969794432269495 -2.146351476708883 -1.5707529226886194 3.103739023208618 0.0 0.06632743775844574 0.11267658323049545 -0.1737818419933319 0.0 0.0 1 True False
10665.822 4.674556255340576 -1.5188986000469704 2.1014092604266565 -2.153246065179342 -1.5708168188678187 3.1037344932556152 0.0 0.04039160907268524 0.06478907912969589 -0.10545879602432251 0.0 0.0 1 True False
10665.872 4.674576759338379 -1.5176027987948437 2.103432003651754 -2.1565991840758265 -1.5707967917071741 3.1037344932556152 0.0 0.015207630582153797 0.02145448513329029 -0.03590637817978859 0.0 0.0 1 True False
10665.921999999999 4.674544334411621 -1.5174591702273865 2.103602711354391 -2.1570030651488246 -1.5708172957049769 3.1037344932556152 0.0 -0.00015392132627312094 -0.0005996143445372581 0.0001656470267334953 0.0 0.0 1 True False
10665.972 4.674564838409424 -1.5174427603236218 2.103626553212301 -2.1569463215269984 -1.5707967917071741 3.10371470451355 0.0 0.0 4.9980237236013636e-05 1.1918578124436863e-08 0.0 0.0 1 True False
10666.021999999999 4.674593448638916 -1.5174591925791283 2.1036298910724085 -2.156978269616598 -1.5708125273333948 3.103739023208618 0.0 0.0 6.27745539532043e-05 -0.0008183436002582312 0.0 -6.218821257672013e-24 1 True False
10666.072 4.6744914054870605 -1.5174680848470707 2.1036003271686 -2.1569940052428187 -1.570829216633932 3.10371470451355 0.0 0.00010546157864155248 5.293202411849052e-05 -0.0015457437839359045 0.0 -9.444751649549267e-43 1 True False
10666.122 4.674556255340576 -1.51745634273205 2.1036503950702112 -2.157074590722555 -1.570784870778219 3.103717565536499 0.0 0.00010639976972015575 4.237076791469008e-05 -0.0005458840169012547 0.0 -0.0 1 True False
10666.171999999999 4.674544334411621 -1.5174022254398842 2.1036418120013636 -2.157098432580465 -1.5707967917071741 3.1037509441375732 0.0 0.00013030543050263077 9.171433339361101e-05 -0.00020062753173988312 0.0 -0.0 1 True False
10666.222 4.674535751342773 -1.5174427789500733 2.1036580244647425 -2.1570545635619105 -1.5707929770099085 3.103717565536499 0.0 0.00013078423216938972 8.505948062520474e-05 -0.00012764678103849292 0.0 -0.0 1 True False
10666.271999999999 4.674532413482666 -1.517399338339903 2.1036461035357874 -2.1570664844908656 -1.5708125273333948 3.1037299633026123 0.0 0.00013241205306258053 6.710054824195797e-15 -8.844469994073734e-05 0.0 -0.0 1 True False
10666.322 4.674535751342773 -1.517411248092987 2.1036794821368616 -2.1570502720274867 -1.5707767645465296 3.1037673950195312 -9.009063717257959e-09 8.20900168037042e-05 5.224556298344396e-05 -7.199926297193852e-17 0.0 -0.0 1 True False
10666.372 4.6745076179504395 -1.5173604872873803 2.1036747137652796 -2.1570822201170863 -1.5707886854754847 3.103771924972534 0.0 6.939780723769218e-05 3.0184115988550187e-29 -1.0936697129568124e-35 0.0 -0.0 1 True False
10666.421999999999 4.674556732177734 -1.5174037304571648 2.1037076155291956 -2.157118936578268 -1.5708048979388636 3.10367751121521 0.0 0.0 0.0 -0.0 0.0 -0.0 1 True False
10666.472 4.674527645111084 -1.517406777744629 2.1036747137652796 -2.157030244866842 -1.5708048979388636 3.103722095489502 0.0 0.0 0.0 -0.0 0.0 -0.0 1 True False
10666.521999999999 4.674540042877197 -1.517447267924883 2.1036537329303187 -2.1570540867247523 -1.5708006064044397 3.103726625442505 0.0 0.0 0.0 -0.0 0.0 -7.308511004477088e-20 1 True False
10666.572 4.674540042877197 -1.5174112741700192 2.1036704222308558 -2.157102247277731 -1.5707810560809534 3.103752374649048 0.0 0.0 0.0 -0.0 0.0 -1.1101645552468466e-38 1 True False
10666.622 4.674551963806152 -1.5173948568156739 2.103677574788229 -2.1570383510985316 -1.5707691351519983 3.103767156600952 0.0 0.0 0.0 -0.0 0.0 -0.0 1 True False
10666.671999999999 4.674540042877197 -1.517403708105423 2.103628460560934 -2.1570621929564417 -1.5708649794207972 3.103722095489502 0.0 0.0 0.0 -0.0 0.0 -0.0 1 True False
10666.722 4.674519062042236 -1.5174189370921631 2.1036418120013636 -2.1570660076537074 -1.5707767645465296 3.103701114654541 0.0 0.0 0.0 -0.0 0.0 -0.0 1 True False
10666.771999999999 4.674549102783203 -1.5174112108400841 2.1036580244647425 -2.1570621929564417 -1.5709174315081995 3.103717565536499 0.0 0.0 0.0 -0.0 -5.396075721364468e-06 -0.0 1 True False
10666.822 4.674482345581055 -1.5173711453429242 2.1037119070636194 -2.157046457330221 -1.5707772413836878 3.103713035583496 -7.622291013831273e-05 -7.698280387558043e-05 -4.361959145171568e-05 3.652216954392998e-19 0.0008065137662924826 -0.00023239153961185366 1 True False
10666.872 4.674530982971191 -1.517399301087 2.1036952177630823 -2.157074113885397 -1.5707610289203089 3.1037392616271973 -3.7025383790023625e-05 -2.8986504004475693e-36 -2.415620954555611e-30 5.547726607277308e-38 -4.7573241346299255e-08 -7.369372178800404e-05 1 True False
10666.921999999999 4.674553394317627 -1.517399301087 2.1036861578570765 -2.1570621929564417 -1.570813004170553 3.1037909984588623 -2.4451514036627486e-05 0.0 -0.0 0.0 -7.226384974180367e-27 -4.380187237984501e-05 1 True False
10666.972 4.67452335357666 -1.5173873354545613 2.103666130696432 -2.157097955743307 -1.570869270955221 3.1037418842315674 -1.6310354790411094e-21 0.0 -0.0 0.0 -1.401298464324817e-45 -4.155023270868696e-05 1 False False
10667.021999999999 4.674483299255371 -1.517333762054779 2.1037195364581507 -2.1570540867247523 -1.5707891623126429 3.1037330627441406 0.0 0.0 -0.0 0.0 -0.0 -1.3635874139287445e-15 1 False False
10667.072 4.6745476722717285 -1.5174279671958466 2.103694264088766 -2.1570025883116664 -1.5708449522601526 3.1037495136260986 0.0 0.0 -0.0 0.0 -0.0 -0.00010567343997536227 1 False False
10667.122 4.674589157104492 -1.5173903864673157 2.103666130696432 -2.157010694543356 -1.5708335081683558 3.1037583351135254 0.0 0.0 -3.208419363520676e-10 0.0 -0.0 -5.464997229864821e-05 1 False False
10667.171999999999 4.674562454223633 -1.5173578944853325 2.103689972554342 -2.1570025883116664 -1.5707648436175745 3.103705644607544 0.0 0.0 3.134492362732999e-05 0.0 -0.0 -4.532667662715539e-05 1 False False
10667.222 4.674490928649902 -1.5173247952810307 2.10366136232485 -2.157034536401266 -1.5707724730121058 3.103717565536499 0.0 0.0 4.20143207224185e-33 0.0 -0.0 5.3770583227944965e-15 1 False False
10667.271999999999 4.674499988555908 -1.5174367812326928 2.1036770979510706 -2.157058378259176 -1.5707967917071741 3.103743553161621 0.0 0.0 0.0 0.0 -0.0 8.167761784570388e-34 1 False False
10667.322 4.674572944641113 -1.5173948568156739 2.1036818663226526 -2.1570426426329554 -1.5707686583148401 3.103717565536499 0.0 -7.146622168056567e-44 0.0 0.0 -0.0 0.0 1 False False
10667.372 4.67456579208374 -1.5173579838922997 2.1036370436297815 -2.1570784054198207 -1.570813004170553 3.103717565536499 0.0 0.0 0.0 0.0 -0.0 0.0 1 False False
10667.421999999999 4.674540042877197 -1.5173963469317933 2.1036537329303187 -2.1570621929564417 -1.5708168188678187 3.103743553161621 0.0 0.0 0.0 0.0 -0.0 0.0 1 False False
10667.472 4.674511909484863 -1.5173993197134514 2.1036909262286585 -2.1570383510985316 -1.5707648436175745 3.1036922931671143 0.0 0.0 0.0 1.0785276003922913e-22 -0.0 0.0 1 False False
10667.521999999999 4.674543380737305 -1.5173382212272664 2.1036580244647425 -2.157074113885397 -1.5707529226886194 3.103689432144165 0.0 0.0 0.0 1.6382580346421436e-41 -0.0 0.0 1 False False
10667.572 4.674511909484863 -1.5174279671958466 2.103703323994772 -2.1570502720274867 -1.5707967917071741 3.103701114654541 0.0 0.0 0.0 0.0 -0.0 0.0 1 False False
10667.622 4.6745076179504395 -1.517448828821518 2.1036861578570765 -2.1570545635619105 -1.5707686583148401 3.103710174560547 0.0 0.0 0.0 0.0 -0.0 -0.0007145078270696104 1 False False
10667.671999999999 4.674530982971191 -1.517445759182312 2.1036790052997034 -2.157042165795797 -1.5708211104022425 3.103684663772583 -2.623647761126549e-16 6.220974971202783e-26 0.0 -8.351918950211257e-06 -0.0 0.002786710625514388 1 False False
10667.722 4.674527645111084 -1.5174234931221982 2.1036818663226526 -2.157002111474508 -1.5708335081683558 3.1037161350250244 0.0 0.0 0.0 -2.741149019591352e-23 -5.769855124526657e-05 -0.003159505780786276 1 False False
10667.771999999999 4.674526691436768 -1.5174022552422066 2.1036375204669397 -2.1570941410460414 -1.5708168188678187 3.1037628650665283 0.0 0.0 0.0 -4.1632577375090315e-42 -1.118734136791851e-22 0.0023133752401918173 1 False False
10667.822 4.6744866371154785 -1.5174067516675969 2.1037238279925745 -2.157074590722555 -1.5708487669574183 3.1037256717681885 0.0 0.0 0.0 -0.0 -1.6993546476867057e-41 0.0004564546106848866 1 False False
10667.872 4.674540996551514 -1.517387294476368 2.1037028471576136 -2.157022615472311 -1.570813004170553 3.103701114654541 0.0 0.0 0.0 -0.0 -0.0 2.6877121134163268e-14 1 False False
10667.921999999999 4.674482345581055 -1.5174993810108681 2.1035264174090784 -2.1566745243468226 -1.570829216633932 3.103743553161621 0.0 -0.011038749478757381 -0.017242364585399628 0.026891956105828285 -0.0 4.082640286567596e-33 1 False False
10667.972 4.674477577209473 -1.518501666640379 2.1017873922931116 -2.1539107761778773 -1.5707805792437952 3.103726625442505 0.0 -0.03525714576244354 -0.052541449666023254 0.09029484540224075 -0.0 0.0 1 False False
10668.021999999999 4.674540042877197 -1.520959624355175 2.097698990498678 -2.147362848321432 -1.5708168188678187 3.1037189960479736 0.0 -0.06435538083314896 -0.10230530053377151 0.1556648164987564 -0.0 2.9056754224932035e-10 1 False False
10668.072 4.67452335357666 -1.5248601299575348 2.091616455708639 -2.1373239956297816 -1.5707605520831507 3.1037344932556152 0.0 -0.09010384976863861 -0.14217595756053925 0.22655491530895233 -0.0 4.413726176851697e-29 1 False False
10668.122 4.674535751342773 -1.5301137541285534 2.0832112471209925 -2.1239220104613246 -1.5708168188678187 3.103713035583496 0.0 -0.11353855580091476 -0.18678000569343567 0.29197660088539124 -0.0 0.0 1 False False
10668.171999999999 4.674527645111084 -1.5366379481605072 2.0727623144732874 -2.1070014439024867 -1.5707891623126429 3.103717565536499 -1.9704054966410898e-16 -0.14066234230995178 -0.2275800257921219 0.3782986104488373 -0.0 0.0 1 False False
10668.222 4.674530982971191 -1.54457093149934 2.0601637999164026 -2.086423536340231 -1.5707805792437952 3.103689432144165 3.7651453162064027e-31 -0.17178408801555634 -0.2669694423675537 0.448514461517334 -0.0 0.0 1 False False
10668.271999999999 4.674526691436768 -1.5537637390992423 2.0454209486590784 -2.062568803826803 -1.5707967917071741 3.103672981262207 0.0 -0.20280349254608154 -0.3121640086174011 0.5113168954849243 -0.0 0.0 1 False False
10668.322 4.674520969390869 -1.5642617440647264 2.028531853352682 -2.035213609735006 -1.5708697477923792 3.103780746459961 0.0 -0.22305630147457123 -0.3639332354068756 0.5787144303321838 -0.0 -8.957949833299228e-12 1 False False
10668.372 4.67452335357666 -1.5754319630064906 2.010681454335348 -2.005942483941549 -1.5707686583148401 3.103701114654541 0.0 -0.21107785403728485 -0.3327312767505646 0.548182487487793 -0.0 -1.3607145506531056e-30 1 False False
10668.421999999999 4.6745100021362305 -1.5854932270445765 1.9946172873126429 -1.9799462757506312 -1.570784870778219 3.103696584701538 0.0 -0.1877928376197815 -0.3004951775074005 0.4843825399875641 -0.0 -0.0 1 False False
10668.472 4.674499988555908 -1.594058176080221 1.9808996359454554 -1.9574452839293421 -1.570829216633932 3.103722095489502 0.0 -0.1589677631855011 -0.25981926918029785 0.4110416769981384 -0.0 -0.0 1 False False
10668.521999999999 4.674450874328613 -1.6014634571471156 1.9689987341510218 -1.9384056530394496 -1.5707767645465296 3.1037344932556152 0.0 -0.130907341837883 -0.21361343562602997 0.3387284278869629 -0.0 -0.0 1 False False
10668.572 4.674502849578857 -1.6073018513121546 1.9595664183246058 -1.9227625332274378 -1.5708211104022425 3.103708505630493 0.0 -0.1069817766547203 -0.17287833988666534 0.27433428168296814 -0.0 -0.0 1 False False
10668.622 4.674498558044434 -1.6119381390013636 1.952111546193258 -1.9107848606505335 -1.5707324186908167 3.1037509441375732 0.0 -0.07964664697647095 -0.12693169713020325 0.2038118690252304 -0.0 -0.0 1 False False
10668.671999999999 4.674614906311035 -1.6152459583678187 1.946794335042135 -1.9022795162596644 -1.5707605520831507 3.1037583351135254 0.0 -0.05143529921770096 -0.08604399114847183 0.1362287849187851 -0.0 -0.0 1 False False
10668.722 4.674516201019287 -1.6172319851317347 1.9435799757586878 -1.8971668682494105 -1.5707891623126429 3.103689432144165 0.0 -0.027560655027627945 -0.04062972590327263 0.06529954075813293 -0.0 -0.0 1 False False
10668.771999999999 4.674532413482666 -1.6178113422789515 1.9427145163165491 -1.895618577996725 -1.570784870778219 3.103708505630493 0.0 -5.739186903497284e-10 -4.3678480210473936e-07 -0.007649111095815897 -0.0 -0.0 1 False False
10668.822 4.674502849578857 -1.6177708111205042 1.9427273909198206 -1.895635267297262 -1.5708168188678187 3.103743553161621 0.0 -0.0 -1.027800900640317e-36 5.489426257554442e-05 -0.0 -0.0 1 False False
10668.872 4.674514293670654 -1.6177646122374476 1.9427078405963343 -1.8956228695311488 -1.5707648436175745 3.1037344932556152 0.0 0.0 -0.0014755843440070748 0.00012089808296877891 -0.0 -0.0 1 False False
10668.921999999999 4.67452335357666 -1.6178227863707484 1.942712132130758 -1.8956157169737757 -1.5707805792437952 3.1037344932556152 0.0 -0.00029366230592131615 -0.0006680433871224523 0.00033508596243336797 -0.0 -0.0 1 False False
10668.972 4.674544811248779 -1.6178752384581507 1.9426844755755823 -1.8955995045103968 -1.5707724730121058 3.103792667388916 0.0 -0.0004921545623801649 -0.00045850928290747106 0.000287068251054734 -0.0 -0.0 1 False False
10669.021999999999 4.6745076179504395 -1.6177965603270472 1.9426477591144007 -1.895607133904928 -1.5707967917071741 3.103739023208618 0.0 -0.00020014328765682876 -0.0002067156892735511 0.00020164650049991906 -0.0 -0.0 1 False False
10669.072 4.674458026885986 -1.6178466282286585 1.9426515738116663 -1.895555158654684 -1.5708335081683558 3.103743553161621 0.0 -0.0001176808582386002 -0.00012034826795570552 0.00017833021411206573 -0.0 -0.0 1 False False
10669.122 4.674565315246582 -1.6178795299925746 1.9425862471209925 -1.895595212975973 -1.5707967917071741 3.103717565536499 0.0 -9.906077320920303e-05 -8.487905142828822e-05 0.00013272427895572037 -0.0 -0.0 1 False False
10669.171999999999 4.674504280090332 -1.617854734460348 1.942582909260885 -1.8955265484251917 -1.570813004170553 3.103748083114624 0.0 -7.628821185790002e-05 -1.2203349832713535e-27 9.590716217644513e-05 -0.0 -0.0 1 False False
10669.222 4.674535751342773 -1.6178661785521449 1.9426229635821741 -1.8955875835814417 -1.5707805792437952 3.1037628650665283 0.0 -1.6754381153391736e-14 -0.0 3.355889566591941e-05 -0.0 -0.0 1 False False
10669.271999999999 4.674511909484863 -1.6178704700865687 1.9425743261920374 -1.8955675564207972 -1.5708087126361292 3.103755474090576 0.0 0.0 -0.0 5.097603392320074e-24 -0.0 -0.0 1 False False
10669.322 4.67453670501709 -1.6178332767882289 1.9426563421832483 -1.8955556354918421 -1.5707805792437952 3.1037302017211914 0.0 0.0 -0.0 1.7960490367840976e-05 -0.0 -0.0 1 False False
10669.372 4.674556732177734 -1.6178704700865687 1.9425948301898401 -1.8955751858153285 -1.5707767645465296 3.103743553161621 0.0 0.0 -0.0 2.728203457149268e-24 -0.0 -0.0 1 False False
10669.421999999999 4.674519062042236 -1.6178986034789027 1.9426229635821741 -1.8955713711180628 -1.570829216633932 3.1037509441375732 0.0 0.0 -0.0 4.1478434544014585e-43 -0.0 -0.0 1 False False
10669.472 4.6745076179504395 -1.617861887017721 1.9426563421832483 -1.8955632648863734 -1.5708168188678187 3.1037509441375732 0.0 0.0 -0.0 0.0 -0.0 -0.0 1 False False
10669.521999999999 4.6745076179504395 -1.6178552112975062 1.9426348845111292 -1.8955751858153285 -1.5707925001727503 3.1037354469299316 0.0 0.0 -0.0 0.0 -0.0 -0.0 1 False False
10669.572 4.674519062042236 -1.6178871593871058 1.9426477591144007 -1.8955675564207972 -1.5708168188678187 3.1037070751190186 0.0 0.0 -0.0 0.0 -0.0 -0.0 1 False False
10669.622 4.6744704246521 -1.6177932224669398 1.9425948301898401 -1.8955632648863734 -1.5707929770099085 3.103804349899292 0.0 0.0 -0.0 0.0 -0.0 -0.0 1 False False
10669.671999999999 4.6744914054870605 -1.6178704700865687 1.9426067511187952 -1.8955184421935023 -1.570784870778219 3.10371470451355 0.0 0.0 -0.0 0.0 -0.0 -0.0 1 False False
10669.722 4.674551963806152 -1.6178370914854945 1.942639176045553 -1.895538946191305 -1.570784870778219 3.103755474090576 0.0 0.0 -8.872987677932542e-09 0.0 -0.0 -0.0 1 False False
10669.771999999999 4.674531936645508 -1.6178590259947718 1.942660156880514 -1.8955995045103968 -1.5708487669574183 3.103726625442505 0.0 0.0 -2.0879065457448445e-38 0.0 -0.0 -0.0 1 False False
10669.822 4.674499988555908 -1.617838045159811 1.9426644484149378 -1.895538946191305 -1.5708211104022425 3.103680372238159 0.0 0.0 -0.0 0.0 -0.0 -0.0 1 False False
10669.872 4.67453145980835 -1.6178795299925746 1.942664925252096 -1.8955875835814417 -1.5707967917071741 3.103710174560547 0.0 0.0 -0.0 0.0 -0.0 -0.0 1 False False
10669.921999999999 4.674560546875 -1.6178423366942347 1.9426477591144007 -1.8955751858153285 -1.570772949849264 3.103693723678589 0.0 0.0 -0.0 0.0 -0.0 -0.0 1 False False
10669.972 4.674564838409424 -1.6178637943663539 1.9426568190204065 -1.8955346546568812 -1.5708211104022425 3.103717565536499 0.0 0.0 -0.0 0.0 -0.0 -0.0 1 False False
10670.021999999999 4.67452335357666 -1.617854734460348 1.9426034132586878 -1.8955632648863734 -1.570772949849264 3.1036922931671143 0.0 0.0 -0.0 0.0 -0.0 -0.0 1 False False
10670.072 4.674527645111084 -1.6178590259947718 1.9426358381854456 -1.895583292047018 -1.5707405249225062 3.103701114654541 0.0 -1.1491501870587775e-29 -0.0 0.0 -0.0 -0.0 1 False False
10670.122 4.674535751342773 -1.617828985253805 1.9426358381854456 -1.8955513439574183 -1.5708254019366663 3.103696823120117 0.0 0.0 -0.0 0.0 -0.0 -0.0 1 False False
10670.171999999999 4.6745076179504395 -1.617854734460348 1.9426477591144007 -1.895555158654684 -1.5707805792437952 3.1036880016326904 0.0 0.0 -0.0 0.0 -0.0 -0.0 1 False False
10670.222 4.67452335357666 -1.6178504429259242 1.9426477591144007 -1.8955751858153285 -1.570829216633932 3.103739023208618 0.0 0.0 -0.0 0.0 -0.0 -0.0 1 False False
10670.271999999999 4.6745147705078125 -1.6178142033019007 1.942660156880514 -1.8955308399596156 -1.570813004170553 3.103739023208618 0.0 0.0 -0.0 0.0 -0.0 -0.0 1 False False
10670.322 4.674503326416016 -1.6178461513915003 1.9426358381854456 -1.8955713711180628 -1.5708087126361292 3.103755474090576 0.0 0.0 -0.0 0.0 -0.0 -0.0 1 False False
10670.372 4.674511909484863 -1.617800851861471 1.942664925252096 -1.8955470524229945 -1.570813004170553 3.103726625442505 0.0 0.0 -0.0 0.0 -0.0 -0.0 1 False False
10670.421999999999 4.6745076179504395 -1.6178051433958949 1.942618195210592 -1.8955313167967738 -1.5708211104022425 3.103681802749634 0.0 0.0 -0.0 0.0 -0.0 -0.0 1 False False
10670.472 4.674495697021484 -1.61781706432485 1.9426854292498987 -1.895579000512594 -1.5707767645465296 3.103759765625 0.0 0.0 -0.0 0.0 -0.0 -0.0 1 False False
10670.521999999999 4.67452335357666 -1.617833753625387 1.9426525274859827 -1.8955751858153285 -1.570784870778219 3.1037144660949707 0.0 0.0 -0.0 0.0 -0.0 -0.0 1 False False
10670.572 4.674551963806152 -1.617821832696432 1.9426692167865198 -1.8955308399596156 -1.5707767645465296 3.103726625442505 0.0 0.0 -0.0 0.0 -0.0 -0.0 1 False False
10670.622 4.674544334411621 -1.6178051433958949 1.942627255116598 -1.8955632648863734 -1.570824925099508 3.103752374649048 0.0 0.0 -0.0 7.414253508835833e-19 -0.0 -0.0 1 True False
10670.671999999999 4.674482822418213 -1.617838045159811 1.942627255116598 -1.8955470524229945 -1.5707686583148401 3.103705644607544 0.0 0.0 -0.0 1.1262269388941699e-37 -0.0 -0.0 1 True False
10670.722 4.674556255340576 -1.6177212200560511 1.9425461927997034 -1.8955594501891078 -1.5707967917071741 3.103750705718994 0.0 0.00791946891695261 -0.009494802914559841 0.0 -0.0 -0.0 1 True False
10670.771999999999 4.6745076179504395 -1.616953512231344 1.9415810743915003 -1.8954507313170375 -1.5707648436175745 3.1037509441375732 0.0 0.024692146107554436 -0.030390450730919838 0.005866885185241699 -0.0 -6.937661112260685e-09 1 True False
10670.822 4.674568176269531 -1.6149794063963832 1.9391797224627894 -1.895132680932516 -1.5708211104022425 3.10378360748291 0.001242716098204255 0.05902501195669174 -0.06702056527137756 0.006690140347927809 -0.0 0.0016621991526335478 1 True False
10670.872 4.674691200256348 -1.6109734974303187 1.9347274939166468 -1.8945452175536097 -1.5707891623126429 3.1039352416992188 0.0036954726092517376 0.11038678139448166 -0.11834555119276047 0.013369626365602016 -0.0 0.0027062310837209225 1 True False
10670.921999999999 4.674861907958984 -1.6040593586363734 1.9267995993243616 -1.8936706982054652 -1.5708091894732874 3.1040682792663574 0.006274893879890442 0.17079004645347595 -0.19394154846668243 0.023564841598272324 -0.0 0.005270717199891806 1 True False
10670.972 4.675182342529297 -1.5935098133482875 1.9148042837726038 -1.8922659359373988 -1.570829216633932 3.1043572425842285 0.0073652141727507114 0.2417842447757721 -0.268451988697052 0.030773594975471497 -0.0 0.005745470058172941 1 True False
10671.021999999999 4.675594806671143 -1.5797459087767542 1.8991997877704065 -1.8903175793089808 -1.570784870778219 3.104750156402588 0.008756985887885094 0.3044552505016327 -0.33946430683135986 0.04041538015007973 -0.0 0.007554038893431425 1 True False
10671.072 4.676020622253418 -1.5627745997956772 1.8799870649920862 -1.8880139789977015 -1.5707524458514612 3.1051862239837646 0.00999373011291027 0.3661605417728424 -0.41490328311920166 0.054554495960474014 -0.0 0.009676996618509293 1 True False
10671.122 4.67651891708374 -1.5430969850024958 1.8575032393084925 -1.885296484033102 -1.570824925099508 3.1056554317474365 0.010756735689938068 0.4315359592437744 -0.4846179187297821 0.052213966846466064 -0.0 0.01187677402049303 1 True False
10671.171999999999 4.677056789398193 -1.5200172935477276 1.8315323034869593 -1.8820907078185023 -1.5707967917071741 3.1062726974487305 0.013096402399241924 0.4849611520767212 -0.550412118434906 0.07364723086357117 -0.0 0.01303841918706894 1 True False
10671.222 4.677743434906006 -1.4939935889891167 1.8015483061419886 -1.8786021671690882 -1.5708168188678187 3.1069657802581787 0.012705069035291672 0.5480689406394958 -0.6192190051078796 0.0803157240152359 -0.0 0.014051442965865135 1 True False
10671.271999999999 4.67853307723999 -1.4650267672589798 1.7684200445758265 -1.8748251400389613 -1.570772949849264 3.107664108276367 0.01499580591917038 0.6099379658699036 -0.7021242380142212 0.08684643357992172 -0.0 0.016619272530078888 1 True False
10671.322 4.679375171661377 -1.4342236083796998 1.7338789145099085 -1.8704306087889613 -1.5708087126361292 3.1085405349731445 0.015688518062233925 0.5839380025863647 -0.6753872632980347 0.07513368129730225 -0.0 0.01564754545688629 1 True False
10671.372 4.680081367492676 -1.4064088475755234 1.7022712866412562 -1.8665076694884242 -1.5708048979388636 3.1092357635498047 0.013606551103293896 0.5302583575248718 -0.6109560132026672 0.07387462258338928 -0.0 0.013456988148391247 1 True False
10671.421999999999 4.680729866027832 -1.381647990351059 1.6738107840167444 -1.8632351360716761 -1.5708048979388636 3.1098947525024414 0.013263829983770847 0.4656703770160675 -0.5384705066680908 0.06458880007266998 -0.0 0.011436996050179005 1 True False
10671.472 4.6812310218811035 -1.3596917253783722 1.649377171193258 -1.8600675068297328 -1.570829216633932 3.1103909015655518 0.011434745043516159 0.40036967396736145 -0.46052733063697815 0.05889318510890007 -0.0 0.010174039751291275 1 True False
10671.521999999999 4.681729316711426 -1.340937079196312 1.6278827826129358 -1.8576704464354457 -1.5707843939410608 3.1109659671783447 0.00751590495929122 0.34770989418029785 -0.38993585109710693 0.043212465941905975 -0.0 0.008676565252244473 1 True False
10671.572 4.6821608543396 -1.3255540442517777 1.6101887861834925 -1.8555952511229457 -1.5707805792437952 3.111290693283081 0.006543359719216824 0.2816855311393738 -0.3234446346759796 0.03783509135246277 -0.0 0.007266347296535969 1 True False
10671.622 4.682490348815918 -1.312750594024994 1.5959542433368128 -1.853746076623434 -1.5708044211017054 3.1117162704467773 0.00551657285541296 0.22037649154663086 -0.24795369803905487 0.03238801285624504 -0.0 0.00660577230155468 1 True False
10671.671999999999 4.682765960693359 -1.303349034195282 1.585139576588766 -1.852330823937887 -1.5707529226886194 3.111915349960327 0.004935913253575563 0.15845204889774323 -0.18173089623451233 0.021994786337018013 -0.0 0.004405769519507885 1 True False
10671.722 4.682907581329346 -1.2970308524421235 1.5777433554278772 -1.8516041241087855 -1.5708044211017054 3.1121115684509277 0.0032941901590675116 0.09761468321084976 -0.11519371718168259 0.012335647828876972 -0.0 0.003369593061506748 1 True False
10671.771999999999 4.682979583740234 -1.2935768824866791 1.5740264097796839 -1.8511702022948207 -1.570784870778219 3.1121954917907715 0.002037446480244398 0.040159229189157486 -0.046995580196380615 0.0028477453161031008 -0.0 0.0014933395432308316 1 True False
10671.822 4.6830034255981445 -1.2929933828166504 1.5733946005450647 -1.85136141399526 -1.5707925001727503 3.1121864318847656 0.0003747107111848891 0.010301763191819191 0.013428518548607826 -0.019500399008393288 -0.0 0.00021664326777681708 1 True False
10671.872 4.683034896850586 -1.2918021839908143 1.5754473845111292 -1.854551454583639 -1.570869270955221 3.1122360229492188 0.00017251583631150424 0.0324244387447834 0.06341499090194702 -0.1083100363612175 -0.0 0.00015297030040528625 1 True False
10671.921999999999 4.683043956756592 -1.28952910125766 1.5796507040606897 -1.8610149822630824 -1.5707925001727503 3.112182140350342 0.00010788914369186386 0.06082168594002724 0.11264246702194214 -0.17532046139240265 -0.0 9.922417666530237e-05 1 True False
10671.972 4.683067798614502 -1.2858860951713105 1.586409870778219 -1.8713451824583949 -1.5707805792437952 3.112215518951416 7.742071375105297e-07 0.08550865203142166 0.15427963435649872 -0.23479251563549042 -0.0 6.79899676470086e-05 1 True False
10672.021999999999 4.68303918838501 -1.2810219389251252 1.5951946417437952 -1.8849841556944789 -1.5707891623126429 3.112236261367798 0.0 0.10490350425243378 0.20242895185947418 -0.31460779905319214 -0.0 1.7289576168257287e-15 1 True False
10672.072 4.683034896850586 -1.2750077110579987 1.6065838972674769 -1.9020010433592738 -1.5708406607257288 3.112231731414795 0.0 0.1308925598859787 0.24104642868041992 -0.3594333231449127 -0.0 -1.8067480844763395e-10 1 True False
10672.122 4.683081150054932 -1.2679127317718049 1.619631592427389 -1.9226657352843226 -1.5708335081683558 3.112231731414795 0.0 0.1599804162979126 0.28776538372039795 -0.43309497833251953 -0.0 -2.744454985576672e-29 1 True False
10672.171999999999 4.683022975921631 -1.2594163876822968 1.635434929524557 -1.9467984638609828 -1.5708487669574183 3.1122360229492188 0.0 0.17792221903800964 0.32975342869758606 -0.5147913098335266 -0.0 -0.0 1 True False
10672.222 4.682952880859375 -1.2497438055327912 1.6529601255999964 -1.9738079510130824 -1.5708406607257288 3.112248182296753 -6.950476381462067e-05 0.1898147612810135 0.348849356174469 -0.5311424136161804 -0.0 -0.0 1 True False
10672.271999999999 4.683030605316162 -1.2411228579333802 1.6690648237811487 -1.9986545048155726 -1.570801083241598 3.112222909927368 -7.072998414514586e-05 0.16139569878578186 0.29944849014282227 -0.45236578583717346 -0.0 -0.0 1 True False
10672.322 4.682961940765381 -1.2337936025908967 1.6827276388751429 -2.020072122613424 -1.5708048979388636 3.112182140350342 -7.705579628236592e-05 0.13733729720115662 0.25163155794143677 -0.37776654958724976 -0.0 -0.0 1 True False
10672.372 4.682990074157715 -1.2274312239936371 1.694406811391012 -2.0378834209837855 -1.5707686583148401 3.1121983528137207 -5.335950119798351e-14 0.11521760374307632 0.20826859772205353 -0.32851651310920715 -0.0 -0.0 1 True False
10672.421999999999 4.682985782623291 -1.2222914558700104 1.7037542502032679 -2.0521022282042445 -1.5708406607257288 3.112260103225708 0.0 0.08705846965312958 0.15881502628326416 -0.24736537039279938 -0.0 -0.0 1 True False
10672.472 4.682997703552246 -1.2184460324100037 1.7106941382037562 -2.063101430932516 -1.5708449522601526 3.112227439880371 0.0 0.06476696580648422 0.12310481071472168 -0.1918785572052002 -0.0 -0.0 1 True False
10672.521999999999 4.683011054992676 -1.2158813339522858 1.7154610792743128 -2.070456167260641 -1.5707967917071741 3.112210988998413 0.0 0.03934973105788231 0.0715828612446785 -0.11478643119335175 -0.0 -0.0001220331178046763 1 True False
10672.572 4.68297815322876 -1.2145216924003144 1.7179778257953089 -2.0742389164366664 -1.5707123915301722 3.11221981048584 -1.7516230804060213e-43 0.01570480689406395 0.031221723183989525 -0.046441469341516495 -0.0 -2.7910748030990362e-05 1 True False
10672.622 4.683013916015625 -1.2143940192512055 1.7183478514300745 -2.074958940545553 -1.5707967917071741 3.112259864807129 0.0 -0.002237704349681735 4.5004804327675174e-09 -0.0002656627038959414 -0.0 -3.134732833132148e-05 1 True False
10672.671999999999 4.683018684387207 -1.2143454116633912 1.718372646962301 -2.0749269924559535 -1.5707805792437952 3.1122450828552246 0.0 0.00011042436381103471 0.00035205515450797975 -2.2264570185605032e-15 -0.0 -4.367687870399095e-05 1 True False
10672.722 4.683032035827637 -1.2143672865680237 1.7184394041644495 -2.0749346218504847 -1.5707767645465296 3.1122331619262695 0.0 0.0003156889579258859 0.0006455610855482519 -3.3819927562317255e-34 -0.0 -6.360427062804501e-18 1 True False
10672.771999999999 4.683011054992676 -1.214293734436371 1.7184761206256312 -2.074942728082174 -1.5708048979388636 3.112276315689087 -1.629088703643578e-31 0.000281166605418548 0.0005288247484713793 -0.0 -0.0 -9.661496872947384e-37 1 True False
10672.822 4.6830153465271 -1.2143553656390687 1.7184589544879358 -2.0749312839903773 -1.5707886854754847 3.1122570037841797 0.0 0.00016287251492030919 0.00020461920939851552 -0.0 -0.0 -0.0 1 True False
10672.872 4.683048248291016 -1.2143304508975525 1.71844989458193 -2.0748826466002406 -1.570813004170553 3.112194061279297 0.0 0.00010405776993138716 9.66034785960801e-05 -0.0 -0.0 -0.0 1 True False
10672.921999999999 4.682973861694336 -1.2143185597709198 1.7185123602496546 -2.0749269924559535 -1.57074481645693 3.1122288703918457 0.0 0.00017629456124268472 7.78752873884514e-05 -0.0 -0.0 -0.0 1 True False
10672.972 4.6830153465271 -1.2143553060344239 1.7184928099261683 -2.074902673760885 -1.5707648436175745 3.112236261367798 0.0 0.00014726881636306643 2.9757512040942876e-23 -8.453109330730513e-06 -0.0 -0.0 1 True False
10673.021999999999 4.6830153465271 -1.214293734436371 1.7184718290912073 -2.074918886224264 -1.570784870778219 3.1122066974639893 0.0 0.00011675524729071185 0.0 -1.284028994035854e-24 -0.0 -0.0 1 True False
10673.072 4.682994842529297 -1.214322881107666 1.7184842268573206 -2.074935098687643 -1.5708168188678187 3.112154006958008 0.0 7.380400347756222e-05 4.586392606142908e-05 -1.9478048654114957e-43 -0.0 -0.0 1 True False
10673.122 4.682994842529297 -1.214322881107666 1.7184675375567835 -2.0749269924559535 -1.5707686583148401 3.112182140350342 0.0 5.2342740673338994e-05 2.0167342881904915e-05 -0.0 -0.0 -0.0 1 True False
10673.171999999999 4.682990074157715 -1.2142529350570221 1.7184513250934046 -2.074906965295309 -1.570801083241598 3.1122360229492188 0.0 1.401298464324817e-45 7.410416280606569e-09 -0.0 -0.0 -0.0 1 True False
10673.222 4.6830363273620605 -1.214339093571045 1.7184713522540491 -2.074942728082174 -1.5708168188678187 3.112182140350342 0.0 0.0 1.7437491843349802e-38 -0.0 -0.0 -0.0 1 True False
10673.271999999999 4.68300199508667 -1.21432717264209 1.7184842268573206 -2.074918886224264 -1.5707686583148401 3.112231731414795 0.0 0.0 0.0 -1.6197910781556857e-06 -0.0 -0.0 1 True False
10673.322 4.683018684387207 -1.2143521767905732 1.7184913794146937 -2.074930807153219 -1.5707805792437952 3.1122119426727295 0.0 0.0 0.0 -2.460465545031454e-25 -0.0 -9.506373552931047e-13 1 True False
10673.372 4.68303918838501 -1.214310960178711 1.7184799353228968 -2.0749107799925746 -1.5708048979388636 3.1121983528137207 0.0 2.5643761897144152e-43 0.0 -3.783505853677006e-44 -0.0 -1.4440207538410784e-31 1 True False
10673.421999999999 4.6830034255981445 -1.2142606538585206 1.7184799353228968 -2.07491459468984 -1.570824925099508 3.112215518951416 0.0 0.0 0.0 -0.0 -0.0 -0.0 1 True False
10673.472 4.683018684387207 -1.214302347307541 1.7184675375567835 -2.0749346218504847 -1.570841137562887 3.1122186183929443 0.0 0.0 0.0 -1.0255673393855247e-10 -0.0 -0.0 1 True False
10673.521999999999 4.6830363273620605 -1.2143510741046448 1.7184913794146937 -2.0749951801695765 -1.5707529226886194 3.1121983528137207 0.0 0.0 0.0 -2.4387622268997678e-15 -0.0003794470685534179 2.108583099791339e-11 1 True False
10673.572 4.682973861694336 -1.2143434149077912 1.7185080687152308 -2.07491459468984 -1.570756737385885 3.112222909927368 0.0 0.0 0.0 4.757922852149932e-06 0.0003378456167411059 3.20294224429569e-30 1 True False
10673.622 4.6830153465271 -1.2143034797957917 1.7184675375567835 -2.07491459468984 -1.5707648436175745 3.112173318862915 0.0 0.0 0.0 7.227297587640094e-25 3.9980168562705684e-14 0.0 1 True False
10673.671999999999 4.683032035827637 -1.2143142384341736 1.7184956709491175 -2.074942728082174 -1.5708168188678187 3.1122524738311768 0.0 0.0 0.0 1.0930128021733573e-43 6.072994300877601e-33 0.0 1 False False
10673.722 4.683008193969727 -1.2143218678287049 1.7184470335589808 -2.074942728082174 -1.5708125273333948 3.112276315689087 0.0 0.0 0.0 0.0 0.0 7.19200102139439e-07 1 False False
10673.771999999999 4.682994842529297 -1.2143023175052186 1.7184956709491175 -2.074968000451559 -1.5707810560809534 3.112239360809326 0.0 0.0 5.039494681113865e-06 0.0 0.0 1.0924669668445445e-25 1 False False
10673.822 4.68303918838501 -1.2143315237811585 1.7184842268573206 -2.0749389133849085 -1.5708087126361292 3.1122615337371826 0.0 0.0 1.1858463636337343e-35 0.0 0.0 -5.546811007661745e-05 1 False False
10673.872 4.683022975921631 -1.2143035394004364 1.7184799353228968 -2.0749346218504847 -1.570829216633932 3.112194061279297 0.0 0.0 0.0 0.0 0.0 -3.999107502750121e-05 1 False False
10673.921999999999 4.683018684387207 -1.214319722061493 1.7184842268573206 -2.075019498864645 -1.5708087126361292 3.112231731414795 0.0 0.0 0.0 0.0 0.0 -2.570986544014886e-05 1 False False
10673.972 4.682982921600342 -1.2143100065043946 1.7184751669513147 -2.074958940545553 -1.5707929770099085 3.1122074127197266 0.0 0.0 0.0 0.0 0.0 -5.29981081243136e-09 1 False False
10674.021999999999 4.683022975921631 -1.214294747715332 1.7184751669513147 -2.074947496453756 -1.570784870778219 3.1122243404388428 0.0 0.0 0.0 0.0 0.0 -8.050427612067478e-28 1 False False
10674.072 4.682992935180664 -1.2143639487079163 1.7184956709491175 -2.0749551258482875 -1.5707410017596644 3.1122288703918457 0.0 0.0 0.0 0.0 0.0 -1.3453148817177407e-08 1 False False
10674.122 4.6830153465271 -1.2143380802920838 1.7184913794146937 -2.0749346218504847 -1.5708172957049769 3.1121792793273926 0.0 0.0 0.0 0.0 0.0 -2.0435360860692647e-27 1 False False
10674.171999999999 4.683060169219971 -1.214302347307541 1.7184956709491175 -2.0749956570067347 -1.5707610289203089 3.1122243404388428 0.0 0.0 0.0 0.0 0.0 -0.0 1 False False
10674.222 4.682973861694336 -1.2142936450294037 1.7184866110431116 -2.0749112568297328 -1.570772949849264 3.1122288703918457 0.0 0.0 0.0 0.0 0.0 3.532192737318824e-18 1 False False
10674.271999999999 4.683046817779541 -1.2143434447101136 1.7184799353228968 -2.074974676171774 -1.5708168188678187 3.11221981048584 0.0 0.0 0.0 0.0 0.0 5.365407699823583e-37 1 False False
10674.322 4.682990074157715 -1.2143391233733674 1.718470875416891 -2.075010915795797 -1.570829216633932 3.1121864318847656 0.0 0.0 0.0 0.0 0.0 0.0 1 False False
10674.372 4.683055877685547 -1.2143467229655762 1.7184866110431116 -2.0749627552428187 -1.570841137562887 3.1122658252716064 0.0 -2.396989273734107e-10 -3.7319994135032175e-06 0.0 0.0 0.0017774110892787576 1 False False
10674.421999999999 4.682966709136963 -1.2143801611712952 1.7184842268573206 -2.0749346218504847 -1.5708087126361292 3.1121792793273926 0.0 0.0 -8.78178869165788e-36 0.0 0.0 -3.983644546678988e-06 1 False False
10674.472 4.683051109313965 -1.214302347307541 1.7184718290912073 -2.0749269924559535 -1.5707967917071741 3.1122288703918457 0.0 0.0 -3.792947497334989e-30 2.2901678383563384e-13 0.0 -0.001138075953349471 1 False False
10674.521999999999 4.683019638061523 -1.214392141704895 1.718513313923971 -2.0749389133849085 -1.5707767645465296 3.1122288703918457 0.0 0.0 -0.0 3.478769736766986e-32 0.0 -1.1791308489501884e-13 1 False False
10674.572 4.683018684387207 -1.2143477362445374 1.7184718290912073 -2.0749227009215296 -1.5707967917071741 3.11221981048584 0.0 0.0 -0.0 0.0 0.0 -1.7911017709054764e-32 1 False False
10674.622 4.682990550994873 -1.2146110099605103 1.71806508699526 -2.0740472278990687 -1.5708087126361292 3.1122066974639893 0.0 -0.01714351400732994 -0.02979818917810917 0.04488541930913925 0.0 -0.0 1 False False
10674.671999999999 4.683067798614502 -1.2160287958434601 1.7153871695147913 -2.069900175134176 -1.570836369191305 3.1122243404388428 0.0 -0.040886007249355316 -0.0772843286395073 0.12169199436903 0.0 -0.0 1 False False
10674.722 4.683011054992676 -1.2187309724143525 1.710292164479391 -2.062141080895895 -1.5707967917071741 3.11221981048584 0.0 -0.0660674124956131 -0.129989892244339 0.17718328535556793 0.0 -0.0 1 False False
10674.771999999999 4.682999134063721 -1.2227070194533844 1.7028897444354456 -2.0508443317809046 -1.5707572142230433 3.1122243404388428 0.0 -0.08733940869569778 -0.17408059537410736 0.25379687547683716 0.0 -3.496053935236887e-08 1 False False
10674.822 4.682982921600342 -1.2279258531383057 1.693282429371969 -2.0362779102721156 -1.570784870778219 3.112215518951416 0.0 -0.11364851891994476 -0.21194960176944733 0.3247641324996948 0.0 -5.3105141618926655e-27 1 False False
10674.872 4.683043479919434 -1.2343482834151764 1.6814897696124476 -2.0180088482298792 -1.5707810560809534 3.1122450828552246 0.0 -0.1399034559726715 -0.2557125389575958 0.3971503674983978 0.0 -1.401298464324817e-45 1 False False
10674.921999999999 4.68303918838501 -1.2419439417174836 1.66750413576235 -1.9963990650572718 -1.5708206335650843 3.112215518951416 0.0 -0.16718630492687225 -0.3012808561325073 0.4771155118942261 0.0 -0.0 1 False False
10674.972 4.683018684387207 -1.2509021920016785 1.651114288960592 -1.9713007412352503 -1.5707967917071741 3.1122243404388428 0.0 -0.1856151968240738 -0.3459356725215912 0.5372115969657898 0.0 -0.0 1 False False
10675.021999999999 4.683022975921631 -1.2603074473193665 1.6336076895343226 -1.9443065128722132 -1.5707967917071741 3.1122028827667236 0.0 -0.17739710211753845 -0.33429786562919617 0.5126836895942688 0.0 -0.0 1 False False
10675.072 4.683034896850586 -1.26853700101886 1.6183365027057093 -1.9205285511412562 -1.5707967917071741 3.1121954917907715 0.0 -0.1557360589504242 -0.282305508852005 0.4542592763900757 0.0 -0.0 1 False False
10675.122 4.683022975921631 -1.2757645112327118 1.6052759329425257 -1.900184770623678 -1.5707491079913538 3.112248182296753 0.0 -0.1318720132112503 -0.24078425765037537 0.3831515312194824 0.0 -0.0 1 False False
10675.171999999999 4.683019638061523 -1.2816131573966523 1.594327751790182 -1.883493562737936 -1.5708206335650843 3.112264394760132 0.0 -0.10584580153226852 -0.20171040296554565 0.2968207895755768 0.0 -0.0 1 False False
10675.222 4.682981967926025 -1.2862414580634614 1.5858419577227991 -1.8700758419432582 -1.5707886854754847 3.112247943878174 0.0 -0.07946275919675827 -0.15319252014160156 0.22625622153282166 0.0 -0.0 1 False False
10675.271999999999 4.683051109313965 -1.2897442144206543 1.579287354146139 -1.860392232934469 -1.5708048979388636 3.112248182296753 0.0 -0.05643812566995621 -0.1094774454832077 0.16275963187217712 0.0 -0.0 1 False False
10675.322 4.68303918838501 -1.291942374115326 1.5753782431231897 -1.8540951214232386 -1.5707967917071741 3.1122405529022217 0.0 -0.03283734992146492 -0.06027863919734955 0.09814494848251343 0.0 -0.0 1 False False
10675.372 4.683034896850586 -1.2929710012725373 1.5733826796161097 -1.8512097797789515 -1.5708406607257288 3.1122243404388428 0.0 -0.007364961318671703 -0.016526684165000916 0.020584836602211 0.0 -0.0 1 False False
10675.421999999999 4.682990550994873 -1.292979584341385 1.5733407179461878 -1.851086755792135 -1.5708006064044397 3.112165927886963 0.0 0.000132281900732778 6.376188684953377e-05 -0.0002341176732443273 0.0 -0.0 1 False False
10675.472 4.683018684387207 -1.2929504376700898 1.5733478705035608 -1.8510872326292933 -1.570784870778219 3.1122117042541504 0.0 0.0 4.107757662108791e-33 -0.00010173238842980936 0.0 -0.0 1 False False
10675.521999999999 4.683040142059326 -1.2929915350726624 1.5732916037188929 -1.851055761376852 -1.5707886854754847 3.1122360229492188 0.0 0.0 4.120013219477414e-09 -5.199630686547607e-05 0.0 -0.0 1 False False
10675.572 4.683030605316162 -1.292994813328125 1.5733001867877405 -1.8510595760741175 -1.5707967917071741 3.1122570037841797 0.0 -0.0002891056938096881 -0.0003198984486516565 -1.800141603780503e-06 0.0 -0.0 1 False False
10675.622 4.682999134063721 -1.2930315893939515 1.5732758680926722 -1.8510428867735804 -1.570801083241598 3.1122360229492188 0.0 -0.0003676741907838732 -0.00010982550156768411 0.00026121779228560627 0.0 -0.0 1 False False
10675.671999999999 4.682962417602539 -1.2930391889861603 1.5732582251178187 -1.8509870968260707 -1.5708168188678187 3.112247943878174 0.0 -0.000154029083205387 -6.820789712946862e-05 0.0002818772045429796 0.0 -0.0 1 False False
10675.722 4.683022975921631 -1.2929581266692658 1.5732834974872034 -1.8510271511473597 -1.5707648436175745 3.112247943878174 0.0 -0.00010925462993327528 -1.525105290056672e-05 0.00016034100553952157 0.0 -0.0 1 False False
10675.771999999999 4.6830153465271 -1.2930142742446442 1.5733259359942835 -1.8510118923582972 -1.5707524458514612 3.112231731414795 0.0 -7.128817378543317e-05 -3.5887334565516314e-35 0.0001463068329030648 0.0 -0.0 1 False False
10675.822 4.6830315589904785 -1.2930392187884827 1.5732925573932093 -1.8510509930052699 -1.5707891623126429 3.112182140350342 0.0 -6.127753295004368e-05 -0.0 0.00011120956332888454 0.0 -0.0 1 False False
10675.872 4.6830596923828125 -1.293030546312668 1.5732877890216272 -1.8509794674315394 -1.5707967917071741 3.1122360229492188 0.0 0.0 -0.0 8.564583549741656e-05 0.0 -0.0 1 False False
10675.921999999999 4.682999134063721 -1.2929524344256897 1.5733049551593226 -1.8510080776610316 -1.5707929770099085 3.1122686862945557 0.0 0.0 -0.0 4.914826184920784e-11 0.0 -0.0 1 False False
10675.972 4.682994842529297 -1.2930305761149903 1.5732925573932093 -1.8509627781310023 -1.5707843939410608 3.112231731414795 0.0 0.0 -0.0 7.465631954388763e-30 0.0 -0.0 1 False False
10676.021999999999 4.683034896850586 -1.293065295820572 1.5733254591571253 -1.8510271511473597 -1.570784870778219 3.112264394760132 3.159589643984619e-18 0.0 -0.0 4.680696368691839e-12 0.0 -0.0 1 False False
10676.072 4.683023929595947 -1.2930201453021546 1.5732596556292933 -1.8509875736632289 -1.5707362333880823 3.112239360809326 0.0 0.0 -0.0 7.109986984903413e-31 0.0 -0.0 1 False False
10676.122 4.68306827545166 -1.2929650706103821 1.5732553640948694 -1.8509870968260707 -1.5707967917071741 3.1122612953186035 0.0 -7.48527420059951e-15 -0.0 0.0 0.0 -0.0 1 False False
10676.171999999999 4.683052062988281 -1.293025718336441 1.5732672850238245 -1.8509675465025843 -1.5707648436175745 3.1121702194213867 0.0 0.0 -0.0 0.0 0.0 -0.0 1 False False
10676.222 4.6830034255981445 -1.2929859024337311 1.5732463041888636 -1.8509794674315394 -1.5708048979388636 3.1122028827667236 0.0 0.0 -0.0 0.0 0.0 -0.0 1 False False
10676.271999999999 4.683051109313965 -1.2930067342570801 1.5733092466937464 -1.8510118923582972 -1.5707767645465296 3.1121835708618164 0.0 0.0 -0.0 0.0 0.0 -0.0 1 False False
10676.322 4.682974338531494 -1.2930022937110444 1.5732758680926722 -1.8510080776610316 -1.5707967917071741 3.1122450828552246 0.0 0.0 -0.0 0.0 0.0 -0.0 1 False False
10676.372 4.683019638061523 -1.293052689438202 1.5732386747943323 -1.8510118923582972 -1.57074481645693 3.1122331619262695 -0.0007783232140354812 0.0 -9.209854397340678e-06 0.0 0.0 -1.02207002328214e-06 1 False False
10676.421999999999 4.6827592849731445 -1.2930410367301484 1.5730465094195765 -1.8509475193419398 -1.570801083241598 3.111931085586548 -0.012456170283257961 0.002173753920942545 -0.00884509552270174 0.0029352752026170492 0.0 -0.011666396632790565 1 False False
10676.472 4.682012557983398 -1.2926437121680756 1.5724390188800257 -1.8506337604918421 -1.5707767645465296 3.1111550331115723 -0.021729370579123497 0.012051722034811974 -0.017017528414726257 0.008457127027213573 0.0 -0.02377508394420147 1 False False
10676.521999999999 4.680215835571289 -1.2917583745769043 1.5711215178119105 -1.8501759968199671 -1.570772949849264 3.1093897819519043 -0.05140861123800278 0.024954935535788536 -0.03829818591475487 0.011945396661758423 0.0 -0.052227601408958435 1 False False
10676.572 4.676588535308838 -1.2900318068316956 1.568479363118307 -1.849269529382223 -1.5707805792437952 3.1058602333068848 -0.09336867928504944 0.04745961353182793 -0.06799320131540298 0.024138925597071648 0.0 -0.09244922548532486 1 False False
10676.622 4.670602798461914 -1.2871427100947876 1.5637605826007288 -1.8477193317809046 -1.5708168188678187 3.099752426147461 -0.15034881234169006 0.07447169721126556 -0.11372609436511993 0.04052324965596199 0.0 -0.1484963595867157 1 False False
10676.671999999999 4.661125183105469 -1.2823360425284882 1.5567029158221644 -1.8450118503966273 -1.5708168188678187 3.0902390480041504 -0.23219771683216095 0.11104302108287811 -0.17607782781124115 0.05443438142538071 -8.962485781140716e-21 -0.23151473701000214 1 False False
10676.722 4.647087097167969 -1.2757370632937928 1.5462916533099573 -1.84137024501943 -1.5708044211017054 3.076524496078491 -0.3160325586795807 0.14967481791973114 -0.23719146847724915 0.08497919142246246 -0.0003098924062214792 -0.31503355503082275 1 False False
10676.771999999999 4.62968635559082 -1.2673694354346772 1.5329812208758753 -1.836635252038473 -1.5707767645465296 3.0587754249572754 -0.38204729557037354 0.1861240416765213 -0.2882433533668518 0.09143231809139252 -3.295817077741958e-05 -0.38294515013694763 1 False False
10676.822 4.6085357666015625 -1.2571185690215607 1.5172489325152796 -1.830818315545553 -1.570813004170553 3.0377397537231445 -0.45521485805511475 0.22080783545970917 -0.35161179304122925 0.11724362522363663 -1.7204192772624083e-05 -0.4561704099178314 1 False False
10676.872 4.584039688110352 -1.2453627747348328 1.4986479918109339 -1.8242188892760218 -1.5708091894732874 3.013357639312744 -0.5259746313095093 0.24682816863059998 -0.39216816425323486 0.14703468978405 -5.736239359066531e-07 -0.531798779964447 1 False False
10676.921999999999 4.556161880493164 -1.2319451731494446 1.4777196089373987 -1.8165813885130824 -1.5707929770099085 2.985299825668335 -0.5944218039512634 0.2846963405609131 -0.43946921825408936 0.1678370237350464 0.0003617911133915186 -0.591631293296814 1 False False
10676.972 4.524522304534912 -1.2166274350932618 1.4540470282184046 -1.8080312214293421 -1.5707891623126429 2.9537601470947266 -0.6608009934425354 0.32096269726753235 -0.5006968975067139 0.17335785925388336 -2.0156123355263844e-05 -0.6638479232788086 1 False False
10677.021999999999 4.489416599273682 -1.1999412339976807 1.4275229612933558 -1.7987543545165003 -1.5708168188678187 2.9188120365142822 -0.735424280166626 0.34756699204444885 -0.556414783000946 0.1965135633945465 -0.0004852826241403818 -0.7329390645027161 1 False False
10677.072 4.4509501457214355 -1.1810834568789979 1.398785416279928 -1.7882238827147425 -1.5708091894732874 2.8802499771118164 -0.8035727739334106 0.3835776448249817 -0.6078418493270874 0.2218197137117386 1.4681459444432915e-14 -0.8117820024490356 1 False False
10677.122 4.409012317657471 -1.1611727637103577 1.366835896168844 -1.7769009075560511 -1.5708211104022425 2.838087320327759 -0.8733811974525452 0.42035821080207825 -0.6537160873413086 0.24009984731674194 -2.678347073015175e-06 -0.8703492283821106 1 False False
10677.171999999999 4.36353874206543 -1.1390414398959656 1.3331101576434534 -1.764506002465719 -1.570784870778219 2.7928333282470703 -0.9439656734466553 0.449349969625473 -0.7037729024887085 0.2450302243232727 -5.3638748795492575e-05 -0.9441636800765991 1 False False
10677.222 4.314566612243652 -1.115526334648468 1.296023193989889 -1.7513400516905726 -1.5708211104022425 2.7436683177948 -1.013934850692749 0.4867480397224426 -0.7523493766784668 0.27862125635147095 1.0081352256902792e-15 -1.0131187438964844 1 False False
10677.271999999999 4.2625908851623535 -1.0906788867763062 1.2569025198565882 -1.737331052819723 -1.5708168188678187 2.691753625869751 -1.0471025705337524 0.493632972240448 -0.7942348718643188 0.2812064588069916 -5.783133990990987e-17 -1.0565155744552612 1 False False
10677.322 4.210194110870361 -1.065316156750061 1.2177498976336878 -1.723034521142477 -1.5707805792437952 2.6395180225372314 -1.0520356893539429 0.5107791423797607 -0.791796863079071 0.27150213718414307 7.268512854352593e-05 -1.0431042909622192 1 False False
10677.372 4.157824993133545 -1.0402199190906067 1.1783559958087366 -1.708973070184225 -1.5707805792437952 2.586946487426758 -1.0457851886749268 0.5076553225517273 -0.7864490151405334 0.27248328924179077 0.00011888893641298637 -1.042990803718567 1 False False
10677.421999999999 4.105423927307129 -1.0149378937533875 1.138970200215475 -1.6946522198119105 -1.5708087126361292 2.534700870513916 -1.0449169874191284 0.502487301826477 -0.7809635400772095 0.296783983707428 -2.64536495797521e-18 -1.0549814701080322 1 False False
10677.472 4.054995059967041 -0.9905252617648621 1.1007807890521448 -1.681044717828268 -1.5708044211017054 2.4841294288635254 -0.9832836389541626 0.46951326727867126 -0.735945463180542 0.2588830292224884 4.6143658338770877e-10 -0.9757083058357239 1 False False
10677.521999999999 4.007691860198975 -0.9679075044444581 1.0652697722064417 -1.6683794460692347 -1.5707925001727503 2.4367990493774414 -0.9077562093734741 0.4357161521911621 -0.6904584765434265 0.23526401817798615 0.00023707086802460253 -0.9151644706726074 1 False False
10677.572 3.9640252590179443 -0.9467567366412659 1.0325983206378382 -1.6564041576781214 -1.5708449522601526 2.3932836055755615 -0.8433054685592651 0.4085567891597748 -0.6317221522331238 0.22748030722141266 -0.0002848980075214058 -0.8376132249832153 1 False False
10677.622 3.9238343238830566 -0.9273625773242493 1.0022638479815882 -1.6455289326109828 -1.570853058491842 2.353088140487671 -0.7676874995231628 0.37041977047920227 -0.5675610899925232 0.21651798486709595 -1.1824938155768905e-05 -0.7765703797340393 1 False False
10677.671999999999 3.887211799621582 -0.9099463385394593 0.9746058622943323 -1.6357580624022425 -1.5707362333880823 2.3163185119628906 -0.6956910490989685 0.33635130524635315 -0.5248847007751465 0.18420705199241638 0.0008921381086111069 -0.7082696557044983 1 False False
10677.722 3.853858709335327 -0.8936372560313721 0.949897591267721 -1.6267062626280726 -1.5707925001727503 2.283087968826294 -0.627930223941803 0.30796462297439575 -0.4815922975540161 0.15720869600772858 -1.7580251920890078e-08 -0.6327795386314392 1 False False
10677.771999999999 3.8242135047912598 -0.8796237272075196 0.9272010962115687 -1.618683477441305 -1.5708254019366663 2.25333571434021 -0.5576835870742798 0.27146294713020325 -0.42373278737068176 0.15368008613586426 -2.670445157080765e-27 -0.5651413798332214 1 False False
10677.822 3.7979753017425537 -0.8666021984866639 0.9078248182879847 -1.6114427051939906 -1.570784870778219 2.2271838188171387 -0.4874468147754669 0.2357487827539444 -0.37185969948768616 0.1391409933567047 -0.0 -0.49646133184432983 1 False False
10677.872 3.775278329849243 -0.8560555738261719 0.890383545552389 -1.605483194390768 -1.5708087126361292 2.204505681991577 -0.4198315441608429 0.2013510912656784 -0.3095479905605316 0.12409289181232452 -0.0 -0.4241102635860443 1 False False
10677.921999999999 3.7558276653289795 -0.8465674680522461 0.876082722340719 -1.600264688531393 -1.5708449522601526 2.1851089000701904 -0.3522617518901825 0.17037682235240936 -0.2619980573654175 0.09138623625040054 -0.0 -0.352085143327713 1 False False
10677.972 3.740302324295044 -0.8389939826777955 0.8643258253680628 -1.5958639583983363 -1.5707886854754847 2.1694798469543457 -0.28244030475616455 0.13614605367183685 -0.20434796810150146 0.07158959656953812 0.0003035448316950351 -0.2850545644760132 1 False False
10678.021999999999 3.7279064655303955 -0.8331099313548584 0.8550704161273401 -1.5925818882384242 -1.5707767645465296 2.1570863723754883 -0.20699234306812286 0.0982770100235939 -0.16465778648853302 0.05927802994847298 -2.6121508199139498e-05 -0.21197380125522614 1 False False
10678.072 3.7192318439483643 -0.8289523881724854 0.8484357039081019 -1.5901323757567347 -1.5707686583148401 2.148357629776001 -0.14495618641376495 0.0704360082745552 -0.10734754800796509 0.03785189241170883 -2.006337884857306e-20 -0.14274229109287262 1 False False
10678.122 3.7139177322387695 -0.8264111441424866 0.844332520161764 -1.5888306103148402 -1.5708335081683558 2.143129825592041 -0.0754130482673645 0.0317021980881691 -0.0534810908138752 0.01979121007025242 -3.0476321820168646e-39 -0.07705694437026978 1 False False
10678.171999999999 3.7121357917785645 -0.8254823845675965 0.8431533018695276 -1.5883928738036097 -1.5707529226886194 2.1412997245788574 -0.0003917105495929718 0.0007000802434049547 0.0016975945327430964 0.00012362180859781802 -0.0 -0.0014840592630207539 1 False False
10678.222 3.7122271060943604 -0.8255499762347718 0.8430593649493616 -1.5883809528746546 -1.5707686583148401 2.1412954330444336 4.3270673155682005e-10 -4.742694363812916e-05 -0.0003104947099927813 -0.00010183653648709878 0.00028043973725289106 5.889099446374209e-19 1 False False
10678.271999999999 3.71218204498291 -0.8255797189525147 0.8429949919330042 -1.5883370838561 -1.5707653204547327 2.141348361968994 -0.00015308278671000153 0.0 -0.0008570758509449661 -2.718608570042513e-20 8.339739724760875e-05 8.945555326695737e-38 1 False False
10678.322 3.712171792984009 -0.8255752486041565 0.842992130910055 -1.5883170566954554 -1.5707805792437952 2.141360282897949 -0.0003639267524704337 7.808436930645257e-05 -0.0011520596453920007 0.0005977837718091905 -2.94501987809781e-05 -0.0002763380471151322 1 False False
10678.372 3.7120935916900635 -0.825481728916504 0.8430097738849085 -1.5882889233031214 -1.5707529226886194 2.1413159370422363 -0.0007177304942160845 0.00016260442498605698 -0.00035687233321368694 0.0005474580102600157 -3.1351148209068924e-05 -0.0002791524166241288 1 False False
10678.421999999999 3.7120862007141113 -0.825527624492981 0.8430426756488245 -1.588320871392721 -1.5707686583148401 2.141279697418213 -0.00028374421526677907 0.0006437506526708603 -0.0002239524619653821 0.00022108954726718366 -7.178291127193647e-21 -0.00017085325089283288 1 False False
10678.472 3.7121026515960693 -0.8254823845675965 0.8430126349078577 -1.5883246860899867 -1.5707686583148401 2.1412265300750732 -0.00013215668150223792 0.0002281681663589552 -9.04502157936804e-05 9.834248339757323e-05 -1.090383966254284e-39 -0.0001252837828360498 1 False False
10678.521999999999 3.7120771408081055 -0.8254993718913575 0.8429845015155237 -1.5883013210692347 -1.5707653204547327 2.1413040161132812 -9.565692744217813e-05 0.00014575521345250309 -7.223935244837776e-05 7.631385960849002e-05 -2.6855238952766536e-12 -0.00011818435450550169 1 False False
10678.572 3.7120816707611084 -0.8254869741252442 0.8429430166827601 -1.5882817707457484 -1.5708087126361292 2.1412954330444336 -2.4972543542389758e-05 0.00015557958977296948 -6.504798518164464e-16 4.333479797224982e-09 -4.079317105263104e-31 -8.085231092991307e-05 1 False False
10678.622 3.7120907306671143 -0.8255112332156678 0.8429587523089808 -1.5882770023741664 -1.5708168188678187 2.141287088394165 -3.8480586852574044e-18 0.00012058530410286039 -1.401298464324817e-45 6.582565660478163e-28 -0.0 -6.694915646221489e-05 1 False False
10678.671999999999 3.7120816707611084 -0.8254869741252442 0.8429673353778284 -1.5882612667479457 -1.5707686583148401 2.141324758529663 0.0 8.532498759450391e-05 -0.0 0.0 -0.0 -1.9812296512647137e-16 1 False False
10678.722 3.7120862007141113 -0.8255039614490052 0.8429892698871058 -1.588285585443014 -1.570801083241598 2.1413040161132812 0.0 7.135819032555446e-05 -0.0 0.0 -0.0 -2.10235666600056e-05 1 False False
10678.771999999999 3.712095260620117 -0.8254587215236207 0.842992130910055 -1.5882612667479457 -1.5707648436175745 2.1413333415985107 0.0 0.0 -0.0 0.0 -0.0 -1.710250846415937e-20 1 False False
10678.822 3.7121026515960693 -0.8255127829364319 0.8429845015155237 -1.5882569752135218 -1.5708211104022425 2.1412720680236816 0.0 0.0 -0.0 0.0 -3.408627953461682e-14 -2.5978756308025643e-39 1 False False
10678.872 3.712083339691162 -0.8254556220820923 0.8429887930499476 -1.5882379017271937 -1.570801083241598 2.141275405883789 0.0 0.0 -0.0 0.0 -5.177715395430284e-33 -0.0 1 False False
10678.921999999999 3.7120487689971924 -0.825466052894928 0.8429935614215296 -1.5882770023741664 -1.5707772413836878 2.1412763595581055 0.0 0.0 -0.0 0.0 -0.0 -0.0 1 False False
10678.972 3.712127923965454 -0.825495795612671 0.8429935614215296 -1.5882288418211878 -1.5708048979388636 2.141267776489258 0.0 0.0 -0.0 0.0 -0.0 -0.0 1 False False
10679.021999999999 3.712104082107544 -0.825495795612671 0.8429802099810999 -1.5883013210692347 -1.5707767645465296 2.141263484954834 0.0 0.0 -0.0 0.0 -0.0 -0.0 1 False False
10679.072 3.7120652198791504 -0.8254706424525757 0.8429258505450647 -1.5882889233031214 -1.570801083241598 2.141231060028076 0.0 0.0 -7.226945708538324e-10 0.0 -0.0 -0.0 1 False False
10679.122 3.7120742797851562 -0.8254676026156922 0.8429845015155237 -1.588269372979635 -1.5707805792437952 2.141282796859741 0.0 0.0 -1.700576579947597e-39 3.8167917715270505e-09 -0.0 -0.0 1 False False
10679.171999999999 3.7121026515960693 -0.8253979247859498 0.842971150075094 -1.5882774792113246 -1.5708087126361292 2.141263484954834 0.0 0.0 -0.0 5.797715985848824e-28 -0.0 -1.2554117901492079e-12 1 False False
10679.222 3.7120862007141113 -0.8253801029971619 0.8429673353778284 -1.5883251629271449 -1.5707605520831507 2.141275405883789 0.0 0.0 -0.0 0.0 -0.0 -1.9069736873870055e-31 1 False False
10679.271999999999 3.712099552154541 -0.8254913848689576 0.8430174032794397 -1.5883251629271449 -1.5708168188678187 2.141317129135132 0.0 0.0 -0.0 0.0 -0.0 -0.0 1 False False
10679.322 3.7120697498321533 -0.825495795612671 0.8429673353778284 -1.5883094273009242 -1.5707610289203089 2.1412882804870605 0.0 0.0 -0.0 0.0 -0.0 -0.0 1 False False
10679.372 3.7120490074157715 -0.8254380387118836 0.8429587523089808 -1.5883094273009242 -1.5707891623126429 2.141247272491455 0.0 0.0 -0.0 0.0 -0.0 -0.0 1 False False
10679.421999999999 3.7120816707611084 -0.8254469198039551 0.8429439703570765 -1.5883289776244105 -1.5707805792437952 2.1412546634674072 0.0 0.0 -0.0 0.0 -0.0 -0.0 1 False False
10679.472 3.7120697498321533 -0.8254869741252442 0.8430174032794397 -1.588292738000387 -1.570801083241598 2.1412546634674072 0.0 0.0 -0.0 0.0 -0.0 -0.0 1 False False
10679.521999999999 3.7121071815490723 -0.8254497808269043 0.8430007139789026 -1.5883370838561 -1.5707648436175745 2.141329050064087 0.0 7.30396972031017e-23 -0.0 0.0 -0.0 -0.0 1 False False
10679.572 3.7120368480682373 -0.8254380387118836 0.8430054823504847 -1.588285585443014 -1.5707972685443323 2.1412179470062256 0.0 0.0 -0.0 0.0 -0.0 -0.0 1 False False
10679.622 3.7120773792266846 -0.8254380387118836 0.8429845015155237 -1.588292738000387 -1.5707686583148401 2.141324758529663 0.0 0.0 -0.0 0.0 -0.0 -0.0 1 False False
10679.671999999999 3.7120697498321533 -0.8254543107799073 0.8429587523089808 -1.5883013210692347 -1.5708091894732874 2.141275405883789 0.0 0.0 -0.0 0.0 -0.0 -0.0 1 False False
10679.722 3.7120862007141113 -0.8254794639400025 0.8429587523089808 -1.5883289776244105 -1.5707686583148401 2.1412763595581055 0.0 0.0 -0.0 0.0 -0.0 -0.0 1 False False
10679.771999999999 3.7120981216430664 -0.8254141372493287 0.8430083433734339 -1.5883094273009242 -1.570853058491842 2.141247272491455 0.0 0.0 -0.0 0.0 -0.0 -0.0 1 False False
10679.822 3.7120742797851562 -0.8254468601993104 0.8430336157428187 -1.588268896142477 -1.5707686583148401 2.1412839889526367 0.0 0.0 -0.0 0.0 -0.0 -0.0 1 False False
10679.872 3.7120819091796875 -0.8255046171000977 0.8429678122149866 -1.5882331333556117 -1.5707805792437952 2.14125919342041 0.0 0.0 -0.0 0.0 -0.0 -0.0 1 False False
10679.921999999999 3.7120609283447266 -0.8255215448192139 0.8429587523089808 -1.5882650814452113 -1.5707443396197718 2.141279697418213 0.0 0.0 -0.0 0.0 -0.0 -0.0 1 False False
10679.972 3.7120981216430664 -0.8254334491542359 0.8429845015155237 -1.5883013210692347 -1.570801083241598 2.141267776489258 0.0 0.0 -0.0 0.0 -0.0 -0.0 1 False False
10680.021999999999 3.7120907306671143 -0.825495795612671 0.8429473082171839 -1.5882650814452113 -1.5707686583148401 2.141295909881592 0.0 0.0 -0.0 0.0 -0.0 -0.0 1 False False
10680.072 3.712013006210327 -0.8255046767047425 0.8429349104510706 -1.5882774792113246 -1.5707967917071741 2.1413159370422363 0.0 0.0 3.3082598730763975e-34 0.0 -0.0 0.00020085570577066392 1 False False
10680.122 3.7121145725250244 -0.8254750531962891 0.8430169264422815 -1.5882817707457484 -1.5708254019366663 2.141263484954834 0.0 0.0 0.0 0.0 -0.0 5.769551155937274e-16 1 False False
10680.171999999999 3.7120449542999268 -0.8254423898509522 0.8430336157428187 -1.5882932148375453 -1.5708211104022425 2.141317129135132 0.0 0.0 0.0 0.0 -0.0 2.690737632704554e-09 1 False False
10680.222 3.7120797634124756 -0.8254823845675965 0.8429845015155237 -1.5882889233031214 -1.5707648436175745 2.141324758529663 0.0 0.0 0.0 0.0 -0.0 4.087235972480299e-28 1 False False
10680.271999999999 3.7120492458343506 -0.8254304689219971 0.8429802099810999 -1.5882774792113246 -1.5707686583148401 2.1413257122039795 0.0 0.0 0.0 0.0 -0.0 0.0 1 False False
10680.322 3.7121024131774902 -0.8255039018443604 0.8429759184466761 -1.588285585443014 -1.5707767645465296 2.141279697418213 0.0 0.0 0.0 0.0 -0.0 0.0 1 False False
10680.372 3.7120819091796875 -0.8254543107799073 0.8430259863482874 -1.588313718835348 -1.5708087126361292 2.1412546634674072 0.0 0.0 0.0 0.0 -0.0 0.0 1 False False
10680.421999999999 3.7120413780212402 -0.8254587215236207 0.8430007139789026 -1.5882092914977015 -1.5707967917071741 2.141312837600708 0.0 0.0 0.0 0.0 -0.0 0.0 1 False False
10680.472 3.712131977081299 -0.8254616421512146 0.8430007139789026 -1.5882445774474085 -1.5707767645465296 2.141291618347168 0.0 0.0 0.0 0.0 -0.0 0.0 1 False False
10680.521999999999 3.7120862007141113 -0.8254706424525757 0.8429520765887659 -1.5883251629271449 -1.5708048979388636 2.141287088394165 0.0 0.0 0.0 0.0 -0.0 0.0 1 False False
10680.572 3.7120449542999268 -0.8254869741252442 0.8429716269122522 -1.5883289776244105 -1.570824925099508 2.1412546634674072 0.0 0.0 0.0 0.0 -0.0 0.0 1 False False
10680.622 3.7120370864868164 -0.8254823249629517 0.8430169264422815 -1.5883094273009242 -1.5707686583148401 2.141263484954834 0.0 0.0 0.0 0.0 -0.0 0.0 1 False False
10680.671999999999 3.712066650390625 -0.8254496616176148 0.8429802099810999 -1.5882498226561488 -1.5708168188678187 2.141231060028076 0.0 0.0 0.0 0.0 -0.0 0.0 1 False False
10680.722 3.7120494842529297 -0.8254749935916443 0.8429802099810999 -1.5882607899107875 -1.5707648436175745 2.141275405883789 0.0 0.0 0.0 0.0 -0.0 0.0 1 False False
10680.771999999999 3.712090492248535 -0.8254750531962891 0.8429845015155237 -1.5882650814452113 -1.5707805792437952 2.141324758529663 0.0 0.0 0.0 0.0 -0.0 0.0 1 False False
10680.822 3.7120494842529297 -0.825488345032074 0.8429716269122522 -1.5883056126036585 -1.570784870778219 2.1413397789001465 0.0 -1.401298464324817e-45 0.0 0.0 -0.0 0.0 1 False False
10680.872 3.712143898010254 -0.8254304689219971 0.8430126349078577 -1.5883175335326136 -1.5708406607257288 2.141279697418213 0.0 0.0 0.0 0.0 -0.0 0.0 1 False False
10680.921999999999 3.712062358856201 -0.8255202335170289 0.8429845015155237 -1.5882774792113246 -1.570784870778219 2.1412222385406494 0.0 0.0 0.0 0.0 -0.0 0.0 1 False False
10680.972 3.7120656967163086 -0.825463132267334 0.8429845015155237 -1.588285585443014 -1.5707529226886194 2.141336441040039 0.0 0.0 0.0 0.0 -0.0 0.0 1 False False
10681.021999999999 3.7120862007141113 -0.8255335253528138 0.8430126349078577 -1.5883094273009242 -1.570784870778219 2.1412353515625 0.0 0.0 0.0 0.0 -0.0 0.0 1 False False
10681.072 3.712056875228882 -0.8255172532847901 0.8429845015155237 -1.5882846317686976 -1.570784870778219 2.141263484954834 0.0 0.0 0.0 0.0 -0.0 0.0 1 False False
10681.122 3.712094783782959 -0.8255157035640259 0.8430007139789026 -1.5882889233031214 -1.5707929770099085 2.141324758529663 0.0 0.0 0.0 0.0 -0.0 0.0 1 False False
10681.171999999999 3.7121024131774902 -0.8254750531962891 0.8429477850543421 -1.5882731876769007 -1.570784870778219 2.1412839889526367 0.0 0.0 0.0 0.0 -0.0 0.0 1 False False
10681.222 3.7120699882507324 -0.8255083721927186 0.8429721037494105 -1.5883094273009242 -1.5707929770099085 2.1412665843963623 0.0 0.0 0.0 0.0 -0.0 0.0 1 False False
10681.271999999999 3.7120981216430664 -0.8254675430110474 0.8429845015155237 -1.5883494816222132 -1.5707925001727503 2.141279697418213 -3.91309077155122e-12 0.0 0.0 0.0 -0.0 0.0 1 False False
10681.322 3.712127447128296 -0.8254543107799073 0.842992130910055 -1.588313718835348 -1.5707967917071741 2.1412558555603027 0.0 0.0 0.0 0.0 -0.0 0.0 1 False False
10681.372 3.7120742797851562 -0.8254958552173157 0.8429763952838343 -1.5882731876769007 -1.5707805792437952 2.141275405883789 0.0 0.0 0.0 0.0 -0.0 0.0 1 False False
10681.421999999999 3.712143898010254 -0.825451211338379 0.842992130910055 -1.588297029534811 -1.570801083241598 2.1413159370422363 0.0 0.0 0.0 0.0 -0.0 0.0 1 False False
10681.472 3.7120819091796875 -0.825428919201233 0.8430040518390101 -1.588292738000387 -1.5707443396197718 2.1412353515625 0.0 0.0 0.0 0.0 -0.0 0.0 1 False False
10681.521999999999 3.712066888809204 -0.8255002063563843 0.8429506460772913 -1.5882889233031214 -1.570813004170553 2.1413002014160156 0.0 0.0 0.0 0.0 -0.0 0.0 1 False False
10681.572 3.712094783782959 -0.8254587811282654 0.8430169264422815 -1.5883456669249476 -1.5707724730121058 2.1412839889526367 0.0 0.0 0.0 0.0 -0.0 0.0 1 False False
10681.622 3.712090492248535 -0.8255202931216736 0.8430050055133265 -1.588320871392721 -1.5707724730121058 2.1412839889526367 0.0 0.0 0.0 0.0 -0.0 0.0 1 False False
10681.671999999999 3.712062358856201 -0.8255455058864136 0.8429845015155237 -1.5882774792113246 -1.5707967917071741 2.141270875930786 0.0 0.0 0.0 0.0 -0.0 0.0 1 False False
10681.722 3.7120862007141113 -0.825425998573639 0.8430007139789026 -1.5882774792113246 -1.5708406607257288 2.14125919342041 0.0 0.0 0.0 0.0 -0.0 0.0 1 False False
10681.771999999999 3.712090492248535 -0.8254571718028565 0.8429520765887659 -1.5882846317686976 -1.5707925001727503 2.141270875930786 0.0 0.0 0.0 0.0 -0.0 0.0 1 False False
10681.822 3.7120656967163086 -0.8255335849574585 0.8429887930499476 -1.5882731876769007 -1.5707925001727503 2.141270875930786 0.0 0.0 0.0 0.0 -0.0 0.0 1 False False
10681.872 3.7120862007141113 -0.8255039018443604 0.8429635206805628 -1.588245531121725 -1.5708335081683558 2.141324758529663 0.0 0.0 0.0 0.0 -0.0 0.0 1 False False
10681.921999999999 3.7120327949523926 -0.8254839342883606 0.8430007139789026 -1.5882774792113246 -1.5707925001727503 2.1413214206695557 0.0 0.0 0.0 0.0 -0.0 0.0 1 False False
10681.972 3.7121026515960693 -0.8254823845675965 0.8429563681231897 -1.5882932148375453 -1.5707929770099085 2.141270875930786 0.0 0.0 0.0 0.0 -0.0 0.0 1 False False
10682.021999999999 3.7120816707611084 -0.8254468005946656 0.8430169264422815 -1.5883175335326136 -1.570784870778219 2.1412665843963623 0.0 0.0 0.0 0.0 -0.0 0.0 1 False False
10682.072 3.7120816707611084 -0.8255046767047425 0.8429678122149866 -1.588269372979635 -1.5707891623126429 2.1412720680236816 0.0 0.0 0.0 0.0 -0.0 0.0 1 False False
10682.122 3.7120816707611084 -0.825470582847931 0.8429845015155237 -1.5882889233031214 -1.5708006064044397 2.141279697418213 0.0 0.0 0.0 0.0 -0.0 0.0 1 False False
10682.171999999999 3.7121145725250244 -0.8255002659610291 0.8429678122149866 -1.5883246860899867 -1.5707886854754847 2.1412882804870605 0.0 0.0 0.0 0.0 -0.0 0.0 1 False False
10682.222 3.7120816707611084 -0.8254468005946656 0.8430216948138636 -1.5882774792113246 -1.5707648436175745 2.141275405883789 0.0 0.0 0.0 0.0 -0.0 0.0 1 False False
10682.271999999999 3.712116003036499 -0.8254905504039307 0.8429673353778284 -1.588320871392721 -1.5708087126361292 2.14125919342041 0.0 0.0 0.0 0.0 -0.0 0.0 1 False False
10682.322 3.7121145725250244 -0.825440840130188 0.8429802099810999 -1.5882774792113246 -1.5707929770099085 2.141275405883789 0.0 0.0 0.0 0.0 -0.0 0.0 1 False False
10682.372 3.7120816707611084 -0.8254468005946656 0.8429515997516077 -1.588229318658346 -1.570824925099508 2.141270875930786 0.0 0.0 0.0 0.0 -0.0 0.0 1 False False
10682.421999999999 3.7120862007141113 -0.8254823845675965 0.8429845015155237 -1.588280817071432 -1.5708125273333948 2.141312837600708 -5.0631729847172915e-14 0.0 0.0 0.0 -0.0 0.0 1 False False
10682.472 3.712062358856201 -0.8254496616176148 0.8429754416095179 -1.5882774792113246 -1.5707886854754847 2.141267776489258 0.0 0.0 0.0 0.0 -0.0 0.0 1 False False
10682.521999999999 3.7121026515960693 -0.8254794639400025 0.8429802099810999 -1.588269372979635 -1.570829216633932 2.1412546634674072 0.0 0.0 0.0 0.0 -0.0 0.0 1 False False
10682.572 3.712111473083496 -0.8255002063563843 0.8429964224444788 -1.5882851086058558 -1.5708006064044397 2.141317129135132 0.0 0.0 0.0 0.0 -0.0 0.0 1 False False
10682.622 3.712123394012451 -0.8254794639400025 0.8429754416095179 -1.5882531605162562 -1.5708487669574183 2.141263484954834 0.0 0.0 0.0 0.0 -0.0 0.0 1 False False
10682.671999999999 3.7120862007141113 -0.8254794639400025 0.8429935614215296 -1.5882851086058558 -1.5707886854754847 2.141291618347168 0.0 0.0 0.0 0.0 -0.0 0.0 1 False False
10682.722 3.712083339691162 -0.825463132267334 0.8429673353778284 -1.5882817707457484 -1.5708168188678187 2.141295909881592 0.0 0.0 0.0 0.0 -0.0 0.0 1 False False
10682.771999999999 3.7120907306671143 -0.8255112928203125 0.8429892698871058 -1.588269372979635 -1.5707610289203089 2.141312837600708 0.0 0.0 0.0 0.0 -0.0 0.0 1 False False
10682.822 3.7120323181152344 -0.8255002063563843 0.8430126349078577 -1.588273664514059 -1.570784870778219 2.1412546634674072 0.0 0.0 0.0 0.0 -0.0 0.0 1 False False
10682.872 3.7121522426605225 -0.8254869741252442 0.842992130910055 -1.5882812939085902 -1.570784870778219 2.1413204669952393 0.0 0.0 0.0 0.0 -0.0 0.0 1 False False
10682.921999999999 3.712104320526123 -0.8254949611476441 0.8429845015155237 -1.588269372979635 -1.570784870778219 2.141295909881592 0.0 0.0 0.0 0.0 -0.0 0.0 1 False False
10682.972 3.7120862007141113 -0.8254333895495911 0.8429301420794886 -1.5882894001402796 -1.5707967917071741 2.1412720680236816 0.0 0.0 0.0 0.0 -0.0 0.0 1 False False
10683.021999999999 3.7120816707611084 -0.8254913848689576 0.8430007139789026 -1.5883251629271449 -1.5708048979388636 2.141295909881592 0.0 0.0 0.0 0.0 -0.0 0.0 1 False False
10683.072 3.712062358856201 -0.8254706424525757 0.8429845015155237 -1.588269372979635 -1.5707810560809534 2.141291618347168 0.0 0.0 0.0 0.0 -0.0 0.0 1 False False
10683.122 3.7121026515960693 -0.8254706424525757 0.8429673353778284 -1.588245531121725 -1.5707648436175745 2.141279697418213 0.0 0.0 0.0 0.0 -0.0 0.0 1 False False
10683.171999999999 3.7120323181152344 -0.8254824441722413 0.8429430166827601 -1.5882846317686976 -1.570784870778219 2.141267776489258 0.0 0.0 0.0 0.0 -0.0 0.0 1 False False
