Andreas691667/Digital_Twin_UR/src/controller_monitor/robot_output/vis_robot_output.csv
timestamp actual_q_0 actual_q_1 actual_q_2 actual_q_3 actual_q_4 actual_q_5 actual_qd_0 actual_qd_1 actual_qd_2 actual_qd_3 actual_qd_4 actual_qd_5 safety_status output_bit_register_65 output_bit_register_66
5178.9259999999995 3.712045669555664 -0.8254339855960389 0.8429845015155237 -1.588273664514059 -1.570829216633932 2.1412994861602783 0.0 0.0 0.0 0.0 0.0 0.0 1 False False
5178.976 3.7120654582977295 -0.8254546088031312 0.8429845015155237 -1.588297029534811 -1.5707648436175745 2.141230583190918 0.0 0.0 0.0 0.0 0.0 0.0 1 False False
5179.026 3.7120413780212402 -0.825458900337555 0.8429892698871058 -1.5882379017271937 -1.5707724730121058 2.141308546066284 0.0 0.0 0.0 0.0 0.0 0.0 1 False False
5179.076 3.712106943130493 -0.825463132267334 0.8429754416095179 -1.5883246860899867 -1.5707891623126429 2.141334056854248 0.0 0.0 0.0 0.0 0.0 0.0 1 False False
5179.126 3.712106943130493 -0.8254545491984864 0.8430140654193323 -1.5883132419981898 -1.570784870778219 2.141313076019287 0.0 0.0 0.0 0.0 0.0 0.0 1 False False
5179.1759999999995 3.712083101272583 -0.8254673641971131 0.842938248311178 -1.5882650814452113 -1.5707405249225062 2.141284227371216 0.0 0.0 0.0 0.0 0.0 0.0 1 False False
5179.226 3.712062358856201 -0.8254707616618653 0.8430216948138636 -1.5882650814452113 -1.5707767645465296 2.141254186630249 0.0 0.0 0.0 0.0 0.0 0.0 1 False False
5179.276 3.7120206356048584 -0.8254264754107972 0.8429754416095179 -1.5882817707457484 -1.57074481645693 2.1412558555603027 0.0 0.0 0.0 0.0 0.0 0.0 1 False False
5179.326 3.712062358856201 -0.8255080145648499 0.8429721037494105 -1.5882650814452113 -1.570784870778219 2.141230583190918 0.0 0.0 0.0 0.0 0.0 0.0 1 False False
5179.376 3.7120535373687744 -0.825458900337555 0.8429964224444788 -1.5882374248900355 -1.5707805792437952 2.141266107559204 0.0 0.0 0.0 0.0 0.0 0.0 1 False False
5179.4259999999995 3.7120742797851562 -0.8254546088031312 0.8430007139789026 -1.5883251629271449 -1.5708211104022425 2.141334056854248 0.0 0.0 0.0 0.0 0.0 0.0 1 False False
5179.476 3.7120537757873535 -0.825463132267334 0.8429845015155237 -1.5882932148375453 -1.5707648436175745 2.1412994861602783 0.0 0.0 0.0 0.0 0.0 0.0 1 False False
5179.526 3.7120416164398193 -0.8254997891238709 0.8429563681231897 -1.5883332691588343 -1.5707925001727503 2.141254186630249 0.0 0.0 0.0 0.0 0.0 0.0 1 False False
5179.576 3.712062358856201 -0.8254869741252442 0.8429697195636194 -1.588269372979635 -1.5707724730121058 2.141249656677246 0.0 0.0 0.0 0.0 0.0 0.0 1 False False
5179.626 3.712094783782959 -0.8254188460162659 0.8429606596576136 -1.588273664514059 -1.570784870778219 2.141284227371216 0.0 0.0 0.0 0.0 0.0 0.0 1 False False
5179.6759999999995 3.712045907974243 -0.825487808590271 0.8430097738849085 -1.5882498226561488 -1.570801083241598 2.141313076019287 0.0 0.0 0.0 0.0 0.0 0.0 1 False False
5179.726 3.712127447128296 -0.8254912060550232 0.8429892698871058 -1.5882774792113246 -1.5708406607257288 2.14127516746521 0.0 0.0 0.0 0.0 0.0 0.0 1 False False
5179.776 3.7120580673217773 -0.8254673641971131 0.8429845015155237 -1.588268896142477 -1.5707967917071741 2.141235113143921 0.0 0.0 0.0 0.0 0.0 0.0 1 False False
5179.826 3.7120819091796875 -0.8254954379848023 0.8429473082171839 -1.5882774792113246 -1.5707767645465296 2.141296148300171 0.0 0.0 0.0 0.0 0.0 0.0 1 False False
5179.876 3.712090492248535 -0.825512246494629 0.8430216948138636 -1.5882774792113246 -1.5708048979388636 2.14131760597229 0.0 0.0 0.0 0.0 0.0 0.0 1 False False
5179.9259999999995 3.7120742797851562 -0.8255316776088257 0.8429892698871058 -1.588297029534811 -1.5707891623126429 2.1413094997406006 0.0 0.0 0.0 0.0 0.0 0.0 1 False False
5179.976 3.712033987045288 -0.8254912060550232 0.8429678122149866 -1.5882650814452113 -1.5707843939410608 2.141267776489258 0.0 0.0 0.0 0.0 0.0 0.0 1 False False
5180.026 3.7120537757873535 -0.8254707616618653 0.8430174032794397 -1.5882607899107875 -1.5708044211017054 2.141270637512207 0.0 0.0 0.0 0.0 0.0 0.0 1 False False
5180.076 3.7120819091796875 -0.825457827453949 0.8429845015155237 -1.588297029534811 -1.5707724730121058 2.141329526901245 0.0 0.0 0.0 0.0 0.0 0.0 1 False False
5180.126 3.712110996246338 -0.825483576660492 0.8430007139789026 -1.588269372979635 -1.5708373228656214 2.141263246536255 0.0 0.0 0.0 0.0 0.0 0.0 1 False False
5180.1759999999995 3.712087392807007 -0.8254469794085999 0.8429802099810999 -1.5883094273009242 -1.570784870778219 2.141270637512207 0.0 0.0 0.0 0.0 0.0 0.0 1 False False
5180.226 3.7120819091796875 -0.8254578870585938 0.8429515997516077 -1.5883094273009242 -1.570784870778219 2.1413004398345947 0.0 0.0 0.0 0.0 0.0 0.0 1 False False
5180.276 3.7120819091796875 -0.8254459661296387 0.8429721037494105 -1.5882889233031214 -1.5707686583148401 2.141237735748291 0.0 0.0 0.0 0.0 0.0 0.0 1 False False
5180.326 3.7120580673217773 -0.8254793447307129 0.8429673353778284 -1.5882774792113246 -1.5708335081683558 2.141291618347168 0.0 0.0 0.0 0.0 0.0 0.0 1 False False
5180.376 3.7120938301086426 -0.8254340452006836 0.8429678122149866 -1.5882731876769007 -1.5707891623126429 2.141247034072876 0.0 0.0 0.0 0.0 0.0 0.0 1 False False
5180.4259999999995 3.712045192718506 -0.8254546684077759 0.8430007139789026 -1.5882369480528773 -1.5708211104022425 2.141267776489258 0.0 0.0 0.0 0.0 0.0 0.0 1 False False
5180.476 3.7120819091796875 -0.8254751128009339 0.8430259863482874 -1.5883413753905238 -1.5708449522601526 2.141263246536255 0.0 0.0 0.0 0.0 0.0 0.0 1 False False
5180.526 3.712045192718506 -0.8255445522120972 0.8429759184466761 -1.588297029534811 -1.5707686583148401 2.141284227371216 0.0 0.0 0.0 0.0 0.0 0.0 1 False False
5180.576 3.7121026515960693 -0.8254954379848023 0.8430126349078577 -1.5882569752135218 -1.570813004170553 2.1412513256073 0.0 0.0 0.0 0.0 0.0 0.0 1 False False
5180.626 3.7120532989501953 -0.8254736226848145 0.8429887930499476 -1.5883094273009242 -1.570829216633932 2.141239643096924 0.0 0.0 0.0 0.0 0.0 0.0 1 False False
5180.6759999999995 3.7120862007141113 -0.8255246442607422 0.8430007139789026 -1.588297029534811 -1.5708211104022425 2.14131760597229 0.0 0.0 0.0 0.0 0.0 0.0 1 False False
5180.726 3.712111473083496 -0.8254706424525757 0.8429802099810999 -1.588285585443014 -1.5707805792437952 2.1413040161132812 0.0 0.0 0.0 0.0 0.0 0.0 1 False False
5180.776 3.7120606899261475 -0.8255378764918824 0.8429678122149866 -1.588297029534811 -1.570801083241598 2.141279697418213 0.0 0.0 0.0 0.0 0.0 0.0 1 False False
5180.826 3.7120535373687744 -0.8254706424525757 0.8429845015155237 -1.5882774792113246 -1.5708211104022425 2.141284227371216 0.0 0.0 0.0 0.0 0.0 0.0 1 False False
5180.876 3.712127923965454 -0.8254467409900208 0.8430083433734339 -1.5883094273009242 -1.5707767645465296 2.141263246536255 0.0 0.0 0.0 0.0 0.0 0.0 1 False False
5180.9259999999995 3.7120907306671143 -0.8254719537547608 0.8430259863482874 -1.5883494816222132 -1.5707605520831507 2.141254186630249 0.0 0.0 0.0 0.0 0.0 0.0 1 False False
5180.976 3.7120907306671143 -0.8254543107799073 0.8430050055133265 -1.5882607899107875 -1.570824925099508 2.1412723064422607 0.0 0.0 0.0 0.0 0.0 0.0 1 False False
5181.026 3.7120368480682373 -0.825495795612671 0.8430212179767054 -1.5882498226561488 -1.5707767645465296 2.1412394046783447 0.0 0.0 0.0 0.0 0.0 0.0 1 False False
5181.076 3.712123394012451 -0.8254572314075013 0.842959229146139 -1.588313718835348 -1.5707843939410608 2.1412765979766846 0.0 0.0 0.0 0.0 0.0 0.0 1 False False
5181.126 3.7120413780212402 -0.8254158657840271 0.8429759184466761 -1.5883094273009242 -1.5707805792437952 2.1412994861602783 0.0 0.0 0.0 0.0 0.0 0.0 1 False False
5181.1759999999995 3.7120444774627686 -0.8255365651896973 0.8429563681231897 -1.5882932148375453 -1.570813004170553 2.14127516746521 0.0 0.0 0.0 0.0 0.0 0.0 1 False False
5181.226 3.712099552154541 -0.8254823845675965 0.8429477850543421 -1.5882612667479457 -1.5707925001727503 2.141296148300171 0.0 0.0 0.0 0.0 0.0 0.0 1 False False
5181.276 3.712095022201538 -0.8254706424525757 0.8429997603045862 -1.588280817071432 -1.570772949849264 2.141284227371216 0.0 0.0 0.0 0.0 0.0 0.0 1 False False
5181.326 3.7120654582977295 -0.8254750531962891 0.8430050055133265 -1.588313718835348 -1.5707767645465296 2.141266107559204 0.0 0.0 0.0 0.0 0.0 0.0 1 False False
5181.376 3.712062358856201 -0.825445370083191 0.8429759184466761 -1.5882774792113246 -1.5707767645465296 2.141266107559204 0.0 0.0 0.0 0.0 0.0 0.0 1 False False
5181.4259999999995 3.712095260620117 -0.825454370384552 0.8429759184466761 -1.5882932148375453 -1.570829216633932 2.141263246536255 0.0 0.0 0.0 0.0 0.0 0.0 1 False False
5181.476 3.7120578289031982 -0.8255001467517395 0.8429520765887659 -1.5883094273009242 -1.570784870778219 2.141326427459717 0.0 0.0 0.0 0.0 0.0 0.0 1 False False
5181.526 3.712111473083496 -0.825451211338379 0.8429759184466761 -1.5882607899107875 -1.570784870778219 2.141254186630249 0.0 0.0 0.0 0.0 0.0 0.0 1 False False
5181.576 3.7120742797851562 -0.8255002063563843 0.8429635206805628 -1.5883375606932582 -1.5707925001727503 2.1412513256073 0.0 0.0 0.0 0.0 0.0 0.0 1 False False
5181.626 3.712104082107544 -0.8254750531962891 0.8429268042193812 -1.5882817707457484 -1.5708368460284632 2.141230583190918 0.0 0.0 0.0 0.0 0.0 0.0 1 False False
5181.6759999999995 3.7120368480682373 -0.825466052894928 0.8430050055133265 -1.5883289776244105 -1.5707891623126429 2.141296148300171 0.0 0.0 0.0 0.0 0.0 0.0 1 False False
5181.726 3.71209979057312 -0.8255039614490052 0.8429887930499476 -1.5882817707457484 -1.5707805792437952 2.141284227371216 0.0 0.0 0.0 0.0 0.0 0.0 1 False False
5181.776 3.712104082107544 -0.8255171340755005 0.8430007139789026 -1.588320871392721 -1.5708168188678187 2.141247034072876 0.0 0.0 0.0 0.0 0.0 0.0 1 False False
5181.826 3.7120490074157715 -0.825463132267334 0.8430050055133265 -1.5882417164244593 -1.570784870778219 2.1413047313690186 0.0 0.0 0.0 0.0 0.0 0.0 1 False False
5181.876 3.7120862007141113 -0.8254304093173523 0.8429802099810999 -1.5882889233031214 -1.5707281271563929 2.1412839889526367 0.0 0.0 0.0 0.0 0.0 0.0 1 False False
5181.9259999999995 3.712132453918457 -0.8254750531962891 0.8429845015155237 -1.5882498226561488 -1.5707529226886194 2.1413040161132812 0.0 0.0 0.0 0.0 0.0 0.0 1 False False
5181.976 3.712045669555664 -0.8254556220820923 0.8429434935199183 -1.5882774792113246 -1.5707572142230433 2.141308546066284 0.0 0.0 0.0 0.0 0.0 0.0 1 False False
5182.026 3.7120907306671143 -0.825425998573639 0.8429716269122522 -1.5883094273009242 -1.5707767645465296 2.1412885189056396 0.0 0.0 0.0 0.0 0.0 0.0 1 False False
5182.076 3.7120444774627686 -0.8254720133594056 0.8430126349078577 -1.588234087029928 -1.5707891623126429 2.141254425048828 0.0 0.0 0.0 0.0 0.0 0.0 1 False False
5182.126 3.7121191024780273 -0.8254169982722779 0.8430336157428187 -1.5883046589293421 -1.5707891623126429 2.141247034072876 0.0 0.0 0.0 0.0 0.0 0.0 1 False False
5182.1759999999995 3.712050199508667 -0.8255090874484559 0.8430174032794397 -1.5882932148375453 -1.570829216633932 2.141275405883789 0.0 0.0 0.0 0.0 0.0 0.0 1 False False
5182.226 3.7120697498321533 -0.8255083721927186 0.8430336157428187 -1.588268896142477 -1.5707967917071741 2.1413092613220215 0.0 0.0 0.0 0.0 0.0 0.0 1 False False
5182.276 3.7120862007141113 -0.8254958552173157 0.8430097738849085 -1.5883056126036585 -1.5707686583148401 2.141279697418213 0.0 0.0 0.0 0.0 0.0 0.0 1 False False
5182.326 3.7120981216430664 -0.8254379791072388 0.8430174032794397 -1.5883094273009242 -1.5707891623126429 2.141258955001831 0.0 0.0 0.0 0.0 0.0 0.0 1 False False
5182.376 3.712111473083496 -0.825437919502594 0.8429802099810999 -1.5882374248900355 -1.5707767645465296 2.141263484954834 0.0 0.0 0.0 0.0 0.0 0.0 1 False False
5182.4259999999995 3.712095260620117 -0.8255424064448853 0.842992130910055 -1.588280817071432 -1.5708449522601526 2.1412174701690674 0.0 0.0 0.0 0.0 0.0 0.0 1 False False
5182.476 3.712003707885742 -0.8254468005946656 0.8429673353778284 -1.5882288418211878 -1.5707805792437952 2.141279697418213 0.0 0.0 0.0 0.0 0.0 0.0 1 False False
5182.526 3.7120490074157715 -0.8254468005946656 0.8429845015155237 -1.588285585443014 -1.5707805792437952 2.1412885189056396 0.0 0.0 0.0 0.0 0.0 0.0 1 False False
5182.576 3.712036609649658 -0.8254794639400025 0.8430054823504847 -1.5882846317686976 -1.57074481645693 2.141308546066284 0.0 0.0 0.0 0.0 0.0 0.0 1 False False
5182.626 3.7120609283447266 -0.8255002659610291 0.8430097738849085 -1.5883494816222132 -1.5708087126361292 2.141291618347168 0.0 0.0 0.0 0.0 0.0 0.0 1 False False
5182.6759999999995 3.712132453918457 -0.825454370384552 0.8429845015155237 -1.5882817707457484 -1.5708444754229944 2.141312837600708 0.0 0.0 0.0 0.0 0.0 0.0 1 False False
5182.726 3.712062358856201 -0.8255002659610291 0.8429630438434046 -1.5882774792113246 -1.5708206335650843 2.141329288482666 0.0 0.0 0.0 0.0 0.0 0.0 1 False False
5182.776 3.7120490074157715 -0.8254467409900208 0.8430083433734339 -1.5882607899107875 -1.5707810560809534 2.141247272491455 0.0 0.0 0.0 0.0 0.0 0.0 1 False False
5182.826 3.7120535373687744 -0.8254216474345704 0.8430007139789026 -1.5882932148375453 -1.570784870778219 2.1412558555603027 0.0 0.0 0.0 0.0 0.0 0.0 1 False False
5182.876 3.7121145725250244 -0.8254869741252442 0.8429935614215296 -1.588297029534811 -1.5707886854754847 2.141270875930786 0.0 0.0 0.0 0.0 0.0 0.0 1 False False
5182.9259999999995 3.712078809738159 -0.8254750531962891 0.8429067770587366 -1.5882817707457484 -1.5708087126361292 2.141312837600708 0.0 0.0 0.0 0.0 0.0 0.0 1 True False
5182.976 3.712106943130493 -0.8254750531962891 0.8429935614215296 -1.5882650814452113 -1.570784870778219 2.1412546634674072 0.0 0.0 0.0 0.0 0.0 8.671622743696789e-21 1 True False
5183.026 3.7120862007141113 -0.8254468005946656 0.8429802099810999 -1.5883175335326136 -1.5707810560809534 2.1412665843963623 0.0 0.0 0.0 0.0 0.0 1.317220556465328e-39 1 True False
5183.076 3.7121026515960693 -0.825463132267334 0.8429754416095179 -1.588285585443014 -1.5707686583148401 2.1412720680236816 0.0 0.0 0.0 0.0 0.0 0.0 1 True False
5183.126 3.712062358856201 -0.8254675430110474 0.8429630438434046 -1.5882607899107875 -1.5708568731891077 2.1412558555603027 0.0 0.0 0.0 0.0 0.0 0.0 1 True False
5183.1759999999995 3.7120862007141113 -0.8254215878299256 0.8430097738849085 -1.5883013210692347 -1.570772949849264 2.141270875930786 0.0 0.0 0.0 0.0 0.0 0.0 1 True False
5183.226 3.7120535373687744 -0.8255247634700318 0.8430007139789026 -1.5883013210692347 -1.5707886854754847 2.141267776489258 0.0 0.0 0.0 0.0 0.0 0.0 1 True False
5183.276 3.7120535373687744 -0.8255128425410767 0.8430336157428187 -1.588245531121725 -1.570824925099508 2.141239643096924 0.0 0.0 0.0 0.0 0.0 0.0 1 True False
5183.326 3.7121310234069824 -0.8254452508739014 0.8429630438434046 -1.5882765255370082 -1.5708444754229944 2.141287088394165 0.0 0.0 0.0 0.0 0.0 0.0014044878771528602 1 True False
5183.376 3.7120742797851562 -0.8254333895495911 0.8429673353778284 -1.588245531121725 -1.5707767645465296 2.141287088394165 0.0 0.0 0.0 0.0 0.0 -3.535476207616739e-05 1 True False
5183.4259999999995 3.7120862007141113 -0.8254556220820923 0.8430174032794397 -1.5882817707457484 -1.5707362333880823 2.141268730163574 0.0 0.0 0.0 0.0 1.176261843482962e-08 -2.9311919558239197e-10 1 True False
5183.476 3.7120580673217773 -0.8254587215236207 0.8429563681231897 -1.5882774792113246 -1.5708125273333948 2.141295909881592 0.0 0.0 0.0 0.0 -1.0074070644350286e-07 -9.973414853448048e-05 1 True False
5183.526 3.7122702598571777 -0.8255618971637269 0.8431208769427698 -1.5883127651610316 -1.5708325544940394 2.1412320137023926 0.02442338690161705 -0.013664968311786652 0.02183348499238491 -0.00421882513910532 -0.00019137140770908445 -0.011479414068162441 1 True False
5183.576 3.7152762413024902 -0.826901988392212 0.845215145741598 -1.5890308819212855 -1.5708172957049769 2.1398801803588867 0.0926612839102745 -0.04508272558450699 0.0729198008775711 -0.02670086920261383 -2.865605779334146e-07 -0.041533008217811584 1 True False
5183.626 3.7218236923217773 -0.8302200597575684 0.8504927794085901 -1.5908171139159144 -1.5707929770099085 2.137056589126587 0.166096493601799 -0.08609852194786072 0.1300404667854309 -0.04420649632811546 -4.352861443746052e-26 -0.07577888667583466 1 True False
5183.6759999999995 3.7316718101501465 -0.8354975146106263 0.8581832090960901 -1.5935126743712367 -1.5708406607257288 2.132657766342163 0.23277989029884338 -0.12261836975812912 0.18186096847057343 -0.056126490235328674 -7.006492321624085e-45 -0.10519487410783768 1 True False
5183.726 3.7452666759490967 -0.8424197000316163 0.8686869780169886 -1.5968619785704554 -1.5707767645465296 2.1267130374908447 0.30171000957489014 -0.15328945219516754 0.2396954447031021 -0.07701465487480164 7.841311889933422e-05 -0.13406701385974884 1 True False
5183.776 3.761958599090576 -0.8511884373477479 0.8818710486041468 -1.6014353237547816 -1.5708330313311976 2.119267463684082 0.36948248744010925 -0.1900421530008316 0.28566643595695496 -0.0939936563372612 6.565516378032044e-05 -0.16235136985778809 1 True False
5183.826 3.7826013565063477 -0.8616013091853638 0.8976267019854944 -1.6069828472533167 -1.5707810560809534 2.1103146076202393 0.44109904766082764 -0.2326478660106659 0.34285470843315125 -0.12463434040546417 9.559075348133262e-18 -0.196757972240448 1 True False
5183.876 3.8063485622406006 -0.8738519114306946 0.9163840452777308 -1.6131345234312953 -1.5708044211017054 2.0998077392578125 0.5120018124580383 -0.2596287727355957 0.39362069964408875 -0.13747863471508026 -8.69167924975045e-05 -0.2250737100839615 1 True False
5183.9259999999995 3.833669662475586 -0.8879386943629761 0.9374149481402796 -1.6204587421812953 -1.5708611647235315 2.08760666847229 0.5768895745277405 -0.2975538372993469 0.4519331157207489 -0.1673080176115036 -2.5924280644905873e-21 -0.2567359507083893 1 True False
5183.976 3.8647003173828125 -0.9037011426738282 0.9615433851825159 -1.6286407909789027 -1.5707891623126429 2.0741076469421387 0.6470275521278381 -0.333439439535141 0.5034704804420471 -0.16762365400791168 -2.191615959401533e-16 -0.28376612067222595 1 True False
5184.026 3.8990516662597656 -0.9212994140437623 0.988128964100973 -1.6376491985716761 -1.570813004170553 2.0588347911834717 0.7176977396011353 -0.3656952977180481 0.5644940137863159 -0.1848379522562027 -2.3359270926448517e-05 -0.3122325539588928 1 True False
5184.076 3.9369258880615234 -0.9407624167254944 1.0176628271686 -1.647571702996725 -1.5707886854754847 2.042254686355591 0.7860307097434998 -0.40490132570266724 0.6159377098083496 -0.21445760130882263 -0.0002673300332389772 -0.3498828113079071 1 True False
5184.126 3.9782726764678955 -0.9619399470141907 1.0497868696795862 -1.6585260830321253 -1.570772949849264 2.0238921642303467 0.866630494594574 -0.43288081884384155 0.6703424453735352 -0.22058792412281036 -2.4029847210671207e-21 -0.37728798389434814 1 True False
5184.1759999999995 4.023139476776123 -0.9849533599666138 1.0845277945147913 -1.6704102955260218 -1.570784870778219 2.0042285919189453 0.9261431694030762 -0.4788123369216919 0.7249420285224915 -0.2514781057834625 -1.4295510576082388e-14 -0.4133271276950836 1 True False
5184.226 4.071457386016846 -1.009714500313141 1.1222108046161097 -1.6832081280150355 -1.570756737385885 1.982912302017212 1.0051575899124146 -0.5150362253189087 0.7812325358390808 -0.2738337814807892 -2.1714912652869887e-33 -0.44317954778671265 1 True False
5184.276 4.123212814331055 -1.0362033408931275 1.1623056570636194 -1.6968170605101527 -1.5707734266864222 1.9600859880447388 1.0481116771697998 -0.5370209813117981 0.8159567713737488 -0.28251537680625916 -0.0 -0.46211007237434387 1 True False
5184.326 4.175439357757568 -1.06300242364917 1.2029808203326624 -1.7105418644347132 -1.5707686583148401 1.9369490146636963 1.047098994255066 -0.5356844663619995 0.8151549696922302 -0.28088828921318054 9.324133316113148e-06 -0.4603867530822754 1 True False
5184.376 4.22776460647583 -1.0898782473853608 1.2434890905963343 -1.7243792019286097 -1.5707929770099085 1.9139986038208008 1.0495030879974365 -0.5349575281143188 0.8145714998245239 -0.28082141280174255 -7.847172673791647e-05 -0.4658122956752777 1 True False
5184.4259999999995 4.280154705047607 -1.116639421587326 1.2840898672686976 -1.7383696041502894 -1.570813004170553 1.8909977674484253 1.0419210195541382 -0.5366191864013672 0.8144921064376831 -0.2827858030796051 -1.191987287134131e-23 -0.4640069007873535 1 True False
5184.476 4.332576751708984 -1.1436291497996827 1.3248737494098108 -1.752254148522848 -1.5707605520831507 1.8678269386291504 1.0488896369934082 -0.5380067229270935 0.8088060021400452 -0.2869186997413635 -4.912490858544061e-09 -0.4590936005115509 1 True False
5184.526 4.384866714477539 -1.1704415541938324 1.3653891722308558 -1.765897890130514 -1.570813004170553 1.8446301221847534 1.0540505647659302 -0.5409132242202759 0.8126369714736938 -0.2747500538825989 2.4119129003047357e-13 -0.46296730637550354 1 True False
5184.576 4.4368696212768555 -1.196934388285019 1.4057181517230433 -1.7795516453185023 -1.5707362333880823 1.8219480514526367 1.007430911064148 -0.5165285468101501 0.7840384244918823 -0.2950478494167328 0.00032968982122838497 -0.44986018538475037 1 True False
5184.626 4.485523223876953 -1.221937583093979 1.4437344709979456 -1.7924415073790492 -1.5707891623126429 1.8004299402236938 0.9453388452529907 -0.4800238013267517 0.731165885925293 -0.26325976848602295 -1.9939809803304342e-08 -0.41533163189888 1 True False
5184.6759999999995 4.530814170837402 -1.2452060145190735 1.4787548224078577 -1.804436822930807 -1.5708282629596155 1.7803605794906616 0.8693068027496338 -0.4506872296333313 0.6793364882469177 -0.2216152846813202 -0.00032118154922500253 -0.38289666175842285 1 True False
5184.726 4.572536945343018 -1.2667208772948761 1.5111845175372522 -1.8155561886229457 -1.570801083241598 1.762104868888855 0.8024994730949402 -0.4139719307422638 0.6209942698478699 -0.20871099829673767 0.0002199207665398717 -0.3585088849067688 1 True False
5184.776 4.610962867736816 -1.2862846714309235 1.5409777800189417 -1.8255063496031703 -1.5707891623126429 1.745133876800537 0.7298898100852966 -0.3785521984100342 0.5649522542953491 -0.1978844702243805 0.00026415911270305514 -0.3172043561935425 1 True False
5184.826 4.645638942718506 -1.3040153843215485 1.5680645147906702 -1.8346620998778285 -1.5707925001727503 1.7298227548599243 0.6613292098045349 -0.34200426936149597 0.5197572708129883 -0.18879976868629456 -0.00025131506845355034 -0.29040762782096863 1 True False
5184.876 4.6769328117370605 -1.3202409011176606 1.592212978993551 -1.843145032922262 -1.570829216633932 1.7159157991409302 0.590729832649231 -0.3025903105735779 0.45764046907424927 -0.14993050694465637 -0.0002425221900921315 -0.25432881712913513 1 True False
5184.9259999999995 4.704792499542236 -1.334306539302208 1.6139867941485804 -1.8502770862975062 -1.5708416144000452 1.7037489414215088 0.5193656086921692 -0.26761072874069214 0.399187296628952 -0.14459271728992462 -0.00021229792037047446 -0.2347177416086197 1 True False
5184.976 4.729266166687012 -1.346928135757782 1.6327531973468226 -1.85687317470693 -1.570772949849264 1.6930180788040161 0.4491601288318634 -0.22651700675487518 0.35248538851737976 -0.11278063803911209 0.000521019974257797 -0.20118804275989532 1 True False
5185.026 4.750162601470947 -1.3576216113618393 1.649015251790182 -1.8623506031432093 -1.5707648436175745 1.6838120222091675 0.38242921233177185 -0.20213401317596436 0.2957032024860382 -0.10713651031255722 0.000507428077980876 -0.16570329666137695 1 True False
5185.076 4.767443656921387 -1.3664309096387406 1.6625984350787562 -1.8666593037047328 -1.5708335081683558 1.6761994361877441 0.3175012469291687 -0.16145634651184082 0.2464897483587265 -0.07795556634664536 -0.00010472279973328114 -0.14013825356960297 1 True False
5185.126 4.781273365020752 -1.3735767614892502 1.6731532255755823 -1.8705440960326136 -1.5708211104022425 1.6701182126998901 0.24282801151275635 -0.1235729232430458 0.19175192713737488 -0.058752428740262985 -0.0001987418654607609 -0.1086028516292572 1 True False
5185.1759999999995 4.791569709777832 -1.3788325053504487 1.6812852064715784 -1.8732315502562464 -1.5708048979388636 1.6654973030090332 0.17591634392738342 -0.08961253613233566 0.13199396431446075 -0.04182375222444534 -4.3922289478359744e-05 -0.07851292937994003 1 True False
5185.226 4.798559665679932 -1.3825051200440903 1.686641041432516 -1.8751636944212855 -1.5708449522601526 1.6623846292495728 0.10114794224500656 -0.05398419499397278 0.08408351987600327 -0.022677341476082802 -3.847155676339753e-05 -0.045660600066185 1 True False
5185.276 4.801926612854004 -1.3841300767711182 1.6893132368670862 -1.875998159448141 -1.5708168188678187 1.6609119176864624 0.033358510583639145 -0.018580254167318344 0.02498934604227543 -0.010482939891517162 1.14197366840596e-10 -0.014824111945927143 1 True False
5185.326 4.802253246307373 -1.3841483306935807 1.6899226347552698 -1.876639028588766 -1.5708282629596155 1.6608166694641113 -0.001419653883203864 0.011805376037955284 0.025757180526852608 -0.03221426159143448 -0.0008276349981315434 0.00022287736646831036 1 True False
5185.376 4.8022308349609375 -1.3830043387464066 1.6922677198993128 -1.880125185052389 -1.5708368460284632 1.6608136892318726 0.00015493383398279548 0.03869592025876045 0.06722228974103928 -0.10870007425546646 0.0002111714129569009 -0.00078534462954849 1 True False
5185.4259999999995 4.802332401275635 -1.3803599786809464 1.6967833677874964 -1.8872066936888636 -1.5708282629596155 1.6607646942138672 0.0003679000656120479 0.06851799786090851 0.10806670784950256 -0.16854068636894226 4.522396557149477e-05 -0.0004890217678621411 1 True False
5185.476 4.802319049835205 -1.3763853919557114 1.7034462133990687 -1.8978926144041957 -1.5708087126361292 1.660740852355957 0.0003889207146130502 0.08909673243761063 0.15255039930343628 -0.24753344058990479 0.00012045715266140178 -0.0001856083545135334 1 True False
5185.526 4.802343368530273 -1.3712162387422104 1.7122934500323694 -1.9118477306761683 -1.5707805792437952 1.6607656478881836 0.00036075044772587717 0.11512579023838043 0.20147433876991272 -0.3189404606819153 0.00010310534707969055 -5.3080821089679375e-05 1 True False
5185.576 4.80233097076416 -1.3648829621127625 1.723325554524557 -1.9294506512083949 -1.5707805792437952 1.6607894897460938 0.00018257497868034989 0.13981732726097107 0.24260440468788147 -0.3751991093158722 6.936396675882861e-05 -3.0536586564267054e-05 1 True False
5185.626 4.8023176193237305 -1.3570737552693863 1.7368982473956507 -1.9504248104491175 -1.570772949849264 1.6607818603515625 0.0001629542966838926 0.16687698662281036 0.28393200039863586 -0.4526140093803406 5.95916026213672e-05 -1.0815354471560568e-05 1 True False
5185.6759999999995 4.802321910858154 -1.3480038952878495 1.7521575132953089 -1.9749647579588832 -1.5707967917071741 1.6607451438903809 0.00010894593287957832 0.19586977362632751 0.3353515565395355 -0.5220399498939514 2.15161212364743e-23 -7.677391552410257e-20 1 True False
5185.726 4.8023295402526855 -1.3378502589515229 1.7696998755084437 -2.002592702905172 -1.570784870778219 1.6607613563537598 0.00011034544877475128 0.19846084713935852 0.34498968720436096 -0.5482671856880188 3.2678280188054734e-42 -1.166197576290571e-38 1 True False
5185.776 4.802350997924805 -1.3285193008235474 1.7857826391803187 -2.028109212914938 -1.5708048979388636 1.660768985748291 6.840885180281475e-05 0.17660988867282867 0.3026278614997864 -0.4828934371471405 0.0 -0.0 1 True False
5185.826 4.802395820617676 -1.3204456132701416 1.7996719519244593 -2.05013432125234 -1.5708373228656214 1.660768985748291 4.9570029659662396e-05 0.15051814913749695 0.25372713804244995 -0.4172687232494354 0.0 -0.0 1 True False
5185.876 4.802321910858154 -1.3135002118400116 1.8114889303790491 -2.068664690057272 -1.5707767645465296 1.6607496738433838 0.0 0.12582363188266754 0.2188113033771515 -0.33951401710510254 0.0 -0.0 1 True False
5185.9259999999995 4.80239725112915 -1.3081112068942566 1.8210724035846155 -2.0837813816466273 -1.5707967917071741 1.6607073545455933 0.0 0.09715743362903595 0.16995510458946228 -0.2725585401058197 0.0 -0.0 1 True False
5185.976 4.8023552894592285 -1.3038416069797059 1.8283465544330042 -2.095393796960348 -1.5707805792437952 1.6607706546783447 0.0 0.07188966125249863 0.12142757326364517 -0.19823947548866272 0.0 2.7195455913897604e-05 1 True False
5186.026 4.802383899688721 -1.3007509273341675 1.8335297743426722 -2.1034256420531214 -1.5707805792437952 1.6607332229614258 0.0 0.048763684928417206 0.08222707360982895 -0.14404252171516418 0.0 1.1120750154081094e-11 1 True False
5186.076 4.8023176193237305 -1.2992061239532013 1.8363726774798792 -2.108011861840719 -1.5707605520831507 1.6607542037963867 0.0 0.02312871254980564 0.04167614504694939 -0.05652724951505661 0.0 1.6892442508887163e-30 1 True False
5186.126 4.8023552894592285 -1.2987411481193085 1.8371394316302698 -2.1092807255186976 -1.5707605520831507 1.660768985748291 0.0 -9.47049556998536e-06 0.0003778580285143107 0.001302671036683023 0.0 0.0 1 True False
5186.1759999999995 4.802374839782715 -1.2987693411162873 1.837104622517721 -2.1092244587340296 -1.5707648436175745 1.660768985748291 4.75040179406113e-43 -1.9063262721183466e-30 2.563893320110546e-33 -3.322432530694641e-05 0.0 0.0 1 True False
5186.226 4.802338600158691 -1.2987335485270997 1.8371170202838343 -2.109260698358053 -1.570784870778219 1.660698413848877 0.0 0.00011715185974026099 0.0 -7.72587227402255e-05 0.0 0.0 1 True False
5186.276 4.802338600158691 -1.2987380486777802 1.8372004667865198 -2.109272619287008 -1.5707686583148401 1.660768985748291 0.0 0.00037987998803146183 0.0 -0.00019377926946617663 0.0 0.0 1 True False
5186.326 4.802338600158691 -1.2987672251513978 1.837184254323141 -2.109220167199606 -1.5708087126361292 1.660757064819336 0.0 0.0004370647657196969 6.878532440168783e-05 -0.00023847524425946176 0.0 0.0 1 True False
5186.376 4.802280426025391 -1.298681066637375 1.8372038046466272 -2.1092807255186976 -1.5707967917071741 1.6607451438903809 0.0 0.00014196973643265665 5.972063081571832e-05 -0.00031246739672496915 0.0 0.0 1 True False
5186.4259999999995 4.802392959594727 -1.298681066637375 1.837175194417135 -2.1093045673766078 -1.570813004170553 1.6607407331466675 -2.6027220309532417e-11 9.994020365411416e-05 1.4052889175230296e-34 -0.00011551280476851389 0.0 0.0 1 True False
5186.476 4.802335739135742 -1.2987016302398224 1.8371780554400843 -2.1093207798399867 -1.570813004170553 1.660757064819336 0.0 8.178353891707957e-05 4.493481173994951e-05 -8.442798571195453e-05 0.0 0.0 1 True False
5186.526 4.802341938018799 -1.2986897093108674 1.8372486273394983 -2.109276433984274 -1.5707648436175745 1.6607526540756226 0.0 0.0 1.645402825501352e-30 -6.070081144571304e-05 0.0 0.0 1 True False
5186.576 4.802334308624268 -1.2986409825137635 1.8372190634356897 -2.109324117700094 -1.5707767645465296 1.6607853174209595 0.0 0.00013037917960900813 0.0 -7.936117411366148e-23 0.0 0.0 1 True False
5186.626 4.802346706390381 -1.2986853879741211 1.8371871153460901 -2.1093365154662074 -1.5707925001727503 1.6607779264450073 0.0 1.1946757726174742e-36 0.0 -1.20553706885864e-41 0.0 0.0 1 True False
5186.6759999999995 4.802338600158691 -1.298681066637375 1.8372400442706507 -2.109276433984274 -1.570801083241598 1.6607987880706787 0.0 0.0 0.0 -7.581451200167066e-08 0.0 0.0 1 True False
5186.726 4.802366733551025 -1.2988343101790925 1.8370955626117151 -2.1094242535033167 -1.5707972685443323 1.6608017683029175 0.0 -0.0015468110796064138 6.966250493123383e-11 -0.0006065598572604358 1.6637753788018017e-06 0.0009995355503633618 1 True False
5186.776 4.802368640899658 -1.2987205547145386 1.8370702902423304 -2.109471460381979 -1.5707772413836878 1.660752534866333 0.0 0.000148345046909526 0.00014451720926444978 -3.578117802049974e-10 1.6132017518011824e-18 -8.833202446112409e-05 1 True False
5186.826 4.802375793457031 -1.2987454694560547 1.8370464483844202 -2.1094676456847132 -1.570824925099508 1.6607764959335327 0.0 0.0006168761174194515 0.0003907513164449483 0.0007018993492238224 2.450457799212945e-37 -5.948874240857549e-05 1 True True
5186.876 4.802305698394775 -1.2991080445102234 1.8365543524371546 -2.1074935398497523 -1.5707686583148401 1.6608061790466309 0.0 -0.017219718545675278 -0.03561845049262047 0.06167375296354294 0.0 -2.7619515094556846e-05 1 True True
5186.9259999999995 4.802375793457031 -1.3009803158095856 1.8331745306598108 -2.102922102014059 -1.5708168188678187 1.6607451438903809 0.0 -0.058020271360874176 -0.0944477990269661 0.13103912770748138 0.0 -2.75258656756705e-07 1 True True
5186.976 4.8023223876953125 -1.3040572565845032 1.8278496901141565 -2.0941888294615687 -1.5708211104022425 1.6607154607772827 0.0 -0.07749880105257034 -0.13724389672279358 0.20697982609272003 0.0 -0.00011092040222138166 1 True True
5187.026 4.8023176193237305 -1.3085911136916657 1.8200190703021448 -2.0821081600584925 -1.5707891623126429 1.6607495546340942 0.0 -0.09562715142965317 -0.1689918041229248 0.26202675700187683 0.0 -7.60803377488628e-05 1 True True
5187.076 4.802401065826416 -1.3144143384746094 1.8100555578814905 -2.066838403741354 -1.570784870778219 1.6607942581176758 0.0 -0.12516836822032928 -0.21698102355003357 0.34750521183013916 0.0 -3.580916018108837e-05 1 True True
5187.126 4.802319049835205 -1.321272612815239 1.7982519308673304 -2.0477000675597132 -1.5707767645465296 1.660757064819336 0.0 -0.15029080212116241 -0.26310449838638306 0.4043887257575989 0.0 -2.3914501070976257e-05 1 True True
5187.1759999999995 4.802338600158691 -1.329558716421463 1.783943001423971 -2.0251981220641078 -1.5708211104022425 1.6607614755630493 0.0 -0.1778867542743683 -0.3052492141723633 0.4825187921524048 0.0 -5.920516897919836e-13 1 True True
5187.226 4.802298545837402 -1.3391673874906083 1.767628018056051 -1.9992910824217738 -1.5707967917071741 1.6607942581176758 0.0 -0.2028161734342575 -0.3502039909362793 0.5458759069442749 0.0 -8.993278222703272e-32 1 True True
5187.276 4.802342891693115 -1.34931035459552 1.7500703970538538 -1.9720622501769007 -1.5707925001727503 1.6607288122177124 0.0 -0.18697190284729004 -0.3309074938297272 0.5221238136291504 0.0 -0.0 1 True True
5187.326 4.802338600158691 -1.3579733234694977 1.735152546559469 -1.9477859936156214 -1.5708335081683558 1.6607614755630493 0.0 -0.16472825407981873 -0.27855050563812256 0.45506551861763 -8.254633061920288e-16 -0.0 1 True True
5187.376 4.802342891693115 -1.3656153839877625 1.7218993345843714 -1.9271570644774378 -1.570829216633932 1.6607109308242798 0.0 -0.14012081921100616 -0.23664599657058716 0.3812389671802521 -1.2538803089792005e-34 -0.0 1 True True
5187.4259999999995 4.802366733551025 -1.3718445760062714 1.711264435444967 -1.9100867710509242 -1.5708368460284632 1.6607942581176758 0.0 -0.11506880074739456 -0.19742271304130554 0.3122391700744629 -0.0 -0.0 1 True True
5187.476 4.802334308624268 -1.3769094806960602 1.7026036421405237 -1.8963057003416957 -1.5707925001727503 1.660719871520996 0.0 -0.08480620384216309 -0.15192750096321106 0.22768990695476532 -0.0 -0.0 1 True True
5187.526 4.802359580993652 -1.3805870127728959 1.6960886160479944 -1.8862234554686488 -1.5707967917071741 1.6607733964920044 0.0 -0.06110569089651108 -0.11378248035907745 0.1751590520143509 -0.0 -0.0 1 True True
5187.576 4.802375316619873 -1.383098528986313 1.6919196287738245 -1.879404207269186 -1.5707925001727503 1.6607451438903809 0.0 -0.03485139459371567 -0.06096034124493599 0.10468582808971405 -0.0 -0.0 1 True True
5187.626 4.802318096160889 -1.3843053591302414 1.689793888722555 -1.8764234981932582 -1.5708168188678187 1.6607451438903809 0.0 -0.012246477417647839 -0.019144674763083458 0.027635186910629272 -0.0 -0.0 1 True True
5187.6759999999995 4.801779747009277 -1.3843174588731308 1.6896699110614222 -1.8761960468687953 -1.5707772413836878 1.66065514087677 -0.04062831029295921 0.00027700417558662593 2.3255330994231826e-10 0.0001596336078364402 -0.0 -0.0065416391007602215 1 True True
5187.726 4.798089981079102 -1.3843261164477845 1.6896393934832972 -1.8760863743224085 -1.5707610289203089 1.6600924730300903 -0.11179221421480179 0.0016245851293206215 -0.003092341125011444 0.002978387987241149 -0.0 -0.011918548494577408 1 True True
5187.776 4.790642261505127 -1.3841694009355088 1.6893346945392054 -1.8760339222350062 -1.5708254019366663 1.6592012643814087 -0.17813797295093536 0.0036423183046281338 -0.0060414099134504795 0.0016661342233419418 -8.073631761362776e-05 -0.022566406056284904 1 True True
5187.826 4.779845714569092 -1.383932204251625 1.6890323797809046 -1.8760220013060511 -1.5707925001727503 1.6578558683395386 -0.2518656849861145 0.00721246050670743 -0.0074290381744503975 0.0012324409326538444 -5.57357125217095e-05 -0.03202217072248459 1 True True
5187.876 4.7655229568481445 -1.3835076850703736 1.6885774771319788 -1.8758427105345667 -1.5707486311541956 1.6560423374176025 -0.3164682984352112 0.008005117066204548 -0.009971513412892818 0.0014162416337057948 -0.00026343821082264185 -0.038694415241479874 1 True True
5187.9259999999995 4.747801303863525 -1.3831195843270798 1.6880906263934534 -1.8757392368712367 -1.5707648436175745 1.65372896194458 -0.39033761620521545 0.009095443412661552 -0.009036675095558167 0.003256375901401043 7.901352364569902e-05 -0.04757074639201164 1 True True
5187.976 4.726428031921387 -1.3826292318156739 1.687495533620016 -1.8756963215269984 -1.5707767645465296 1.6509435176849365 -0.45602500438690186 0.01036098226904869 -0.012717523612082005 0.00231770146638155 1.8833046851796098e-05 -0.058108169585466385 1 True True
5188.026 4.701643466949463 -1.3821147990277787 1.6868332068072718 -1.8755370579161585 -1.570784870778219 1.647759199142456 -0.5305207371711731 0.01337023638188839 -0.01576882228255272 0.002182394964620471 8.753272595640738e-06 -0.06858281791210175 1 True True
5188.076 4.673406600952148 -1.3814327281764527 1.6859834829913538 -1.875373979608053 -1.570772949849264 1.6441148519515991 -0.5990379452705383 0.01460727583616972 -0.017873607575893402 0.003984180279076099 1.329624168281497e-24 -0.07775339484214783 1 True True
5188.126 4.641809940338135 -1.3806471091559906 1.6850598494159144 -1.8751231632628382 -1.5707648436175745 1.6400502920150757 -0.6659941077232361 0.014860580675303936 -0.01903584413230419 0.0033377131912857294 0.0006449202192015946 -0.086443692445755 1 True True
5188.1759999999995 4.606583595275879 -1.379901961689331 1.6840317885028284 -1.8749357662596644 -1.5707529226886194 1.6355010271072388 -0.7371911406517029 0.01605546474456787 -0.019999563694000244 0.0058226874098181725 0.0007722040172666311 -0.09292573481798172 1 True True
5188.226 4.567883014678955 -1.37901724994693 1.682981316243307 -1.8747936687865199 -1.5708048979388636 1.6304950714111328 -0.8086658120155334 0.01721254736185074 -0.022867918014526367 0.006155342794954777 0.0005058485548943281 -0.10190068930387497 1 True True
5188.276 4.525606155395508 -1.3780219417861481 1.6817200819598597 -1.8744589291014613 -1.5708087126361292 1.6250219345092773 -0.8769709467887878 0.019897539168596268 -0.023830873891711235 0.007308810018002987 -9.4219773018267e-05 -0.11026640236377716 1 True True
5188.476 4.3263044357299805 -1.3734759253314515 1.675971810017721 -1.8733860454955042 -1.5708172957049769 1.5992814302444458 -1.042130470275879 0.024653583765029907 -0.03009825013577938 0.007131484337151051 -7.34393097445718e-06 -0.1366092711687088 1 True True
5188.526 4.274018287658691 -1.372232974772789 1.6745145956622522 -1.8730832539000453 -1.5708406607257288 1.5925012826919556 -1.0483038425445557 0.024605926126241684 -0.029651721939444542 0.004627977963536978 4.883393557975069e-06 -0.13247068226337433 1 True True
5188.576 4.221563816070557 -1.3710711759379883 1.6731475035296839 -1.8728252849974574 -1.5707452932940882 1.5857539176940918 -1.0439035892486572 0.024275055155158043 -0.028929507359862328 0.003994915634393692 0.00015557014557998627 -0.13254226744174957 1 True True
5188.626 4.169212818145752 -1.3697905552438279 1.6715500990497034 -1.8725277386107386 -1.570784870778219 1.5790619850158691 -1.0456231832504272 0.02361718937754631 -0.03215016424655914 0.007899180054664612 8.005422436063725e-10 -0.13651598989963531 1 True True
5188.6759999999995 4.116913795471191 -1.3685988050750275 1.6700833479510706 -1.8721772632994593 -1.5707810560809534 1.5722790956497192 -1.0520356893539429 0.02342992275953293 -0.030914824455976486 0.004448637366294861 6.320409738691524e-05 -0.13450439274311066 1 True True
5188.726 4.064499855041504 -1.3674259197762986 1.6685693899737757 -1.8718906841673792 -1.5708006064044397 1.5655077695846558 -1.0457199811935425 0.024370132014155388 -0.029596012085676193 0.005052241962403059 -1.0668623762200014e-09 -0.1375657021999359 1 True True
5188.776 4.012117862701416 -1.3662763845971604 1.6670845190631312 -1.871596475640768 -1.5707810560809534 1.558802604675293 -1.0440821647644043 0.02276916801929474 -0.02766495570540428 0.008240929804742336 -4.788761089002946e-06 -0.1354103833436966 1 True True
5188.826 3.9598193168640137 -1.3650215429118653 1.6655991713153284 -1.8713065586485804 -1.5708330313311976 1.5520375967025757 -1.0504928827285767 0.023990480229258537 -0.03177462890744209 0.005946700926870108 1.5697631283728697e-07 -0.13692545890808105 1 True True
5188.876 3.907374143600464 -1.363804043536522 1.6640265623675745 -1.8710085354247035 -1.5707967917071741 1.5452513694763184 -1.0489751100540161 0.024580081924796104 -0.0317961685359478 0.005689515732228756 -1.8785362154716267e-10 -0.13246572017669678 1 True True
5188.9259999999995 3.8550126552581787 -1.3626617205194016 1.6624982992755335 -1.8707224331297816 -1.5707929770099085 1.5385551452636719 -1.0461583137512207 0.023775728419423103 -0.02922178991138935 0.00756167434155941 -2.853500236248216e-29 -0.13652367889881134 1 True True
5188.976 3.8026890754699707 -1.3613976401141663 1.6610243956195276 -1.8704363308348597 -1.5707491079913538 1.5317496061325073 -1.0513135194778442 0.023860124871134758 -0.027442332357168198 0.005794914439320564 -0.0 -0.13566678762435913 1 True True
5189.026 3.7503013610839844 -1.3601772797158738 1.6595514456378382 -1.8701611957945765 -1.5707767645465296 1.524941325187683 -1.0490684509277344 0.025359589606523514 -0.02749285101890564 0.004609307739883661 -0.0 -0.13635586202144623 1 True True
5189.076 3.6979753971099854 -1.358937532906868 1.658060375844137 -1.8698917828001917 -1.5707529226886194 1.518243670463562 -1.0445365905761719 0.02345241978764534 -0.03274855390191078 0.004787038546055555 -0.0 -0.13814187049865723 1 True True
5189.126 3.6456377506256104 -1.3578444582274933 1.656522576008932 -1.8695818386473597 -1.5708687941180628 1.511506199836731 -1.0493824481964111 0.023979417979717255 -0.030006418004631996 0.005868655629456043 -1.958669771512378e-13 -0.14146700501441956 1 True True
5189.1759999999995 3.593337059020996 -1.356571377520897 1.6550663153277796 -1.8692637882628382 -1.570784870778219 1.5046979188919067 -1.0490390062332153 0.026371067389845848 -0.03125417232513428 0.005883088801056147 -4.016882104718178e-10 -0.13808442652225494 1 True True
5189.226 3.5408525466918945 -1.3553676468184968 1.6535924116717737 -1.8689767322936 -1.5707605520831507 1.4979660511016846 -1.0409033298492432 0.024131420999765396 -0.031015729531645775 0.006591286975890398 -0.00010609481978463009 -0.13200044631958008 1 True True
5189.276 3.4885663986206055 -1.3542057585767289 1.6521475950824183 -1.8686191044249476 -1.5708006064044397 1.4912245273590088 -1.0497194528579712 0.024523017928004265 -0.02903151698410511 0.00525255361571908 -1.3310040681511212e-15 -0.13700412213802338 1 True True
5189.326 3.436188220977783 -1.3529866945794602 1.6506879965411585 -1.8684050045409144 -1.570813004170553 1.484403371810913 -1.04783296585083 0.024466797709465027 -0.03361840173602104 0.004978310316801071 -2.021798166770265e-34 -0.13468609750270844 1 True True
5189.376 3.3839333057403564 -1.3518068057349701 1.6490743795977991 -1.868110796014303 -1.5707529226886194 1.47765052318573 -1.0269414186477661 0.02305435575544834 -0.027971692383289337 0.007336611859500408 -0.0 -0.13083064556121826 1 True True
5189.4259999999995 3.3338632583618164 -1.3506552290967484 1.6476476828204554 -1.867760797540182 -1.5708211104022425 1.4712103605270386 -0.9713696837425232 0.021288543939590454 -0.02744663879275322 0.004397132899612188 0.0001668924087425694 -0.12261050939559937 1 True True
5189.476 3.2871673107147217 -1.3495022815516968 1.646334473286764 -1.867458005944723 -1.570772949849264 1.4652214050292969 -0.8967047333717346 0.020974107086658478 -0.023958053439855576 0.00610337732359767 0.0009455077233724296 -0.1151730865240097 1 True True
5189.526 3.2440268993377686 -1.3485654157451172 1.6451123396502894 -1.8672310314574183 -1.5708168188678187 1.4596174955368042 -0.8312072157859802 0.019500067457556725 -0.024241210892796516 0.006257875356823206 5.298060323788434e-10 -0.10974068939685822 1 True True
5189.576 3.2043116092681885 -1.3476568919471283 1.6439197699176233 -1.8670960865416468 -1.570801083241598 1.454493761062622 -0.7577615976333618 0.016633974388241768 -0.02236947976052761 0.005348894279450178 -5.565041647059843e-05 -0.09741266071796417 1 True True
5189.626 3.168210506439209 -1.3468576681664963 1.6429126898394983 -1.8667823276915492 -1.5707891623126429 1.4498213529586792 -0.6862344741821289 0.013966287486255169 -0.0197562538087368 0.005748689640313387 -8.4305148422411575e-22 -0.08805524557828903 1 True True
5189.6759999999995 3.1356112957000732 -1.3460871142200013 1.6420086065875452 -1.8666116199889125 -1.5707324186908167 1.4456795454025269 -0.6171895861625671 0.014342471025884151 -0.015249067917466164 0.0034867743961513042 1.764884574911416e-19 -0.0811060220003128 1 True True
5189.726 3.106464147567749 -1.345461682682373 1.6411598364459437 -1.8665043316283167 -1.5707972685443323 1.441814661026001 -0.5473172068595886 0.011159072630107403 -0.01534956507384777 0.0032018357887864113 -1.0560121666003397e-09 -0.06952044367790222 1 True True
5189.776 3.0808377265930176 -1.3448142272285004 1.6404593626605433 -1.8663531742491664 -1.570772949849264 1.438603162765503 -0.4781789779663086 0.010249937884509563 -0.012611030600965023 0.0037496578879654408 0.0007867247331887484 -0.06088544800877571 1 True True
5189.826 3.05871844291687 -1.3443551820567627 1.639810864125387 -1.866225381890768 -1.5707486311541956 1.435655951499939 -0.40627774596214294 0.007434706203639507 -0.010377654805779457 0.003534454619511962 0.00042003460112027824 -0.05273357406258583 1 True True
5189.876 3.039874792098999 -1.3438902509263535 1.639263931904928 -1.866133829156393 -1.5707767645465296 1.433261513710022 -0.3373398780822754 0.008689088746905327 -0.008715620264410973 0.0016992324963212013 -0.00015392943168990314 -0.04369089752435684 1 True True
5189.9259999999995 3.0247092247009277 -1.3435828995755692 1.6388815085040491 -1.8660465679564417 -1.5707805792437952 1.4313623905181885 -0.2731902301311493 0.006874866783618927 -0.007665667682886124 0.0009112289408221841 -6.289400579122176e-20 -0.03345134109258652 1 True True
5189.976 3.012943744659424 -1.343305767779686 1.638583008443014 -1.8659922085204066 -1.570801083241598 1.4298584461212158 -0.19791695475578308 0.004295752849429846 -0.005843293387442827 0.0009981737239286304 9.928950023274652e-14 -0.028122086077928543 1 True True
5190.026 3.004847288131714 -1.3431514364532013 1.6383736769305628 -1.8659197292723597 -1.570784870778219 1.4287304878234863 -0.13199104368686676 0.0025749364867806435 -0.005537767428904772 0.0010804799385368824 1.5082105330460495e-32 -0.016502192243933678 1 True True
5190.076 3.000155448913574 -1.3430476945689698 1.6381238142596644 -1.8659078083434046 -1.5707891623126429 1.4282368421554565 -0.059907201677560806 0.0013030448462814093 -0.0016547500854358077 0.0007993263425305486 0.0 -0.0062595997005701065 1 True True
5190.126 2.9987926483154297 -1.3429923367551346 1.6380599180804651 -1.8659035168089808 -1.5708087126361292 1.428092360496521 2.333926022402011e-05 0.014403312467038631 0.004600962623953819 -0.003688203636556864 0.0 -0.00026330063701607287 1 True True
5190.1759999999995 2.9988346099853516 -1.3419170540622254 1.639289681111471 -1.8681956730284632 -1.570824925099508 1.4280130863189697 -0.0007024293299764395 0.027955187484622 0.05066344141960144 -0.08880741149187088 -0.00018077869026456028 -0.0019245031289756298 1 True True
5190.226 2.998825788497925 -1.3400105100921174 1.6428683439837855 -1.8739191494383753 -1.5708168188678187 1.428017497062683 -0.0005826788838021457 0.05408136919140816 0.10168160498142242 -0.13997387886047363 -0.0001085653857444413 -0.0003901830059476197 1 True True
5190.276 2.998783588409424 -1.3367148798755188 1.6490901152240198 -1.8831902943053187 -1.5707767645465296 1.4279683828353882 -0.0007032677531242371 0.07716063410043716 0.14414004981517792 -0.23047544062137604 -5.787359259556979e-05 -0.00015046850603539497 1 True True
5190.326 2.9987599849700928 -1.332141788010933 1.6571891943561 -1.8959037266173304 -1.570756737385885 1.4279934167861938 -0.0004981840611435473 0.1059214249253273 0.18545852601528168 -0.29199865460395813 -5.025615246267989e-05 -8.868284930940717e-05 1 True True
5190.376 2.9987435340881348 -1.3263166856816788 1.6678407827960413 -1.9121304951109828 -1.570784870778219 1.4279520511627197 -0.0002008845331147313 0.13061641156673431 0.22658072412014008 -0.36112886667251587 -9.829177471942785e-10 -6.286958523560315e-05 1 True True
5190.4259999999995 2.9988226890563965 -1.3191619676402588 1.6802204290973108 -1.9318729839720667 -1.5707891623126429 1.4280264377593994 -9.559868340147659e-05 0.1537345051765442 0.2774488925933838 -0.4354756474494934 -6.711020978400484e-05 -2.2138135232963584e-20 1 True True
5190.476 2.9987852573394775 -1.310739205484726 1.695223633443014 -1.955069204370016 -1.5708325544940394 1.4279654026031494 -9.32955153984949e-05 0.17516034841537476 0.3171776533126831 -0.4937630593776703 -3.055541125904248e-16 -3.362788410538909e-39 1 True True
5190.526 2.9987852573394775 -1.3011394304088135 1.7120712439166468 -1.9817201099791468 -1.5707925001727503 1.4279711246490479 -6.14473465248011e-05 0.20188705623149872 0.3604974150657654 -0.5713679790496826 -4.6413717155433857e-35 -0.0 1 True True
5190.576 2.9987852573394775 -1.2917907697013398 1.7289827505694788 -2.0080348453917445 -1.570801083241598 1.4280023574829102 -1.678531407378614e-05 0.17904700338840485 0.31348735094070435 -0.5094161033630371 3.1135558575812183e-09 -0.0 1 True True
5190.626 2.9987940788269043 -1.283392922287323 1.743441406880514 -2.0309421024718226 -1.5708168188678187 1.4279800653457642 0.0 0.1503574401140213 0.2705633342266083 -0.4317546784877777 4.729497979229471e-28 -0.0 1 True True
5190.6759999999995 2.9987688064575195 -1.2763792735389252 1.755852524434225 -2.0502706966795863 -1.5707605520831507 1.4279932975769043 0.0 0.12400774657726288 0.23146291077136993 -0.36221274733543396 0.0 -0.0 1 True True
5190.726 2.9988059997558594 -1.2707232397845765 1.7660287062274378 -2.066129823724264 -1.5708168188678187 1.4279520511627197 0.0 0.104278564453125 0.17592500150203705 -0.2742553949356079 0.0 -0.0 1 True True
5190.776 2.9987688064575195 -1.2661606532386322 1.7738564650165003 -2.078454156915182 -1.5707648436175745 1.4279711246490479 0.0 0.07959125190973282 0.14029452204704285 -0.2147125005722046 0.0 -0.0 1 True True
5190.826 2.9987568855285645 -1.263101951485016 1.779541317616598 -2.0873576603331507 -1.5707967917071741 1.4279978275299072 0.0 0.05144866183400154 0.0919894427061081 -0.1366419494152069 0.0 -0.0 1 True True
5190.876 2.9987852573394775 -1.2611092788032074 1.7830255667315882 -2.0928546390929164 -1.57090932527651 1.4279890060424805 0.0 0.024582630023360252 0.047154780477285385 -0.0829789787530899 -0.0023732143454253674 -1.100465794556356e-24 1 True True
5190.9259999999995 2.998821258544922 -1.2608761352351685 1.7837126890765589 -2.094950338403219 -1.5708087126361292 1.4279967546463013 4.5187323848949745e-05 0.0009982112096622586 0.0027105689514428377 -0.005676795728504658 2.0852505486224082e-11 -1.8142857527436718e-07 1 True True
5190.976 2.9987645149230957 -1.2607461971095582 1.7837351004229944 -2.0949818096556605 -1.57082444826235 1.4279521703720093 -7.733120061114987e-28 0.005787024274468422 0.006004692520946264 0.00022697754320688546 3.1675006194206574e-30 -2.7559034450194887e-26 1 True True
5191.026 2.9987895488739014 -1.259971634750702 1.784701172505514 -2.094527383843893 -1.5707805792437952 1.4279521703720093 0.0 0.01590910740196705 0.02883680909872055 0.02922762557864189 0.0 -2.6857421175918716e-08 1 True True
5191.076 2.9988181591033936 -1.2600561839393158 1.7846625486956995 -2.0944887600340785 -1.5707648436175745 1.4279413223266602 0.0 -0.010879873298108578 -0.019914399832487106 -0.026258479803800583 -8.03238435764797e-05 -0.0009639707277528942 1 True False
5191.126 2.9988181591033936 -1.260181651716568 1.7846205870257776 -2.0945245228209437 -1.5707810560809534 1.4279967546463013 0.0 -0.008809198625385761 -0.007438838481903076 1.029337468594349e-07 -1.2404679962419366e-21 -7.990812872504804e-11 1 True False
5191.1759999999995 2.9988059997558594 -1.260338769560196 1.7844503561602991 -2.0946203670897425 -1.570801083241598 1.4279800653457642 0.0 -0.0021568527445197105 -0.003951256163418293 -0.00043821532744914293 -1.8842699930390085e-40 -2.409236188327668e-08 1 True False
5191.226 2.998810291290283 -1.2603751879981537 1.7844207922564905 -2.0947476826109828 -1.5708211104022425 1.4280056953430176 0.0 -0.00015260756481438875 -0.0007244277512654662 -0.0004948817077092826 -0.0 -3.659635132141115e-27 1 True False
5191.276 2.998792886734009 -1.2604231995395203 1.784313980733053 -2.09470333675527 -1.570784870778219 1.4279800653457642 0.0 -6.324192509055138e-05 -0.00013922115613240749 -0.00011932040069950745 -0.0 -0.0 1 True False
5191.326 2.998792886734009 -1.2610429984382172 1.7833150068866175 -2.0934182606139125 -1.570801083241598 1.4279890060424805 0.0 -0.023483287543058395 -0.04048926383256912 0.06495301425457001 -6.004360506459452e-23 -0.0 1 True False
5191.376 2.9987852573394775 -1.2626568239978333 1.780245606099264 -2.0882770023741664 -1.5708416144000452 1.427960991859436 0.0 -0.04659828171133995 -0.08948375284671783 0.13857871294021606 -9.442582813790068e-05 -0.0 1 True False
5191.4259999999995 2.9988181591033936 -1.2656368774226685 1.774919335042135 -2.079829832116598 -1.5708168188678187 1.428017497062683 0.0 -0.07294511795043945 -0.12539614737033844 0.21384021639823914 -8.670722309034318e-05 -0.0 1 True False
5191.476 2.998805046081543 -1.2700743538192292 1.7671836058246058 -2.068124910394186 -1.5708335081683558 1.4280011653900146 0.0 -0.10016237199306488 -0.17819109559059143 0.27706292271614075 -2.7782184885971617e-10 -0.0 1 True False
5191.526 2.9988298416137695 -1.2755036813071747 1.757411305104391 -2.0524898968138636 -1.5707967917071741 1.4280219078063965 0.0 -0.12463650107383728 -0.21907643973827362 0.34337490797042847 -5.4736978199798614e-05 -0.0 1 True False
5191.576 2.9987971782684326 -1.282412902717926 1.7453015486346644 -2.0337239704527796 -1.5707886854754847 1.4280338287353516 0.0 -0.14534634351730347 -0.26089197397232056 0.4139237105846405 -7.969111788075685e-18 -0.0 1 True False
5191.826 2.9988014698028564 -1.325364128952362 1.669262711201803 -1.9146391354002894 -1.570801083241598 1.4279522895812988 0.0 -0.1334758698940277 -0.2352689802646637 0.37398144602775574 0.0 -0.0 1 True False
5191.876 2.998760461807251 -1.3313749593547364 1.6584585348712366 -1.8978315792479457 -1.5707643667804163 1.4280130863189697 0.0 -0.1098850667476654 -0.1861940175294876 0.29670944809913635 0.0 -0.0 1 True False
5191.9259999999995 2.99877667427063 -1.3361417067101975 1.6501448790179651 -1.884684225121969 -1.5707486311541956 1.428017497062683 0.0 -0.08307956159114838 -0.1483411341905594 0.23286548256874084 0.0 -0.0 1 True False
5191.976 2.998772382736206 -1.339703769688942 1.643940273915426 -1.8750306568541468 -1.5708325544940394 1.4280011653900146 0.0 -0.05685959383845329 -0.10260768234729767 0.15393510460853577 0.0 -0.0 1 True False
5192.026 2.998788595199585 -1.3419258755496521 1.6399109999286097 -1.8688365421690882 -1.570813004170553 1.4280011653900146 0.0 -0.03365952894091606 -0.05935988202691078 0.08985476195812225 0.0 -0.0 1 True False
5192.076 2.9988014698028564 -1.342887670998909 1.6383078734027308 -1.8659879169859828 -1.5708211104022425 1.428005576133728 0.0 -0.005015392322093248 -0.013171009719371796 0.01947658695280552 0.0 -0.0 1 True False
5192.126 2.9987809658050537 -1.342859463100769 1.638176743184225 -1.8659559688963832 -1.5708211104022425 1.4280219078063965 0.0 1.7174137769406705e-33 -2.614786459615314e-25 -0.00012128346133977175 0.0 -0.0 1 False False
5192.1759999999995 2.998764753341675 -1.3429543238929291 1.6381819883929651 -1.865892072717184 -1.570801083241598 1.4279890060424805 0.0 0.0 -0.001019142335280776 -4.5161981688579544e-05 0.0 -0.0 1 False False
5192.226 2.99877667427063 -1.3428507310203095 1.6380317846881312 -1.8659402332701625 -1.570801083241598 1.427984595298767 0.0 -0.0007965678232721984 -0.0008602390298619866 -2.775231587293092e-05 0.0 -0.0 1 False False
5192.276 2.9987809658050537 -1.3429605227759858 1.6381285826312464 -1.8658720455565394 -1.5707648436175745 1.4279801845550537 0.0 -0.0003963104682043195 -0.00019674969371408224 -2.079789283015998e-07 0.0 -0.0 1 False False
5192.326 2.9988014698028564 -1.3429431033185502 1.6381104628192347 -1.8658958874144496 -1.570756737385885 1.428049921989441 0.0 -0.0001832090347306803 -0.00013159445370547473 -3.1592045768794466e-26 0.0 -0.0 1 False False
5192.376 2.9988341331481934 -1.3429474544576188 1.6380704084979456 -1.8659116230406703 -1.5707891623126429 1.4279686212539673 0.0 -0.0001487570407334715 -8.644952322356403e-05 -4.203895392974451e-45 0.0 -0.0 1 False False
5192.4259999999995 2.998805046081543 -1.3429474395564576 1.6380775610553187 -1.8659078083434046 -1.5707891623126429 1.428017497062683 0.0 -9.773648343980312e-05 -1.77770016589196e-13 8.281655755126849e-05 0.0 -0.0 1 False False
5192.476 2.998727798461914 -1.3429684054902573 1.6380942503558558 -1.865892072717184 -1.570801083241598 1.4280219078063965 0.0 -4.7767192882020026e-05 -4.189882408331203e-43 6.992848648224026e-05 0.0 -0.0 1 False False
5192.526 2.998764753341675 -1.3429561716369172 1.6380613485919397 -1.8659278355040492 -1.5707886854754847 1.4279568195343018 0.0 -4.415895091369748e-05 -2.8685238320953765e-14 8.54574183227659e-14 0.0 -0.0 1 False False
5192.576 2.9987523555755615 -1.34295970321212 1.6380451361285608 -1.86586393932485 -1.5707724730121058 1.4280412197113037 0.0 -8.507422434139134e-37 -6.726232628759122e-44 1.2981003217913722e-32 0.0 -0.0 1 False False
5192.626 2.998809337615967 -1.3429640096477051 1.6380460898028772 -1.8659278355040492 -1.5708091894732874 1.4279773235321045 0.0 0.0 -0.0 1.695720522549085e-13 0.0 -0.0 1 False False
5192.6759999999995 2.9987971782684326 -1.3429597330144425 1.6380537191974085 -1.865920206109518 -1.570813004170553 1.4279481172561646 0.0 0.0 -0.0 2.5758031717336883e-32 0.0 -0.0 1 False False
5192.726 2.9987733364105225 -1.3429605078748246 1.6380279699908655 -1.8659359417357386 -1.5708168188678187 1.4279975891113281 0.0 0.0 -0.0 0.0 0.0 -0.0 1 False False
5192.776 2.99880051612854 -1.3429474544576188 1.6380279699908655 -1.8658720455565394 -1.5707925001727503 1.4279643297195435 0.0 0.0 -0.0 0.0 0.0 -0.0 1 False False
5192.826 2.9987971782684326 -1.3429770332625885 1.638057057057516 -1.8658720455565394 -1.570829216633932 1.4279643297195435 0.0 0.0 -0.0 0.0 0.0 -0.0 1 False False
5192.876 2.9987645149230957 -1.3429684054902573 1.6381223837481897 -1.8658720455565394 -1.5707891623126429 1.4279816150665283 0.0 0.0 -0.0 0.0 0.0 -0.0 1 False False
5192.9259999999995 2.998767375946045 -1.3429149699262162 1.638068977986471 -1.8658520183958949 -1.5707805792437952 1.4280260801315308 0.0 0.0 -0.0 0.0 0.0 -0.0 1 False False
5192.976 2.9988105297088623 -1.342951850300171 1.6380370298968714 -1.865896841088766 -1.5707805792437952 1.4279890060424805 0.0 0.0 -0.0 0.0 0.0 -0.0 1 False False
5193.026 2.9987971782684326 -1.342959688310959 1.6380494276629847 -1.8659035168089808 -1.570784870778219 1.4279600381851196 0.0 0.0 -0.0 0.0 0.0 -0.0 1 True False
5193.076 2.998767375946045 -1.3429640096477051 1.6381223837481897 -1.8658515415587367 -1.5707967917071741 1.4279600381851196 0.0 -1.6330169501088676e-06 -0.0 0.0 0.0 -0.0 1 True False
5193.126 2.9987807273864746 -1.3429759305766602 1.6380913893329065 -1.865875860253805 -1.570784870778219 1.4280097484588623 0.0 0.0 -0.0 0.0 0.0 5.1023375927369076e-21 1 True False
5193.1759999999995 2.9987971782684326 -1.3429562163404007 1.6380656401263636 -1.8659078083434046 -1.5707967917071741 1.4279968738555908 0.0 0.0 -0.0 0.0 0.0 4.0962357161333784e-05 1 True False
5193.226 2.998776435852051 -1.3429312270930787 1.638057057057516 -1.8658677540221156 -1.5707810560809534 1.4280097484588623 0.0 0.0 -0.0 0.0 0.0 2.6107800294994377e-05 1 True False
5193.276 2.9987971782684326 -1.3430214387229462 1.638068977986471 -1.8658763370909632 -1.570813004170553 1.4279968738555908 0.0 0.0 -0.0 0.0 0.0 1.5007641351871825e-08 1 True False
5193.326 2.9988062381744385 -1.3429474246552964 1.6380942503558558 -1.8659197292723597 -1.5708006064044397 1.4279890060424805 0.0 0.0 -0.0 0.0 0.0 2.2796645343078673e-27 1 True False
5193.376 2.9987881183624268 -1.343021572833397 1.6380775610553187 -1.8659278355040492 -1.5708206335650843 1.4279882907867432 0.0 0.0 -0.0 0.0 0.0 0.0 1 True False
5193.4259999999995 2.998825788497925 -1.342996509080269 1.638068977986471 -1.865920206109518 -1.5708769003497522 1.4279882907867432 0.0 0.0 -0.0 0.0 0.0 0.0 1 True False
5193.476 2.998783588409424 -1.342931182389595 1.6380446592914026 -1.865892072717184 -1.5708048979388636 1.4279601573944092 0.0 2.485179314967214e-28 -0.0 0.0 0.0 0.0006826688186265528 1 True False
5193.526 2.9987688064575195 -1.3429846328547974 1.6380823294269007 -1.86588778118276 -1.5708168188678187 1.4279358386993408 0.0 -7.673411207365534e-30 3.952243423555046e-05 0.0 5.3762531243017445e-24 0.00016875028086360544 1 True False
5193.576 2.9987642765045166 -1.342951850300171 1.638097111378805 -1.8658887348570765 -1.5708525816546839 1.4280140399932861 0.0 0.0 1.8996104699908756e-05 0.0 -0.0002396902273176238 6.46787952973682e-07 1 True False
5193.626 2.9988138675689697 -1.3429344606450577 1.638064209614889 -1.8658720455565394 -1.5707810560809534 1.428033709526062 0.0 0.0 2.4732262318138964e-05 0.0 1.1406649062795093e-11 9.824717151167452e-26 1 True False
5193.6759999999995 2.998964786529541 -1.3429268461516877 1.6380122343646448 -1.8658958874144496 -1.5708087126361292 1.4279968738555908 0.026439916342496872 0.0 4.666099357564235e-06 0.0 1.7326724665018794e-30 1.5414283107572988e-44 1 True False
5193.726 3.001657724380493 -1.3430674386075516 1.638303581868307 -1.8658801517882289 -1.5708048979388636 1.4281972646713257 0.09126435965299606 -0.006918475031852722 0.007884591817855835 4.311865263711273e-14 0.0 0.006533435080200434 1 True False
5193.776 3.0081369876861572 -1.3435624849847336 1.6387561003314417 -1.86596741298818 -1.5708444754229944 1.428609848022461 0.15956957638263702 -0.011621130630373955 0.011143802665174007 -0.0033817202784121037 0.0 0.010928388684988022 1 True False
5193.826 3.0180130004882812 -1.3441873502782364 1.6394718329059046 -1.8660904369749964 -1.5708168188678187 1.4291861057281494 0.22696882486343384 -0.015546491369605064 0.019259357824921608 -0.0013971194857731462 0.0 0.01391933485865593 1 True False
5193.876 3.031187057495117 -1.3450780373862763 1.6404593626605433 -1.8662806950011195 -1.5708125273333948 1.4300614595413208 0.3007047772407532 -0.019807806238532066 0.02651209384202957 -0.0031729398760944605 0.0 0.018932970240712166 1 True False
5193.9259999999995 3.047938108444214 -1.346142367725708 1.6418102423297327 -1.8665839634337367 -1.5708444754229944 1.4312366247177124 0.36730700731277466 -0.023018622770905495 0.03077077865600586 -0.004036910366266966 6.142935404795935e-08 0.023999471217393875 1 True False
5193.976 3.0682473182678223 -1.3475424957326432 1.643550221120016 -1.8668300114073695 -1.5707648436175745 1.4325084686279297 0.43636664748191833 -0.028176890686154366 0.03329578414559364 -0.009178909473121166 9.331132121300113e-27 0.030041253194212914 1 True False
5194.026 3.0921998023986816 -1.3490131807378312 1.6454499403582972 -1.8671447239317835 -1.5707810560809534 1.4341305494308472 0.5073144435882568 -0.032239217311143875 0.0402585007250309 -0.0104033462703228 8.988112676888704e-05 0.03156125545501709 1 True False
5194.076 3.119480609893799 -1.3508572292378922 1.647574249898092 -1.8675462208189906 -1.5707810560809534 1.4358676671981812 0.582095205783844 -0.03834056854248047 0.05039319768548012 -0.005673677660524845 -2.1354067939682864e-05 0.03730136156082153 1 True False
5194.126 3.1500699520111084 -1.3528036785176774 1.6499560515033167 -1.868007322350973 -1.570784870778219 1.437909722328186 0.6510635018348694 -0.0428147129714489 0.049787238240242004 -0.007121676113456488 -9.619684715289623e-05 0.04228413105010986 1 True False
5194.1759999999995 3.1843111515045166 -1.355010749106743 1.6527016798602503 -1.8684045277037562 -1.5708287397967737 1.4400564432144165 0.7165641188621521 -0.04460739716887474 0.055430423468351364 -0.0074326288886368275 -1.5410989362862892e-05 0.04563973844051361 1 True False
5194.226 3.2220818996429443 -1.357567088013031 1.6555503050433558 -1.868925233880514 -1.5707967917071741 1.4425969123840332 0.7887101173400879 -0.05346250906586647 0.06635773181915283 -0.0088491877540946 -4.667916800826788e-05 0.051961690187454224 1 True False
5194.276 3.2632176876068115 -1.3602627676776429 1.6590459982501429 -1.8694664440550746 -1.5708006064044397 1.4452857971191406 0.8630335330963135 -0.05828896909952164 0.06957641988992691 -0.009658845141530037 3.2736874734477783e-15 0.05321419984102249 1 True False
5194.326 3.3079581260681152 -1.3631219130805512 1.6624420324908655 -1.8700224361815394 -1.5708048979388636 1.4482057094573975 0.9265478849411011 -0.06097286567091942 0.07444415986537933 -0.014294550754129887 4.972740129209083e-34 0.06016317382454872 1 True False
5194.376 3.356114149093628 -1.366390348677971 1.6663368383990687 -1.8707105122008265 -1.5707886854754847 1.4513375759124756 1.0014288425445557 -0.06612279266119003 0.07664337754249573 -0.014363696798682213 4.0311424527317286e-05 0.06345602869987488 1 True False
5194.4259999999995 3.407745122909546 -1.369706617002823 1.6703160444842737 -1.871333738366598 -1.5707772413836878 1.4547078609466553 1.043921947479248 -0.06971326470375061 0.08303806930780411 -0.011516488157212734 3.485623586818385e-21 0.07006930559873581 1 True False
5194.476 3.460108757019043 -1.373146430855133 1.6743949095355433 -1.8721267185606898 -1.5707691351519983 1.4581085443496704 1.0465402603149414 -0.0685703456401825 0.08177768439054489 -0.012266895733773708 -6.744808342773467e-05 0.06857701390981674 1 True False
5194.526 3.5124053955078125 -1.3764565002969285 1.6785433928119105 -1.8728176556029261 -1.5707886854754847 1.461562991142273 1.0498778820037842 -0.06801320612430573 0.08679819852113724 -0.012692578136920929 -2.5728193577378988e-05 0.06610891968011856 1 True False
5194.576 3.564772844314575 -1.3799827110818406 1.6827262083636683 -1.8735414944090785 -1.570784870778219 1.4649360179901123 1.0445911884307861 -0.06856859475374222 0.07790106534957886 -0.016918489709496498 -0.00035869624116458 0.06897889077663422 1 True False
5194.626 3.6171743869781494 -1.3833625179580231 1.686892334614889 -1.8742124042906703 -1.5707967917071741 1.4683754444122314 1.0449235439300537 -0.06501974165439606 0.08471456915140152 -0.01455701608210802 4.977444518772245e-07 0.06899924576282501 1 True False
5194.6759999999995 3.6695258617401123 -1.3867852252772828 1.6908977667437952 -1.875028749505514 -1.570801083241598 1.4717758893966675 1.0500013828277588 -0.06820037215948105 0.08134832233190536 -0.011150069534778595 7.560751680726861e-26 0.0688948929309845 1 True False
5194.726 3.7218856811523438 -1.3901901257089158 1.695197884236471 -1.8756405315794886 -1.570829216633932 1.475207805633545 1.0485259294509888 -0.07017496228218079 0.0810704380273819 -0.009723490104079247 1.1210387714598537e-44 0.06790312379598618 1 True False
5194.776 3.774272918701172 -1.3936527532390137 1.6992619673358362 -1.876387735406393 -1.5707767645465296 1.478587031364441 1.0427956581115723 -0.06851454824209213 0.08162584155797958 -0.013497777283191681 0.0 0.06963934004306793 1 True False
5194.826 3.8266491889953613 -1.3970893633416672 1.7032764593707483 -1.8770271740355433 -1.5707891623126429 1.4820277690887451 1.0473934412002563 -0.07016611844301224 0.07926329225301743 -0.01893436163663864 0.0 0.0686633512377739 1 True False
5194.876 3.878931999206543 -1.4004632991603394 1.707486931477682 -1.8776408634581507 -1.570784870778219 1.485464096069336 1.046852469444275 -0.0678049623966217 0.085889533162117 -0.010389426723122597 7.639334944542497e-05 0.06886079162359238 1 True False
5194.9259999999995 3.9314332008361816 -1.403907523756363 1.7115348021136683 -1.8784638843932093 -1.5708335081683558 1.4888875484466553 1.0441842079162598 -0.06646732985973358 0.08359906822443008 -0.012532137334346771 6.478668716411971e-15 0.07078134268522263 1 True False
5194.976 3.983668804168701 -1.4073622983745118 1.7156232039081019 -1.8791505299010218 -1.5707686583148401 1.492342233657837 1.0526299476623535 -0.0681348592042923 0.07980161905288696 -0.01622593216598034 0.00041278087883256376 0.06707841902971268 1 True False
5195.026 4.035979747772217 -1.4107851845077057 1.7197836081134241 -1.8798123798766078 -1.5708254019366663 1.4957005977630615 1.0454100370407104 -0.06790046393871307 0.08760569244623184 -0.011631011962890625 -0.0003004466707352549 0.06865216046571732 1 True False
5195.076 4.088354587554932 -1.4141696107438584 1.7239463965045374 -1.8805715046324671 -1.5708168188678187 1.4991068840026855 1.0429857969284058 -0.06695085763931274 0.07879100739955902 -0.01713027060031891 7.083849595801439e-08 0.06804738938808441 1 True False
5195.126 4.140755653381348 -1.4175643187812348 1.7281973997699183 -1.8813220463194789 -1.570813004170553 1.5025966167449951 1.0460519790649414 -0.06707262992858887 0.08232107013463974 -0.016175558790564537 5.312370922183618e-05 0.06690029799938202 1 True False
5195.1759999999995 4.193064212799072 -1.4210388225368042 1.7322395483600062 -1.8820320568480433 -1.5707805792437952 1.5059934854507446 1.0457786321640015 -0.07050096243619919 0.08059558272361755 -0.0114021310582757 -8.653021723148413e-06 0.06557647138834 1 True False
5195.226 4.245590686798096 -1.4243897658637543 1.736415211354391 -1.8827187023558558 -1.5707805792437952 1.5093971490859985 1.0427541732788086 -0.0687221810221672 0.08165999501943588 -0.014070127159357071 -1.314395602936658e-24 0.07030892372131348 1 True False
5195.276 4.297839641571045 -1.4278671753457566 1.740506951008932 -1.8833729229369105 -1.5708168188678187 1.5127805471420288 1.0294467210769653 -0.06482181698083878 0.08507470041513443 -0.012453192844986916 -2.0749473250702977e-09 0.06871841847896576 1 True False
5195.326 4.347561836242676 -1.4311057341149827 1.74437123933901 -1.884043355981344 -1.570801083241598 1.5160703659057617 0.966395914554596 -0.0641353502869606 0.07549264281988144 -0.011474491097033024 -0.0002400895900791511 0.06257948279380798 1 True False
5195.376 4.39392614364624 -1.434184030895569 1.7479808966266077 -1.8846827946104945 -1.570784870778219 1.5190458297729492 0.8949053287506104 -0.05455750599503517 0.07289060205221176 -0.013884201645851135 -0.00021241893409751356 0.0619208887219429 1 True False
5195.4259999999995 4.436888217926025 -1.436945692901947 1.7513425985919397 -1.8852693043150843 -1.570768181477682 1.5218918323516846 0.819149374961853 -0.05418897420167923 0.06328938156366348 -0.016089314594864845 -0.0017178371781483293 0.054994940757751465 1 True False
5195.476 4.476325511932373 -1.4394928079894562 1.7546032110797327 -1.885775705377096 -1.57074481645693 1.5244563817977905 0.7594090104103088 -0.047446656972169876 0.06238561496138573 -0.011760258115828037 -3.4176293411292136e-05 0.048348624259233475 1 True False
5195.526 4.512117862701416 -1.4419260782054444 1.7573917547809046 -1.8862792454161585 -1.5708735624896448 1.5267884731292725 0.6884064674377441 -0.0449233204126358 0.04982341080904007 -0.007352600805461407 -6.707572275388429e-09 0.04541945829987526 1 True False
5195.576 4.544562816619873 -1.4440095883658906 1.7600119749652308 -1.8866540394225062 -1.5707891623126429 1.5288851261138916 0.6142112016677856 -0.039532534778118134 0.04882995784282684 -0.009226272813975811 0.0003059962473344058 0.04092962294816971 1 True False
5195.626 4.573426246643066 -1.4460012179664155 1.7622740904437464 -1.8870536289610804 -1.5707967917071741 1.5308756828308105 0.5428465008735657 -0.03319190442562103 0.04261474683880806 -0.007661598734557629 0.0003779485123232007 0.03663426637649536 1 True False
5195.6759999999995 4.599029541015625 -1.4476170626333733 1.7642362753497522 -1.887432714501852 -1.5707405249225062 1.5324795246124268 0.4742400348186493 -0.030847379937767982 0.033233433961868286 -0.007574745453894138 0.0005030481843277812 0.033090535551309586 1 True False
5195.726 4.621081352233887 -1.44901546210561 1.7659443060504358 -1.88769592861318 -1.5707486311541956 1.5338900089263916 0.4045845568180084 -0.028149439021945 0.03440288081765175 -0.004160209093242884 0.0009259672951884568 0.026825912296772003 1 True False
5195.776 4.639269828796387 -1.4501410287669678 1.7673867384540003 -1.8879467449583949 -1.570801083241598 1.5351288318634033 0.3434089124202728 -0.02056855894625187 0.027047069743275642 -0.001652559731155634 -0.00014593057858292013 0.02324588969349861 1 True False
5195.826 4.654321193695068 -1.4511897575906296 1.7685793081866663 -1.8882271252074183 -1.5707686583148401 1.5361019372940063 0.2640065550804138 -0.0168063472956419 0.021249979734420776 -0.004061250947415829 3.4484062827466744e-10 0.017382340505719185 1 True False
5195.876 4.665722370147705 -1.4519366484931489 1.7694452444659632 -1.8883944950499476 -1.5708611647235315 1.5368518829345703 0.1984763890504837 -0.013203117065131664 0.01608818583190441 -0.0038914449978619814 3.656707485788502e-05 0.012126276269555092 1 True False
5195.9259999999995 4.673712730407715 -1.4523817387274285 1.7701180616961878 -1.8884464703001917 -1.5707724730121058 1.537330985069275 0.12443903088569641 -0.007111324463039637 0.008443021215498447 -0.0021581563632935286 1.813822382246144e-05 0.007904148660600185 1 True False
5195.976 4.678219795227051 -1.4526765060475846 1.7703469435321253 -1.888538499871725 -1.5707648436175745 1.5375734567642212 0.05502689629793167 -0.0027241611387580633 0.0031610503792762756 -0.0007479643099941313 1.2060986591677647e-05 0.003296454669907689 1 True False
5196.026 4.6792426109313965 -1.4526251417449494 1.7704880873309534 -1.8886743984618128 -1.5708325544940394 1.537654161453247 0.0028679140377789736 0.001494813128374517 0.02218567579984665 -0.0315035842359066 1.0848826177689563e-12 0.00037664821138605475 1 True False
5196.076 4.679202556610107 -1.4520222929171105 1.7722047011004847 -1.8911110363402308 -1.570853058491842 1.5377130508422852 0.00045875244541093707 0.02963980659842491 0.04999614879488945 -0.07907634973526001 1.647938578405059e-31 0.0006592557183466852 1 True False
5196.126 4.679254531860352 -1.4497592088631173 1.7760189215289515 -1.8971826038756312 -1.5708368460284632 1.537717342376709 0.0006377638201229274 0.06232680007815361 0.09601419419050217 -0.15284840762615204 0.0 0.00022288541367743164 1 True False
5196.1759999999995 4.679291248321533 -1.446103760307171 1.7817876974688929 -1.9066311321654261 -1.570857350026266 1.5377094745635986 0.0005721154739148915 0.08951596915721893 0.14125239849090576 -0.22302386164665222 0.0 0.00012583051284309477 1 True False
5196.226 4.679290771484375 -1.4411083471826096 1.7901657263385218 -1.9196273289122523 -1.5708087126361292 1.5377498865127563 9.395150846103206e-05 0.10593199729919434 0.18379437923431396 -0.2958582639694214 0.0 8.756876923143864e-05 1 True False
5196.276 4.679336071014404 -1.4349638533643265 1.8001883665667933 -1.9359928570189417 -1.5708654562579554 1.5377216339111328 7.807539805071428e-05 0.13462215662002563 0.22513316571712494 -0.3546238839626312 7.506489782826975e-05 1.2749222284716508e-17 1 True False
5196.326 4.679254055023193 -1.4275069248727341 1.81260854402651 -1.9559499226012171 -1.5707772413836878 1.5377216339111328 6.0421170928748325e-05 0.16293583810329437 0.27156874537467957 -0.43014058470726013 5.297411189530976e-05 1.936609723824189e-36 1 True False
5196.376 4.679339408874512 -1.4187432390502472 1.8274739424334925 -1.9793316326537074 -1.570784870778219 1.5377919673919678 6.601648055948317e-05 0.19335995614528656 0.30720067024230957 -0.4994807541370392 6.783319816400392e-20 0.0 1 True False
5196.4259999999995 4.679330825805664 -1.4085484755090256 1.844008747731344 -2.006357809106344 -1.570784870778219 1.5377379655838013 4.011463258451756e-37 0.21586842834949493 0.3603696823120117 -0.5629898905754089 1.0303875126340633e-38 -9.121283801505342e-05 1 True False
5196.476 4.679315090179443 -1.3982162934592743 1.8614190260516565 -2.0338736973204554 -1.570772949849264 1.537784218788147 0.0 0.19247643649578094 0.31826052069664 -0.5227227210998535 0.0 -2.5791950974962674e-05 1 True False
5196.6759999999995 4.6793060302734375 -1.369823620920517 1.9082611242877405 -2.1092878780760707 -1.5708044211017054 1.5377004146575928 0.0 0.08675216138362885 0.14854192733764648 -0.2377559244632721 0.0 -3.1713990662814254e-39 1 True False
5196.726 4.679332256317139 -1.3660590064576645 1.914811913167135 -2.1194240055479945 -1.5707686583148401 1.5377306938171387 0.0 0.0642075389623642 0.10665705054998398 -0.16343560814857483 0.0 -0.0 1 True False
5196.776 4.679327487945557 -1.3635477882674714 1.9188345114337366 -2.126155992547506 -1.570756737385885 1.5376884937286377 0.0 0.03610469773411751 0.05647318437695503 -0.09681236743927002 0.0 -0.0 1 True False
5196.826 4.679335117340088 -1.3623725485852738 1.9208601156817835 -2.129137178460592 -1.5708168188678187 1.5377379655838013 0.0 0.010733219794929028 0.018226303160190582 -0.030312107875943184 0.0 -1.8915302657518396e-09 1 True False
5196.876 4.679315090179443 -1.3623752903989335 1.9209721724139612 -2.1294409237303675 -1.5707972685443323 1.5377082824707031 0.0 -0.00011343764344928786 -0.00019541905203368515 -0.0001431155833415687 0.0 -2.873238791321687e-28 1 True False
5196.9259999999995 4.679301738739014 -1.3622283202460785 1.9209635893451136 -2.129420419732565 -1.5708487669574183 1.5377049446105957 0.0 0.00012667679402511567 2.4723050955799408e-05 -0.0008487541927024722 0.0 -0.0 1 True False
5196.976 4.679324150085449 -1.3622836929610749 1.9209964911090296 -2.1294685802855433 -1.5708048979388636 1.537757396697998 0.0 -5.7020921317985085e-09 5.72991521039512e-05 -0.0011694993590936065 0.0 -0.0 1 True False
5197.026 4.6793107986450195 -1.3622881931117554 1.921016041432516 -2.129536291162008 -1.570784870778219 1.5377544164657593 -7.556977652711794e-05 0.00031394240795634687 4.9922171456273645e-05 -0.0016833135159686208 0.0 -0.0 1 True False
5197.076 4.679268836975098 -1.3622672420791169 1.920983616505758 -2.1295443973936976 -1.5707767645465296 1.5377216339111328 -3.2633321097819135e-05 0.00013835525896865875 3.2207950425799936e-05 -0.00027140992460772395 0.0 -0.0 1 True False
5197.126 4.679332256317139 -1.3622342211059113 1.9209802786456507 -2.129540582696432 -1.5707648436175745 1.5376975536346436 -3.4233897167723626e-05 0.00010846681834664196 3.337996531627141e-05 -0.00013668030442204326 0.0 -0.0 1 True False
5197.1759999999995 4.679301738739014 -1.362262801533081 1.921027962361471 -2.1295811138548792 -1.570813004170553 1.5377246141433716 -2.3202081138151698e-05 0.000101084602647461 3.354567890579935e-23 -8.378450729651377e-05 0.0 -0.0 1 True False
5197.226 4.679344177246094 -1.362259955411293 1.9209674040423792 -2.1295200786986292 -1.5707805792437952 1.5376721620559692 -1.4785287446789588e-29 6.473196117440239e-05 3.242284947191365e-06 -6.0367507103364915e-05 0.0 -0.0 1 True False
5197.276 4.67927360534668 -1.3622553956559678 1.9209707419024866 -2.1295200786986292 -1.5707886854754847 1.5377379655838013 0.0 1.4293971822149087e-12 7.62943760333222e-36 -3.3364771012126826e-23 0.0 -0.0 1 True False
5197.326 4.6793532371521 -1.3622268003276368 1.920999828969137 -2.1295162640013636 -1.570857350026266 1.5377498865127563 0.0 0.0 8.691140828887001e-05 -5.0684965454628633e-42 0.0 -0.0 1 True False
5197.376 4.6793694496154785 -1.3622599405101319 1.921027962361471 -2.129540582696432 -1.570801083241598 1.5377049446105957 0.0 0.0 7.230399205582216e-05 -0.0 0.0 -0.0 1 True False
5197.4259999999995 4.6793107986450195 -1.3622387212565918 1.9210475126849573 -2.129536291162008 -1.570801083241598 1.5377216339111328 0.0 0.0 2.299693889756613e-30 -0.0 0.0 -0.0 1 True False
5197.476 4.679290294647217 -1.3622177702239533 1.921027962361471 -2.129484315911764 -1.5707648436175745 1.537718415260315 0.0 0.0 0.0 -0.0 0.0 -0.0 1 True False
5197.526 4.679332256317139 -1.362222285275795 1.9210193792926233 -2.1296092472472132 -1.5708377997027796 1.5377082824707031 0.0 0.0 0.0 -0.0 0.0 -0.0 1 True False
5197.576 4.679330825805664 -1.3622599107078095 1.9210193792926233 -2.129523893395895 -1.570784870778219 1.5377126932144165 0.0 0.0 0.0 -0.0 0.0 -0.0 1 True False
5197.626 4.679315090179443 -1.3622734111598511 1.9210041205035608 -2.1295162640013636 -1.5707529226886194 1.5377140045166016 0.0 0.0 0.0 -0.0 0.0 -0.0 1 True False
5197.6759999999995 4.679314136505127 -1.3622836929610749 1.9210031668292444 -2.12951197246694 -1.570784870778219 1.537751317024231 0.0 0.0 0.0 -0.0 0.0 -0.0 1 True False
5197.726 4.679253101348877 -1.3622341316989441 1.921056095753805 -2.1295887432494105 -1.570801083241598 1.5377379655838013 0.0 2.3026535539427684e-11 2.918782013130312e-19 -0.0062524243257939816 7.781308930532305e-11 -2.6527289928270213e-24 1 True False
5197.776 4.6793107986450195 -1.3622268748334427 1.9210355917560022 -2.129540582696432 -1.5708487669574183 1.537679672241211 0.0 1.6704585281058022e-37 0.0 4.713754445096179e-15 -6.790965562686324e-05 -4.035739577255473e-43 1 True False
5197.826 4.679348468780518 -1.362231270675995 1.9209826628314417 -2.1295038662352503 -1.5707767645465296 1.5377049446105957 0.0 2.790664257190656e-05 0.0 7.160205168862296e-34 -2.0228213843422886e-18 -0.0 1 True False
5197.876 4.679295063018799 -1.3622014087489625 1.9210475126849573 -2.1295486889281214 -1.5708168188678187 1.5377291440963745 0.0 1.471363387541058e-43 3.2700092560844496e-05 0.0 -3.072671311652622e-37 -0.0 1 True False
5197.9259999999995 4.679295063018799 -1.3622133147767563 1.921039883290426 -2.129540582696432 -1.5707767645465296 1.5376856327056885 0.0 0.0 -2.4176428269129246e-05 0.0 -0.0 -0.0 1 False False
5197.976 4.679286003112793 -1.3621712935021897 1.9210313002215784 -2.129496236840719 -1.5707805792437952 1.5376931428909302 0.0 0.0 -1.446314672648441e-05 0.0 -0.0 -0.0 1 False False
5198.026 4.679268836975098 -1.362276242380478 1.9210355917560022 -2.129536291162008 -1.570801083241598 1.537745475769043 0.0 0.0 -2.0635816326830536e-05 0.0 -0.0 -0.0 1 False False
5198.076 4.6792778968811035 -1.362316684131958 1.9209955374347132 -2.129568716088766 -1.5707529226886194 1.5377172231674194 0.0 0.0 -4.147353307695477e-31 0.0 -0.0 -0.0 1 False False
5198.126 4.6793107986450195 -1.3622014236501236 1.9210193792926233 -2.1295529804625453 -1.5707891623126429 1.5377379655838013 0.0 0.0 -7.356940449272974e-35 0.0 -0.0 -0.0 1 False False
5198.1759999999995 4.679327487945557 -1.362225280409195 1.9209955374347132 -2.129540582696432 -1.5708254019366663 1.5376960039138794 0.0 0.0 -0.0 0.0 -0.0 -7.225861387247595e-17 1 False False
5198.226 4.679291248321533 -1.362234191303589 1.9210074583636683 -2.1295281849303187 -1.5707724730121058 1.5377799272537231 0.0 0.0 -0.0 0.0 -0.0 2.1941221348242834e-05 1 False False
5198.276 4.679299354553223 -1.362192617063858 1.92104417482485 -2.129592557946676 -1.5707772413836878 1.5377049446105957 0.0 0.0 -9.016628665830585e-16 0.0 -0.0 1.1680921160242476e-20 1 False False
5198.326 4.679332256317139 -1.3622628313354035 1.9209912459002894 -2.12951197246694 -1.5707767645465296 1.5377589464187622 0.0 0.0 -2.802596928649634e-45 0.0 -0.0 1.774335325915798e-39 1 False False
5198.376 4.6792826652526855 -1.362250880604126 1.9210365454303187 -2.1295486889281214 -1.5708211104022425 1.5377082824707031 0.0 0.0 -0.0 0.0 -0.0 0.0 1 False False
5198.4259999999995 4.679286003112793 -1.3622687470963974 1.9209750334369105 -2.1295319996275843 -1.5708091894732874 1.5377426147460938 0.0 0.0 -0.0 0.0 -0.0 0.0 1 False False
5198.476 4.679323196411133 -1.3622341466001053 1.921027962361471 -2.129540582696432 -1.5708091894732874 1.5377126932144165 0.0 0.0 -0.0 0.0 -0.0 0.0 1 False False
5198.526 4.6793107986450195 -1.3622431618026276 1.9210193792926233 -2.1295529804625453 -1.5708006064044397 1.5376975536346436 0.0 0.0 -0.0 0.0 -0.0 0.0 1 False False
5198.576 4.679324150085449 -1.362262801533081 1.9209955374347132 -2.1295319996275843 -1.5707691351519983 1.5377753973007202 0.0 0.0 -1.554702584171566e-29 0.0 -0.0 0.0 1 False False
5198.626 4.679339408874512 -1.3622268003276368 1.921027962361471 -2.1295324764647425 -1.5708330313311976 1.5376901626586914 0.0 0.0 -0.0 0.0 -0.0 -0.0002518247056286782 1 False False
5198.6759999999995 4.6792826652526855 -1.3622553807548066 1.921016041432516 -2.129524370233053 -1.5708287397967737 1.5377545356750488 0.0 0.0 -0.0 0.0 -0.0 -1.170173814346153e-14 1 False False
5198.726 4.679332256317139 -1.3621761512807389 1.9209955374347132 -2.129523893395895 -1.5707886854754847 1.5376603603363037 0.0 0.0 -0.0 0.0 -0.0 -3.0110297588592516e-10 1 False False
5198.776 4.679278373718262 -1.3622268003276368 1.9209750334369105 -2.129536291162008 -1.5707367102252405 1.5377634763717651 -5.431278933454078e-24 0.0 -0.0 0.0 -0.0 -4.573762830213323e-29 1 False False
5198.826 4.679306507110596 -1.3622420591166993 1.921016041432516 -2.129540582696432 -1.5708044211017054 1.537729024887085 1.910938272394513e-21 0.0 -0.0 0.0 -0.0 -0.0 1 False False
5198.876 4.679314613342285 -1.3627349597266694 1.9201725164996546 -2.1281467876830042 -1.5708206335650843 1.5376884937286377 0.0 -0.02243218384683132 -0.03894369304180145 0.06269775331020355 -0.0 -0.0 1 False False
5198.9259999999995 4.679295063018799 -1.3644950550845643 1.9170988241778772 -2.123143335381979 -1.5707967917071741 1.5377216339111328 0.0 -0.05226470157504082 -0.08317205309867859 0.13526329398155212 -0.0 -0.0 1 False False
5198.976 4.6792826652526855 -1.3677466970733185 1.9116771856891077 -2.1146704159178675 -1.5707810560809534 1.5377049446105957 0.0 -0.07958759367465973 -0.13003279268741608 0.21164941787719727 -0.0 -0.0 1 False False
5199.026 4.6793107986450195 -1.3723189842752 1.9041908423053187 -2.1027900181212367 -1.570784870778219 1.5377216339111328 0.0 -0.10023289918899536 -0.168506920337677 0.26808080077171326 -0.0 -0.0 1 False False
5199.076 4.679315090179443 -1.3781089943698426 1.8946335951434534 -2.087371965447897 -1.5707810560809534 1.5377590656280518 0.0 -0.12487643957138062 -0.2145961970090866 0.33977916836738586 -0.0 -0.0 1 False False
5199.126 4.679286956787109 -1.3852310341647645 1.8829510847674769 -2.0684734783568324 -1.5708048979388636 1.5377336740493774 0.0 -0.15571698546409607 -0.25892937183380127 0.4138016700744629 -0.0 -0.0 1 False False
5199.1759999999995 4.6793317794799805 -1.3936066639474411 1.8688505331622522 -2.0460273228087367 -1.5707691351519983 1.537735104560852 0.0 -0.18041399121284485 -0.297722190618515 0.48436033725738525 -0.0 7.658487559403238e-13 1 False False
5199.226 4.679295063018799 -1.403368816976883 1.8526704947101038 -2.020120760003561 -1.5708006064044397 1.5376557111740112 0.0 -0.20508238673210144 -0.3415933847427368 0.5456470251083374 -0.0 1.1633258684014454e-31 1 False False
5199.276 4.679302215576172 -1.4139359158328553 1.8351739088641565 -1.992131849328512 -1.5708168188678187 1.5377004146575928 0.0 -0.20025403797626495 -0.33765366673469543 0.5364587306976318 -0.0 0.0 1 False False
5199.326 4.679330825805664 -1.423257277613022 1.8195074240313929 -1.9669152698912562 -1.5707572142230433 1.5376721620559692 0.0 -0.18157988786697388 -0.2972784638404846 0.47031277418136597 -0.0 5.3405492508318275e-05 1 False False
5199.376 4.679302215576172 -1.4314677280238648 1.8059681097613733 -1.9452229938902796 -1.5707967917071741 1.5376930236816406 0.0 -0.14709357917308807 -0.2444557398557663 0.4012186825275421 -0.0 2.48712608227564e-19 1 False False
5199.4259999999995 4.679323673248291 -1.438360260134079 1.7947142759906214 -1.92716707805776 -1.5708006064044397 1.5377172231674194 0.0 -0.12372282892465591 -0.21168018877506256 0.3422818183898926 -0.0 3.777950546045037e-38 1 False False
5199.476 4.679290771484375 -1.4438322198442002 1.785541836415426 -1.9124919376769007 -1.5707886854754847 1.5377126932144165 0.0 -0.09757319837808609 -0.1688966304063797 0.2580620348453522 -0.0 0.0 1 False False
5199.526 4.679295063018799 -1.4479578000358124 1.7785847822772425 -1.9013081989684046 -1.5708087126361292 1.5376960039138794 0.0 -0.06891991198062897 -0.11546969413757324 0.1952400654554367 -0.0 0.0 1 False False
5199.576 4.679295063018799 -1.4508731973222275 1.7737849394427698 -1.8935142956175746 -1.570801083241598 1.5377036333084106 0.0 -0.04433062672615051 -0.08050410449504852 0.13005901873111725 -0.0 0.0 1 False False
5199.626 4.679278373718262 -1.4524920520237465 1.771057430897848 -1.8894192181029261 -1.570829216633932 1.5376960039138794 0.0 -0.020386256277561188 -0.032442621886730194 0.04990192502737045 -0.0 0.0 1 False False
5199.6759999999995 4.679327487945557 -1.4526571792415162 1.7706320921527308 -1.8885861835875453 -1.5708406607257288 1.5377306938171387 0.0 7.150869523256387e-13 0.0002733377041295171 -0.0006640654755756259 -0.0 0.0 1 False False
5199.726 4.679295063018799 -1.452730954890587 1.7706201712237757 -1.8885704479613246 -1.5707805792437952 1.5377140045166016 0.0 0.0001691516808932647 1.1387057786923994e-29 3.3603247137983794e-13 -0.0 0.0 1 False False
5199.776 4.679271221160889 -1.4526940670660515 1.7706363836871546 -1.8885818920531214 -1.5707767645465296 1.5377380847930908 0.0 0.0 -0.00028257304802536964 0.0002370453003095463 -0.0 0.0 1 False False
5199.826 4.67930793762207 -1.452738643889763 1.7706244627581995 -1.8885942898192347 -1.5707605520831507 1.5377261638641357 0.0 -0.0005982655566185713 -0.00048215826973319054 0.0003592054999899119 -0.0 0.0 1 False False
5199.876 4.679318904876709 -1.452794187968113 1.7705805937396448 -1.8885871372618617 -1.5707805792437952 1.5377426147460938 0.0 -0.00042194832349196076 -0.0005407275166362524 0.00031129474518820643 -0.0 0.0 1 False False
5199.9259999999995 4.679315090179443 -1.4527823489955445 1.7706063429461878 -1.8885299168028773 -1.5707805792437952 1.5377634763717651 0.0 -0.00018030735373031348 -0.0002463010314386338 0.00027834021602757275 -0.0 0.0 1 False False
5199.976 4.6793317794799805 -1.4527666878751297 1.770560089741842 -1.8885628185667933 -1.5707967917071741 1.5377172231674194 0.0 -8.940055704442784e-05 -0.0001211950002470985 0.00020382353977765888 -0.0 0.0 1 False False
5200.026 4.679323196411133 -1.4528188940933724 1.7705100218402308 -1.8885146580138148 -1.5707967917071741 1.5377172231674194 0.0 -6.323042907752097e-05 -0.00010139820369658992 0.00013643997954204679 -0.0 0.0 1 False False
5200.076 4.6793036460876465 -1.4528069880655785 1.7705853621112269 -1.8885094128050746 -1.5707925001727503 1.53775155544281 0.0 -3.8722479075659066e-05 -7.230097980936989e-05 0.00010115718032466248 -0.0 0.0 1 False False
5200.126 4.679315090179443 -1.4528188866427918 1.7705233732806605 -1.8884784183897914 -1.5707529226886194 1.5376886129379272 0.0 -2.696646616943965e-13 -2.2996006025249318e-30 5.9765872720163316e-05 -0.0 0.0 1 False False
5200.1759999999995 4.6793107986450195 -1.4527662110379715 1.7705429236041468 -1.8885585270323695 -1.5707648436175745 1.5377261638641357 0.0 0.0 -0.0 1.4797061145821466e-12 -0.0 0.0 1 False False
5200.226 4.6793317794799805 -1.4527950075319787 1.7705925146686 -1.888538499871725 -1.570784870778219 1.5377216339111328 0.0 0.0 -0.0 2.247676854139506e-31 -0.0 0.0 1 False False
5200.276 4.679299354553223 -1.4527661961368104 1.7705562750445765 -1.8885137043394984 -1.570813004170553 1.537713885307312 0.0 -2.8762625417789037e-25 -0.0 0.0 -0.0 0.0 1 False False
5200.326 4.679290294647217 -1.4528231409243126 1.7705672422992151 -1.8884979687132777 -1.5708091894732874 1.537729024887085 0.0 0.0 -0.0 0.0 -0.0 0.0 1 False False
5200.376 4.679295063018799 -1.452802726333477 1.770564381276266 -1.8885342083373011 -1.5708406607257288 1.5376676321029663 0.0 0.0 -0.0 0.0 -0.0 0.0 1 False False
5200.4259999999995 4.679348468780518 -1.4528523173979302 1.7705405394183558 -1.8884817562498988 -1.5708211104022425 1.537679672241211 0.0 0.0 -0.0 0.0 -0.0 0.0 1 False False
5200.476 4.679295063018799 -1.4528027114323159 1.7705777327166956 -1.8885342083373011 -1.5708335081683558 1.5376960039138794 0.0 0.0 -0.0 0.0 -0.0 0.0 1 False False
5200.526 4.6792826652526855 -1.4528069657138367 1.770510498677389 -1.8885060749449671 -1.5707929770099085 1.537713885307312 0.0 0.0 -5.045670150138903e-06 0.0 -0.0 0.0 1 False False
5200.576 4.679352760314941 -1.4527908501080056 1.7705476919757288 -1.8885218105711878 -1.5707891623126429 1.5376975536346436 0.0 0.0 -1.1872990146421022e-35 0.0 -0.0 0.0 1 False False
5200.626 4.6793107986450195 -1.4527908128551026 1.770536247883932 -1.8885342083373011 -1.570756737385885 1.5377470254898071 0.0 0.0 -0.0 0.0 -0.0 0.0 1 False False
5200.6759999999995 4.679306507110596 -1.4527908128551026 1.7705190817462366 -1.8884979687132777 -1.5707200209247034 1.5377200841903687 0.0 0.0 -0.0 0.0 -0.0 0.0 1 False False
5200.726 4.6792778968811035 -1.4527823489955445 1.7705190817462366 -1.8885466061034144 -1.570784870778219 1.5376960039138794 0.0 0.0 -0.0 0.0 -0.0 0.0 1 False False
5200.776 4.679314136505127 -1.4528472510031243 1.770510498677389 -1.8885137043394984 -1.5707805792437952 1.5377172231674194 0.0 0.0 -0.0 0.0 -0.0 0.0 1 False False
5200.826 4.679323196411133 -1.4528634336641808 1.770536247883932 -1.8885299168028773 -1.5707886854754847 1.537713885307312 0.0 0.0 -0.0 0.0 -0.0 0.0 1 False False
5200.876 4.679335117340088 -1.4528111529401322 1.7705238501178187 -1.8885542354979457 -1.5708168188678187 1.5376840829849243 0.0 0.0 -0.0 0.0 -0.0 0.0 1 False False
5200.9259999999995 4.679318904876709 -1.4528069657138367 1.770536247883932 -1.8884698353209437 -1.5707724730121058 1.53775155544281 0.0 0.0 -0.0 0.0 -0.0 0.0 1 False False
5200.976 4.679295063018799 -1.4527823489955445 1.770543400441305 -1.8885537586607875 -1.57074481645693 1.5377261638641357 0.0 0.0 -0.0 0.0 -0.0 0.0 1 False False
5201.026 4.6793694496154785 -1.4527336669019242 1.770531956349508 -1.888517519036764 -1.5708044211017054 1.5377216339111328 0.0 0.0 -0.0 0.0 -0.0 0.0 1 False False
5201.076 4.6793107986450195 -1.452827313249447 1.7705686728106897 -1.8885423145689906 -1.5708335081683558 1.5377140045166016 0.0 0.0 -0.0 0.0 -0.0 0.0 1 False False
5201.126 4.6793060302734375 -1.4528515127352257 1.7705519835101526 -1.8885146580138148 -1.5707686583148401 1.5377498865127563 0.0 0.0 -0.0 0.0 -0.0 0.0 1 False False
5201.1759999999995 4.6793107986450195 -1.4528061759522934 1.7705519835101526 -1.8885261021056117 -1.570813004170553 1.5377379655838013 0.0 0.0 -0.0 0.0 -0.0 0.0 1 False False
5201.226 4.679299354553223 -1.4528837588480492 1.7705729643451136 -1.888517519036764 -1.5707967917071741 1.5376884937286377 0.0 0.0 -0.0 0.0 -0.0 0.0 1 False False
5201.276 4.679323196411133 -1.4528557446650048 1.770531956349508 -1.888538499871725 -1.570801083241598 1.537696123123169 0.0 0.0 -0.0 0.0 -0.0 0.0 1 False False
5201.326 4.6793060302734375 -1.4527576503208657 1.770560089741842 -1.8885146580138148 -1.5707967917071741 1.5377049446105957 0.0 0.0 -0.0 0.0 -0.0 0.0 1 False False
5201.376 4.679318904876709 -1.4527985018542786 1.7705772558795374 -1.8885218105711878 -1.5707486311541956 1.5377514362335205 0.0 0.0 -0.0 0.0 -0.0 0.0 1 False False
5201.4259999999995 4.679327964782715 -1.4527899858406563 1.770560089741842 -1.8885342083373011 -1.570784870778219 1.5377172231674194 0.0 1.0194861256192545e-17 3.4356387914158404e-05 0.0 -0.0 0.0 1 False False
5201.476 4.6793694496154785 -1.4527942103198548 1.7706058661090296 -1.8885299168028773 -1.5707686583148401 1.5377470254898071 0.0 -1.2371197569585161e-34 1.757877180352807e-05 0.0 -0.0 0.0 1 False False
5201.526 4.679344177246094 -1.4528556999615212 1.770588223134176 -1.8885022602477015 -1.5707805792437952 1.537733554840088 0.0 0.0 1.1811244803539012e-05 0.0 -0.0 0.0 1 False False
5201.576 4.679295063018799 -1.4527908128551026 1.7706225554095667 -1.8885261021056117 -1.5708168188678187 1.537733554840088 0.0 0.0 1.809863115255052e-18 0.0 -0.0 0.0 1 False False
5201.626 4.6792826652526855 -1.4527942475727578 1.770543400441305 -1.8885146580138148 -1.5707925001727503 1.5377005338668823 0.0 0.0 0.0 2.834507741607255e-22 -0.0 0.0 1 False False
5201.6759999999995 4.679348468780518 -1.4527942103198548 1.770536247883932 -1.8885137043394984 -1.5708335081683558 1.5376931428909302 0.0 0.0 0.0 4.305629661484433e-41 -0.0 0.0 1 False False
5201.726 4.6793036460876465 -1.4527578067830582 1.7705968062030237 -1.8885342083373011 -1.5708487669574183 1.537733554840088 0.0 0.0 0.0 0.0 -0.0 0.0 1 False False
5201.776 4.679295063018799 -1.4529162880829354 1.7705515066729944 -1.8885137043394984 -1.5708048979388636 1.5377795696258545 0.0 0.0 0.0 0.0 -0.0 0.0 1 False False
5201.826 4.6793060302734375 -1.452838734989502 1.7705925146686 -1.8885542354979457 -1.570756737385885 1.5376975536346436 0.0 0.0 0.0 0.0 -0.0 0.0 1 False False
5201.876 4.679356098175049 -1.4528395247510453 1.7705968062030237 -1.8885542354979457 -1.5708168188678187 1.5377049446105957 0.0 0.0 0.0 0.0 -0.0 0.0 1 False False
5201.9259999999995 4.6793060302734375 -1.452777386908867 1.7705805937396448 -1.8885261021056117 -1.570772949849264 1.537713885307312 0.0 0.0 0.0 0.0 -0.0 0.0 1 False False
5201.976 4.679327964782715 -1.4527900230935593 1.770564381276266 -1.8885590038695277 -1.570756737385885 1.5376886129379272 0.0 0.0 0.0 0.0 -0.0 0.0 1 True False
5202.026 4.679295063018799 -1.4528226044825097 1.7705510298358362 -1.8885218105711878 -1.5707605520831507 1.537746787071228 0.0 0.0 0.0 0.0 -0.0 8.702092380019621e-09 1 True False
5202.076 4.678836822509766 -1.4528844219497223 1.7706931273089808 -1.8885342083373011 -1.5708487669574183 1.53734290599823 -0.01811358332633972 -0.010847757570445538 0.011098852381110191 0.0 -0.0 -0.016656097024679184 1 True False
5202.126 4.677392959594727 -1.4536451038769265 1.7713120619403284 -1.8885861835875453 -1.5707805792437952 1.5357521772384644 -0.04548016935586929 -0.016792386770248413 0.02027508057653904 -0.002401097910478711 -0.0 -0.04410182684659958 1 True False
