Andreas691667/Digital_Twin_UR/data_analysis/test_results/dt_trajectories/14_blocks_trajectory_heart.csv
actual_q_0 actual_q_1 actual_q_2 actual_q_3 actual_q_4 actual_q_5 actual_qd_0 actual_qd_1 actual_qd_2 actual_qd_3 actual_qd_4 actual_qd_5 actual_qdd_0 actual_qdd_1 actual_qdd_2 actual_qdd_3 actual_qdd_4 actual_qdd_5 timestamp
3.71207804710797 -0.8254843255005873 0.8429764792549035 -1.5882884806323445 -1.570796326807946 2.141281720311417 0.0 0.0 0.0 0.0 0.0 0.0 0.0 0.0 0.0 0.0 0.0 0.0 0.0
3.71207804710797 -0.8254843255005873 0.8429764792549035 -1.5882884806323445 -1.570796326807946 2.141281720311417 0.0 0.0 0.0 0.0 0.0 0.0 0.0 0.0 0.0 0.0 0.0 0.0 0.05
3.71207804710797 -0.8254843255005873 0.8429764792549035 -1.5882884806323445 -1.570796326807946 2.141281720311417 0.0 0.0 0.0 0.0 0.0 0.0 0.0 0.0 0.0 0.0 0.0 0.0 0.1
3.71207804710797 -0.8254843255005873 0.8429764792549035 -1.5882884806323445 -1.570796326807946 2.141281720311417 0.02224249590420347 -0.018312075199171208 0.025413399114971206 -0.007101324062381582 3.431907263829419e-11 -0.014059189467565665 1.5111813393738243 -1.2441439326495733 1.7266162339877495 -0.4824723112971016 2.3316781704252815e-09 -0.9551978726493144 0.15000000000000002
3.71207804710797 -0.8254843255005873 0.8429764792549035 -1.5882884806323445 -1.570796326807946 2.141281720311417 0.08381341882241378 -0.06900294080241332 0.09576190877579115 -0.0267589685257216 1.2931996575467947e-10 -0.05297736100407962 2.75568361885815 -2.2687330536551045 3.148535485507073 -0.8798024500123618 4.251883722540219e-09 -1.7418314148311027 0.2
3.71207804710797 -0.8254843255005873 0.8429764792549035 -1.5882884806323445 -1.570796326807946 2.141281720311417 0.1773242580044457 -0.14598969293733727 0.20260370782316148 -0.05661401605441926 2.736025721751897e-10 -0.1120843340251602 3.7496692057190075 -3.087073715237444 4.284224238343935 -1.1971505478174072 5.785554390787865e-09 -2.3701166465737 0.25
3.71207804710797 -0.8254843255005873 0.8429764792549035 -1.5882884806323445 -1.570796326807946 2.141281720311417 0.29584828462200047 -0.24356960922357832 0.33802458892023984 -0.09445498164634879 4.564792914242313e-10 -0.18700181423294954 4.5093004672224275 -3.7124722696174435 5.152148976284301 -1.4396767363838647 6.957627909611269e-09 -2.8502695879054407 0.3
3.71207804710797 -0.8254843255005873 0.8429764792549035 -1.5882884806323445 -1.570796326807946 2.141281720311417 0.4329205517686662 -0.35642014877279604 0.49463795855264026 -0.1382178126328595 6.679750297245841e-10 -0.27364339361611373 5.050739770634439 -4.158235069015953 5.770776183114137 -1.612541147383361 7.793042013453481e-09 -3.19250625885466 0.35000000000000003
3.71207804710797 -0.8254843255005873 0.8429764792549035 -1.5882884806323445 -1.570796326807946 2.141281720311417 0.5825378944599173 -0.47959895218867443 0.6655848370284329 -0.18598588867877577 8.988271999974005e-10 -0.3682145504498427 5.390149483221073 -4.437668465653826 6.158572342619406 -1.7209039124875227 8.316734436757556e-09 -3.407042679449694 0.4
3.71207804710797 -0.8254843255005873 0.8429764792549035 -1.5882884806323445 -1.570796326807946 2.141281720311417 0.7391589296331146 -0.6085438415669214 0.8445338584781434 -0.23599002178239692 1.1404857218622053e-09 -0.46721264929585 5.543691972248361 -4.564078811751911 6.334003938586076 -1.7699251633679771 8.553642913966541e-09 -3.504094869718876 0.45
3.71207804710797 -0.8254843255005873 0.8429764792549035 -1.5882884806323445 -1.570796326807946 2.141281720311417 0.8977040561475061 -0.7390728204952698 1.0256812708547547 -0.28660845627549747 1.3851130216368974e-09 -0.5674269410023735 5.527529604982331 -4.55077245953106 6.315537454800112 -1.7647650316963506 8.528705179523491e-09 -3.493878849690541 0.5
3.71207804710797 -0.8254843255005873 0.8429764792549035 -1.5882884806323445 -1.570796326807946 2.141281720311417 1.0535554547842259 -0.8673840740534764 1.2037509359337053 -0.33636686882332684 1.625584032337748e-09 -0.6659385627041744 5.357824748689015 -4.411055761212124 6.121639375047477 -1.7105836491442696 8.266858967871453e-09 -3.3866106393930244 0.55
3.71207804710797 -0.8254843255005873 0.8429764792549035 -1.5882884806323445 -1.570796326807946 2.141281720311417 1.2025570882462948 -0.9900559688133224 1.3739943293128898 -0.38393836842460977 1.8554861936794004e-09 -0.7601205378225382 5.05073977063444 -4.158235069015953 5.770776183114136 -1.6125411473833613 7.793042013453481e-09 -3.1925062588546607 0.6000000000000001
3.71229301392248 -0.8256613060197514 0.8432220918640794 -1.588357112723773 -1.5707963268076142 2.1411458426119245 1.3410147011586202 -1.1040470528386128 1.5321905404126583 -0.42814349641154553 2.0691194520748715e-09 -0.8476377760652738 4.622437038084642 -3.805616735163401 5.281414362786059 -1.4757976580852525 7.132192050712628e-09 -2.921781728103787 0.6500000000000001
3.7137234567242414 -0.8268389785375653 0.8448564594273631 -1.5888138077786695 -1.570796326805407 2.1402416785082603 1.4656958200679966 -1.2066960556851785 1.6746462724758193 -0.4679502264498092 2.2614962606355526e-09 -0.926447073426715 4.089078918305642 -3.3665071118753147 4.672020397849202 -1.3055133129215688 6.309246814091937e-09 -2.5846530671687327 0.7000026201306403
3.7173863952221713 -0.8298546475305111 0.849041588577545 -1.589983267960045 -1.5707963267997553 2.137926383202723 1.5738297534431034 -1.2957218884008725 1.7981958425676343 -0.5024739645385501 2.4283415791712046e-09 -0.9947971121877176 3.4668277785634785 -2.854212551372548 3.9610607720895428 -1.1068482435639388 5.3491440380344685e-09 -2.1913362960778384 0.7500052402612803
3.7240943457026363 -0.8353772513857457 0.8567058283974703 -1.5921249039689422 -1.5707963267894054 2.1336863758245004 1.663107591674508 -1.3692236435255731 1.9002011815758224 -0.5309775490103931 2.5660928741899617e-09 -1.0512284609156624 2.7718459861241835 -2.282039405875954 3.16700196929304 -0.8849625816839894 4.27682145698327e-09 -1.752047434859439 0.8000078603919205
3.734468514798651 -0.8439182247294448 0.8685589451006815 -1.5954370473968218 -1.5707963267733984 2.127128999821483 1.7316822070746647 -1.425680595091184 1.9785518342105606 -0.5528712505314378 2.671900118898336e-09 -1.094573574464455 2.0202959082537792 -1.6632940276063812 2.3083104732456556 -0.6450164589533454 3.117216805381393e-09 -1.2770025035418662 0.8500104805225606
3.748951993259073 -0.8558423607551461 0.8851071967120591 -1.6000611630779464 -1.5707963267510512 2.1179741833520778 1.7781682538779136 -1.463952198621632 2.0316649590044804 -0.5677127721012596 2.743625793201207e-09 -1.123956793974523 1.228339912218301 -1.0112827687846762 1.4034527677333606 -0.392170007043635 1.8952678176718907e-09 -0.7764175221534558 0.9000131006532007
3.7678229497178006 -0.8713786735520925 0.9066684077484635 -1.606086061441767 -1.5707963267219343 2.1060460996770214 1.8016421682404813 -1.4832780911328678 2.058485328312668 -0.575207249052908 2.779844883701828e-09 -1.1387943468728188 0.41214036528377507 -0.3393119816317007 0.4708953365421154 -0.13158335762648396 6.359122282978074e-10 -0.26050851072254216 0.9500157207838409
3.79120782446297 -0.8906312604335768 0.9333870438993767 -1.613552110865306 -1.5707963266858525 2.0912648275511945 1.801642168240481 -1.4832780911328673 2.058485328312668 -0.5752072490529082 2.779844883701829e-09 -1.1387943468728192 -0.412140365283764 0.3393119816317033 -0.4708953365421084 0.13158335762648143 -6.359122282978057e-10 0.2605085107225371 1.000018340914481
3.8190945232061497 -0.9135901642652837 0.965249286707544 -1.6224554500255441 -1.5707963266428249 2.0736380116154347 1.7781682538779144 -1.4639521986216324 2.031664959004481 -0.5677127721012599 2.7436257932012084e-09 -1.1239567939745232 -1.2283399122182936 1.011282768784686 -1.4034527677333606 0.39217000704363425 -1.895267817671889e-09 0.7764175221534525 1.050020961045121
3.8513456108515407 -0.9401422357936349 1.0020981082496152 -1.632752200251804 -1.570796326593063 2.0532525227883496 1.7316822070746656 -1.4256805950911842 1.9785518342105615 -0.5528712505314382 2.6719001188983364e-09 -1.094573574464455 -2.0202959082537757 1.6632940276063874 -2.3083104732456556 0.6450164589533438 -3.1172168053813913e-09 1.2770025035418646 1.100023581175761
3.8877115052651714 -0.9700819959741311 1.043648345816787 -1.6443626778781364 -1.5707963265369522 2.0302661186581323 1.66310759167451 -1.3692236435255736 1.9002011815758253 -0.5309775490103936 2.5660928741899646e-09 -1.0512284609156637 -2.7718459861241795 2.2820394058759637 -3.167001969293044 0.8849625816839887 -4.276821456983275e-09 1.7520474348594357 1.1500262013064013
3.927843671044094 -1.0031224982996974 1.0895017765954431 -1.657175606595704 -1.5707963264750302 2.004899103874374 1.573829753443103 -1.2957218884008699 1.798195842567632 -0.5024739645385494 2.428341579171202e-09 -0.9947971121877166 -3.4668277785634714 2.854212551372555 -3.961060772089539 1.1068482435639353 -5.349144038034459e-09 2.191336296077835 1.2000288214370414
3.9713078132855806 -1.0389061911290245 1.139162192347798 -1.6710523298051672 -1.5707963264079672 1.9774259905398757 1.4656958200679975 -1.206696055685179 1.6746462724758198 -0.46795022644980955 2.261496260635554e-09 -0.9264470734267153 -4.089078918305638 3.3665071118753254 -4.672020397849213 1.305513312921568 -6.309246814091944e-09 2.5846530671687344 1.2500314415676814
4.017597071356324 -1.0770157800149147 1.192050474092536 -1.6858310229690685 -1.5707963263365452 1.9481671586024656 1.3410147011586213 -1.1040470528386144 1.5321905404126608 -0.4281434964115457 2.069119452074876e-09 -0.847637776065275 -4.622437038084633 3.8056167351634116 -5.281414362786066 1.4757976580852525 -7.132192050712635e-09 2.921781728103787 1.3000340616983217
4.066145212661629 -1.1169850900326241 1.2475196667854556 -1.701330905964219 -1.5707963262616378 1.9174805162468096 1.2025570882462937 -0.9900559688133198 1.3739943293128887 -0.38393836842460916 1.8554861936793986e-09 -0.7601205378225379 -5.0507397706344275 4.158235069015962 -5.770776183114132 1.6125411473833595 -7.793042013453468e-09 3.1925062588546536 1.3500366818289617
4.116339826414613 -1.1583099281082057 1.3048700540001088 -1.7173564554340808 -1.57079632618419 1.8857531602862263 1.0535554547842274 -0.867384074053477 1.203750935933706 -0.3363668688233272 1.6255840323377508e-09 -0.6659385627041748 -5.357824748689009 4.41105576121214 -6.121639375047486 1.710583649144271 -8.266858967871462e-09 3.3866106393930253 1.4000393019596018
4.167535517405401 -1.2004589453468544 1.3633642326084436 -1.7337016171411548 -1.5707963261051976 1.8533930365545002 0.8977040561475093 -0.7390728204952701 1.0256812708547578 -0.28660845627549836 1.3851130216369009e-09 -0.5674269410023736 -5.527529604982329 4.550772459531076 -6.3155374548001175 1.7647650316963481 -8.528705179523496e-09 3.4938788496905397 1.450041922090242
4.2190670997703235 -1.2428844993612491 1.4222421874614457 -1.7501540183193636 -1.5707963260256868 1.8208206002976957 0.7391589296331124 -0.6085438415669198 0.8445338584781422 -0.2359900217823964 1.1404857218622011e-09 -0.46721264929584905 -5.5436919722483475 4.564078811751924 -6.334003938586078 1.7699251633679762 -8.55364291396654e-09 3.504094869718872 1.5000445422208821
4.2702627907611115 -1.2850335165998978 1.4807363660697805 -1.7664991800264374 -1.5707963259466944 1.7884604765659695 0.5825378944599199 -0.4795989521886748 0.6655848370284364 -0.18598588867877655 8.988271999974042e-10 -0.36821455044984436 -5.390149483221066 4.437668465653844 -6.15857234261941 1.7209039124875258 -8.316734436757566e-09 3.407042679449692 1.5500471623515222
4.320457404514095 -1.3263583546754794 1.5380867532844338 -1.7825247294962994 -1.5707963258692466 1.7567331206053862 0.432920551768664 -0.3564201487727954 0.4946379585526411 -0.13821781263285848 6.679750297245812e-10 -0.27364339361611273 -5.0507397706344355 4.158235069015963 -5.770776183114135 1.6125411473833577 -7.793042013453473e-09 3.1925062588546482 1.6000497824821625
4.3690055458194 -1.3663276646931883 1.5935559459773527 -1.7980246124914496 -1.5707963257943391 1.7260464782497305 0.29584828462200086 -0.24356960922358076 0.3380245889202451 -0.0944549816463501 4.5647929142423973e-10 -0.1870018142329528 -4.509300467222421 3.712472269617465 -5.152148976284317 1.4396767363838665 -6.957627909611277e-09 2.8502695879054376 1.6500524026128025
4.415294803890144 -1.404437253579079 1.6464442277220916 -1.8128033056553514 -1.5707963257229172 1.6967876463123202 0.17732425800444734 -0.14598969293733458 0.20260370782316112 -0.05661401605441896 2.736025721751862e-10 -0.11208433402515838 -3.749669205718998 3.0870737152374628 -4.284224238343936 1.1971505478174012 -5.785554390787848e-09 2.370116646573694 1.7000550227434426
4.458758946131631 -1.4402209464084064 1.6961046434744462 -1.8266800288648144 -1.5707963256558541 1.6693145329778218 0.08381341882241494 -0.06900294080241269 0.09576190877579348 -0.026758968525721273 1.2931996575467823e-10 -0.05297736100408182 -2.755683618858131 2.2687330536551262 -3.1485354855070757 0.8798024500123597 -4.25188372254023e-09 1.7418314148311007 1.7500576428740826
4.498891111910552 -1.4732614487339721 1.7419580742531022 -1.8394929575823817 -1.5707963255939321 1.6439475181940633 0.02224249590420162 -0.018312075199165716 0.025413399114970092 -0.0071013240623814256 3.431907263828741e-11 -0.01405918946756292 -1.5111813393738 1.2441439326495891 -1.7266162339877449 0.48247231129709794 -2.3316781704252795e-09 0.9551978726493059 1.8000602630047227
4.5352570063241835 -1.5032012089144686 1.783508311820274 -1.8511034352087141 -1.5707963255378214 1.620961114063846 0.0 3.552713678800501e-15 0.0 0.0 0.0 0.0 1.4210854715202004e-14 2.1316282072803006e-14 0.0 -3.552713678800501e-15 0.0 -7.105427357601002e-15 1.850062883135363
4.5675080939695745 -1.5297532804428196 1.8203571333623452 -1.8614001854349742 -1.5707963254880595 1.6005756252367611 0.0 0.0 0.0 0.0 0.0 0.0 0.0 0.0 0.0 0.0 0.0 0.0 1.900065503266003
4.595394792712755 -1.5527121842745264 1.8522193761705124 -1.8703035245952122 -1.570796325445032 1.5829488093010013 -4.3685187699926036e-08 0.010346643863316091 0.01658599630722126 -0.026932650877488293 5.46068835901312e-10 -4.3656427716029685e-08 -1.3047309393044576e-06 0.3090197633843739 0.4953684230423417 -0.8043885062076503 1.6309255898919184e-08 -1.3038719744520866e-06 1.950068123396643
4.618779667457924 -1.571964771156011 1.878938012321426 -1.8777695740187514 -1.57079632540895 1.568167537175174 -1.5221860958552005e-07 0.036052305728176956 0.057792982688273195 -0.09384532572422588 1.9027465215405714e-09 -1.521183970194101e-07 -2.087569502887132e-06 0.49443162141499825 0.7925894768677466 -1.2870216099322407 2.6094809438270694e-08 -2.0861951591233385e-06 2.0000707435272833
4.6376506239166515 -1.587501083952957 1.9004992233578293 -1.8837944723825715 -1.5707963253798332 1.556239453500118 -2.953118688515e-07 0.06994331251601678 0.11212133503681573 -0.18206471993182088 3.691425330692869e-09 -2.9511745136036067e-07 -2.423071744422564e-06 0.5738938462852657 0.9199699285072059 -1.4938643686713506 3.028861809799277e-08 -2.4214765239824465e-06 2.0500733636579236
4.652134102377073 -1.5994252199786583 1.9170474749692072 -1.8884185880636966 -1.570796325357486 1.547084637030713 -4.473363220472426e-07 0.10594963316035677 0.1698406021859457 -0.27579034498548016 5.5917448796294345e-09 -4.4704181981214397e-07 -2.385793717585294e-06 0.5650647101885693 0.9058165449917106 -1.4708818399225607 2.982263935802365e-08 -2.384223038998101e-06 2.1000759837885634
4.6625082714730866 -1.6079661933223566 1.9289005916724171 -1.8917307314915757 -1.570796325341479 1.5405272610276959 -5.873230790767834e-07 0.13910487860680523 0.22298950590819697 -0.36209452846400925 7.3415921271176385e-09 -5.869364170710658e-07 -2.050291476049862e-06 0.48560248531830175 0.7784360933522512 -1.2640390811834505 2.5628830698301575e-08 -2.048941674138993e-06 2.1500786039192032
4.669216221953553 -1.6134887971775926 1.9365648314923445 -1.8938723675004736 -1.570796325331129 1.5362872536494725 -6.989630031988166e-07 0.16554630181305746 0.2653759409155402 -0.4309224140398127 8.737101374420991e-09 -6.98502843456475e-07 -1.4911210734908087e-06 0.35316544386785576 0.5661353406198191 -0.9193011499516004 1.863914959876478e-08 -1.4901393993738132e-06 2.2000812240498435
4.672879160451482 -1.6165044661705374 1.9407499606425254 -1.8950418276818486 -1.5707963253254773 1.533971958343936 -7.706067110266953e-07 0.18251479774889587 0.29257697485938305 -0.47509196147889354 9.632654265299143e-09 -7.700993849107636e-07 -7.828385635826746e-07 0.185411858030624 0.29722105382540476 -0.48263310372459056 9.78555353935151e-09 -7.82323184671252e-07 2.250083844180484
4.674309603253245 -1.6176821386883522 1.9423843282058086 -1.8954985227367454 -1.5707963253232702 1.5330677942402708 -7.952645725284313e-07 0.18835490339618977 0.30193884833057016 -0.4902939466408536 9.940879786007883e-09 -7.947410129993671e-07 0.0 -4.440892098500626e-16 0.0 0.0 0.0 0.0 2.300086464311124
4.674524570067754 -1.6178591192075156 1.9426299408149843 -1.8955671548281736 -1.5707963253229384 1.5329319165407789 -7.706067110266953e-07 0.1825147977488958 0.29257697485938294 -0.47509196147889377 9.632654265299143e-09 -7.700993849107636e-07 7.828385635826746e-07 -0.18541185803062488 -0.29722105382540476 0.48263310372459056 -9.78555353935151e-09 7.82323184671252e-07 2.3500890844417643
4.674524570067755 -1.6178591192075162 1.942629940814986 -1.8955671548281738 -1.5707963253229384 1.5329319165407789 -6.989630031988166e-07 0.1655463018130574 0.2653759409155403 -0.4309224140398128 8.737101374420991e-09 -6.98502843456475e-07 1.4911210734908087e-06 -0.35316544386785664 -0.5661353406198191 0.9193011499516004 -1.863914959876478e-08 1.4901393993738132e-06 2.400091704572404
4.6745245691269055 -1.617636283155423 1.942987154031751 -1.896147204327628 -1.5707963253111776 1.5329319156005488 -5.873230790767834e-07 0.13910487860680526 0.22298950590819705 -0.36209452846400914 7.3415921271176385e-09 -5.869364170710658e-07 2.050291476049862e-06 -0.48560248531830263 -0.7784360933522516 1.2640390811834505 -2.5628830698301575e-08 2.048941674138993e-06 2.450091704572404
4.674524563259337 -1.6162465756009667 1.9452148990542746 -1.8997646583427097 -1.5707963252378325 1.5329319097368437 -4.473363220472426e-07 0.10594963316035672 0.16984060218594588 -0.2757903449854804 5.5917448796294345e-09 -4.4704181981214397e-07 2.385793717585294e-06 -0.5650647101885711 -0.9058165449917093 1.470881839922562 -2.982263935802365e-08 2.384223038998101e-06 2.501061310995755
4.674524549382818 -1.612959983338236 1.9504834100664554 -1.9083197650186645 -1.5707963250643748 1.5329318958694604 -2.953118688515e-07 0.06994331251601671 0.11212133503681593 -0.18206471993182058 3.691425330692869e-09 -2.9511745136036067e-07 2.423071744422564e-06 -0.5738938462852671 -0.919969928507206 1.4938643686713524 -3.028861809799277e-08 2.4214765239824465e-06 2.5520309174191054
4.674524526162523 -1.6074603589158516 1.959299481399903 -1.9226354664656375 -1.570796324774119 1.532931872664452 -1.5221860958552005e-07 0.03605230572817687 0.05779298268827307 -0.0938453257242261 1.9027465215405714e-09 -1.521183970194101e-07 2.087569502887132e-06 -0.4944316214150002 -0.7925894768677471 1.287021609932241 -2.6094809438270694e-08 2.0861951591233385e-06 2.6030005238424563
4.674524493719799 -1.5997764430112116 1.9716170408426528 -1.9426369497645248 -1.570796324368582 1.532931840243087 -4.3685187699926036e-08 0.010346643863315717 0.016585996307221802 -0.026932650877488723 5.46068835901312e-10 -4.3656427716029685e-08 1.3047309393044576e-06 -0.3090197633843764 -0.49536842304234185 0.8043885062076486 -1.6309255898919184e-08 1.3038719744520866e-06 2.653970130265807
4.674524453340934 -1.5902128868047356 1.9869477229478814 -1.9675311979728225 -1.5707963238638425 1.532931799890804 0.0 0.0 0.0 0.0 0.0 0.0 0.0 -1.7763568394002505e-15 0.0 0.0 0.0 0.0 2.7049397366891577
4.674524407185914 -1.5792812743541103 2.00447144234262 -1.9959865411304771 -1.5707963232869007 1.5329317537661713 0.0 0.0 0.0 0.0 0.0 0.0 0.0 -1.7763568394002505e-15 0.0 0.0 0.0 0.0 2.7559093431125086
4.674524357997202 -1.5676311449685323 2.0231469670364715 -2.0263122072657347 -1.5707963226720372 1.532931704609842 0.0 0.0 0.0 0.0 0.0 0.0 0.0 -1.7763568394002505e-15 0.0 0.0 0.0 0.0 2.806878949535859
4.67452430880849 -1.5559810155829543 2.041822491730323 -2.0566378734009927 -1.5707963220571737 1.5329316554535128 0.0 0.0 0.0 0.0 0.0 0.0 0.0 -1.7763568394002505e-15 0.0 0.0 0.0 0.0 2.85784855595921
4.67452426265347 -1.545049403132329 2.0593462111250616 -2.085093216558647 -1.5707963214802318 1.53293160932888 0.0 0.0 0.0 0.0 0.0 0.0 0.0 -1.7763568394002505e-15 0.0 0.0 0.0 0.0 2.908818162382561
4.674524222274605 -1.535485846925853 2.07467689323029 -2.1099874647669448 -1.5707963209754923 1.5329315689765972 0.0 0.0 0.0 0.0 0.0 0.0 0.0 -1.7763568394002505e-15 0.0 0.0 0.0 0.0 2.9597877688059113
4.674524189831881 -1.527801931021213 2.0869944526730397 -2.129988948065832 -1.5707963205699553 1.532931536555232 0.0 0.0 0.0 0.0 0.0 0.0 0.0 -1.7763568394002505e-15 0.0 0.0 0.0 0.0 3.0107573752292622
4.674524166611586 -1.5223023065988286 2.0958105240064877 -2.1443046495128053 -1.5707963202796995 1.5329315133502237 0.0 0.0 0.0 0.0 0.0 0.0 0.0 -1.7763568394002505e-15 0.0 0.0 0.0 0.0 3.0617269816526127
4.674524152735067 -1.5190157143360976 2.1010790350186683 -2.15285975618876 -1.5707963201062418 1.5329314994828405 0.0 0.0 0.0 0.0 0.0 0.0 0.0 -1.7763568394002505e-15 0.0 0.0 0.0 0.0 3.1126965880759636
4.6745241468674985 -1.5176260067816416 2.103306780041192 -2.156477210203842 -1.5707963200328967 1.5329314936191354 0.0 0.0 0.0 0.0 0.0 0.0 0.0 -1.7763568394002505e-15 0.0 0.0 0.0 0.0 3.1636661944993145
4.674524145926649 -1.5174031707295483 2.103663993257957 -2.157057259703296 -1.570796320021136 1.5329314926789053 0.0 0.0 0.0 0.0 0.0 0.0 0.0 -1.7763568394002505e-15 0.0 0.0 0.0 0.0 3.2146358009226654
4.674524145926649 -1.5174031707295483 2.103663993257957 -2.157057259703296 -1.570796320021136 1.5329314926789053 0.0 0.0 0.0 0.0 0.0 0.0 0.0 -1.7763568394002505e-15 0.0 0.0 0.0 0.0 3.265605407346016
4.674524145926649 -1.5174031707295483 2.103663993257957 -2.157057259703296 -1.570796320021136 1.5329314926789053 0.0 0.0 0.0 0.0 0.0 0.0 0.0 -1.7763568394002505e-15 0.0 0.0 0.0 0.0 3.3156054073460157
4.674524145926649 -1.5174031707295483 2.103663993257957 -2.157057259703296 -1.570796320021136 1.5329314926789053 0.0 0.0 0.0 0.0 0.0 0.0 0.0 -1.7763568394002505e-15 0.0 0.0 0.0 0.0 3.3697720740126824
4.674524145926649 -1.5174031707295483 2.103663993257957 -2.157057259703296 -1.570796320021136 1.5329314926789053 0.0 0.0 0.0 0.0 0.0 0.0 0.0 0.0 0.0 0.0 0.0 0.0 3.423938740679349
4.674524145926649 -1.5174031707295483 2.103663993257957 -2.157057259703296 -1.570796320021136 1.5329314926789053 4.3685187699926036e-08 -0.010346643863316091 -0.01658599630722126 0.026932650877488293 -5.46068835901312e-10 4.3656427716029685e-08 1.3047309393044576e-06 -0.3090197633843739 -0.4953684230423417 0.8043885062076503 -1.6309255898919184e-08 1.3038719744520866e-06 3.478105407346016
4.674524145926649 -1.5174031707295483 2.103663993257957 -2.157057259703296 -1.570796320021136 1.5329314926789053 1.5221860958552005e-07 -0.036052305728176956 -0.057792982688273195 0.09384532572422588 -1.9027465215405714e-09 1.521183970194101e-07 2.087569502887132e-06 -0.49443162141499825 -0.7925894768677466 1.2870216099322407 -2.6094809438270694e-08 2.0861951591233385e-06 3.5322720740126825
4.674524145926649 -1.5174031707295483 2.103663993257957 -2.157057259703296 -1.570796320021136 1.5329314926789053 2.953118688515e-07 -0.06994331251601678 -0.11212133503681573 0.18206471993182088 -3.691425330692869e-09 2.9511745136036067e-07 2.423071744422564e-06 -0.5738938462852657 -0.9199699285072059 1.4938643686713506 -3.028861809799277e-08 2.4214765239824465e-06 3.586438740679349
4.674524145926649 -1.5174031707295483 2.103663993257957 -2.157057259703296 -1.570796320021136 1.5329314926789053 4.473363220472426e-07 -0.10594963316035677 -0.1698406021859457 0.27579034498548016 -5.5917448796294345e-09 4.4704181981214397e-07 2.385793717585294e-06 -0.5650647101885693 -0.9058165449917106 1.4708818399225607 -2.982263935802365e-08 2.384223038998101e-06 3.6406054073460155
4.674524145926649 -1.5174031707295483 2.103663993257957 -2.157057259703296 -1.570796320021136 1.5329314926789053 5.873230790767834e-07 -0.13910487860680523 -0.22298950590819697 0.36209452846400925 -7.3415921271176385e-09 5.869364170710658e-07 2.050291476049862e-06 -0.48560248531830175 -0.7784360933522512 1.2640390811834505 -2.5628830698301575e-08 2.048941674138993e-06 3.6947720740126826
4.674524145926649 -1.5174031707295483 2.103663993257957 -2.157057259703296 -1.570796320021136 1.5329314926789053 6.989630031988166e-07 -0.16554630181305746 -0.2653759409155402 0.4309224140398127 -8.737101374420991e-09 6.98502843456475e-07 1.4911210734908087e-06 -0.35316544386785576 -0.5661353406198191 0.9193011499516004 -1.863914959876478e-08 1.4901393993738132e-06 3.748938740679349
4.674524145926649 -1.5174031707295483 2.103663993257957 -2.157057259703296 -1.570796320021136 1.5329314926789053 7.706067110266953e-07 -0.18251479774889587 -0.29257697485938305 0.47509196147889354 -9.632654265299143e-09 7.700993849107636e-07 7.828385635826746e-07 -0.185411858030624 -0.29722105382540476 0.48263310372459056 -9.78555353935151e-09 7.82323184671252e-07 3.8031054073460155
4.674524145926649 -1.5174031707295483 2.103663993257957 -2.157057259703296 -1.570796320021136 1.5329314926789053 7.952645725284313e-07 -0.18835490339618977 -0.30193884833057016 0.4902939466408536 -9.940879786007883e-09 7.947410129993671e-07 0.0 4.440892098500626e-16 0.0 0.0 0.0 0.0 3.8572720740126822
4.674524145926649 -1.5174031707295483 2.103663993257957 -2.157057259703296 -1.570796320021136 1.5329314926789053 7.706067110266953e-07 -0.1825147977488958 -0.29257697485938294 0.47509196147889377 -9.632654265299143e-09 7.700993849107636e-07 -7.828385635826746e-07 0.18541185803062488 0.29722105382540476 -0.48263310372459056 9.78555353935151e-09 -7.82323184671252e-07 3.911438740679349
4.674524145926649 -1.5174031707295483 2.103663993257957 -2.1570572597032958 -1.570796320021136 1.5329314926789053 6.989630031988166e-07 -0.1655463018130574 -0.2653759409155403 0.4309224140398128 -8.737101374420991e-09 6.98502843456475e-07 -1.4911210734908087e-06 0.35316544386785664 0.5661353406198191 -0.9193011499516004 1.863914959876478e-08 -1.4901393993738132e-06 3.9656054073460156
4.6745241468674985 -1.5176260067816416 2.103306780041192 -2.1564772102038416 -1.5707963200328967 1.5329314936191354 5.873230790767834e-07 -0.13910487860680526 -0.22298950590819705 0.36209452846400914 -7.3415921271176385e-09 5.869364170710658e-07 -2.050291476049862e-06 0.48560248531830263 0.7784360933522516 -1.2640390811834505 2.5628830698301575e-08 -2.048941674138993e-06 4.0156054073460155
4.674524152735067 -1.5190157143360978 2.1010790350186683 -2.15285975618876 -1.5707963201062418 1.5329314994828405 4.473363220472426e-07 -0.10594963316035672 -0.16984060218594588 0.2757903449854804 -5.5917448796294345e-09 4.4704181981214397e-07 -2.385793717585294e-06 0.5650647101885711 0.9058165449917093 -1.470881839922562 2.982263935802365e-08 -2.384223038998101e-06 4.066575013769366
4.674524166611586 -1.5223023065988286 2.0958105240064877 -2.144304649512805 -1.5707963202796995 1.5329315133502237 2.953118688515e-07 -0.06994331251601671 -0.11212133503681593 0.18206471993182058 -3.691425330692869e-09 2.9511745136036067e-07 -2.423071744422564e-06 0.5738938462852671 0.919969928507206 -1.4938643686713524 3.028861809799277e-08 -2.4214765239824465e-06 4.117544620192717
4.674524189831881 -1.527801931021213 2.0869944526730397 -2.129988948065832 -1.5707963205699553 1.532931536555232 1.5221860958552005e-07 -0.03605230572817687 -0.05779298268827307 0.0938453257242261 -1.9027465215405714e-09 1.521183970194101e-07 -2.087569502887132e-06 0.4944316214150002 0.7925894768677471 -1.287021609932241 2.6094809438270694e-08 -2.0861951591233385e-06 4.168514226616067
4.674524222274605 -1.535485846925853 2.07467689323029 -2.1099874647669448 -1.5707963209754923 1.5329315689765972 4.3685187699926036e-08 -0.010346643863315717 -0.016585996307221802 0.026932650877488723 -5.46068835901312e-10 4.3656427716029685e-08 -1.3047309393044576e-06 0.3090197633843764 0.49536842304234185 -0.8043885062076486 1.6309255898919184e-08 -1.3038719744520866e-06 4.219483833039418
4.67452426265347 -1.545049403132329 2.0593462111250616 -2.085093216558647 -1.5707963214802318 1.53293160932888 0.0 0.0 0.0 0.0 0.0 0.0 0.0 1.7763568394002505e-15 0.0 0.0 0.0 0.0 4.270453439462769
4.67452430880849 -1.5559810155829543 2.041822491730323 -2.0566378734009927 -1.5707963220571737 1.5329316554535128 0.0 0.0 0.0 0.0 0.0 0.0 0.0 0.0 0.0 0.0 0.0 0.0 4.32142304588612
4.674524357997202 -1.5676311449685323 2.0231469670364715 -2.0263122072657347 -1.5707963226720372 1.532931704609842 -0.024130693673045007 0.007460094371664301 -0.009148507601518025 0.0016884116952622502 1.533520281993421e-12 0.00018383697422472465 -2.0258291878846832 0.6262926846306744 -0.7680389953083943 0.14174618184511178 1.2874267891211435e-10 0.015433551693247125 4.372392652309471
4.674524407185914 -1.5792812743541103 2.00447144234262 -1.995986541130477 -1.5707963232869007 1.5329317537661713 -0.09198117021403322 0.028436323443917663 -0.03487220244478866 0.006435873151328441 5.845459396895557e-12 0.0007007481942670344 -3.762254206071555 1.1631149857426812 -1.426358134144161 0.26324290914092185 2.3909354655106955e-10 0.028662310287458945 4.423362258732821
4.674524453340934 -1.5902128868047356 1.9869477229478814 -1.9675311979728225 -1.5707963238638425 1.532931799890804 -0.1969852544738368 0.06089872956460655 -0.0746816947062696 0.013782952614385717 1.2518532914232011e-11 0.001500709993671222 -5.223392331131239 1.6148313122881501 -1.9803096046279156 0.36547796015812795 3.3194976444238547e-10 0.03979382666551523 4.474331865156172
4.674524493719799 -1.5997764430112116 1.9716170408426528 -1.9426369497645248 -1.570796324368582 1.532931840243087 -0.3329050800607842 0.10291885296418504 -0.1262120640535956 0.02329318991831186 2.1156320625052095e-11 0.002536199889304365 -6.423360839634362 1.9858060732192118 -2.4352455948802745 0.4494391131674276 4.082084941115821e-10 0.04893565171029576 4.525301471579523
4.674524526162523 -1.6074603589158516 1.959299481399903 -1.9226354664656375 -1.570796324774119 1.532931872664452 -0.4938310893406603 0.15266973175571502 -0.18722285964557864 0.0345530964846753 3.1383266541928856e-11 0.0037621965813563266 -7.376277008151547 2.280403677487996 -2.7965182930218537 0.5161141464395185 4.687668970841794e-10 0.05619533630468029 4.576271078002874
4.674524549382818 -1.612959983338236 1.9504834100664554 -1.9083197650186643 -1.5707963250643748 1.5329318958694604 -0.6741820334367065 0.2084259019348659 -0.25559810013220774 0.04717215532273512 4.284467889895906e-11 0.005136179953339757 -8.09625811325342 2.5029885340466325 -3.069479887173269 0.5664908382450983 5.145221348856974e-10 0.06168043133154861 4.627240684426225
4.674524563259337 -1.616246575600967 1.9452148990542746 -1.8997646583427097 -1.5707963252378325 1.5329319097368437 -0.8687049722296204 0.2685633973799149 -0.32934627365464897 0.06078282102944102 5.520673015176317e-11 0.00661813107209009 -8.597421431510607 2.657925051847253 -3.2594825654551367 0.6015569668548646 5.463713690416561e-10 0.06549848767378048 4.6782102908495755
4.6745245691269055 -1.617636283155423 1.9429871540317507 -1.8961472043276277 -1.5707963253111776 1.5329319156005488 -1.0724752743575559 0.3315597498517467 -0.4066003378452456 0.07504051978943334 6.815645697748538e-11 0.00817053218776554 -8.893884239493733 2.7495776398419856 -3.371878515988073 0.6223003105395152 5.652117610775753e-10 0.06775705621425566 4.7291798972729255
4.674524570067755 -1.6178591192075162 1.942629940814986 -1.8955671548281736 -1.5707963253229384 1.5329319165407789 -1.2808966172161238 0.3959939889938541 -0.48561771982751806 0.08962364937504314 8.140176027479364e-11 0.009758366733847121 -8.999763813773418 2.782310706982961 -3.4120199268926923 0.6297086475697474 5.719404725189749e-10 0.06856368783585394 4.7801495036962764
4.674524570067755 -1.6178591192075162 1.942629940814986 -1.8955671548281738 -1.5707963253229384 1.5329319165407789 -1.4897009869583908 0.4605466423323369 -0.5647803162161638 0.10423357914629197 9.467140516387956e-11 0.011349119327138613 -8.929177430920294 2.7604886622223104 -3.3852589862896125 0.6247697562162592 5.674546648913752e-10 0.0680259334214551 4.831119110119627
4.674335272922104 -1.617800597285603 1.9425581738612716 -1.8955539098084107 -1.5707963253229265 1.5329333586797806 -1.6949486784948802 0.5239997352759034 -0.6425944931170575 0.11859465005089222 1.0771502098645854e-10 0.012912775767766602 -8.696242367504983 2.6884759145121633 -3.296947882299448 0.608471414749748 5.526514997202958e-10 0.06625134385393887 4.881119110119627
4.673063384011313 -1.6174073880628044 1.9420759711726 -1.8954649164234236 -1.5707963253228456 1.5329430484223168 -1.8930282954935718 0.5852367911158689 -0.717691086127251 0.13245417462424675 1.2030310130576963e-10 0.014421823039180444 -8.315075900098105 2.570636872804649 -3.152438803042816 0.5818014014409116 5.284281385312569e-10 0.06334747001618504 4.932018152484486
4.669769151330028 -1.6163889636852218 1.9408270508914738 -1.8952344207293768 -1.5707963253226362 1.532968145163286 -2.080656750379901 0.6432428310261565 -0.7888254003349727 0.14558243698944914 1.322270039065756e-10 0.01585124930815228 -7.7997953052702975 2.4113359460518997 -2.957083936640333 0.5457474945604478 4.956817428497783e-10 0.05942186279107343 4.982917194849343
4.663661707076856 -1.6145008244085115 1.9385115766273253 -1.8948070861303414 -1.570796325322248 1.5330146740400337 -2.2548792643367617 0.6971043740632976 -0.8548772103196289 0.15777269285728365 1.4329895079516307e-10 0.017178543924777055 -7.164517859592172 2.2149375432060423 -2.716235471212613 0.5012974723790536 4.553094742013799e-10 0.05458207306148372 5.033816237214202
4.654091432566986 -1.61154213818201 1.9348832628171855 -1.8941374591553248 -1.57079632532164 1.5330875840994058 -2.413069367304501 0.74600943716643 -0.9148507601518028 0.16884116952622505 1.5335202819934213e-10 0.018383697422472468 -6.423360839634361 1.9858060732192107 -2.4352455948802754 0.4494391131674274 4.082084941115821e-10 0.048935651710295756 5.08471527957906
4.640542323144803 -1.6073533802328592 1.9297464800863557 -1.8931894352353014 -1.5707963253207788 1.5331908064648034 -2.552928897980925 0.7892475351573007 -0.967874763393254 0.1786270658824389 1.622401865684468e-10 0.019449201517979034 -5.590441521967493 1.7283059450435347 -2.119466495763933 0.3911601951962666 3.552759641059046e-10 0.0425901496203893 5.135614321943918
4.622624353096507 -1.6018139726501315 1.9229533606090767 -1.8919357244802437 -1.5707963253196402 1.5333273125032356 -2.672488003821295 0.826209680740263 -1.0132024030969202 0.1869925523997813 1.6983824057333485e-10 0.020360049111360037 -4.679877183162178 1.4468015676311405 -1.7742503619842025 0.3274484967362688 2.974090457098672e-10 0.035653117674644075 5.186513364308777
4.6000658405627295 -1.594839923968956 1.9144009034692004 -1.8903573174561514 -1.5707963253182065 1.5334991719923745 -2.770105141038331 0.8563883845022795 -1.0502113318069166 0.1938227711397992 1.7604186910638766e-10 0.02110373428600156 -3.705785099789049 1.1456573499341582 -1.4049493816616963 0.2592917960581311 2.355049004489895e-10 0.02823210675593983 5.237412406673635
4.572705812451153 -1.5863814687546431 1.9040280800208589 -1.8884429509620837 -1.5707963253164678 1.5337076112876094 -2.8444670746022043 0.8793776549129184 -1.0784036715585332 0.19902583575172977 1.8076761528151023e-10 0.02167025230861245 -2.682282548418748 0.8292377009047242 -1.016915742917038 0.18767787143255218 1.7046068984879254e-10 0.020434667747156476 5.288311449038493
4.540486369349123 -1.5764207071868106 1.8918129392491352 -1.886188573807188 -1.5707963253144201 1.5339530714890994 -2.8945888782405453 0.8948729983243566 -1.0974060138782393 0.2025328314725012 1.8395288643413142e-10 0.022052099629224334 -1.6234868056218736 0.5019070294949649 -0.6155016338708396 0.11359450113022894 1.0317357543479597e-10 0.01236835153117366 5.339210491403351
4.503445050436274 -1.5649692446435086 1.8777697131307334 -1.883596812587731 -1.5707963253120663 1.5342352666088295 -2.9198139344384453 0.9026714189713801 -1.1069694197836808 0.20429781512673226 1.8555595412120396e-10 0.02224427388119168 -0.5435151479690612 0.1680297446570085 -0.20605924264371434 0.038029463421859186 3.4540718732518547e-11 0.004140708990871198 5.390109533768209
4.461707198397137 -1.552065831285345 1.8619459219946497 -1.8806764374641296 -1.5707963253094137 1.5345532417376624 -2.9198139344384444 0.9026714189713798 -1.1069694197836808 0.20429781512673229 1.8555595412120396e-10 0.02224427388119168 0.5435151479690612 -0.16802974465701206 0.20605924264371434 -0.03802946342185963 -3.4540718732518547e-11 -0.004140708990871198 5.4410085761330675
4.415478324333764 -1.537774001639611 1.844419479882842 -1.877441827937981 -1.5707963253064758 1.5349054312123942 -2.8945888782405467 0.8948729983243571 -1.0974060138782396 0.20253283147250126 1.8395288643413147e-10 0.02205209962922434 1.6234868056218719 -0.5019070294949666 0.615501633870838 -0.11359450113022886 -1.0317357543479548e-10 -0.012368351531173643 5.491907618497926
4.365036472678341 -1.5221797141844067 1.8252957999108999 -1.8739124386290928 -1.5707963253032702 1.5352897167828081 -2.8444670746022043 0.8793776549129183 -1.0784036715585328 0.19902583575172983 1.8076761528151023e-10 0.021670252308612446 2.682282548418755 -0.8292377009047295 1.0169157429170415 -0.18767787143255307 -1.7046068984879296e-10 -0.02043466774715653 5.542806660862784
4.310724586105809 -1.505388990932766 1.804704899628716 -1.8701122650525142 -1.5707963252998187 1.5357034857787273 -2.77010514103833 0.8563883845022789 -1.0502113318069162 0.19382277113979912 1.7604186910638766e-10 0.02110373428600156 3.7057850997890562 -1.1456573499341636 1.4049493816616963 -0.2592917960581315 -2.355049004489895e-10 -0.02823210675593983 5.593705703227642
4.252942870446477 -1.4875255570167822 1.7827985063811553 -1.8660693093955656 -1.5707963252961468 1.5361436892770706 -2.672488003821296 0.8262096807402632 -1.0132024030969211 0.18699255239978138 1.6983824057333498e-10 0.020360049111360055 4.6798771831621835 -1.446801567631142 1.7742503619841992 -0.32744849673626875 -2.9740904570986716e-10 -0.035653117674644054 5.644604745592501
4.192141159598644 -1.468728480271734 1.759747162668726 -1.8618150462948695 -1.5707963252922827 1.5366069002689053 -2.5529288979809244 0.7892475351572996 -0.9678747633932534 0.1786270658824389 1.6224018656844683e-10 0.019449201517979017 5.590441521967486 -1.7283059450435347 2.1194664957639278 -0.39116019519626705 -3.55275964105904e-10 -0.042590149620389275 5.6955037879573585
4.128811280441212 -1.4491498108202094 1.7357373315082498 -1.857383888613381 -1.570796325288258 1.537089371826502 -2.4130693673045034 0.7460094371664295 -0.9148507601518034 0.16884116952622508 1.5335202819934215e-10 0.018383697422472478 6.423360839634366 -1.9858060732192162 2.4352455948802785 -0.44943911316742835 -4.0820849411158243e-10 -0.04893565171029583 5.746402830322217
4.063479417746306 -1.4289522206562335 1.7109685017935317 -1.852812653217419 -1.5707963252841062 1.5375870952703876 -2.2548792643367626 0.6971043740632975 -0.8548772103196297 0.15777269285728385 1.4329895079516326e-10 0.01717854392477708 7.164517859592175 -2.2149375432060476 2.7162354712126167 -0.5012974723790545 -4.5530947420138053e-10 -0.05458207306148375 5.7973018726870755
3.996698479091891 -1.4083066432293911 1.6856502936560307 -1.848140026753694 -1.5707963252798622 1.5380958583364004 -2.0806567503799034 0.6432428310261559 -0.7888254003349732 0.14558243698944912 1.3222700390657563e-10 0.015851249308152297 7.799795305270305 -2.4113359460519024 2.957083936640333 -0.545747494560448 -4.956817428497787e-10 -0.05942186279107348 5.848200915051933
3.9290404597743867 -1.3873899130289546 1.6599995638255307 -1.8434060314263423 -1.5707963252755626 1.5386113033427435 -1.89302829549357 0.5852367911158677 -0.7176910861272496 0.13245417462424658 1.2030310130576958e-10 0.014421823039180411 8.315075900098103 -2.5706368728046507 3.1524388030428154 -0.5818014014409113 -5.284281385312557e-10 -0.06334747001618501 5.899099957416792
3.8610888077212895 -1.3663824051680074 1.634237510990809 -1.8386514907739533 -1.570796325271244 1.5391289853570391 -1.69494867849488 0.523999735275903 -0.6425944931170577 0.11859465005089243 1.0771502098645855e-10 0.012912775767766595 8.696242367504961 -2.6884759145121624 3.2969478822994436 -0.6084714147497478 -5.526514997202952e-10 -0.0662513438539388 5.94999899978165
3.7934307884037857 -1.345465674967571 1.6085867811603087 -1.8339174954466015 -1.5707963252669443 1.5396444303633823 -1.4897009869583873 0.4605466423323352 -0.5647803162161625 0.10423357914629183 9.467140516387939e-11 0.01134911932713859 8.929177430920275 -2.760488662222309 3.385258986289608 -0.6247697562162592 -5.674546648913744e-10 -0.06802593342145498 6.000898042146508
3.72664984974937 -1.3248200975407287 1.5832685730228078 -1.8292448689828766 -1.5707963252627004 1.540153193429395 -1.2808966172161218 0.3959939889938528 -0.4856177198275174 0.08962364937504302 8.140176027479355e-11 0.00975836673384711 8.99976381377341 -2.7823107069829627 3.412019926892687 -0.6297086475697474 -5.719404725189742e-10 -0.06856368783585387 6.051797084511366
3.6613179870544643 -1.3046225073767528 1.5584997433080898 -1.8246736335869145 -1.5707963252585486 1.5406509168732807 -1.072475274357562 0.33155974985174685 -0.4066003378452479 0.0750405197894338 6.8156456977486e-11 0.0081705321877656 8.893884239493756 -2.7495776398419953 3.37187851598808 -0.6223003105395167 -5.65211761077577e-10 -0.06775705621425585 6.102696126876225
3.597988107897033 -1.2850438379252285 1.5344899121476137 -1.820242475905426 -1.5707963252545238 1.5411333884308773 -0.8687049722296285 0.2685633973799151 -0.3293462736546504 0.06078282102944178 5.5206730151763313e-11 0.006618131072090144 8.597421431510634 -2.6579250518472644 3.259482565455148 -0.6015569668548669 -5.463713690416571e-10 -0.06549848767378055 6.153595169241083
3.537186397049199 -1.26624676118018 1.511438568435184 -1.8159882128047302 -1.5707963252506598 1.541596599422712 -0.6741820334367059 0.20842590193486443 -0.25559810013220813 0.04717215532273488 4.284467889895883e-11 0.005136179953339793 8.096258113253423 -2.502988534046636 3.069479887173269 -0.5664908382450996 -5.14522134885697e-10 -0.06168043133154866 6.204494211605941
3.479404681389868 -1.2483833272641962 1.4895321751876236 -1.8119452571477814 -1.5707963252469879 1.5420368029210554 -0.4938310893406665 0.15266973175571502 -0.1872228596455793 0.03455309648467562 3.1383266541929457e-11 0.0037621965813563743 7.376277008151546 -2.2804036774880023 2.796518293021857 -0.5161141464395191 -4.687668970841808e-10 -0.0561953363046803 6.2553932539708
3.425092794817336 -1.2315926040125558 1.4689412749054398 -1.8081450835712027 -1.5707963252435364 1.5424505719169745 -0.33290508006078406 0.10291885296418352 -0.12621206405359658 0.023293189918311998 2.115632062505243e-11 0.002536199889304386 6.423360839634366 -1.985806073219214 2.435245594880277 -0.4494391131674285 -4.0820849411158243e-10 -0.04893565171029582 6.306292296335657
3.374650943161913 -1.2159983165573511 1.4498175949334975 -1.8046156942623146 -1.5707963252403307 1.5428348574873885 -0.19698525447383272 0.060898729564603446 -0.07468169470626965 0.013782952614385446 1.2518532914231884e-11 0.001500709993671146 5.223392331131235 -1.6148313122881512 1.9803096046279103 -0.3654779601581282 -3.3194976444238386e-10 -0.03979382666551523 6.357191338700516
3.328422069098539 -1.2017064869116172 1.4322911528216895 -1.801381084736166 -1.5707963252373929 1.5431870469621203 -0.09198117021403322 0.028436323443914297 -0.03487220244478892 0.00643587315132797 5.845459396895414e-12 0.0007007481942669916 3.7622542060715465 -1.1631149857426781 1.4263581341441567 -0.26324290914092274 -2.3909354655106914e-10 -0.02866231028745889 6.408090381065374
3.2866842170594035 -1.188803073553454 1.4164673616856063 -1.7984607096125647 -1.5707963252347403 1.5435050220909532 -0.024130693673046908 0.007460094371662772 -0.009148507601515492 0.0016884116952623758 1.5335202819934547e-12 0.0001838369742247326 2.025829187884666 -0.6262926846306737 0.7680389953083953 -0.14174618184511226 -1.287426789121155e-10 -0.015433551693247031 6.458989423430232
3.2496428981465533 -1.1773516110101516 1.4024241355672045 -1.7958689483931076 -1.5707963252323864 1.5437872172106832 0.0 -1.7763568394002505e-15 0.0 0.0 0.0 0.0 0.0 -3.552713678800501e-15 0.0 -8.881784197001252e-16 0.0 0.0 6.509888465795091
3.2174234550445235 -1.1673908494423193 1.3902089947954805 -1.7936145712382119 -1.5707963252303387 1.5440326774121733 0.0 0.0 0.0 0.0 0.0 0.0 0.0 0.0 0.0 0.0 0.0 0.0 6.560787508159949
3.190063426932948 -1.1589323942280063 1.3798361713471388 -1.7917002047441442 -1.5707963252286001 1.5442411167074082 1.1712035409255465e-10 0.0086599925253983 0.019316928098502134 -0.027976906691060614 -2.1099824979681575e-10 -8.424842803120392e-11 3.027110690392182e-09 0.22382749911798683 0.4992682954689783 -0.7230954344766436 -5.4534932255177e-09 -2.1774978321911167e-09 6.611686550524807
3.1675049143991707 -1.1519583455468312 1.3712837142072627 -1.790121797720052 -1.5707963252271664 1.544412976196547 3.991794317000679e-10 0.029515714169404857 0.06583757742448065 -0.09535324410681015 -7.191419638045318e-10 -2.8714257127794946e-10 4.657093369834126e-09 0.34434999864305665 0.7681050699522742 -1.1124545145794518 -8.389989577719537e-09 -3.3499966649094102e-09 6.662585592889665
3.1495869443508733 -1.1464189379641032 1.3644905947299835 -1.788868086964994 -1.5707963252260277 1.5445494822349792 7.546986130579409e-10 0.05580314710153105 0.12447416981815873 -0.18027722713943792 -1.359627775317943e-09 -5.428789238223732e-10 5.122802706817539e-09 0.37878499850736236 0.8449155769475016 -1.2236999660373966 -9.228988535491492e-09 -3.6849963314003514e-09 6.713484635254523
3.1360378349286906 -1.1422301800149528 1.3593538119991544 -1.787920063044971 -1.5707963252251667 1.5446527046003768 1.1088317547224108e-09 0.08198809491501349 0.18288215951244627 -0.26487012251891706 -1.9976165661236995e-09 -7.976182535498597e-10 4.657093369834126e-09 0.3443499986430567 0.7681050699522743 -1.1124545145794513 -8.389989577719537e-09 -3.3499966649094102e-09 6.7643836776193815
3.1264675604188206 -1.139271493788451 1.3557254981890137 -1.7872504360699542 -1.5707963252245585 1.544725614659749 1.4033651895705516e-09 0.10376618262681396 0.2314602331329398 -0.3352262488130044 -2.528233466500307e-09 -1.0094856021490411e-09 3.492820027375593e-09 0.25826249898229253 0.5760788024642058 -0.8343408859345883 -6.292492183289654e-09 -2.5124974986820583e-09 6.81528271998424
3.1203601161656476 -1.1373833545117407 1.3534100239248654 -1.7868231014709186 -1.5707963252241703 1.5447721435364967 1.5967177268002715e-09 0.11806285667761943 0.2633503096979226 -0.3814129764272405 -2.876567855218127e-09 -1.1485702851117976e-09 1.862837347933653e-09 0.1377399994572228 0.3072420279809097 -0.44498180583178 -3.3559958310878205e-09 -1.339998665963766e-09 6.866181762349098
3.1170658834843636 -1.1363649301341585 1.352161103643739 -1.786592605776872 -1.570796325223961 1.544797240277466 1.663940651930318e-09 0.12303338493184213 0.2744375406183647 -0.39747072760494984 -2.9976733595393767e-09 -1.1969258917332581e-09 0.0 0.0 0.0 8.881784197001252e-16 0.0 0.0 6.917080804713956
3.1157939945735733 -1.1359717209113596 1.351678900955068 -1.786503612391885 -1.5707963252238801 1.544806930020002 1.5967177268002719e-09 0.11806285667761948 0.2633503096979226 -0.3814129764272406 -2.8765678552181277e-09 -1.1485702851117978e-09 -1.8628373479336525e-09 -0.1377399994572228 -0.30724202798090977 0.44498180583178243 3.3559958310878122e-09 1.3399986659637648e-09 6.967979847078814
3.115604697427921 -1.135913198989446 1.3516071340013527 -1.7864903673721217 -1.5707963252238681 1.5448083721590038 1.4033651895705512e-09 0.10376618262681402 0.2314602331329397 -0.3352262488130044 -2.5282334665003084e-09 -1.0094856021490413e-09 -3.4928200273755895e-09 -0.25826249898229253 -0.5760788024642055 0.8343408859345897 6.292492183289644e-09 2.512497498682054e-09 7.018878889443672
3.115604697427922 -1.1359131989894458 1.3516071340013536 -1.7864903673721217 -1.5707963252238681 1.5448083721590038 1.1088317547224106e-09 0.0819880949150135 0.1828821595124462 -0.2648701225189173 -1.9976165661237003e-09 -7.976182535498605e-10 -4.657093369834128e-09 -0.34434999864305704 -0.7681050699522749 1.1124545145794553 8.38998957771954e-09 3.349996664909416e-09 7.069777931808531
3.1156046974308196 -1.135698956289043 1.3520850225015082 -1.7871824982279896 -1.5707963252290882 1.5448083721569195 7.546986130579422e-10 0.05580314710153089 0.12447416981815863 -0.18027722713943756 -1.3596277753179402e-09 -5.428789238223731e-10 -5.122802706817534e-09 -0.378784998507362 -0.8449155769475013 1.2236999660373995 9.228988535491485e-09 3.6849963314003477e-09 7.119777931808531
3.115604697448567 -1.134386658746028 1.3550122256379902 -1.7914219967961644 -1.570796325261062 1.544808372144153 3.991794317000669e-10 0.029515714169404912 0.06583757742448083 -0.09535324410681023 -7.191419638045286e-10 -2.871425712779473e-10 -4.6570933698341234e-09 -0.3443499986430561 -0.7681050699522742 1.112454514579453 8.38998957771953e-09 3.3499966649094086e-09 7.171869966224988
3.115604697489581 -1.1313540752829216 1.3617766883713849 -1.8012190381136202 -1.57079632533495 1.5448083721146506 1.1712035409255462e-10 0.008659992525398329 0.01931692809850231 -0.027976906691060757 -2.109982497968173e-10 -8.42484280312058e-11 -3.0271106903921947e-09 -0.2238274991179872 -0.4992682954689797 0.7230954344766501 5.4534932255177e-09 2.1774978321911258e-09 7.223962000641445
3.115604697556335 -1.1264181967592881 1.3727866298077473 -1.8171648501324078 -1.570796325455211 1.544808372066632 0.0 0.0 0.0 0.0 0.0 0.0 0.0 0.0 0.0 3.552713678800501e-15 0.0 0.0 7.2760540350579035
3.1156046976465532 -1.1197473915843277 1.3876664883695071 -1.8387155031366405 -1.5707963256177435 1.5448083720017354 0.0 0.0 0.0 0.0 0.0 0.0 0.0 0.0 0.0 3.552713678800501e-15 0.0 0.0 7.328146069474361
3.1156046977543936 -1.1117735613294681 1.4054528669663753 -1.864475699159477 -1.5707963258120234 1.544808371924162 0.0 0.0 0.0 0.0 0.0 0.0 0.0 0.0 0.0 3.552713678800501e-15 0.0 0.0 7.380238103890818
3.1156046978716394 -1.1031042963409545 1.4247904781662508 -1.8924825614001084 -1.5707963260232476 1.5448083718398236 0.0 0.0 0.0 0.0 0.0 0.0 0.0 0.0 0.0 3.552713678800501e-15 0.0 0.0 7.432330138307275
3.115604697988885 -1.094435031352441 1.4441280893661264 -1.9204894236407395 -1.570796326234472 1.544808371755485 0.0 0.0 0.0 0.0 0.0 0.0 0.0 0.0 0.0 3.552713678800501e-15 0.0 0.0 7.484422172723733
3.1156046980967256 -1.0864612010975814 1.4619144679629945 -1.9462496196635763 -1.5707963264287519 1.5448083716779117 0.0 0.0 0.0 0.0 0.0 0.0 0.0 0.0 0.0 3.552713678800501e-15 0.0 0.0 7.536514207140191
3.1156046981869436 -1.079790395922621 1.4767943265247543 -1.9678002726678092 -1.5707963265912843 1.5448083716130152 0.0 0.0 0.0 0.0 0.0 0.0 0.0 0.0 0.0 0.0 0.0 0.0 7.588606241556648
3.115604698253698 -1.0748545173989874 1.4878042679611168 -1.9837460846865969 -1.5707963267115455 1.5448083715649965 -1.1712035409255465e-10 -0.0086599925253983 -0.019316928098502134 0.027976906691060614 2.1099824979681575e-10 8.424842803120392e-11 -3.027110690392182e-09 -0.22382749911798683 -0.4992682954689783 0.7230954344766436 5.4534932255177e-09 2.1774978321911167e-09 7.640698275973105
3.1156046982947116 -1.071821933935881 1.4945687306945117 -1.9935431260040524 -1.5707963267854335 1.544808371535494 -3.991794317000679e-10 -0.029515714169404857 -0.06583757742448065 0.09535324410681015 7.191419638045318e-10 2.8714257127794946e-10 -4.657093369834126e-09 -0.34434999864305665 -0.7681050699522742 1.1124545145794518 8.389989577719537e-09 3.3499966649094102e-09 7.6927903103895625
3.1156046983124592 -1.0705096363928663 1.4974959338309934 -1.9977826245722272 -1.5707963268174072 1.5448083715227277 -7.546986130579409e-10 -0.05580314710153105 -0.12447416981815873 0.18027722713943792 1.359627775317943e-09 5.428789238223732e-10 -5.122802706817539e-09 -0.37878499850736236 -0.8449155769475016 1.2236999660373966 9.228988535491492e-09 3.6849963314003514e-09 7.744882344806021
3.115604698315357 -1.0702953936924633 1.497973822331148 -1.998474755428095 -1.5707963268226273 1.5448083715206433 -1.1088317547224108e-09 -0.08198809491501349 -0.18288215951244627 0.26487012251891706 1.9976165661236995e-09 7.976182535498597e-10 -4.657093369834126e-09 -0.3443499986430567 -0.7681050699522743 1.1124545145794513 8.389989577719537e-09 3.3499966649094102e-09 7.796974379222478
3.115604698315357 -1.0702953936924633 1.497973822331148 -1.998474755428095 -1.5707963268226273 1.5448083715206433 -1.4033651895705516e-09 -0.10376618262681396 -0.2314602331329398 0.3352262488130044 2.528233466500307e-09 1.0094856021490411e-09 -3.492820027375593e-09 -0.25826249898229253 -0.5760788024642058 0.8343408859345883 6.292492183289654e-09 2.5124974986820583e-09 7.849066413638935
3.115604698315357 -1.0702953936924633 1.497973822331148 -1.998474755428095 -1.5707963268226273 1.5448083715206433 -1.5967177268002715e-09 -0.11806285667761943 -0.2633503096979226 0.3814129764272405 2.876567855218127e-09 1.1485702851117976e-09 -1.862837347933653e-09 -0.1377399994572228 -0.3072420279809097 0.44498180583178 3.3559958310878205e-09 1.339998665963766e-09 7.899066413638935
3.115604698315357 -1.0702953936924633 1.497973822331148 -1.998474755428095 -1.5707963268226273 1.5448083715206433 -1.663940651930318e-09 -0.12303338493184213 -0.2744375406183647 0.39747072760494984 2.9976733595393767e-09 1.1969258917332581e-09 0.0 0.0 0.0 -8.881784197001252e-16 0.0 0.0 7.961566413638935
3.115604698315357 -1.0702953936924633 1.497973822331148 -1.998474755428095 -1.5707963268226273 1.5448083715206433 -1.5967177268002719e-09 -0.11806285667761948 -0.2633503096979226 0.3814129764272406 2.8765678552181277e-09 1.1485702851117978e-09 1.8628373479336525e-09 0.1377399994572228 0.30724202798090977 -0.44498180583178243 -3.3559958310878122e-09 -1.3399986659637648e-09 8.024066413638936
3.115604698315357 -1.0702953936924633 1.497973822331148 -1.998474755428095 -1.5707963268226273 1.5448083715206433 -1.4033651895705512e-09 -0.10376618262681402 -0.2314602331329397 0.3352262488130044 2.5282334665003084e-09 1.0094856021490413e-09 3.4928200273755895e-09 0.25826249898229253 0.5760788024642055 -0.8343408859345897 -6.292492183289644e-09 -2.512497498682054e-09 8.086566413638936
3.115604698315357 -1.0702953936924633 1.497973822331148 -1.998474755428095 -1.5707963268226273 1.5448083715206433 -1.1088317547224106e-09 -0.0819880949150135 -0.1828821595124462 0.2648701225189173 1.9976165661237003e-09 7.976182535498605e-10 4.657093369834128e-09 0.34434999864305704 0.7681050699522749 -1.1124545145794553 -8.38998957771954e-09 -3.349996664909416e-09 8.149066413638936
3.1156046983124592 -1.0705096363928661 1.4974959338309934 -1.9977826245722272 -1.5707963268174072 1.5448083715227277 -7.546986130579422e-10 -0.05580314710153089 -0.12447416981815863 0.18027722713943756 1.3596277753179402e-09 5.428789238223731e-10 5.122802706817534e-09 0.378784998507362 0.8449155769475013 -1.2236999660373995 -9.228988535491485e-09 -3.6849963314003477e-09 8.199066413638937
3.1156046982947116 -1.071821933935881 1.4945687306945115 -1.9935431260040524 -1.5707963267854335 1.544808371535494 -3.991794317000669e-10 -0.029515714169404912 -0.06583757742448083 0.09535324410681023 7.191419638045286e-10 2.871425712779473e-10 4.6570933698341234e-09 0.3443499986430561 0.7681050699522742 -1.112454514579453 -8.38998957771953e-09 -3.3499966649094086e-09 8.251158448055394
3.115604698253698 -1.0748545173989874 1.4878042679611168 -1.9837460846865966 -1.5707963267115455 1.5448083715649965 -1.1712035409255462e-10 -0.008659992525398329 -0.01931692809850231 0.027976906691060757 2.109982497968173e-10 8.42484280312058e-11 3.0271106903921947e-09 0.2238274991179872 0.4992682954689797 -0.7230954344766501 -5.4534932255177e-09 -2.1774978321911258e-09 8.303250482471851
3.1156046981869436 -1.079790395922621 1.4767943265247543 -1.967800272667809 -1.5707963265912843 1.5448083716130152 0.0 0.0 0.0 0.0 0.0 0.0 0.0 0.0 0.0 -3.552713678800501e-15 0.0 0.0 8.355342516888308
3.1156046980967256 -1.0864612010975814 1.4619144679629945 -1.9462496196635763 -1.5707963264287519 1.5448083716779117 0.0 0.0 0.0 0.0 0.0 0.0 0.0 0.0 0.0 -3.552713678800501e-15 0.0 0.0 8.407434551304766
3.115604697988885 -1.094435031352441 1.4441280893661264 -1.9204894236407397 -1.570796326234472 1.544808371755485 0.0 0.0 0.0 0.0 0.0 0.0 0.0 0.0 0.0 -3.552713678800501e-15 0.0 0.0 8.459526585721223
3.1156046978716394 -1.1031042963409545 1.4247904781662508 -1.8924825614001084 -1.5707963260232476 1.5448083718398236 0.0 0.0 0.0 0.0 0.0 0.0 0.0 0.0 0.0 -3.552713678800501e-15 0.0 0.0 8.51161862013768
3.1156046977543936 -1.1117735613294681 1.4054528669663753 -1.8644756991594773 -1.5707963258120234 1.544808371924162 0.0 0.0 0.0 0.0 0.0 0.0 0.0 0.0 0.0 -3.552713678800501e-15 0.0 0.0 8.56371065455414
3.1156046976465532 -1.1197473915843277 1.3876664883695071 -1.8387155031366405 -1.5707963256177435 1.5448083720017354 0.0 0.0 0.0 0.0 0.0 0.0 0.0 0.0 0.0 -3.552713678800501e-15 0.0 0.0 8.615802688970597
3.115604697556335 -1.1264181967592881 1.3727866298077473 -1.8171648501324076 -1.570796325455211 1.544808372066632 0.0 0.0 0.0 0.0 0.0 0.0 0.0 0.0 0.0 -3.552713678800501e-15 0.0 0.0 8.667894723387054
3.115604697489581 -1.1313540752829216 1.3617766883713849 -1.80121903811362 -1.57079632533495 1.5448083721146506 0.0 0.0 0.0 0.0 0.0 0.0 0.0 0.0 0.0 -3.552713678800501e-15 0.0 0.0 8.719986757803511
3.115604697448567 -1.134386658746028 1.35501222563799 -1.7914219967961644 -1.570796325261062 1.544808372144153 0.0 0.0 0.0 0.0 0.0 0.0 0.0 0.0 0.0 -3.552713678800501e-15 0.0 0.0 8.772078792219968
3.1156046974308196 -1.1356989562890427 1.3520850225015082 -1.7871824982279896 -1.5707963252290882 1.5448083721569195 0.0 0.0 0.0 0.0 0.0 0.0 0.0 0.0 0.0 -3.552713678800501e-15 0.0 0.0 8.824170826636426
3.115604697427922 -1.1359131989894458 1.3516071340013536 -1.7864903673721217 -1.5707963252238681 1.5448083721590038 0.0 0.0 0.0 0.0 0.0 0.0 0.0 0.0 0.0 -3.552713678800501e-15 0.0 0.0 8.876262861052883
3.115604697427922 -1.1359131989894458 1.3516071340013536 -1.7864903673721217 -1.5707963252238681 1.5448083721590038 0.0 0.0 0.0 0.0 0.0 0.0 0.0 0.0 0.0 -3.552713678800501e-15 0.0 0.0 8.92835489546934
3.115604697427922 -1.1359131989894458 1.3516071340013536 -1.7864903673721217 -1.5707963252238681 1.5448083721590038 0.0 0.0 0.0 0.0 0.0 0.0 0.0 0.0 0.0 -3.552713678800501e-15 0.0 0.0 8.97835489546934
3.115604697427922 -1.1359131989894458 1.3516071340013536 -1.7864903673721217 -1.5707963252238681 1.5448083721590038 0.0 0.0 0.0 0.0 0.0 0.0 0.0 0.0 0.0 -3.552713678800501e-15 0.0 0.0 9.028354895469342
3.115604697427922 -1.1359131989894458 1.3516071340013536 -1.7864903673721217 -1.5707963252238681 1.5448083721590038 0.0 0.0 0.0 0.0 0.0 0.0 0.0 0.0 0.0 -3.552713678800501e-15 0.0 0.0 9.07835489546934
3.115604697427922 -1.1359131989894458 1.3516071340013536 -1.7864903673721217 -1.5707963252238681 1.5448083721590038 0.0 0.0 0.0 0.0 0.0 0.0 0.0 0.0 0.0 -3.552713678800501e-15 0.0 0.0 9.128354895469341
3.115604697427922 -1.1359131989894458 1.3516071340013536 -1.7864903673721217 -1.5707963252238681 1.5448083721590038 0.0 0.0 0.0 0.0 0.0 0.0 0.0 0.0 0.0 -3.552713678800501e-15 0.0 0.0 9.17835489546934
3.115604697427922 -1.1359131989894458 1.3516071340013536 -1.7864903673721217 -1.5707963252238681 1.5448083721590038 0.0 0.0 0.0 0.0 0.0 0.0 0.0 0.0 0.0 -3.552713678800501e-15 0.0 0.0 9.22835489546934
3.115604697427922 -1.1359131989894458 1.3516071340013536 -1.7864903673721217 -1.5707963252238681 1.5448083721590038 0.0 0.0 0.0 0.0 0.0 0.0 0.0 0.0 0.0 -3.552713678800501e-15 0.0 0.0 9.278354895469342
3.115604697427922 -1.1359131989894458 1.3516071340013536 -1.7864903673721217 -1.5707963252238681 1.5448083721590038 0.0 0.0 0.0 0.0 0.0 0.0 0.0 0.0 0.0 -3.552713678800501e-15 0.0 0.0 9.32835489546934
3.115604697427922 -1.1359131989894458 1.3516071340013536 -1.7864903673721217 -1.5707963252238681 1.5448083721590038 0.0 0.0 0.0 0.0 0.0 0.0 0.0 0.0 0.0 -3.552713678800501e-15 0.0 0.0 9.378354895469341
3.115604697427922 -1.1359131989894458 1.3516071340013536 -1.7864903673721217 -1.5707963252238681 1.5448083721590038 0.0 0.0 0.0 0.0 0.0 0.0 0.0 0.0 0.0 -3.552713678800501e-15 0.0 0.0 9.42835489546934
3.115604697427922 -1.1359131989894458 1.3516071340013536 -1.7864903673721217 -1.5707963252238681 1.5448083721590038 0.0 0.0 0.0 0.0 0.0 0.0 0.0 0.0 0.0 -3.552713678800501e-15 0.0 0.0 9.47835489546934
3.115604697427922 -1.1359131989894458 1.3516071340013536 -1.7864903673721217 -1.5707963252238681 1.5448083721590038 0.0 0.0 0.0 0.0 0.0 0.0 0.0 0.0 0.0 -3.552713678800501e-15 0.0 0.0 9.52835489546934
3.115604697427922 -1.1359131989894458 1.3516071340013536 -1.7864903673721217 -1.5707963252238681 1.5448083721590038 0.0 0.0 0.0 0.0 0.0 0.0 0.0 0.0 0.0 -3.552713678800501e-15 0.0 0.0 9.57835489546934
3.115604697427922 -1.1359131989894458 1.3516071340013536 -1.7864903673721217 -1.5707963252238681 1.5448083721590038 0.0 0.0 0.0 0.0 0.0 0.0 0.0 0.0 0.0 -3.552713678800501e-15 0.0 0.0 9.628354895469341
3.115604697427922 -1.1359131989894458 1.3516071340013536 -1.7864903673721217 -1.5707963252238681 1.5448083721590038 0.0 0.0 0.0 0.0 0.0 0.0 0.0 0.0 0.0 -3.552713678800501e-15 0.0 0.0 9.67835489546934
3.115604697427922 -1.1359131989894458 1.3516071340013536 -1.7864903673721217 -1.5707963252238681 1.5448083721590038 0.0 0.0 0.0 0.0 0.0 0.0 0.0 0.0 0.0 -3.552713678800501e-15 0.0 0.0 9.72835489546934
3.115604697427922 -1.1359131989894458 1.3516071340013536 -1.7864903673721217 -1.5707963252238681 1.5448083721590038 0.0 0.0 0.0 0.0 0.0 0.0 0.0 0.0 0.0 -3.552713678800501e-15 0.0 0.0 9.77835489546934
3.115604697427922 -1.1359131989894458 1.3516071340013536 -1.7864903673721217 -1.5707963252238681 1.5448083721590038 0.0 0.0 0.0 0.0 0.0 0.0 0.0 0.0 0.0 -3.552713678800501e-15 0.0 0.0 9.82835489546934
3.115604697427922 -1.1359131989894458 1.3516071340013536 -1.7864903673721217 -1.5707963252238681 1.5448083721590038 0.0 0.0 0.0 0.0 0.0 0.0 0.0 0.0 0.0 -3.552713678800501e-15 0.0 0.0 9.87835489546934
3.115604697427922 -1.1359131989894458 1.3516071340013536 -1.7864903673721217 -1.5707963252238681 1.5448083721590038 0.0 0.0 0.0 0.0 0.0 0.0 0.0 0.0 0.0 -3.552713678800501e-15 0.0 0.0 9.92835489546934
3.115604697427922 -1.1359131989894458 1.3516071340013536 -1.7864903673721217 -1.5707963252238681 1.5448083721590038 0.0 0.0 0.0 0.0 0.0 0.0 0.0 0.0 0.0 -3.552713678800501e-15 0.0 0.0 9.97835489546934
3.115604697427922 -1.1359131989894458 1.3516071340013536 -1.7864903673721217 -1.5707963252238681 1.5448083721590038 0.0 0.0 0.0 0.0 0.0 0.0 0.0 0.0 0.0 0.0 0.0 0.0 10.02835489546934
3.115604697427922 -1.1359131989894458 1.3516071340013536 -1.7864903673721217 -1.5707963252238681 1.5448083721590038 0.02514495727421268 -0.009719621722909551 0.011556881321182072 -0.001837258276741622 2.1240756277289556e-10 -0.002853260085439787 1.9600171824001675 -0.7576320522473086 0.900844082471628 -0.14321192721268028 1.6556897200759035e-08 -0.2224079656342808 10.07835489546934
3.115604697427922 -1.1359131989894458 1.3516071340013536 -1.7864903673721217 -1.5707963252238681 1.5448083721590038 0.09548801657846971 -0.03691027946845863 0.043887275812720346 -0.006976991325745963 8.066180687549275e-10 -0.010835259864234194 3.618493259815694 -1.3987053272258003 1.6630967676399286 -0.26439125023879434 3.056657944755514e-08 -0.4105993211709799 10.12835489546934
3.115604697427922 -1.1359131989894458 1.3516071340013536 -1.7864903673721217 -1.5707963252238681 1.5448083721590038 0.20368903259406604 -0.07873468721102472 0.09361757709288909 -0.014882879176682136 1.7206269434088404e-09 -0.02311309501163946 4.991298816719455 -1.9293544974233083 2.2940523395734984 -0.3646975798250036 4.216311068533374e-08 -0.5663749408257597 10.17835489546934
3.115604697427922 -1.1359131989894458 1.3516071340013536 -1.7864903673721217 -1.5707963252238681 1.5448083721590038 0.3428046246141184 -0.13250892573718112 0.15755653588167748 -0.025047592127885782 2.895781210821014e-09 -0.03889888305830337 6.094304437584326 -2.355714235327664 2.8010050823409323 -0.44529052671796937 5.148055485904024e-08 -0.6915356988142819 10.22835489546934
3.115604697427922 -1.1359131989894458 1.3516071340013536 -1.7864903673721217 -1.5707963252238681 1.5448083721590038 0.5062881765435655 -0.1957024426456969 0.23269526000078952 -0.03699279074635908 4.276779493701463e-09 -0.05744976339026526 6.943380706883184 -2.6839192134267003 3.191249280010828 -0.5073297016643532 5.8652975913620065e-08 -0.7878824693522093 10.27835489546934
3.115604697427922 -1.1359131989894458 1.3516071340013536 -1.7864903673721217 -1.5707963252238681 1.5448083721590038 0.6879898368991683 -0.2659380523475371 0.31620721437364435 -0.05026912586777078 5.811672013383841e-09 -0.07806789724895606 7.554398209088904 -2.9201041042082503 3.472079216651781 -0.5519747154108162 6.381443779401864e-08 -0.8572161266552037 10.32835489546934
3.115604697427922 -1.1359131989894458 1.3516071340013536 -1.7864903673721217 -1.5707963252238681 1.5448083721590038 0.8821565188095087 -0.3409919360658623 0.40544822102537575 -0.06445623859645608 7.45186058982543e-09 -0.10010046773119821 7.943227528674362 -3.070403580160145 3.650789176332387 -0.58038517870402 6.709900444518135e-08 -0.9013375449389274 10.37835489546934
3.115604697427922 -1.1359131989894458 1.3516071340013536 -1.7864903673721217 -1.5707963252238681 1.5448083721590038 1.0834319000149915 -0.4187936418360292 0.4979564590828325 -0.0791627603054168 9.152098641607155e-09 -0.1229396797892057 8.125739250112433 -3.140952313770218 3.7346734431212423 -0.5937207022906258 6.864073981205365e-08 -0.9220475984190425 10.42835489546934
3.115604697427922 -1.1359131989894458 1.3516071340013536 -1.7864903673721217 -1.5707963252238681 1.5448083721590038 1.2868564228678427 -0.49742608450558995 0.5914524647745782 -0.09402631263632123 1.087049118593357e-08 -0.1460227602305841 8.117803957875998 -3.1378849775263022 3.7310263010869447 -0.593140896917295 6.857370783958094e-08 -0.9211471613112114 10.47835489546934
3.115604697427922 -1.1359131989894458 1.3516071340013536 -1.7864903673721217 -1.5707963252238681 1.5448083721590038 1.487867294332111 -0.575125545734293 0.6838391314308917 -0.10871350749950424 1.2568494838632871e-08 -0.16883195771833057 7.935292236437924 -3.0673362439162295 3.6471420342980885 -0.5798053733306892 6.703197247270865e-08 -0.9004371078310962 10.52835489546934
3.1158169389421486 -1.1359952395834974 1.3517046823870835 -1.7865058751526453 -1.5707963252220754 1.544784288592887 1.682298485983666 -0.650281673994082 0.7732017094837662 -0.12291994707396725 1.4210917814156884e-08 -0.19089454277083373 7.594074670271094 -2.935440785427832 3.4903149268232716 -0.5548737422774696 6.414959765638217e-08 -0.8617183121943592 10.57835489546934
3.117238485929491 -1.1365447294405542 1.352358040022415 -1.7866097428562087 -1.570796325210067 1.5446229821633581 1.8663807340101999 -0.7214374845690971 0.8578078064669105 -0.13637022380737812 1.5765919925581073e-08 -0.21178280776187386 7.110021843848382 -2.748333274548942 3.2678392627310875 -0.5195056145042973 6.006064733554693e-08 -0.8067916486166622 10.629533321717549
3.120906712531274 -1.1379626588716698 1.3540439947462075 -1.7868777679560963 -1.5707963251790804 1.5442067394776746 2.036741539211227 -0.7872893595556737 0.9361073870157478 -0.1488179204160714 1.720501258460454e-08 -0.23111406692062275 6.499004341642659 -2.5121483837673924 2.9870093260901345 -0.47486060075783426 5.489918545514837e-08 -0.7374579913136677 10.68071174796576
3.1276804488135057 -1.1405810031224097 1.3571572737015476 -1.7873727023046926 -1.5707963251218604 1.5434381069780199 2.190405166998082 -0.8466870478623433 1.006732772867416 -0.16004560988504796 1.8503058801550013e-08 -0.24855065633164367 5.776892748126809 -2.233020785571015 2.6551194009690073 -0.42209831178474144 4.879927596013189e-08 -0.655518214501038 10.731890174213968
3.1382498998821666 -1.1446665565431564 1.3620151022632936 -1.7881449768901987 -1.5707963250325767 1.5422387653951195 2.324792647393923 -0.8986336652098328 1.0684986428607681 -0.16986485546797536 1.963827318536386e-08 -0.26379993393489154 4.959557647773703 -1.9170851524476449 2.279463771436305 -0.36237835833168064 4.18949827954429e-08 -0.562773192394435 10.783068600462176
3.1531465649985098 -1.1504247667594134 1.368861762965618 -1.7892334265933492 -1.5707963249067398 1.540548404201855 2.4377217750337303 -0.9422856941310654 1.120402032936373 -0.17811621068718778 2.0592221943616095e-08 -0.2766142795257128 4.062869625056213 -1.5704761568851093 1.8673367215606202 -0.2968603511453122 3.4320369906026814e-08 -0.46102379920952097 10.834247026710385
3.1727531566943554 -1.1580035688421115 1.3778731544295493 -1.7906660149441287 -1.5707963247411167 1.5383235960668797 2.5274071091643058 -0.9769529839711606 1.161622336136513 -0.1846692193336857 2.1349822882500356e-08 -0.28679109475484554 3.10269926444723 -1.1993284713712462 1.4260325354105514 -0.22670390097229914 2.620950123682908e-08 -0.3520709091619585 10.885425452958595
3.197313519887386 -1.167497219477913 1.3891613502905171 -1.7924605588784885 -1.5707963245336474 1.5355366713082346 2.592459973644269 -1.002098750887432 1.1915213026051854 -0.18942241546713617 2.189934540683391e-08 -0.29417280312841915 2.094917150419614 -0.8097767683938851 0.9628454970546937 -0.15306861855930137 1.769644073279506e-08 -0.2377153964674089 10.936603879206803
3.226942550996441 -1.1789501311395159 1.4027791581258928 -1.7946254534950634 -1.5707963242833614 1.5321745923469623 2.6318884569440697 -1.0173395778493906 1.209643039588104 -0.19230332341587303 2.223241052005768e-08 -0.2986468500079549 1.055393867446245 -0.40795572044086037 0.4850698905616478 -0.07711411465298167 8.915252338870256e-09 -0.1197581353415361 10.987782305455012
3.261636117056814 -1.1923607062559598 1.4187246783825338 -1.7971603968118879 -1.5707963239902936 1.5282378281607232 2.645097412145975 -1.0224454146387432 1.2157140114326963 -0.19326845777689639 2.2343990824236215e-08 -0.30014570261036544 0.0 -3.552713678800501e-15 0.0 4.440892098500626e-16 0.0 0.0 11.03896073170322
3.3012809748355485 -1.2076851713829306 1.436945863304325 -1.8000571145231135 -1.5707963236554008 1.5237392287374103 2.63188845694407 -1.0173395778493908 1.209643039588104 -0.192303323415873 2.2232410520057684e-08 -0.29864685000795493 -1.0553938674462404 0.40795572044085676 -0.4850698905616456 0.07711411465298221 -8.915252338870216e-09 0.11975813534153558 11.09013915795143
3.34566468994673 -1.224841411373065 1.457345075859724 -1.803300084755725 -1.5707963232804771 1.5187028995287646 2.592459973644269 -1.0020987508874315 1.1915213026051854 -0.18942241546713606 2.1899345406833906e-08 -0.294172803128419 -2.0949171504196094 0.8097767683938816 -0.9628454970546951 0.15306861855930237 -1.7696440732795073e-08 0.23771539646740927 11.141317584199639
3.394485555966787 -1.2437128035462561 1.4797836486693008 -1.8068672628262574 -1.5707963228680717 1.51316307590399 2.5274071091643058 -0.9769529839711605 1.1616223361365128 -0.1846692193336856 2.1349822882500356e-08 -0.28679109475484554 -3.102699264447228 1.1993284713712424 -1.4260325354105525 0.22670390097230023 -2.6209501236829106e-08 0.35207090916195916 11.192496010447847
3.4473625135497814 -1.2641520518599574 1.5040864429332843 -1.810730805997512 -1.570796322421403 1.507162997603369 2.4377217750337277 -0.942285694131065 1.1204020329363724 -0.17811621068718764 2.0592221943616072e-08 -0.27661427952571266 -4.062869625056218 1.570476156885104 -1.8673367215606214 0.29686035114531373 -3.432036990602684e-08 0.4610237992095217 11.243674436696057
3.503845069542707 -1.2859850210794879 1.530046407359102 -1.8148577982352736 -1.5707963219442764 1.500753783191877 2.324792647393923 -0.898633665209833 1.0684986428607686 -0.1698648554679753 1.963827318536386e-08 -0.26379993393489143 -4.959557647773703 1.9170851524476413 -2.2794637714363066 0.36237835833168197 -4.18949827954429e-08 0.562773192394435 11.294852862944266
3.563423216100785 -1.3090145709483378 1.5574291370889244 -1.8192109749650274 -1.5707963214410008 1.4939933045127987 2.1904051669980835 -0.8466870478623437 1.0067327728674171 -0.160045609885048 1.8503058801550023e-08 -0.24855065633164397 -5.776892748126815 2.233020785571015 -2.655119400969014 0.42209831178474333 -4.879927596013193e-08 0.6555182145010388 11.346031289192474
3.625537349802758 -1.3330243903584726 1.5859774326272078 -1.8237494478286747 -1.5707963209163025 1.486945061141343 2.036741539211229 -0.7872893595556741 0.9361073870157481 -0.1488179204160713 1.7205012584604533e-08 -0.23111406692062264 -6.499004341642661 2.5121483837673906 -2.9870093260901345 0.47486060075783504 -5.489918545514836e-08 0.7374579913136676 11.397209715440683
3.6895881907661865 -1.3577828315206384 1.6154158587682375 -1.8284294294412504 -1.5707963203752444 1.4796770548382572 1.8663807340102012 -0.721437484569097 0.8578078064669112 -0.13637022380737812 1.5765919925581066e-08 -0.2117828077618739 -7.110021843848386 2.7483332745489384 -3.267839262731089 0.5195056145042991 -6.006064733554701e-08 0.8067916486166633 11.448388141688893
3.7549467017627443 -1.383046744134666 1.645455303523669 -1.8332049581476397 -1.57079631982314 1.4722606640034432 1.682298485983663 -0.6502816739940815 0.7732017094837664 -0.12291994707396707 1.4210917814156863e-08 -0.19089454277083343 -7.594074670271083 2.935440785427827 -3.490314926823267 0.5548737422774704 -6.414959765638215e-08 0.8617183121943586 11.499566567937102
3.820964007333515 -1.4085653095597772 1.6757975370500726 -1.8380286227792941 -1.5707963192654706 1.464769518129573 1.4878672943321112 -0.5751255457342921 0.6838391314308914 -0.10871350749950431 1.2568494838632871e-08 -0.1688319577183307 -7.935292236437924 3.067336243916225 -3.6471420342980885 0.5798053733306907 -6.703197247270865e-08 0.9004371078310962 11.55074499418531
3.8869813129042856 -1.4340838749848883 1.7061397705764767 -1.8428522874109485 -1.5707963187078011 1.4572783722557028 1.2868564228678407 -0.49742608450558884 0.5914524647745781 -0.09402631263632123 1.087049118593354e-08 -0.14602276023058383 -8.117803957876012 3.1378849775262996 -3.7310263010869478 0.5931408969172961 -6.857370783958104e-08 0.9211471613112121 11.601923420433518
3.9523398239008443 -1.4593477875989163 1.7361792153319082 -1.8476278161173378 -1.5707963181556968 1.4498619814208888 1.0834319000149866 -0.4187936418360276 0.49795645908283126 -0.0791627603054167 9.152098641607117e-09 -0.12293967978920574 -8.125739250112437 3.1409523137702196 -3.7346734431212396 0.5937207022906275 -6.864073981205368e-08 0.9220475984190446 11.653101846681729
4.016390664864272 -1.4841062287610818 1.7656176414729374 -1.8523077977299136 -1.5707963176146387 1.442593975117803 0.8821565188095074 -0.3409919360658618 0.4054482210253753 -0.06445623859645591 7.451860589825422e-09 -0.10010046773119828 -7.94322752867436 3.0704035801601415 -3.650789176332392 0.5803851787040213 -6.709900444518135e-08 0.9013375449389274 11.704280272929937
4.078504798566246 -1.5081160481712168 1.7941659370112213 -1.8568462705935609 -1.5707963170899404 1.4355457317463471 0.6879898368991725 -0.26593805234753715 0.31620721437364546 -0.05026912586777109 5.81167201338385e-09 -0.0780678972489564 -7.554398209088904 2.9201041042082445 -3.472079216651784 0.551974715410818 -6.381443779401867e-08 0.8572161266552047 11.755458699178146
4.138082945124323 -1.5311455980400668 1.8215486667410437 -1.8611994473233147 -1.5707963165866647 1.4287852530672691 0.5062881765435641 -0.19570244264569697 0.23269526000078888 -0.036992790746359264 4.276779493701463e-09 -0.05744976339026539 -6.943380706883186 2.6839192134266936 -3.191249280010828 0.5073297016643548 -5.8652975913620065e-08 0.7878824693522097 11.806637125426356
4.194565501117248 -1.552978567259597 1.847508631166861 -1.8653264395610762 -1.5707963161095382 1.422376038655777 0.34280462461411143 -0.13250892573717862 0.15755653588167537 -0.025047592127885418 2.8957812108209514e-09 -0.03889888305830319 -6.094304437584323 2.3557142353276594 -2.801005082340929 0.4452905267179704 -5.148055485904019e-08 0.6915356988142827 11.857815551674564
4.247442458700243 -1.5734178155732983 1.8718114254308444 -1.8691899827323308 -1.5707963156628695 1.416375960355156 0.20368903259406315 -0.07873468721102578 0.09361757709289055 -0.014882879176682457 1.7206269434088046e-09 -0.02311309501163905 -4.991298816719444 1.9293544974233001 -2.2940523395735 0.3646975798250049 -4.21631106853338e-08 0.5663749408257583 11.908993977922773
4.2962633247203 -1.5922892077464894 1.8942499982404217 -1.872757160802863 -1.570796315250464 1.4108361367303814 0.09548801657846277 -0.03691027946845493 0.04388727581271714 -0.0069769913257456215 8.066180687549005e-10 -0.010835259864233754 -3.618493259815658 1.398705327225787 -1.663096767639912 0.264391250238794 -3.056657944755487e-08 0.4105993211709775 11.960172404170981
4.340647039831481 -1.6094454477366238 1.9146492107958202 -1.8760001310354748 -1.5707963148755404 1.4057998075217357 0.025144957274215347 -0.00971962172290858 0.01155688132118429 -0.0018372582767414826 2.1240756277283737e-10 -0.0028532600854390753 -1.9600171824001424 0.7576320522472988 -0.9008440824716222 0.1432119272126814 -1.6556897200759032e-08 0.22240796563427925 12.011350830419191
4.380291897610215 -1.6247699128635948 1.9328703957176119 -1.8788968487467004 -1.5707963145406476 1.4013012080984228 0.0 0.0 0.0 0.0 0.0 0.0 0.0 -7.105427357601002e-15 0.0 1.7763568394002505e-15 0.0 0.0 12.0625292566674
4.41498546367059 -1.6381804879800388 1.948815915974253 -1.8814317920635248 -1.5707963142475798 1.3973644439121837 0.0 0.0 0.0 0.0 0.0 0.0 0.0 0.0 0.0 0.0 0.0 0.0 12.113707682915608
4.444614494779644 -1.6496333996416417 1.962433723809629 -1.8835966866800997 -1.5707963139972938 1.3940023649509115 -7.550819097786716e-08 0.010632063776191704 0.01711636805441367 -0.027748468000947085 5.9118011389567605e-09 -7.525843010304338e-08 -2.2551779705389657e-06 0.31754430478225887 0.511208859225155 -0.8287542442949529 1.7656579401684191e-07 -2.247718445744229e-06 12.164886109163817
4.469174857972675 -1.659127050277443 1.973721919670596 -1.8853912306144596 -1.5707963137898244 1.3912154401922663 -2.6310409656287934e-07 0.0370468355579302 0.059641033576268085 -0.09668799516774451 2.0599342635298223e-08 -2.6223381867016005e-07 -3.608284752862345e-06 0.5080708876516142 0.817934174760248 -1.3260067908719249 2.8250527042694706e-07 -3.5963495131907663e-06 12.216064535412027
4.488781449668519 -1.6667058523601406 1.9827333111345273 -1.886823818965239 -1.5707963136242014 1.3889906320572911 -5.10435371010382e-07 0.0718727511270559 0.11570664804783642 -0.1875796436864023 3.99637756993477e-08 -5.087469874965733e-07 -4.188187659572365e-06 0.5897251374527666 0.9493878814181449 -1.5391150251191983 3.27907903174135e-07 -4.1743342563821395e-06 12.267242961660235
4.503678114784863 -1.6724640625763982 1.9895799718368523 -1.8879122686683896 -1.5707963134983645 1.3873002708640265 -7.732038756133597e-07 0.10887233306820304 0.175271608877196 -0.28414431232969817 6.053684366291723e-08 -7.706463242551642e-07 -4.123754003271252e-06 0.5806524430304163 0.934781914011712 -1.5154363324250566 3.228631662022252e-07 -4.110113729360876e-06 12.318421387908444
4.514247565853525 -1.6765496159971454 1.994437800398599 -1.888684543253896 -1.5707963134090808 1.386100929281126 -1.0151656787024362e-06 0.14294219076879958 0.23012005939822827 -0.37306273645717747 7.948088197930756e-08 -1.0118077824964721e-06 -3.543851096561232e-06 0.4989981932292639 0.803328207353815 -1.3023280981777834 2.774605334550373e-07 -3.5321289861695027e-06 12.369599814156654
4.521021302135755 -1.6791679602478844 1.9975510793539386 -1.889179477602492 -1.5707963133518608 1.3853322967814716 -1.2081310556458745e-06 0.17011302041906723 0.27386188887061874 -0.44397548801515335 9.458881822330817e-08 -1.204134881648694e-06 -2.5773462520445323e-06 0.3629077768940102 0.5842386962573198 -0.9471477077656605 2.0178947887639076e-07 -2.5688210808505474e-06 12.420778240404863
4.52468952873754 -1.680585889679001 1.9992370340777312 -1.8894475027023798 -1.5707963133208742 1.3849160540957879 -1.3319644888495766e-06 0.18754960501202164 0.30193273247985714 -0.4894829755367067 1.0428417209119726e-07 -1.3275587070176852e-06 -1.3531067823233794e-06 0.1905265828693557 0.30672531553509286 -0.49725254657697215 1.0593947641010515e-07 -1.3486310674465374e-06 12.471956666653071
4.526111075724881 -1.6811353795360573 1.9998903917130626 -1.8895513704059432 -1.5707963133088658 1.3847547476662592 -1.3745846677570839e-06 0.1935508143434721 0.3115939713372373 -0.5051454441416856 1.0762105540074174e-07 -1.3700379097869586e-06 0.0 4.440892098500626e-16 0.0 0.0 0.0 0.0 12.52313509290128
4.526323317239107 -1.6812174201301087 1.9999879400987925 -1.8895668781864665 -1.570796313307073 1.3847306641001422 -1.3319644888495766e-06 0.1875496050120216 0.30193273247985725 -0.4894829755367067 1.0428417209119726e-07 -1.3275587070176852e-06 1.3531067823233794e-06 -0.1905265828693548 -0.30672531553509286 0.49725254657697215 -1.0593947641010515e-07 1.3486310674465374e-06 12.57431351914949
4.526323317239108 -1.6812174201301087 1.9999879400987917 -1.8895668781864665 -1.570796313307073 1.3847306641001422 -1.2081310556458745e-06 0.17011302041906717 0.27386188887061874 -0.44397548801515313 9.458881822330817e-08 -1.204134881648694e-06 2.5773462520445323e-06 -0.36290777689401 -0.5842386962573203 0.9471477077656596 -2.0178947887639076e-07 2.5688210808505474e-06 12.625491945397698
4.526323315612886 -1.6809884369787806 2.000356575951519 -1.890164497969524 -1.5707963131797504 1.3847306624792985 -1.0151656787024362e-06 0.14294219076879952 0.2301200593982285 -0.37306273645717736 7.948088197930756e-08 -1.0118077824964721e-06 3.543851096561232e-06 -0.49899819322926325 -0.803328207353815 1.3023280981777847 -2.774605334550373e-07 3.5321289861695027e-06 12.675491945397699
4.526323305471017 -1.6795603933015821 2.0026555577570497 -1.893891528310466 -1.5707963123857078 1.3847306523709766 -7.732038756133597e-07 0.10887233306820307 0.17527160887719595 -0.2841443123296983 6.053684366291723e-08 -7.706463242551642e-07 4.123754003271252e-06 -0.5806524430304154 -0.9347819140117117 1.5154363324250557 -3.228631662022252e-07 4.110113729360876e-06 12.727274729823783
4.52632328148598 -1.676183137932082 2.0080925403725565 -1.902705777784915 -1.5707963105078353 1.3847306284652756 -5.10435371010382e-07 0.07187275112705593 0.11570664804783641 -0.18757964368640245 3.99637756993477e-08 -5.087469874965733e-07 4.188187659572365e-06 -0.5897251374527654 -0.9493878814181458 1.5391150251191967 -3.27907903174135e-07 4.1743342563821395e-06 12.779057514249866
4.52632324135058 -1.670531802254896 2.017190523933035 -1.9174551162484554 -1.570796307365494 1.3847305884626326 -2.6310409656287934e-07 0.03704683555793003 0.05964103357626821 -0.09668799516774479 2.0599342635298223e-08 -2.6223381867016005e-07 3.608284752862345e-06 -0.5080708876516135 -0.8179341747602473 1.3260067908719249 -2.8250527042694706e-07 3.5963495131907663e-06 12.830840298675948
4.526323185274562 -1.6626359197805143 2.0299019629716675 -1.938062464623307 -1.5707963029751058 1.3847305325720989 -7.550819097786716e-08 0.010632063776191537 0.01711636805441412 -0.02774846800094742 5.9118011389567605e-09 -7.525843010304338e-08 2.2551779705389657e-06 -0.3175443047822583 -0.5112088592251562 0.8287542442949518 -1.7656579401684191e-07 2.247718445744229e-06 12.882623083102033
4.5263231154812225 -1.6528085457201245 2.045722875540185 -1.963710784684997 -1.5707962975107403 1.3847304630096169 0.0 0.0 0.0 0.0 0.0 0.0 0.0 8.881784197001252e-16 0.0 0.0 0.0 0.0 12.934405867528117
4.526323035704022 -1.641575376560438 2.0638069523292306 -1.9930280688490347 -1.5707962912647035 1.3847303834962983 0.0 0.0 0.0 0.0 0.0 0.0 0.0 8.881784197001252e-16 0.0 0.0 0.0 0.0 12.9861886519542
4.526322950683197 -1.6296038696385162 2.0830796657887216 -2.0242723299575824 -1.570796284608125 1.3847302987566996 0.0 0.0 0.0 0.0 0.0 0.0 0.0 8.881784197001252e-16 0.0 0.0 0.0 0.0 13.037971436380282
4.526322865662372 -1.6176323627165943 2.1023523792482126 -2.0555165910661306 -1.5707962779515463 1.384730214017101 0.0 0.0 0.0 0.0 0.0 0.0 0.0 8.881784197001252e-16 0.0 0.0 0.0 0.0 13.089754220806366
4.526322785885172 -1.6063991935569077 2.1204364560372584 -2.084833875230168 -1.5707962717055095 1.3847301345037824 0.0 0.0 0.0 0.0 0.0 0.0 0.0 8.881784197001252e-16 0.0 0.0 0.0 0.0 13.14153700523245
4.5263227160918325 -1.596571819496518 2.1362573686057758 -2.1104821952918584 -1.570796266241144 1.3847300649413004 0.0 0.0 0.0 0.0 0.0 0.0 0.0 8.881784197001252e-16 0.0 0.0 0.0 0.0 13.193319789658533
4.526322660015814 -1.5886759370221362 2.1489688076444082 -2.1310895436667097 -1.5707962618507558 1.3847300090507666 0.0 0.0 0.0 0.0 0.0 0.0 0.0 8.881784197001252e-16 0.0 0.0 0.0 0.0 13.245102574084616
4.526322619880414 -1.5830246013449503 2.1580667912048868 -2.14583888213025 -1.5707962587084146 1.3847299690481236 0.0 0.0 0.0 0.0 0.0 0.0 0.0 8.881784197001252e-16 0.0 0.0 0.0 0.0 13.2968853585107
4.526322595895377 -1.57964734597545 2.1635037738203935 -2.1546531316046993 -1.570796256830542 1.3847299451424226 0.0 0.0 0.0 0.0 0.0 0.0 0.0 8.881784197001252e-16 0.0 0.0 0.0 0.0 13.348668142936784
4.526322585753508 -1.5782193022982516 2.1658027556259243 -2.158380161945641 -1.5707962560364994 1.3847299350341007 0.0 0.0 0.0 0.0 0.0 0.0 0.0 8.881784197001252e-16 0.0 0.0 0.0 0.0 13.400450927362867
4.526322584127286 -1.5779903191469236 2.1661713914786516 -2.1589777817286984 -1.5707962559091768 1.384729933413257 0.0 0.0 0.0 0.0 0.0 0.0 0.0 8.881784197001252e-16 0.0 0.0 0.0 0.0 13.45223371178895
4.526322584127286 -1.5779903191469236 2.1661713914786516 -2.1589777817286984 -1.5707962559091768 1.384729933413257 0.0 0.0 0.0 0.0 0.0 0.0 0.0 8.881784197001252e-16 0.0 0.0 0.0 0.0 13.504016496215034
4.526322584127286 -1.5779903191469236 2.1661713914786516 -2.1589777817286984 -1.5707962559091768 1.384729933413257 0.0 0.0 0.0 0.0 0.0 0.0 0.0 8.881784197001252e-16 0.0 0.0 0.0 0.0 13.554016496215034
4.526322584127286 -1.5779903191469236 2.1661713914786516 -2.1589777817286984 -1.5707962559091768 1.384729933413257 0.0 0.0 0.0 0.0 0.0 0.0 0.0 8.881784197001252e-16 0.0 0.0 0.0 0.0 13.608183162881701
4.526322584127286 -1.5779903191469236 2.1661713914786516 -2.1589777817286984 -1.5707962559091768 1.384729933413257 0.0 0.0 0.0 0.0 0.0 0.0 0.0 0.0 0.0 0.0 0.0 0.0 13.662349829548367
4.526322584127286 -1.5779903191469236 2.1661713914786516 -2.1589777817286984 -1.5707962559091768 1.384729933413257 7.550819097786716e-08 -0.010632063776191704 -0.01711636805441367 0.027748468000947085 -5.9118011389567605e-09 7.525843010304338e-08 2.2551779705389657e-06 -0.31754430478225887 -0.511208859225155 0.8287542442949529 -1.7656579401684191e-07 2.247718445744229e-06 13.716516496215034
4.526322584127286 -1.5779903191469236 2.1661713914786516 -2.1589777817286984 -1.5707962559091768 1.384729933413257 2.6310409656287934e-07 -0.0370468355579302 -0.059641033576268085 0.09668799516774451 -2.0599342635298223e-08 2.6223381867016005e-07 3.608284752862345e-06 -0.5080708876516142 -0.817934174760248 1.3260067908719249 -2.8250527042694706e-07 3.5963495131907663e-06 13.770683162881701
4.526322584127286 -1.5779903191469236 2.1661713914786516 -2.1589777817286984 -1.5707962559091768 1.384729933413257 5.10435371010382e-07 -0.0718727511270559 -0.11570664804783642 0.1875796436864023 -3.99637756993477e-08 5.087469874965733e-07 4.188187659572365e-06 -0.5897251374527666 -0.9493878814181449 1.5391150251191983 -3.27907903174135e-07 4.1743342563821395e-06 13.824849829548366
4.526322584127286 -1.5779903191469236 2.1661713914786516 -2.1589777817286984 -1.5707962559091768 1.384729933413257 7.732038756133597e-07 -0.10887233306820304 -0.175271608877196 0.28414431232969817 -6.053684366291723e-08 7.706463242551642e-07 4.123754003271252e-06 -0.5806524430304163 -0.934781914011712 1.5154363324250566 -3.228631662022252e-07 4.110113729360876e-06 13.879016496215034
4.526322584127286 -1.5779903191469236 2.1661713914786516 -2.1589777817286984 -1.5707962559091768 1.384729933413257 1.0151656787024362e-06 -0.14294219076879958 -0.23012005939822827 0.37306273645717747 -7.948088197930756e-08 1.0118077824964721e-06 3.543851096561232e-06 -0.4989981932292639 -0.803328207353815 1.3023280981777834 -2.774605334550373e-07 3.5321289861695027e-06 13.9331831628817
4.526322584127286 -1.5779903191469236 2.1661713914786516 -2.1589777817286984 -1.5707962559091768 1.384729933413257 1.2081310556458745e-06 -0.17011302041906723 -0.27386188887061874 0.44397548801515335 -9.458881822330817e-08 1.204134881648694e-06 2.5773462520445323e-06 -0.3629077768940102 -0.5842386962573198 0.9471477077656605 -2.0178947887639076e-07 2.5688210808505474e-06 13.987349829548366
4.526322584127286 -1.5779903191469236 2.1661713914786516 -2.1589777817286984 -1.5707962559091768 1.384729933413257 1.3319644888495766e-06 -0.18754960501202164 -0.30193273247985714 0.4894829755367067 -1.0428417209119726e-07 1.3275587070176852e-06 1.3531067823233794e-06 -0.1905265828693557 -0.30672531553509286 0.49725254657697215 -1.0593947641010515e-07 1.3486310674465374e-06 14.041516496215033
4.526322584127286 -1.5779903191469236 2.1661713914786516 -2.1589777817286984 -1.5707962559091768 1.384729933413257 1.3745846677570839e-06 -0.1935508143434721 -0.3115939713372373 0.5051454441416856 -1.0762105540074174e-07 1.3700379097869586e-06 0.0 -4.440892098500626e-16 0.0 0.0 0.0 0.0 14.0956831628817
4.526322584127286 -1.5779903191469236 2.1661713914786516 -2.1589777817286984 -1.5707962559091768 1.384729933413257 1.3319644888495766e-06 -0.1875496050120216 -0.30193273247985725 0.4894829755367067 -1.0428417209119726e-07 1.3275587070176852e-06 -1.3531067823233794e-06 0.1905265828693548 0.30672531553509286 -0.49725254657697215 1.0593947641010515e-07 -1.3486310674465374e-06 14.149849829548366
4.526322584127286 -1.5779903191469236 2.1661713914786516 -2.158977781728699 -1.5707962559091768 1.384729933413257 1.2081310556458745e-06 -0.17011302041906717 -0.27386188887061874 0.44397548801515313 -9.458881822330817e-08 1.204134881648694e-06 -2.5773462520445323e-06 0.36290777689401 0.5842386962573203 -0.9471477077656596 2.0178947887639076e-07 -2.5688210808505474e-06 14.204016496215033
4.526322585753508 -1.5782193022982516 2.1658027556259243 -2.1583801619456415 -1.5707962560364994 1.3847299350341007 1.0151656787024362e-06 -0.14294219076879952 -0.2301200593982285 0.37306273645717736 -7.948088197930756e-08 1.0118077824964721e-06 -3.543851096561232e-06 0.49899819322926325 0.803328207353815 -1.3023280981777847 2.774605334550373e-07 -3.5321289861695027e-06 14.254016496215034
4.526322595895377 -1.57964734597545 2.1635037738203935 -2.1546531316046993 -1.570796256830542 1.3847299451424226 7.732038756133597e-07 -0.10887233306820307 -0.17527160887719595 0.2841443123296983 -6.053684366291723e-08 7.706463242551642e-07 -4.123754003271252e-06 0.5806524430304154 0.9347819140117117 -1.5154363324250557 3.228631662022252e-07 -4.110113729360876e-06 14.305799280641118
4.526322619880414 -1.5830246013449503 2.1580667912048868 -2.1458388821302505 -1.5707962587084146 1.3847299690481236 5.10435371010382e-07 -0.07187275112705593 -0.11570664804783641 0.18757964368640245 -3.99637756993477e-08 5.087469874965733e-07 -4.188187659572365e-06 0.5897251374527654 0.9493878814181458 -1.5391150251191967 3.27907903174135e-07 -4.1743342563821395e-06 14.3575820650672
4.526322660015814 -1.5886759370221362 2.1489688076444082 -2.13108954366671 -1.5707962618507558 1.3847300090507666 2.6310409656287934e-07 -0.03704683555793003 -0.05964103357626821 0.09668799516774479 -2.0599342635298223e-08 2.6223381867016005e-07 -3.608284752862345e-06 0.5080708876516135 0.8179341747602473 -1.3260067908719249 2.8250527042694706e-07 -3.5963495131907663e-06 14.409364849493283
4.5263227160918325 -1.596571819496518 2.1362573686057758 -2.1104821952918584 -1.570796266241144 1.3847300649413004 7.550819097786716e-08 -0.010632063776191537 -0.01711636805441412 0.02774846800094742 -5.9118011389567605e-09 7.525843010304338e-08 -2.2551779705389657e-06 0.3175443047822583 0.5112088592251562 -0.8287542442949518 1.7656579401684191e-07 -2.247718445744229e-06 14.461147633919367
4.526322785885172 -1.6063991935569077 2.1204364560372584 -2.084833875230168 -1.5707962717055095 1.3847301345037824 0.0 0.0 0.0 0.0 0.0 0.0 0.0 -8.881784197001252e-16 0.0 0.0 0.0 0.0 14.512930418345451
4.526322865662372 -1.6176323627165943 2.1023523792482126 -2.0555165910661306 -1.5707962779515463 1.384730214017101 0.0 0.0 0.0 0.0 0.0 0.0 0.0 0.0 0.0 0.0 0.0 0.0 14.564713202771534
4.526322950683197 -1.6296038696385162 2.0830796657887216 -2.024272329957583 -1.570796284608125 1.3847302987566996 -0.023644844696716703 0.005235902383487922 -0.005602297452785053 0.0003663955703407411 -2.330953028343968e-10 0.0006696859244798455 -1.9850410095386453 0.43956647152805745 -0.47032620996476426 0.030759780500510793 -1.956890566176389e-08 0.05622172785037942 14.616495987197617
4.526323035704022 -1.641575376560438 2.0638069523292306 -1.993028068849035 -1.5707962912647035 1.3847303834962983 -0.09012921527251877 0.01995816758876008 -0.021354789156761166 0.0013966234778747977 -8.885106668131998e-10 0.0025527030363959643 -3.6865047320003415 0.8163377328378211 -0.8734629613631336 0.05712530664380576 -3.6342253371847226e-08 0.10441178029356178 14.6682787716237
4.5263231154812225 -1.6528085457201245 2.045722875540185 -1.9637107846849973 -1.5707962975107403 1.3847304630096169 -0.19301914038136087 0.0427420602733708 -0.0457330404308984 0.0029909842476795196 -1.9028187986481378e-09 0.0054668238733048624 -5.118224205779085 1.133376964915549 -1.2126877887593224 0.0793109323009686 -5.045641181081979e-08 0.14496194637380058 14.720061556049785
4.526323185274562 -1.6626359197805143 2.0299019629716675 -1.9380624646233071 -1.5707963029751058 1.3847305325720989 -0.3262023472444998 0.07223408186199663 -0.07728883832821828 0.005054763378578388 -3.2157637697153524e-09 0.009238932345885215 -6.294032469268876 1.3937473487474994 -1.4912782267175453 0.09753101134308301 -6.204774965925136e-08 0.17826401513534937 14.771844340475868
4.52632324135058 -1.6705318022548963 2.017190523933035 -1.9174551162484554 -1.570796307365494 1.3847305884626326 -0.4838882616504949 0.10715197054643649 -0.11465019163579389 0.0074982313431410175 -4.770261016055401e-09 0.013705023737937881 -7.227762560863709 1.6005120653199305 -1.7125118098020162 0.11199989764123268 -7.125263559771172e-08 0.20470977562246165 14.82362712490195
4.52632328148598 -1.676183137932082 2.0080925403725565 -1.9027057777849152 -1.5707963105078353 1.3847306284652756 -0.6606080079552076 0.14628470128561155 -0.1565213308747498 0.010236643587683157 -6.512397338373252e-09 0.018710204706385892 -7.9332475189575815 1.7567342956191008 -1.8796660725769496 0.12293194506650132 -7.820743830677067e-08 0.2246910168793909 14.875409909328035
4.526323305471017 -1.6795603933015821 2.0026555577570497 -1.8938915283104663 -1.5707963123857078 1.3847306523709766 -0.8512144090818016 0.18849248580556524 -0.20168270830026197 0.013190240532266684 -8.39143090203829e-09 0.024108693281274445 -8.424320381944495 1.8654772206312682 -1.9960185496065606 0.13054150748997262 -8.304852646699798e-08 0.2385995279503907 14.927192693754119
4.526323315612886 -1.6809884369787806 2.000356575951519 -1.8901644979695242 -1.5707963131797504 1.3847306624792985 -1.0508819865207424 0.23270677259946318 -0.24899099790155793 0.016284247570699604 -1.0359791237084305e-08 0.02976381886577091 -8.714814188218444 1.9298040213426915 -2.064846775455063 0.1350429387827303 -8.591226875896343e-08 0.24682709787971455 14.978975478180201
4.526323317239108 -1.6812174201301087 1.9999879400987917 -1.889566878186467 -1.570796313307073 1.3847306641001422 -1.255106960329799 0.2779302469275936 -0.2973790954019168 0.019448875070536074 -1.2373079238209515e-08 0.035548022236164864 -8.818561976173424 1.952777878739628 -2.0894282846866705 0.13665059281585804 -8.69350338632368e-08 0.24976551571161584 15.030758262606284
4.526323317239108 -1.6812174201301087 1.9999879400987917 -1.8895668781864665 -1.570796313307073 1.3847306641001422 -1.4597072491340413 0.3232368308173666 -0.3458561182586691 0.022619318373076364 -1.439006716477654e-08 0.041342855541868014 -8.749396784203437 1.9374619738083367 -2.073040611865599 0.1355788234604396 -8.625319046038787e-08 0.24780657049034832 15.082541047032368
4.52613783141466 -1.6811763462434839 1.9999439919665387 -1.8895640039369077 -1.5707963133089016 1.3847359175601424 -1.6608224701258427 0.3677716830633149 -0.39350740566319686 0.025735757793366888 -1.637269864081242e-08 0.04703898230541428 -8.521151650702478 1.8869194875350754 -2.018961291556061 0.1320419845875585 -8.400310723098646e-08 0.2413420512601653 15.132541047032369
4.524891550799001 -1.6809003704978311 1.9996487041434161 -1.889544691833029 -1.5707963133211877 1.3847712155964358 -1.854913939064878 0.41075119922709336 -0.4394945185409337 0.028743358620200186 -1.8286088655008607e-08 0.05253617742245973 -8.147659614064544 1.8042136009061027 -1.9304678583222723 0.12625443006829862 -8.032115285560229e-08 0.23076374706532032 15.182743048587922
4.521663644415571 -1.68018558455005 1.998883899301529 -1.8894946728705222 -1.570796313353009 1.3848626386317 -2.038764670278124 0.45146301163747904 -0.4830552395513643 0.03159227111611493 -2.0098523560720955e-08 0.0577433271617826 -7.6427537126836365 1.6924074949076775 -1.8108378467284474 0.11843051377374364 -7.534369601480522e-08 0.21646344695006708 15.232945050143474
4.515679167847398 -1.6788603851025958 1.9974659657830742 -1.8894019386727081 -1.570796313412005 1.385032135186847 -2.2094793766598615 0.48926598939037147 -0.5235035730880258 0.03423763051739593 -2.178146107596976e-08 0.06257842916528336 -7.020266984953745 1.5545643505260562 -1.6633487913387994 0.10878458957497719 -6.920710538916498e-08 0.19883293995865892 15.283147051699027
4.506301581875072 -1.6767838172344771 1.9952440850018769 -1.889256625560915 -1.5707963135044511 1.3852977337734236 -2.3644844696716705 0.5235902383487923 -0.5602297452785054 0.036639557034074115 -2.330953028343969e-08 0.06696859244798456 -6.294032469268876 1.3937473487474987 -1.4912782267175448 0.09753101134308298 -6.204774965925136e-08 0.17826401513534942 15.33334905325458
4.493025271114715 -1.6738439177322513 1.9920984588449218 -1.889050898624855 -1.5707963136353313 1.3856737547860067 -2.5015280593424363 0.5539371011428854 -0.5927002039844432 0.03876315584992657 -2.4660531630479863e-08 0.070850037398031 -5.477883204023027 1.2130196705582632 -1.2979036874288974 0.08488413294914479 -5.400199750563419e-08 0.15514846152439213 15.38355105481013
4.475468062655944 -1.6699560584210233 1.987938537073888 -1.888778835793005 -1.5707963138084136 1.3861710223946044 -2.6186799542683454 0.5798791571699173 -0.6204576188015302 0.040578517122476496 -2.58154369291038e-08 0.07416809577668965 -4.585652227610187 1.0154444969446068 -1.0865027080370695 0.07105830826424628 -4.520621760888316e-08 0.12987806817004038 15.433753056365683
