Andreas691667/Digital_Twin_UR/monitor/robot_data.csv
timestamp target_q_0 target_q_1 target_q_2 target_q_3 target_q_4 target_q_5 target_qd_0 target_qd_1 target_qd_2 target_qd_3 target_qd_4 target_qd_5 target_qdd_0 target_qdd_1 target_qdd_2 target_qdd_3 target_qdd_4 target_qdd_5 actual_q_0 actual_q_1 actual_q_2 actual_q_3 actual_q_4 actual_q_5 actual_qd_0 actual_qd_1 actual_qd_2 actual_qd_3 actual_qd_4 actual_qd_5 actual_TCP_pose_0 actual_TCP_pose_1 actual_TCP_pose_2 actual_TCP_pose_3 actual_TCP_pose_4 actual_TCP_pose_5 actual_TCP_speed_0 actual_TCP_speed_1 actual_TCP_speed_2 actual_TCP_speed_3 actual_TCP_speed_4 actual_TCP_speed_5 actual_TCP_force_0 actual_TCP_force_1 actual_TCP_force_2 actual_TCP_force_3 actual_TCP_force_4 actual_TCP_force_5 target_TCP_pose_0 target_TCP_pose_1 target_TCP_pose_2 target_TCP_pose_3 target_TCP_pose_4 target_TCP_pose_5 target_TCP_speed_0 target_TCP_speed_1 target_TCP_speed_2 target_TCP_speed_3 target_TCP_speed_4 target_TCP_speed_5 runtime_state
12801.054 0.4161461889743805 -1.5301833649030705 -0.8859370350837708 -2.3291670284666957 4.877832412719727 1.5248446464538574 0.0 0.0 0.0 0.0 0.0 0.0 0.0 0.0 0.0 0.0 0.0 0.0 0.4160194993019104 -1.5301124838045617 -0.8857673406600952 -2.328707834283346 4.878711700439453 1.524871587753296 0.00045172180398367345 5.0385879148961976e-05 0.0 7.684384273010359e-34 0.0413900688290596 1.8718158119223046e-25 0.14234250414108102 -0.10551207964997669 0.7253267557055645 2.007075495183946 0.5442856819702483 -2.149579236809105 0.0030964631146699756 -0.007004256706139837 -0.0009605383994323377 0.03787746154655066 0.016633360600723485 -0.0008801917347098274 -4.2801803147032444 -1.7404897845578264 3.435908176695978 0.09542252077678325 -0.6651441898762372 -0.12745804106880565 0.1424563559654699 -0.10526611187834882 0.725353439270174 2.006148727788962 0.5431505110813688 -2.1496606504736366 0.0 0.0 0.0 0.0 0.0 0.0 1
12801.062 0.4161461889743805 -1.5301833649030705 -0.8859370350837708 -2.3291670284666957 4.877832412719727 1.5248446464538574 0.0 0.0 0.0 0.0 0.0 0.0 0.0 0.0 0.0 0.0 0.0 0.0 0.4160194993019104 -1.5301124838045617 -0.8857673406600952 -2.328707834283346 4.878711700439453 1.524871587753296 0.00045172180398367345 5.0385879148961976e-05 0.0 7.684384273010359e-34 0.0413900688290596 1.8718158119223046e-25 0.14234250414108102 -0.10551207964997669 0.7253267557055645 2.007075495183946 0.5442856819702483 -2.149579236809105 0.0030964631146699756 -0.007004256706139837 -0.0009605383994323377 0.03787746154655066 0.016633360600723485 -0.0008801917347098274 -4.2801803147032444 -1.7404897845578264 3.435908176695978 0.09542252077678325 -0.6651441898762372 -0.12745804106880565 0.1424563559654699 -0.10526611187834882 0.725353439270174 2.006148727788962 0.5431505110813688 -2.1496606504736366 0.0 0.0 0.0 0.0 0.0 0.0 1
12801.07 0.4161461889743805 -1.5301833649030705 -0.8859370350837708 -2.3291670284666957 4.877832412719727 1.5248446464538574 0.0 0.0 0.0 0.0 0.0 0.0 0.0 0.0 0.0 0.0 0.0 0.0 0.4160194993019104 -1.5301124838045617 -0.8857673406600952 -2.328707834283346 4.878711700439453 1.524871587753296 0.00045172180398367345 5.0385879148961976e-05 0.0 7.684384273010359e-34 0.0413900688290596 1.8718158119223046e-25 0.14234250414108102 -0.10551207964997669 0.7253267557055645 2.007075495183946 0.5442856819702483 -2.149579236809105 0.0030964631146699756 -0.007004256706139837 -0.0009605383994323377 0.03787746154655066 0.016633360600723485 -0.0008801917347098274 -4.2801803147032444 -1.7404897845578264 3.435908176695978 0.09542252077678325 -0.6651441898762372 -0.12745804106880565 0.1424563559654699 -0.10526611187834882 0.725353439270174 2.006148727788962 0.5431505110813688 -2.1496606504736366 0.0 0.0 0.0 0.0 0.0 0.0 1
12801.078 0.4161461889743805 -1.5301833649030705 -0.8859370350837708 -2.3291670284666957 4.877832412719727 1.5248446464538574 0.0 0.0 0.0 0.0 0.0 0.0 0.0 0.0 0.0 0.0 0.0 0.0 0.4160194993019104 -1.5301124838045617 -0.8857673406600952 -2.328707834283346 4.878711700439453 1.524871587753296 0.00045172180398367345 5.0385879148961976e-05 0.0 7.684384273010359e-34 0.0413900688290596 1.8718158119223046e-25 0.14234250414108102 -0.10551207964997669 0.7253267557055645 2.007075495183946 0.5442856819702483 -2.149579236809105 0.0030964631146699756 -0.007004256706139837 -0.0009605383994323377 0.03787746154655066 0.016633360600723485 -0.0008801917347098274 -4.2801803147032444 -1.7404897845578264 3.435908176695978 0.09542252077678325 -0.6651441898762372 -0.12745804106880565 0.1424563559654699 -0.10526611187834882 0.725353439270174 2.006148727788962 0.5431505110813688 -2.1496606504736366 0.0 0.0 0.0 0.0 0.0 0.0 1
12801.086 0.4161461889743805 -1.5301833649030705 -0.8859370350837708 -2.3291670284666957 4.877832412719727 1.5248446464538574 0.0 0.0 0.0 0.0 0.0 0.0 0.0 0.0 0.0 0.0 0.0 0.0 0.4160194993019104 -1.5301124838045617 -0.8857673406600952 -2.328707834283346 4.878711700439453 1.524871587753296 0.00045172180398367345 5.0385879148961976e-05 0.0 7.684384273010359e-34 0.0413900688290596 1.8718158119223046e-25 0.14234250414108102 -0.10551207964997669 0.7253267557055645 2.007075495183946 0.5442856819702483 -2.149579236809105 0.0030964631146699756 -0.007004256706139837 -0.0009605383994323377 0.03787746154655066 0.016633360600723485 -0.0008801917347098274 -4.2801803147032444 -1.7404897845578264 3.435908176695978 0.09542252077678325 -0.6651441898762372 -0.12745804106880565 0.1424563559654699 -0.10526611187834882 0.725353439270174 2.006148727788962 0.5431505110813688 -2.1496606504736366 0.0 0.0 0.0 0.0 0.0 0.0 1
12801.094 0.4161461889743805 -1.5301833649030705 -0.8859370350837708 -2.3291670284666957 4.877832412719727 1.5248446464538574 0.0 0.0 0.0 0.0 0.0 0.0 0.0 0.0 0.0 0.0 0.0 0.0 0.4160194993019104 -1.5301124838045617 -0.8857673406600952 -2.328707834283346 4.878711700439453 1.524871587753296 0.00045172180398367345 5.0385879148961976e-05 0.0 7.684384273010359e-34 0.0413900688290596 1.8718158119223046e-25 0.14234250414108102 -0.10551207964997669 0.7253267557055645 2.007075495183946 0.5442856819702483 -2.149579236809105 0.0030964631146699756 -0.007004256706139837 -0.0009605383994323377 0.03787746154655066 0.016633360600723485 -0.0008801917347098274 -4.2801803147032444 -1.7404897845578264 3.435908176695978 0.09542252077678325 -0.6651441898762372 -0.12745804106880565 0.1424563559654699 -0.10526611187834882 0.725353439270174 2.006148727788962 0.5431505110813688 -2.1496606504736366 0.0 0.0 0.0 0.0 0.0 0.0 1
12801.101999999999 0.4161461889743805 -1.5301833649030705 -0.8859370350837708 -2.3291670284666957 4.877832412719727 1.5248446464538574 0.0 0.0 0.0 0.0 0.0 0.0 0.0 0.0 0.0 0.0 0.0 0.0 0.4160194993019104 -1.5301124838045617 -0.8857673406600952 -2.328707834283346 4.878711700439453 1.524871587753296 0.00045172180398367345 5.0385879148961976e-05 0.0 7.684384273010359e-34 0.0413900688290596 1.8718158119223046e-25 0.14234250414108102 -0.10551207964997669 0.7253267557055645 2.007075495183946 0.5442856819702483 -2.149579236809105 0.0030964631146699756 -0.007004256706139837 -0.0009605383994323377 0.03787746154655066 0.016633360600723485 -0.0008801917347098274 -4.2801803147032444 -1.7404897845578264 3.435908176695978 0.09542252077678325 -0.6651441898762372 -0.12745804106880565 0.1424563559654699 -0.10526611187834882 0.725353439270174 2.006148727788962 0.5431505110813688 -2.1496606504736366 0.0 0.0 0.0 0.0 0.0 0.0 1
12801.109999999999 0.4161461889743805 -1.5301833649030705 -0.8859370350837708 -2.3291670284666957 4.877832412719727 1.5248446464538574 0.0 0.0 0.0 0.0 0.0 0.0 0.0 0.0 0.0 0.0 0.0 0.0 0.4160194993019104 -1.5301124838045617 -0.8857673406600952 -2.328707834283346 4.878711700439453 1.524871587753296 0.00045172180398367345 5.0385879148961976e-05 0.0 7.684384273010359e-34 0.0413900688290596 1.8718158119223046e-25 0.14234250414108102 -0.10551207964997669 0.7253267557055645 2.007075495183946 0.5442856819702483 -2.149579236809105 0.0030964631146699756 -0.007004256706139837 -0.0009605383994323377 0.03787746154655066 0.016633360600723485 -0.0008801917347098274 -4.2801803147032444 -1.7404897845578264 3.435908176695978 0.09542252077678325 -0.6651441898762372 -0.12745804106880565 0.1424563559654699 -0.10526611187834882 0.725353439270174 2.006148727788962 0.5431505110813688 -2.1496606504736366 0.0 0.0 0.0 0.0 0.0 0.0 1
12801.117999999999 0.4161461889743805 -1.5301833649030705 -0.8859370350837708 -2.3291670284666957 4.877832412719727 1.5248446464538574 0.0 0.0 0.0 0.0 0.0 0.0 0.0 0.0 0.0 0.0 0.0 0.0 0.4160194993019104 -1.5301124838045617 -0.8857673406600952 -2.328707834283346 4.878711700439453 1.524871587753296 0.00045172180398367345 5.0385879148961976e-05 0.0 7.684384273010359e-34 0.0413900688290596 1.8718158119223046e-25 0.14234250414108102 -0.10551207964997669 0.7253267557055645 2.007075495183946 0.5442856819702483 -2.149579236809105 0.0030964631146699756 -0.007004256706139837 -0.0009605383994323377 0.03787746154655066 0.016633360600723485 -0.0008801917347098274 -4.2801803147032444 -1.7404897845578264 3.435908176695978 0.09542252077678325 -0.6651441898762372 -0.12745804106880565 0.1424563559654699 -0.10526611187834882 0.725353439270174 2.006148727788962 0.5431505110813688 -2.1496606504736366 0.0 0.0 0.0 0.0 0.0 0.0 1
12801.126 0.4161461889743805 -1.5301833649030705 -0.8859370350837708 -2.3291670284666957 4.877832412719727 1.5248446464538574 0.0 0.0 0.0 0.0 0.0 0.0 0.0 0.0 0.0 0.0 0.0 0.0 0.4160194993019104 -1.5301124838045617 -0.8857673406600952 -2.328707834283346 4.878711700439453 1.524871587753296 0.00045172180398367345 5.0385879148961976e-05 0.0 7.684384273010359e-34 0.0413900688290596 1.8718158119223046e-25 0.14234250414108102 -0.10551207964997669 0.7253267557055645 2.007075495183946 0.5442856819702483 -2.149579236809105 0.0030964631146699756 -0.007004256706139837 -0.0009605383994323377 0.03787746154655066 0.016633360600723485 -0.0008801917347098274 -4.2801803147032444 -1.7404897845578264 3.435908176695978 0.09542252077678325 -0.6651441898762372 -0.12745804106880565 0.1424563559654699 -0.10526611187834882 0.725353439270174 2.006148727788962 0.5431505110813688 -2.1496606504736366 0.0 0.0 0.0 0.0 0.0 0.0 1
12801.134 0.4161461889743805 -1.5301833649030705 -0.8859370350837708 -2.3291670284666957 4.877832412719727 1.5248446464538574 0.0 0.0 0.0 0.0 0.0 0.0 0.0 0.0 0.0 0.0 0.0 0.0 0.4160194993019104 -1.5301124838045617 -0.8857673406600952 -2.328707834283346 4.878711700439453 1.524871587753296 0.00045172180398367345 5.0385879148961976e-05 0.0 7.684384273010359e-34 0.0413900688290596 1.8718158119223046e-25 0.14234250414108102 -0.10551207964997669 0.7253267557055645 2.007075495183946 0.5442856819702483 -2.149579236809105 0.0030964631146699756 -0.007004256706139837 -0.0009605383994323377 0.03787746154655066 0.016633360600723485 -0.0008801917347098274 -4.2801803147032444 -1.7404897845578264 3.435908176695978 0.09542252077678325 -0.6651441898762372 -0.12745804106880565 0.1424563559654699 -0.10526611187834882 0.725353439270174 2.006148727788962 0.5431505110813688 -2.1496606504736366 0.0 0.0 0.0 0.0 0.0 0.0 1
12801.142 0.4161461889743805 -1.5301833649030705 -0.8859370350837708 -2.3291670284666957 4.877832412719727 1.5248446464538574 0.0 0.0 0.0 0.0 0.0 0.0 0.0 0.0 0.0 0.0 0.0 0.0 0.4160194993019104 -1.5301124838045617 -0.8857673406600952 -2.328707834283346 4.878711700439453 1.524871587753296 0.00045172180398367345 5.0385879148961976e-05 0.0 7.684384273010359e-34 0.0413900688290596 1.8718158119223046e-25 0.14234250414108102 -0.10551207964997669 0.7253267557055645 2.007075495183946 0.5442856819702483 -2.149579236809105 0.0030964631146699756 -0.007004256706139837 -0.0009605383994323377 0.03787746154655066 0.016633360600723485 -0.0008801917347098274 -4.2801803147032444 -1.7404897845578264 3.435908176695978 0.09542252077678325 -0.6651441898762372 -0.12745804106880565 0.1424563559654699 -0.10526611187834882 0.725353439270174 2.006148727788962 0.5431505110813688 -2.1496606504736366 0.0 0.0 0.0 0.0 0.0 0.0 1
12801.15 0.4161461889743805 -1.5301833649030705 -0.8859370350837708 -2.3291670284666957 4.877832412719727 1.5248446464538574 0.0 0.0 0.0 0.0 0.0 0.0 0.0 0.0 0.0 0.0 0.0 0.0 0.4160194993019104 -1.5301124838045617 -0.8857673406600952 -2.328707834283346 4.878711700439453 1.524871587753296 0.00045172180398367345 5.0385879148961976e-05 0.0 7.684384273010359e-34 0.0413900688290596 1.8718158119223046e-25 0.14234250414108102 -0.10551207964997669 0.7253267557055645 2.007075495183946 0.5442856819702483 -2.149579236809105 0.0030964631146699756 -0.007004256706139837 -0.0009605383994323377 0.03787746154655066 0.016633360600723485 -0.0008801917347098274 -4.2801803147032444 -1.7404897845578264 3.435908176695978 0.09542252077678325 -0.6651441898762372 -0.12745804106880565 0.1424563559654699 -0.10526611187834882 0.725353439270174 2.006148727788962 0.5431505110813688 -2.1496606504736366 0.0 0.0 0.0 0.0 0.0 0.0 1
12801.158 0.4161461889743805 -1.5301833649030705 -0.8859370350837708 -2.3291670284666957 4.877832412719727 1.5248446464538574 0.0 0.0 0.0 0.0 0.0 0.0 0.0 0.0 0.0 0.0 0.0 0.0 0.4160194993019104 -1.5301124838045617 -0.8857673406600952 -2.328707834283346 4.878711700439453 1.524871587753296 0.00045172180398367345 5.0385879148961976e-05 0.0 7.684384273010359e-34 0.0413900688290596 1.8718158119223046e-25 0.14234250414108102 -0.10551207964997669 0.7253267557055645 2.007075495183946 0.5442856819702483 -2.149579236809105 0.0030964631146699756 -0.007004256706139837 -0.0009605383994323377 0.03787746154655066 0.016633360600723485 -0.0008801917347098274 -4.2801803147032444 -1.7404897845578264 3.435908176695978 0.09542252077678325 -0.6651441898762372 -0.12745804106880565 0.1424563559654699 -0.10526611187834882 0.725353439270174 2.006148727788962 0.5431505110813688 -2.1496606504736366 0.0 0.0 0.0 0.0 0.0 0.0 1
12801.166 0.4161461889743805 -1.5301833649030705 -0.8859370350837708 -2.3291670284666957 4.877832412719727 1.5248446464538574 0.0 0.0 0.0 0.0 0.0 0.0 0.0 0.0 0.0 0.0 0.0 0.0 0.4160194993019104 -1.5301124838045617 -0.8857673406600952 -2.328707834283346 4.878711700439453 1.524871587753296 0.00045172180398367345 5.0385879148961976e-05 0.0 7.684384273010359e-34 0.0413900688290596 1.8718158119223046e-25 0.14234250414108102 -0.10551207964997669 0.7253267557055645 2.007075495183946 0.5442856819702483 -2.149579236809105 0.0030964631146699756 -0.007004256706139837 -0.0009605383994323377 0.03787746154655066 0.016633360600723485 -0.0008801917347098274 -4.2801803147032444 -1.7404897845578264 3.435908176695978 0.09542252077678325 -0.6651441898762372 -0.12745804106880565 0.1424563559654699 -0.10526611187834882 0.725353439270174 2.006148727788962 0.5431505110813688 -2.1496606504736366 0.0 0.0 0.0 0.0 0.0 0.0 1
12801.173999999999 0.4161461889743805 -1.5301833649030705 -0.8859370350837708 -2.3291670284666957 4.877832412719727 1.5248446464538574 0.0 0.0 0.0 0.0 0.0 0.0 0.0 0.0 0.0 0.0 0.0 0.0 0.4160194993019104 -1.5301124838045617 -0.8857673406600952 -2.328707834283346 4.878711700439453 1.524871587753296 0.00045172180398367345 5.0385879148961976e-05 0.0 7.684384273010359e-34 0.0413900688290596 1.8718158119223046e-25 0.14234250414108102 -0.10551207964997669 0.7253267557055645 2.007075495183946 0.5442856819702483 -2.149579236809105 0.0030964631146699756 -0.007004256706139837 -0.0009605383994323377 0.03787746154655066 0.016633360600723485 -0.0008801917347098274 -4.2801803147032444 -1.7404897845578264 3.435908176695978 0.09542252077678325 -0.6651441898762372 -0.12745804106880565 0.1424563559654699 -0.10526611187834882 0.725353439270174 2.006148727788962 0.5431505110813688 -2.1496606504736366 0.0 0.0 0.0 0.0 0.0 0.0 1
12801.181999999999 0.4161461889743805 -1.5301833649030705 -0.8859370350837708 -2.3291670284666957 4.877832412719727 1.5248446464538574 0.0 0.0 0.0 0.0 0.0 0.0 0.0 0.0 0.0 0.0 0.0 0.0 0.4160194993019104 -1.5301124838045617 -0.8857673406600952 -2.328707834283346 4.878711700439453 1.524871587753296 0.00045172180398367345 5.0385879148961976e-05 0.0 7.684384273010359e-34 0.0413900688290596 1.8718158119223046e-25 0.14234250414108102 -0.10551207964997669 0.7253267557055645 2.007075495183946 0.5442856819702483 -2.149579236809105 0.0030964631146699756 -0.007004256706139837 -0.0009605383994323377 0.03787746154655066 0.016633360600723485 -0.0008801917347098274 -4.2801803147032444 -1.7404897845578264 3.435908176695978 0.09542252077678325 -0.6651441898762372 -0.12745804106880565 0.1424563559654699 -0.10526611187834882 0.725353439270174 2.006148727788962 0.5431505110813688 -2.1496606504736366 0.0 0.0 0.0 0.0 0.0 0.0 1
12801.189999999999 0.4161461889743805 -1.5301833649030705 -0.8859370350837708 -2.3291670284666957 4.877832412719727 1.5248446464538574 0.0 0.0 0.0 0.0 0.0 0.0 0.0 0.0 0.0 0.0 0.0 0.0 0.4160194993019104 -1.5301124838045617 -0.8857673406600952 -2.328707834283346 4.878711700439453 1.524871587753296 0.00045172180398367345 5.0385879148961976e-05 0.0 7.684384273010359e-34 0.0413900688290596 1.8718158119223046e-25 0.14234250414108102 -0.10551207964997669 0.7253267557055645 2.007075495183946 0.5442856819702483 -2.149579236809105 0.0030964631146699756 -0.007004256706139837 -0.0009605383994323377 0.03787746154655066 0.016633360600723485 -0.0008801917347098274 -4.2801803147032444 -1.7404897845578264 3.435908176695978 0.09542252077678325 -0.6651441898762372 -0.12745804106880565 0.1424563559654699 -0.10526611187834882 0.725353439270174 2.006148727788962 0.5431505110813688 -2.1496606504736366 0.0 0.0 0.0 0.0 0.0 0.0 1
12801.198 0.4161461889743805 -1.5301833649030705 -0.8859370350837708 -2.3291670284666957 4.877832412719727 1.5248446464538574 0.0 0.0 0.0 0.0 0.0 0.0 0.0 0.0 0.0 0.0 0.0 0.0 0.4160194993019104 -1.5301124838045617 -0.8857673406600952 -2.328707834283346 4.878711700439453 1.524871587753296 0.00045172180398367345 5.0385879148961976e-05 0.0 7.684384273010359e-34 0.0413900688290596 1.8718158119223046e-25 0.14234250414108102 -0.10551207964997669 0.7253267557055645 2.007075495183946 0.5442856819702483 -2.149579236809105 0.0030964631146699756 -0.007004256706139837 -0.0009605383994323377 0.03787746154655066 0.016633360600723485 -0.0008801917347098274 -4.2801803147032444 -1.7404897845578264 3.435908176695978 0.09542252077678325 -0.6651441898762372 -0.12745804106880565 0.1424563559654699 -0.10526611187834882 0.725353439270174 2.006148727788962 0.5431505110813688 -2.1496606504736366 0.0 0.0 0.0 0.0 0.0 0.0 1
12801.206 0.4161461889743805 -1.5301833649030705 -0.8859370350837708 -2.3291670284666957 4.877832412719727 1.5248446464538574 0.0 0.0 0.0 0.0 0.0 0.0 0.0 0.0 0.0 0.0 0.0 0.0 0.4160194993019104 -1.5301124838045617 -0.8857673406600952 -2.328707834283346 4.878711700439453 1.524871587753296 0.00045172180398367345 5.0385879148961976e-05 0.0 7.684384273010359e-34 0.0413900688290596 1.8718158119223046e-25 0.14234250414108102 -0.10551207964997669 0.7253267557055645 2.007075495183946 0.5442856819702483 -2.149579236809105 0.0030964631146699756 -0.007004256706139837 -0.0009605383994323377 0.03787746154655066 0.016633360600723485 -0.0008801917347098274 -4.2801803147032444 -1.7404897845578264 3.435908176695978 0.09542252077678325 -0.6651441898762372 -0.12745804106880565 0.1424563559654699 -0.10526611187834882 0.725353439270174 2.006148727788962 0.5431505110813688 -2.1496606504736366 0.0 0.0 0.0 0.0 0.0 0.0 1
12801.214 0.4161461889743805 -1.5301833649030705 -0.8859370350837708 -2.3291670284666957 4.877832412719727 1.5248446464538574 0.0 0.0 0.0 0.0 0.0 0.0 0.0 0.0 0.0 0.0 0.0 0.0 0.4160194993019104 -1.5301124838045617 -0.8857673406600952 -2.328707834283346 4.878711700439453 1.524871587753296 0.00045172180398367345 5.0385879148961976e-05 0.0 7.684384273010359e-34 0.0413900688290596 1.8718158119223046e-25 0.14234250414108102 -0.10551207964997669 0.7253267557055645 2.007075495183946 0.5442856819702483 -2.149579236809105 0.0030964631146699756 -0.007004256706139837 -0.0009605383994323377 0.03787746154655066 0.016633360600723485 -0.0008801917347098274 -4.2801803147032444 -1.7404897845578264 3.435908176695978 0.09542252077678325 -0.6651441898762372 -0.12745804106880565 0.1424563559654699 -0.10526611187834882 0.725353439270174 2.006148727788962 0.5431505110813688 -2.1496606504736366 0.0 0.0 0.0 0.0 0.0 0.0 1
12801.222 0.4161461889743805 -1.5301833649030705 -0.8859370350837708 -2.3291670284666957 4.877832412719727 1.5248446464538574 0.0 0.0 0.0 0.0 0.0 0.0 0.0 0.0 0.0 0.0 0.0 0.0 0.4160194993019104 -1.5301124838045617 -0.8857673406600952 -2.328707834283346 4.878711700439453 1.524871587753296 0.00045172180398367345 5.0385879148961976e-05 0.0 7.684384273010359e-34 0.0413900688290596 1.8718158119223046e-25 0.14234250414108102 -0.10551207964997669 0.7253267557055645 2.007075495183946 0.5442856819702483 -2.149579236809105 0.0030964631146699756 -0.007004256706139837 -0.0009605383994323377 0.03787746154655066 0.016633360600723485 -0.0008801917347098274 -4.2801803147032444 -1.7404897845578264 3.435908176695978 0.09542252077678325 -0.6651441898762372 -0.12745804106880565 0.1424563559654699 -0.10526611187834882 0.725353439270174 2.006148727788962 0.5431505110813688 -2.1496606504736366 0.0 0.0 0.0 0.0 0.0 0.0 1
12801.23 0.4161461889743805 -1.5301833649030705 -0.8859370350837708 -2.3291670284666957 4.877832412719727 1.5248446464538574 0.0 0.0 0.0 0.0 0.0 0.0 0.0 0.0 0.0 0.0 0.0 0.0 0.4160194993019104 -1.5301124838045617 -0.8857673406600952 -2.328707834283346 4.878711700439453 1.524871587753296 0.00045172180398367345 5.0385879148961976e-05 0.0 7.684384273010359e-34 0.0413900688290596 1.8718158119223046e-25 0.14234250414108102 -0.10551207964997669 0.7253267557055645 2.007075495183946 0.5442856819702483 -2.149579236809105 0.0030964631146699756 -0.007004256706139837 -0.0009605383994323377 0.03787746154655066 0.016633360600723485 -0.0008801917347098274 -4.2801803147032444 -1.7404897845578264 3.435908176695978 0.09542252077678325 -0.6651441898762372 -0.12745804106880565 0.1424563559654699 -0.10526611187834882 0.725353439270174 2.006148727788962 0.5431505110813688 -2.1496606504736366 0.0 0.0 0.0 0.0 0.0 0.0 1
12801.238 0.4161461889743805 -1.5301833649030705 -0.8859370350837708 -2.3291670284666957 4.877832412719727 1.5248446464538574 0.0 0.0 0.0 0.0 0.0 0.0 0.0 0.0 0.0 0.0 0.0 0.0 0.4160194993019104 -1.5301124838045617 -0.8857673406600952 -2.328707834283346 4.878711700439453 1.524871587753296 0.00045172180398367345 5.0385879148961976e-05 0.0 7.684384273010359e-34 0.0413900688290596 1.8718158119223046e-25 0.14234250414108102 -0.10551207964997669 0.7253267557055645 2.007075495183946 0.5442856819702483 -2.149579236809105 0.0030964631146699756 -0.007004256706139837 -0.0009605383994323377 0.03787746154655066 0.016633360600723485 -0.0008801917347098274 -4.2801803147032444 -1.7404897845578264 3.435908176695978 0.09542252077678325 -0.6651441898762372 -0.12745804106880565 0.1424563559654699 -0.10526611187834882 0.725353439270174 2.006148727788962 0.5431505110813688 -2.1496606504736366 0.0 0.0 0.0 0.0 0.0 0.0 1
12801.246 0.4161461889743805 -1.5301833649030705 -0.8859370350837708 -2.3291670284666957 4.877832412719727 1.5248446464538574 0.0 0.0 0.0 0.0 0.0 0.0 0.0 0.0 0.0 0.0 0.0 0.0 0.4160194993019104 -1.5301124838045617 -0.8857673406600952 -2.328707834283346 4.878711700439453 1.524871587753296 0.00045172180398367345 5.0385879148961976e-05 0.0 7.684384273010359e-34 0.0413900688290596 1.8718158119223046e-25 0.14234250414108102 -0.10551207964997669 0.7253267557055645 2.007075495183946 0.5442856819702483 -2.149579236809105 0.0030964631146699756 -0.007004256706139837 -0.0009605383994323377 0.03787746154655066 0.016633360600723485 -0.0008801917347098274 -4.2801803147032444 -1.7404897845578264 3.435908176695978 0.09542252077678325 -0.6651441898762372 -0.12745804106880565 0.1424563559654699 -0.10526611187834882 0.725353439270174 2.006148727788962 0.5431505110813688 -2.1496606504736366 0.0 0.0 0.0 0.0 0.0 0.0 1
12801.253999999999 0.4161461889743805 -1.5301833649030705 -0.8859370350837708 -2.3291670284666957 4.877832412719727 1.5248446464538574 0.0 0.0 0.0 0.0 0.0 0.0 0.0 0.0 0.0 0.0 0.0 0.0 0.4160194993019104 -1.5301124838045617 -0.8857673406600952 -2.328707834283346 4.878711700439453 1.524871587753296 0.00045172180398367345 5.0385879148961976e-05 0.0 7.684384273010359e-34 0.0413900688290596 1.8718158119223046e-25 0.14234250414108102 -0.10551207964997669 0.7253267557055645 2.007075495183946 0.5442856819702483 -2.149579236809105 0.0030964631146699756 -0.007004256706139837 -0.0009605383994323377 0.03787746154655066 0.016633360600723485 -0.0008801917347098274 -4.2801803147032444 -1.7404897845578264 3.435908176695978 0.09542252077678325 -0.6651441898762372 -0.12745804106880565 0.1424563559654699 -0.10526611187834882 0.725353439270174 2.006148727788962 0.5431505110813688 -2.1496606504736366 0.0 0.0 0.0 0.0 0.0 0.0 1
12801.261999999999 0.4161461889743805 -1.5301833649030705 -0.8859370350837708 -2.3291670284666957 4.877832412719727 1.5248446464538574 0.0 0.0 0.0 0.0 0.0 0.0 0.0 0.0 0.0 0.0 0.0 0.0 0.4160194993019104 -1.5301124838045617 -0.8857673406600952 -2.328707834283346 4.878711700439453 1.524871587753296 0.00045172180398367345 5.0385879148961976e-05 0.0 7.684384273010359e-34 0.0413900688290596 1.8718158119223046e-25 0.14234250414108102 -0.10551207964997669 0.7253267557055645 2.007075495183946 0.5442856819702483 -2.149579236809105 0.0030964631146699756 -0.007004256706139837 -0.0009605383994323377 0.03787746154655066 0.016633360600723485 -0.0008801917347098274 -4.2801803147032444 -1.7404897845578264 3.435908176695978 0.09542252077678325 -0.6651441898762372 -0.12745804106880565 0.1424563559654699 -0.10526611187834882 0.725353439270174 2.006148727788962 0.5431505110813688 -2.1496606504736366 0.0 0.0 0.0 0.0 0.0 0.0 1
12801.269999999999 0.4161461889743805 -1.5301833649030705 -0.8859370350837708 -2.3291670284666957 4.877832412719727 1.5248446464538574 0.0 0.0 0.0 0.0 0.0 0.0 0.0 0.0 0.0 0.0 0.0 0.0 0.4160194993019104 -1.5301124838045617 -0.8857673406600952 -2.328707834283346 4.878711700439453 1.524871587753296 0.00045172180398367345 5.0385879148961976e-05 0.0 7.684384273010359e-34 0.0413900688290596 1.8718158119223046e-25 0.14234250414108102 -0.10551207964997669 0.7253267557055645 2.007075495183946 0.5442856819702483 -2.149579236809105 0.0030964631146699756 -0.007004256706139837 -0.0009605383994323377 0.03787746154655066 0.016633360600723485 -0.0008801917347098274 -4.2801803147032444 -1.7404897845578264 3.435908176695978 0.09542252077678325 -0.6651441898762372 -0.12745804106880565 0.1424563559654699 -0.10526611187834882 0.725353439270174 2.006148727788962 0.5431505110813688 -2.1496606504736366 0.0 0.0 0.0 0.0 0.0 0.0 1
12801.278 0.4161461889743805 -1.5301833649030705 -0.8859370350837708 -2.3291670284666957 4.877832412719727 1.5248446464538574 0.0 0.0 0.0 0.0 0.0 0.0 0.0 0.0 0.0 0.0 0.0 0.0 0.4160194993019104 -1.5301124838045617 -0.8857673406600952 -2.328707834283346 4.878711700439453 1.524871587753296 0.00045172180398367345 5.0385879148961976e-05 0.0 7.684384273010359e-34 0.0413900688290596 1.8718158119223046e-25 0.14234250414108102 -0.10551207964997669 0.7253267557055645 2.007075495183946 0.5442856819702483 -2.149579236809105 0.0030964631146699756 -0.007004256706139837 -0.0009605383994323377 0.03787746154655066 0.016633360600723485 -0.0008801917347098274 -4.2801803147032444 -1.7404897845578264 3.435908176695978 0.09542252077678325 -0.6651441898762372 -0.12745804106880565 0.1424563559654699 -0.10526611187834882 0.725353439270174 2.006148727788962 0.5431505110813688 -2.1496606504736366 0.0 0.0 0.0 0.0 0.0 0.0 1
12801.286 0.4161461889743805 -1.5301833649030705 -0.8859370350837708 -2.3291670284666957 4.877832412719727 1.5248446464538574 0.0 0.0 0.0 0.0 0.0 0.0 0.0 0.0 0.0 0.0 0.0 0.0 0.4160194993019104 -1.5301124838045617 -0.8857673406600952 -2.328707834283346 4.878711700439453 1.524871587753296 0.00045172180398367345 5.0385879148961976e-05 0.0 7.684384273010359e-34 0.0413900688290596 1.8718158119223046e-25 0.14234250414108102 -0.10551207964997669 0.7253267557055645 2.007075495183946 0.5442856819702483 -2.149579236809105 0.0030964631146699756 -0.007004256706139837 -0.0009605383994323377 0.03787746154655066 0.016633360600723485 -0.0008801917347098274 -4.2801803147032444 -1.7404897845578264 3.435908176695978 0.09542252077678325 -0.6651441898762372 -0.12745804106880565 0.1424563559654699 -0.10526611187834882 0.725353439270174 2.006148727788962 0.5431505110813688 -2.1496606504736366 0.0 0.0 0.0 0.0 0.0 0.0 1
12801.294 0.4161461889743805 -1.5301833649030705 -0.8859370350837708 -2.3291670284666957 4.877832412719727 1.5248446464538574 0.0 0.0 0.0 0.0 0.0 0.0 0.0 0.0 0.0 0.0 0.0 0.0 0.4160194993019104 -1.5301124838045617 -0.8857673406600952 -2.328707834283346 4.878711700439453 1.524871587753296 0.00045172180398367345 5.0385879148961976e-05 0.0 7.684384273010359e-34 0.0413900688290596 1.8718158119223046e-25 0.14234250414108102 -0.10551207964997669 0.7253267557055645 2.007075495183946 0.5442856819702483 -2.149579236809105 0.0030964631146699756 -0.007004256706139837 -0.0009605383994323377 0.03787746154655066 0.016633360600723485 -0.0008801917347098274 -4.2801803147032444 -1.7404897845578264 3.435908176695978 0.09542252077678325 -0.6651441898762372 -0.12745804106880565 0.1424563559654699 -0.10526611187834882 0.725353439270174 2.006148727788962 0.5431505110813688 -2.1496606504736366 0.0 0.0 0.0 0.0 0.0 0.0 1
12801.302 0.4161461889743805 -1.5301833649030705 -0.8859370350837708 -2.3291670284666957 4.877832412719727 1.5248446464538574 0.0 0.0 0.0 0.0 0.0 0.0 0.0 0.0 0.0 0.0 0.0 0.0 0.4160194993019104 -1.5301124838045617 -0.8857673406600952 -2.328707834283346 4.878711700439453 1.524871587753296 0.00045172180398367345 5.0385879148961976e-05 0.0 7.684384273010359e-34 0.0413900688290596 1.8718158119223046e-25 0.14234250414108102 -0.10551207964997669 0.7253267557055645 2.007075495183946 0.5442856819702483 -2.149579236809105 0.0030964631146699756 -0.007004256706139837 -0.0009605383994323377 0.03787746154655066 0.016633360600723485 -0.0008801917347098274 -4.2801803147032444 -1.7404897845578264 3.435908176695978 0.09542252077678325 -0.6651441898762372 -0.12745804106880565 0.1424563559654699 -0.10526611187834882 0.725353439270174 2.006148727788962 0.5431505110813688 -2.1496606504736366 0.0 0.0 0.0 0.0 0.0 0.0 1
12801.31 0.4161461889743805 -1.5301833649030705 -0.8859370350837708 -2.3291670284666957 4.877832412719727 1.5248446464538574 0.0 0.0 0.0 0.0 0.0 0.0 0.0 0.0 0.0 0.0 0.0 0.0 0.4160194993019104 -1.5301124838045617 -0.8857673406600952 -2.328707834283346 4.878711700439453 1.524871587753296 0.00045172180398367345 5.0385879148961976e-05 0.0 7.684384273010359e-34 0.0413900688290596 1.8718158119223046e-25 0.14234250414108102 -0.10551207964997669 0.7253267557055645 2.007075495183946 0.5442856819702483 -2.149579236809105 0.0030964631146699756 -0.007004256706139837 -0.0009605383994323377 0.03787746154655066 0.016633360600723485 -0.0008801917347098274 -4.2801803147032444 -1.7404897845578264 3.435908176695978 0.09542252077678325 -0.6651441898762372 -0.12745804106880565 0.1424563559654699 -0.10526611187834882 0.725353439270174 2.006148727788962 0.5431505110813688 -2.1496606504736366 0.0 0.0 0.0 0.0 0.0 0.0 1
12801.318 0.4161461889743805 -1.5301833649030705 -0.8859370350837708 -2.3291670284666957 4.877832412719727 1.5248446464538574 0.0 0.0 0.0 0.0 0.0 0.0 0.0 0.0 0.0 0.0 0.0 0.0 0.4160194993019104 -1.5301124838045617 -0.8857673406600952 -2.328707834283346 4.878711700439453 1.524871587753296 0.00045172180398367345 5.0385879148961976e-05 0.0 7.684384273010359e-34 0.0413900688290596 1.8718158119223046e-25 0.14234250414108102 -0.10551207964997669 0.7253267557055645 2.007075495183946 0.5442856819702483 -2.149579236809105 0.0030964631146699756 -0.007004256706139837 -0.0009605383994323377 0.03787746154655066 0.016633360600723485 -0.0008801917347098274 -4.2801803147032444 -1.7404897845578264 3.435908176695978 0.09542252077678325 -0.6651441898762372 -0.12745804106880565 0.1424563559654699 -0.10526611187834882 0.725353439270174 2.006148727788962 0.5431505110813688 -2.1496606504736366 0.0 0.0 0.0 0.0 0.0 0.0 1
12801.326 0.4161461889743805 -1.5301833649030705 -0.8859370350837708 -2.3291670284666957 4.877832412719727 1.5248446464538574 0.0 0.0 0.0 0.0 0.0 0.0 0.0 0.0 0.0 0.0 0.0 0.0 0.4160194993019104 -1.5301124838045617 -0.8857673406600952 -2.328707834283346 4.878711700439453 1.524871587753296 0.00045172180398367345 5.0385879148961976e-05 0.0 7.684384273010359e-34 0.0413900688290596 1.8718158119223046e-25 0.14234250414108102 -0.10551207964997669 0.7253267557055645 2.007075495183946 0.5442856819702483 -2.149579236809105 0.0030964631146699756 -0.007004256706139837 -0.0009605383994323377 0.03787746154655066 0.016633360600723485 -0.0008801917347098274 -4.2801803147032444 -1.7404897845578264 3.435908176695978 0.09542252077678325 -0.6651441898762372 -0.12745804106880565 0.1424563559654699 -0.10526611187834882 0.725353439270174 2.006148727788962 0.5431505110813688 -2.1496606504736366 0.0 0.0 0.0 0.0 0.0 0.0 1
12801.333999999999 0.4161461889743805 -1.5301833649030705 -0.8859370350837708 -2.3291670284666957 4.877832412719727 1.5248446464538574 0.0 0.0 0.0 0.0 0.0 0.0 0.0 0.0 0.0 0.0 0.0 0.0 0.4160194993019104 -1.5301124838045617 -0.8857673406600952 -2.328707834283346 4.878711700439453 1.524871587753296 0.00045172180398367345 5.0385879148961976e-05 0.0 7.684384273010359e-34 0.0413900688290596 1.8718158119223046e-25 0.14234250414108102 -0.10551207964997669 0.7253267557055645 2.007075495183946 0.5442856819702483 -2.149579236809105 0.0030964631146699756 -0.007004256706139837 -0.0009605383994323377 0.03787746154655066 0.016633360600723485 -0.0008801917347098274 -4.2801803147032444 -1.7404897845578264 3.435908176695978 0.09542252077678325 -0.6651441898762372 -0.12745804106880565 0.1424563559654699 -0.10526611187834882 0.725353439270174 2.006148727788962 0.5431505110813688 -2.1496606504736366 0.0 0.0 0.0 0.0 0.0 0.0 1
12801.341999999999 0.4161461889743805 -1.5301833649030705 -0.8859370350837708 -2.3291670284666957 4.877832412719727 1.5248446464538574 0.0 0.0 0.0 0.0 0.0 0.0 0.0 0.0 0.0 0.0 0.0 0.0 0.4160194993019104 -1.5301124838045617 -0.8857673406600952 -2.328707834283346 4.878711700439453 1.524871587753296 0.00045172180398367345 5.0385879148961976e-05 0.0 7.684384273010359e-34 0.0413900688290596 1.8718158119223046e-25 0.14234250414108102 -0.10551207964997669 0.7253267557055645 2.007075495183946 0.5442856819702483 -2.149579236809105 0.0030964631146699756 -0.007004256706139837 -0.0009605383994323377 0.03787746154655066 0.016633360600723485 -0.0008801917347098274 -4.2801803147032444 -1.7404897845578264 3.435908176695978 0.09542252077678325 -0.6651441898762372 -0.12745804106880565 0.1424563559654699 -0.10526611187834882 0.725353439270174 2.006148727788962 0.5431505110813688 -2.1496606504736366 0.0 0.0 0.0 0.0 0.0 0.0 1
12801.349999999999 0.4161461889743805 -1.5301833649030705 -0.8859370350837708 -2.3291670284666957 4.877832412719727 1.5248446464538574 0.0 0.0 0.0 0.0 0.0 0.0 0.0 0.0 0.0 0.0 0.0 0.0 0.4160194993019104 -1.5301124838045617 -0.8857673406600952 -2.328707834283346 4.878711700439453 1.524871587753296 0.00045172180398367345 5.0385879148961976e-05 0.0 7.684384273010359e-34 0.0413900688290596 1.8718158119223046e-25 0.14234250414108102 -0.10551207964997669 0.7253267557055645 2.007075495183946 0.5442856819702483 -2.149579236809105 0.0030964631146699756 -0.007004256706139837 -0.0009605383994323377 0.03787746154655066 0.016633360600723485 -0.0008801917347098274 -4.2801803147032444 -1.7404897845578264 3.435908176695978 0.09542252077678325 -0.6651441898762372 -0.12745804106880565 0.1424563559654699 -0.10526611187834882 0.725353439270174 2.006148727788962 0.5431505110813688 -2.1496606504736366 0.0 0.0 0.0 0.0 0.0 0.0 1
12801.358 0.4161461889743805 -1.5301833649030705 -0.8859370350837708 -2.3291670284666957 4.877832412719727 1.5248446464538574 0.0 0.0 0.0 0.0 0.0 0.0 0.0 0.0 0.0 0.0 0.0 0.0 0.4160194993019104 -1.5301124838045617 -0.8857673406600952 -2.328707834283346 4.878711700439453 1.524871587753296 0.00045172180398367345 5.0385879148961976e-05 0.0 7.684384273010359e-34 0.0413900688290596 1.8718158119223046e-25 0.14234250414108102 -0.10551207964997669 0.7253267557055645 2.007075495183946 0.5442856819702483 -2.149579236809105 0.0030964631146699756 -0.007004256706139837 -0.0009605383994323377 0.03787746154655066 0.016633360600723485 -0.0008801917347098274 -4.2801803147032444 -1.7404897845578264 3.435908176695978 0.09542252077678325 -0.6651441898762372 -0.12745804106880565 0.1424563559654699 -0.10526611187834882 0.725353439270174 2.006148727788962 0.5431505110813688 -2.1496606504736366 0.0 0.0 0.0 0.0 0.0 0.0 1
12801.366 0.4161461889743805 -1.5301833649030705 -0.8859370350837708 -2.3291670284666957 4.877832412719727 1.5248446464538574 0.0 0.0 0.0 0.0 0.0 0.0 0.0 0.0 0.0 0.0 0.0 0.0 0.4160194993019104 -1.5301124838045617 -0.8857673406600952 -2.328707834283346 4.878711700439453 1.524871587753296 0.00045172180398367345 5.0385879148961976e-05 0.0 7.684384273010359e-34 0.0413900688290596 1.8718158119223046e-25 0.14234250414108102 -0.10551207964997669 0.7253267557055645 2.007075495183946 0.5442856819702483 -2.149579236809105 0.0030964631146699756 -0.007004256706139837 -0.0009605383994323377 0.03787746154655066 0.016633360600723485 -0.0008801917347098274 -4.2801803147032444 -1.7404897845578264 3.435908176695978 0.09542252077678325 -0.6651441898762372 -0.12745804106880565 0.1424563559654699 -0.10526611187834882 0.725353439270174 2.006148727788962 0.5431505110813688 -2.1496606504736366 0.0 0.0 0.0 0.0 0.0 0.0 1
12801.374 0.4161461889743805 -1.5301833649030705 -0.8859370350837708 -2.3291670284666957 4.877832412719727 1.5248446464538574 0.0 0.0 0.0 0.0 0.0 0.0 0.0 0.0 0.0 0.0 0.0 0.0 0.4160194993019104 -1.5301124838045617 -0.8857673406600952 -2.328707834283346 4.878711700439453 1.524871587753296 0.00045172180398367345 5.0385879148961976e-05 0.0 7.684384273010359e-34 0.0413900688290596 1.8718158119223046e-25 0.14234250414108102 -0.10551207964997669 0.7253267557055645 2.007075495183946 0.5442856819702483 -2.149579236809105 0.0030964631146699756 -0.007004256706139837 -0.0009605383994323377 0.03787746154655066 0.016633360600723485 -0.0008801917347098274 -4.2801803147032444 -1.7404897845578264 3.435908176695978 0.09542252077678325 -0.6651441898762372 -0.12745804106880565 0.1424563559654699 -0.10526611187834882 0.725353439270174 2.006148727788962 0.5431505110813688 -2.1496606504736366 0.0 0.0 0.0 0.0 0.0 0.0 1
12801.382 0.4161461889743805 -1.5301833649030705 -0.8859370350837708 -2.3291670284666957 4.877832412719727 1.5248446464538574 0.0 0.0 0.0 0.0 0.0 0.0 0.0 0.0 0.0 0.0 0.0 0.0 0.4160194993019104 -1.5301124838045617 -0.8857673406600952 -2.328707834283346 4.878711700439453 1.524871587753296 0.00045172180398367345 5.0385879148961976e-05 0.0 7.684384273010359e-34 0.0413900688290596 1.8718158119223046e-25 0.14234250414108102 -0.10551207964997669 0.7253267557055645 2.007075495183946 0.5442856819702483 -2.149579236809105 0.0030964631146699756 -0.007004256706139837 -0.0009605383994323377 0.03787746154655066 0.016633360600723485 -0.0008801917347098274 -4.2801803147032444 -1.7404897845578264 3.435908176695978 0.09542252077678325 -0.6651441898762372 -0.12745804106880565 0.1424563559654699 -0.10526611187834882 0.725353439270174 2.006148727788962 0.5431505110813688 -2.1496606504736366 0.0 0.0 0.0 0.0 0.0 0.0 1
12801.39 0.4161461889743805 -1.5301833649030705 -0.8859370350837708 -2.3291670284666957 4.877832412719727 1.5248446464538574 0.0 0.0 0.0 0.0 0.0 0.0 0.0 0.0 0.0 0.0 0.0 0.0 0.4160194993019104 -1.5301124838045617 -0.8857673406600952 -2.328707834283346 4.878711700439453 1.524871587753296 0.00045172180398367345 5.0385879148961976e-05 0.0 7.684384273010359e-34 0.0413900688290596 1.8718158119223046e-25 0.14234250414108102 -0.10551207964997669 0.7253267557055645 2.007075495183946 0.5442856819702483 -2.149579236809105 0.0030964631146699756 -0.007004256706139837 -0.0009605383994323377 0.03787746154655066 0.016633360600723485 -0.0008801917347098274 -4.2801803147032444 -1.7404897845578264 3.435908176695978 0.09542252077678325 -0.6651441898762372 -0.12745804106880565 0.1424563559654699 -0.10526611187834882 0.725353439270174 2.006148727788962 0.5431505110813688 -2.1496606504736366 0.0 0.0 0.0 0.0 0.0 0.0 1
12801.398 0.4161461889743805 -1.5301833649030705 -0.8859370350837708 -2.3291670284666957 4.877832412719727 1.5248446464538574 0.0 0.0 0.0 0.0 0.0 0.0 0.0 0.0 0.0 0.0 0.0 0.0 0.4160194993019104 -1.5301124838045617 -0.8857673406600952 -2.328707834283346 4.878711700439453 1.524871587753296 0.00045172180398367345 5.0385879148961976e-05 0.0 7.684384273010359e-34 0.0413900688290596 1.8718158119223046e-25 0.14234250414108102 -0.10551207964997669 0.7253267557055645 2.007075495183946 0.5442856819702483 -2.149579236809105 0.0030964631146699756 -0.007004256706139837 -0.0009605383994323377 0.03787746154655066 0.016633360600723485 -0.0008801917347098274 -4.2801803147032444 -1.7404897845578264 3.435908176695978 0.09542252077678325 -0.6651441898762372 -0.12745804106880565 0.1424563559654699 -0.10526611187834882 0.725353439270174 2.006148727788962 0.5431505110813688 -2.1496606504736366 0.0 0.0 0.0 0.0 0.0 0.0 1
12801.405999999999 0.4161461889743805 -1.5301833649030705 -0.8859370350837708 -2.3291670284666957 4.877832412719727 1.5248446464538574 0.0 0.0 0.0 0.0 0.0 0.0 0.0 0.0 0.0 0.0 0.0 0.0 0.4160194993019104 -1.5301124838045617 -0.8857673406600952 -2.328707834283346 4.878711700439453 1.524871587753296 0.00045172180398367345 5.0385879148961976e-05 0.0 7.684384273010359e-34 0.0413900688290596 1.8718158119223046e-25 0.14234250414108102 -0.10551207964997669 0.7253267557055645 2.007075495183946 0.5442856819702483 -2.149579236809105 0.0030964631146699756 -0.007004256706139837 -0.0009605383994323377 0.03787746154655066 0.016633360600723485 -0.0008801917347098274 -4.2801803147032444 -1.7404897845578264 3.435908176695978 0.09542252077678325 -0.6651441898762372 -0.12745804106880565 0.1424563559654699 -0.10526611187834882 0.725353439270174 2.006148727788962 0.5431505110813688 -2.1496606504736366 0.0 0.0 0.0 0.0 0.0 0.0 1
12801.413999999999 0.4161461889743805 -1.5301833649030705 -0.8859370350837708 -2.3291670284666957 4.877832412719727 1.5248446464538574 0.0 0.0 0.0 0.0 0.0 0.0 0.0 0.0 0.0 0.0 0.0 0.0 0.4160194993019104 -1.5301124838045617 -0.8857673406600952 -2.328707834283346 4.878711700439453 1.524871587753296 0.00045172180398367345 5.0385879148961976e-05 0.0 7.684384273010359e-34 0.0413900688290596 1.8718158119223046e-25 0.14234250414108102 -0.10551207964997669 0.7253267557055645 2.007075495183946 0.5442856819702483 -2.149579236809105 0.0030964631146699756 -0.007004256706139837 -0.0009605383994323377 0.03787746154655066 0.016633360600723485 -0.0008801917347098274 -4.2801803147032444 -1.7404897845578264 3.435908176695978 0.09542252077678325 -0.6651441898762372 -0.12745804106880565 0.1424563559654699 -0.10526611187834882 0.725353439270174 2.006148727788962 0.5431505110813688 -2.1496606504736366 0.0 0.0 0.0 0.0 0.0 0.0 1
12801.421999999999 0.4161461889743805 -1.5301833649030705 -0.8859370350837708 -2.3291670284666957 4.877832412719727 1.5248446464538574 0.0 0.0 0.0 0.0 0.0 0.0 0.0 0.0 0.0 0.0 0.0 0.0 0.4160194993019104 -1.5301124838045617 -0.8857673406600952 -2.328707834283346 4.878711700439453 1.524871587753296 0.00045172180398367345 5.0385879148961976e-05 0.0 7.684384273010359e-34 0.0413900688290596 1.8718158119223046e-25 0.14234250414108102 -0.10551207964997669 0.7253267557055645 2.007075495183946 0.5442856819702483 -2.149579236809105 0.0030964631146699756 -0.007004256706139837 -0.0009605383994323377 0.03787746154655066 0.016633360600723485 -0.0008801917347098274 -4.2801803147032444 -1.7404897845578264 3.435908176695978 0.09542252077678325 -0.6651441898762372 -0.12745804106880565 0.1424563559654699 -0.10526611187834882 0.725353439270174 2.006148727788962 0.5431505110813688 -2.1496606504736366 0.0 0.0 0.0 0.0 0.0 0.0 1
12801.43 0.4161461889743805 -1.5301833649030705 -0.8859370350837708 -2.3291670284666957 4.877832412719727 1.5248446464538574 0.0 0.0 0.0 0.0 0.0 0.0 0.0 0.0 0.0 0.0 0.0 0.0 0.4160194993019104 -1.5301124838045617 -0.8857673406600952 -2.328707834283346 4.878711700439453 1.524871587753296 0.00045172180398367345 5.0385879148961976e-05 0.0 7.684384273010359e-34 0.0413900688290596 1.8718158119223046e-25 0.14234250414108102 -0.10551207964997669 0.7253267557055645 2.007075495183946 0.5442856819702483 -2.149579236809105 0.0030964631146699756 -0.007004256706139837 -0.0009605383994323377 0.03787746154655066 0.016633360600723485 -0.0008801917347098274 -4.2801803147032444 -1.7404897845578264 3.435908176695978 0.09542252077678325 -0.6651441898762372 -0.12745804106880565 0.1424563559654699 -0.10526611187834882 0.725353439270174 2.006148727788962 0.5431505110813688 -2.1496606504736366 0.0 0.0 0.0 0.0 0.0 0.0 1
12801.438 0.4161461889743805 -1.5301833649030705 -0.8859370350837708 -2.3291670284666957 4.877832412719727 1.5248446464538574 0.0 0.0 0.0 0.0 0.0 0.0 0.0 0.0 0.0 0.0 0.0 0.0 0.4160194993019104 -1.5301124838045617 -0.8857673406600952 -2.328707834283346 4.878711700439453 1.524871587753296 0.00045172180398367345 5.0385879148961976e-05 0.0 7.684384273010359e-34 0.0413900688290596 1.8718158119223046e-25 0.14234250414108102 -0.10551207964997669 0.7253267557055645 2.007075495183946 0.5442856819702483 -2.149579236809105 0.0030964631146699756 -0.007004256706139837 -0.0009605383994323377 0.03787746154655066 0.016633360600723485 -0.0008801917347098274 -4.2801803147032444 -1.7404897845578264 3.435908176695978 0.09542252077678325 -0.6651441898762372 -0.12745804106880565 0.1424563559654699 -0.10526611187834882 0.725353439270174 2.006148727788962 0.5431505110813688 -2.1496606504736366 0.0 0.0 0.0 0.0 0.0 0.0 1
12801.446 0.4161461889743805 -1.5301833649030705 -0.8859370350837708 -2.3291670284666957 4.877832412719727 1.5248446464538574 0.0 0.0 0.0 0.0 0.0 0.0 0.0 0.0 0.0 0.0 0.0 0.0 0.4160194993019104 -1.5301124838045617 -0.8857673406600952 -2.328707834283346 4.878711700439453 1.524871587753296 0.00045172180398367345 5.0385879148961976e-05 0.0 7.684384273010359e-34 0.0413900688290596 1.8718158119223046e-25 0.14234250414108102 -0.10551207964997669 0.7253267557055645 2.007075495183946 0.5442856819702483 -2.149579236809105 0.0030964631146699756 -0.007004256706139837 -0.0009605383994323377 0.03787746154655066 0.016633360600723485 -0.0008801917347098274 -4.2801803147032444 -1.7404897845578264 3.435908176695978 0.09542252077678325 -0.6651441898762372 -0.12745804106880565 0.1424563559654699 -0.10526611187834882 0.725353439270174 2.006148727788962 0.5431505110813688 -2.1496606504736366 0.0 0.0 0.0 0.0 0.0 0.0 1
12801.454 0.4161461889743805 -1.5301833649030705 -0.8859370350837708 -2.3291670284666957 4.877832412719727 1.5248446464538574 0.0 0.0 0.0 0.0 0.0 0.0 0.0 0.0 0.0 0.0 0.0 0.0 0.4160194993019104 -1.5301124838045617 -0.8857673406600952 -2.328707834283346 4.878711700439453 1.524871587753296 0.00045172180398367345 5.0385879148961976e-05 0.0 7.684384273010359e-34 0.0413900688290596 1.8718158119223046e-25 0.14234250414108102 -0.10551207964997669 0.7253267557055645 2.007075495183946 0.5442856819702483 -2.149579236809105 0.0030964631146699756 -0.007004256706139837 -0.0009605383994323377 0.03787746154655066 0.016633360600723485 -0.0008801917347098274 -4.2801803147032444 -1.7404897845578264 3.435908176695978 0.09542252077678325 -0.6651441898762372 -0.12745804106880565 0.1424563559654699 -0.10526611187834882 0.725353439270174 2.006148727788962 0.5431505110813688 -2.1496606504736366 0.0 0.0 0.0 0.0 0.0 0.0 1
12801.462 0.4161461889743805 -1.5301833649030705 -0.8859370350837708 -2.3291670284666957 4.877832412719727 1.5248446464538574 0.0 0.0 0.0 0.0 0.0 0.0 0.0 0.0 0.0 0.0 0.0 0.0 0.4160194993019104 -1.5301124838045617 -0.8857673406600952 -2.328707834283346 4.878711700439453 1.524871587753296 0.00045172180398367345 5.0385879148961976e-05 0.0 7.684384273010359e-34 0.0413900688290596 1.8718158119223046e-25 0.14234250414108102 -0.10551207964997669 0.7253267557055645 2.007075495183946 0.5442856819702483 -2.149579236809105 0.0030964631146699756 -0.007004256706139837 -0.0009605383994323377 0.03787746154655066 0.016633360600723485 -0.0008801917347098274 -4.2801803147032444 -1.7404897845578264 3.435908176695978 0.09542252077678325 -0.6651441898762372 -0.12745804106880565 0.1424563559654699 -0.10526611187834882 0.725353439270174 2.006148727788962 0.5431505110813688 -2.1496606504736366 0.0 0.0 0.0 0.0 0.0 0.0 1
12801.47 0.4161461889743805 -1.5301833649030705 -0.8859370350837708 -2.3291670284666957 4.877832412719727 1.5248446464538574 0.0 0.0 0.0 0.0 0.0 0.0 0.0 0.0 0.0 0.0 0.0 0.0 0.4160194993019104 -1.5301124838045617 -0.8857673406600952 -2.328707834283346 4.878711700439453 1.524871587753296 0.00045172180398367345 5.0385879148961976e-05 0.0 7.684384273010359e-34 0.0413900688290596 1.8718158119223046e-25 0.14234250414108102 -0.10551207964997669 0.7253267557055645 2.007075495183946 0.5442856819702483 -2.149579236809105 0.0030964631146699756 -0.007004256706139837 -0.0009605383994323377 0.03787746154655066 0.016633360600723485 -0.0008801917347098274 -4.2801803147032444 -1.7404897845578264 3.435908176695978 0.09542252077678325 -0.6651441898762372 -0.12745804106880565 0.1424563559654699 -0.10526611187834882 0.725353439270174 2.006148727788962 0.5431505110813688 -2.1496606504736366 0.0 0.0 0.0 0.0 0.0 0.0 1
12801.478 0.4161461889743805 -1.5301833649030705 -0.8859370350837708 -2.3291670284666957 4.877832412719727 1.5248446464538574 0.0 0.0 0.0 0.0 0.0 0.0 0.0 0.0 0.0 0.0 0.0 0.0 0.4160194993019104 -1.5301124838045617 -0.8857673406600952 -2.328707834283346 4.878711700439453 1.524871587753296 0.00045172180398367345 5.0385879148961976e-05 0.0 7.684384273010359e-34 0.0413900688290596 1.8718158119223046e-25 0.14234250414108102 -0.10551207964997669 0.7253267557055645 2.007075495183946 0.5442856819702483 -2.149579236809105 0.0030964631146699756 -0.007004256706139837 -0.0009605383994323377 0.03787746154655066 0.016633360600723485 -0.0008801917347098274 -4.2801803147032444 -1.7404897845578264 3.435908176695978 0.09542252077678325 -0.6651441898762372 -0.12745804106880565 0.1424563559654699 -0.10526611187834882 0.725353439270174 2.006148727788962 0.5431505110813688 -2.1496606504736366 0.0 0.0 0.0 0.0 0.0 0.0 1
12801.485999999999 0.4161461889743805 -1.5301833649030705 -0.8859370350837708 -2.3291670284666957 4.877832412719727 1.5248446464538574 0.0 0.0 0.0 0.0 0.0 0.0 0.0 0.0 0.0 0.0 0.0 0.0 0.4160194993019104 -1.5301124838045617 -0.8857673406600952 -2.328707834283346 4.878711700439453 1.524871587753296 0.00045172180398367345 5.0385879148961976e-05 0.0 7.684384273010359e-34 0.0413900688290596 1.8718158119223046e-25 0.14234250414108102 -0.10551207964997669 0.7253267557055645 2.007075495183946 0.5442856819702483 -2.149579236809105 0.0030964631146699756 -0.007004256706139837 -0.0009605383994323377 0.03787746154655066 0.016633360600723485 -0.0008801917347098274 -4.2801803147032444 -1.7404897845578264 3.435908176695978 0.09542252077678325 -0.6651441898762372 -0.12745804106880565 0.1424563559654699 -0.10526611187834882 0.725353439270174 2.006148727788962 0.5431505110813688 -2.1496606504736366 0.0 0.0 0.0 0.0 0.0 0.0 1
12801.493999999999 0.4161461889743805 -1.5301833649030705 -0.8859370350837708 -2.3291670284666957 4.877832412719727 1.5248446464538574 0.0 0.0 0.0 0.0 0.0 0.0 0.0 0.0 0.0 0.0 0.0 0.0 0.4160194993019104 -1.5301124838045617 -0.8857673406600952 -2.328707834283346 4.878711700439453 1.524871587753296 0.00045172180398367345 5.0385879148961976e-05 0.0 7.684384273010359e-34 0.0413900688290596 1.8718158119223046e-25 0.14234250414108102 -0.10551207964997669 0.7253267557055645 2.007075495183946 0.5442856819702483 -2.149579236809105 0.0030964631146699756 -0.007004256706139837 -0.0009605383994323377 0.03787746154655066 0.016633360600723485 -0.0008801917347098274 -4.2801803147032444 -1.7404897845578264 3.435908176695978 0.09542252077678325 -0.6651441898762372 -0.12745804106880565 0.1424563559654699 -0.10526611187834882 0.725353439270174 2.006148727788962 0.5431505110813688 -2.1496606504736366 0.0 0.0 0.0 0.0 0.0 0.0 1
12801.501999999999 0.4161461889743805 -1.5301833649030705 -0.8859370350837708 -2.3291670284666957 4.877832412719727 1.5248446464538574 0.0 0.0 0.0 0.0 0.0 0.0 0.0 0.0 0.0 0.0 0.0 0.0 0.4160194993019104 -1.5301124838045617 -0.8857673406600952 -2.328707834283346 4.878711700439453 1.524871587753296 0.00045172180398367345 5.0385879148961976e-05 0.0 7.684384273010359e-34 0.0413900688290596 1.8718158119223046e-25 0.14234250414108102 -0.10551207964997669 0.7253267557055645 2.007075495183946 0.5442856819702483 -2.149579236809105 0.0030964631146699756 -0.007004256706139837 -0.0009605383994323377 0.03787746154655066 0.016633360600723485 -0.0008801917347098274 -4.2801803147032444 -1.7404897845578264 3.435908176695978 0.09542252077678325 -0.6651441898762372 -0.12745804106880565 0.1424563559654699 -0.10526611187834882 0.725353439270174 2.006148727788962 0.5431505110813688 -2.1496606504736366 0.0 0.0 0.0 0.0 0.0 0.0 1
12801.51 0.4161461889743805 -1.5301833649030705 -0.8859370350837708 -2.3291670284666957 4.877832412719727 1.5248446464538574 0.0 0.0 0.0 0.0 0.0 0.0 0.0 0.0 0.0 0.0 0.0 0.0 0.4160194993019104 -1.5301124838045617 -0.8857673406600952 -2.328707834283346 4.878711700439453 1.524871587753296 0.00045172180398367345 5.0385879148961976e-05 0.0 7.684384273010359e-34 0.0413900688290596 1.8718158119223046e-25 0.14234250414108102 -0.10551207964997669 0.7253267557055645 2.007075495183946 0.5442856819702483 -2.149579236809105 0.0030964631146699756 -0.007004256706139837 -0.0009605383994323377 0.03787746154655066 0.016633360600723485 -0.0008801917347098274 -4.2801803147032444 -1.7404897845578264 3.435908176695978 0.09542252077678325 -0.6651441898762372 -0.12745804106880565 0.1424563559654699 -0.10526611187834882 0.725353439270174 2.006148727788962 0.5431505110813688 -2.1496606504736366 0.0 0.0 0.0 0.0 0.0 0.0 1
12801.518 0.4161461889743805 -1.5301833649030705 -0.8859370350837708 -2.3291670284666957 4.877832412719727 1.5248446464538574 0.0 0.0 0.0 0.0 0.0 0.0 0.0 0.0 0.0 0.0 0.0 0.0 0.4160194993019104 -1.5301124838045617 -0.8857673406600952 -2.328707834283346 4.878711700439453 1.524871587753296 0.00045172180398367345 5.0385879148961976e-05 0.0 7.684384273010359e-34 0.0413900688290596 1.8718158119223046e-25 0.14234250414108102 -0.10551207964997669 0.7253267557055645 2.007075495183946 0.5442856819702483 -2.149579236809105 0.0030964631146699756 -0.007004256706139837 -0.0009605383994323377 0.03787746154655066 0.016633360600723485 -0.0008801917347098274 -4.2801803147032444 -1.7404897845578264 3.435908176695978 0.09542252077678325 -0.6651441898762372 -0.12745804106880565 0.1424563559654699 -0.10526611187834882 0.725353439270174 2.006148727788962 0.5431505110813688 -2.1496606504736366 0.0 0.0 0.0 0.0 0.0 0.0 1
12801.526 0.4161461889743805 -1.5301833649030705 -0.8859370350837708 -2.3291670284666957 4.877832412719727 1.5248446464538574 0.0 0.0 0.0 0.0 0.0 0.0 0.0 0.0 0.0 0.0 0.0 0.0 0.4160194993019104 -1.5301124838045617 -0.8857673406600952 -2.328707834283346 4.878711700439453 1.524871587753296 0.00045172180398367345 5.0385879148961976e-05 0.0 7.684384273010359e-34 0.0413900688290596 1.8718158119223046e-25 0.14234250414108102 -0.10551207964997669 0.7253267557055645 2.007075495183946 0.5442856819702483 -2.149579236809105 0.0030964631146699756 -0.007004256706139837 -0.0009605383994323377 0.03787746154655066 0.016633360600723485 -0.0008801917347098274 -4.2801803147032444 -1.7404897845578264 3.435908176695978 0.09542252077678325 -0.6651441898762372 -0.12745804106880565 0.1424563559654699 -0.10526611187834882 0.725353439270174 2.006148727788962 0.5431505110813688 -2.1496606504736366 0.0 0.0 0.0 0.0 0.0 0.0 1
12801.534 0.4161461889743805 -1.5301833649030705 -0.8859370350837708 -2.3291670284666957 4.877832412719727 1.5248446464538574 0.0 0.0 0.0 0.0 0.0 0.0 0.0 0.0 0.0 0.0 0.0 0.0 0.4160194993019104 -1.5301124838045617 -0.8857673406600952 -2.328707834283346 4.878711700439453 1.524871587753296 0.00045172180398367345 5.0385879148961976e-05 0.0 7.684384273010359e-34 0.0413900688290596 1.8718158119223046e-25 0.14234250414108102 -0.10551207964997669 0.7253267557055645 2.007075495183946 0.5442856819702483 -2.149579236809105 0.0030964631146699756 -0.007004256706139837 -0.0009605383994323377 0.03787746154655066 0.016633360600723485 -0.0008801917347098274 -4.2801803147032444 -1.7404897845578264 3.435908176695978 0.09542252077678325 -0.6651441898762372 -0.12745804106880565 0.1424563559654699 -0.10526611187834882 0.725353439270174 2.006148727788962 0.5431505110813688 -2.1496606504736366 0.0 0.0 0.0 0.0 0.0 0.0 1
12801.542 0.4161461889743805 -1.5301833649030705 -0.8859370350837708 -2.3291670284666957 4.877832412719727 1.5248446464538574 0.0 0.0 0.0 0.0 0.0 0.0 0.0 0.0 0.0 0.0 0.0 0.0 0.4160194993019104 -1.5301124838045617 -0.8857673406600952 -2.328707834283346 4.878711700439453 1.524871587753296 0.00045172180398367345 5.0385879148961976e-05 0.0 7.684384273010359e-34 0.0413900688290596 1.8718158119223046e-25 0.14234250414108102 -0.10551207964997669 0.7253267557055645 2.007075495183946 0.5442856819702483 -2.149579236809105 0.0030964631146699756 -0.007004256706139837 -0.0009605383994323377 0.03787746154655066 0.016633360600723485 -0.0008801917347098274 -4.2801803147032444 -1.7404897845578264 3.435908176695978 0.09542252077678325 -0.6651441898762372 -0.12745804106880565 0.1424563559654699 -0.10526611187834882 0.725353439270174 2.006148727788962 0.5431505110813688 -2.1496606504736366 0.0 0.0 0.0 0.0 0.0 0.0 1
12801.55 0.4161461889743805 -1.5301833649030705 -0.8859370350837708 -2.3291670284666957 4.877832412719727 1.5248446464538574 0.0 0.0 0.0 0.0 0.0 0.0 0.0 0.0 0.0 0.0 0.0 0.0 0.4160194993019104 -1.5301124838045617 -0.8857673406600952 -2.328707834283346 4.878711700439453 1.524871587753296 0.00045172180398367345 5.0385879148961976e-05 0.0 7.684384273010359e-34 0.0413900688290596 1.8718158119223046e-25 0.14234250414108102 -0.10551207964997669 0.7253267557055645 2.007075495183946 0.5442856819702483 -2.149579236809105 0.0030964631146699756 -0.007004256706139837 -0.0009605383994323377 0.03787746154655066 0.016633360600723485 -0.0008801917347098274 -4.2801803147032444 -1.7404897845578264 3.435908176695978 0.09542252077678325 -0.6651441898762372 -0.12745804106880565 0.1424563559654699 -0.10526611187834882 0.725353439270174 2.006148727788962 0.5431505110813688 -2.1496606504736366 0.0 0.0 0.0 0.0 0.0 0.0 1
12801.557999999999 0.4161461889743805 -1.5301833649030705 -0.8859370350837708 -2.3291670284666957 4.877832412719727 1.5248446464538574 0.0 0.0 0.0 0.0 0.0 0.0 0.0 0.0 0.0 0.0 0.0 0.0 0.4160194993019104 -1.5301124838045617 -0.8857673406600952 -2.328707834283346 4.878711700439453 1.524871587753296 0.00045172180398367345 5.0385879148961976e-05 0.0 7.684384273010359e-34 0.0413900688290596 1.8718158119223046e-25 0.14234250414108102 -0.10551207964997669 0.7253267557055645 2.007075495183946 0.5442856819702483 -2.149579236809105 0.0030964631146699756 -0.007004256706139837 -0.0009605383994323377 0.03787746154655066 0.016633360600723485 -0.0008801917347098274 -4.2801803147032444 -1.7404897845578264 3.435908176695978 0.09542252077678325 -0.6651441898762372 -0.12745804106880565 0.1424563559654699 -0.10526611187834882 0.725353439270174 2.006148727788962 0.5431505110813688 -2.1496606504736366 0.0 0.0 0.0 0.0 0.0 0.0 1
12801.565999999999 0.4161461889743805 -1.5301833649030705 -0.8859370350837708 -2.3291670284666957 4.877832412719727 1.5248446464538574 0.0 0.0 0.0 0.0 0.0 0.0 0.0 0.0 0.0 0.0 0.0 0.0 0.4160194993019104 -1.5301124838045617 -0.8857673406600952 -2.328707834283346 4.878711700439453 1.524871587753296 0.00045172180398367345 5.0385879148961976e-05 0.0 7.684384273010359e-34 0.0413900688290596 1.8718158119223046e-25 0.14234250414108102 -0.10551207964997669 0.7253267557055645 2.007075495183946 0.5442856819702483 -2.149579236809105 0.0030964631146699756 -0.007004256706139837 -0.0009605383994323377 0.03787746154655066 0.016633360600723485 -0.0008801917347098274 -4.2801803147032444 -1.7404897845578264 3.435908176695978 0.09542252077678325 -0.6651441898762372 -0.12745804106880565 0.1424563559654699 -0.10526611187834882 0.725353439270174 2.006148727788962 0.5431505110813688 -2.1496606504736366 0.0 0.0 0.0 0.0 0.0 0.0 1
12801.573999999999 0.4161461889743805 -1.5301833649030705 -0.8859370350837708 -2.3291670284666957 4.877832412719727 1.5248446464538574 0.0 0.0 0.0 0.0 0.0 0.0 0.0 0.0 0.0 0.0 0.0 0.0 0.4160194993019104 -1.5301124838045617 -0.8857673406600952 -2.328707834283346 4.878711700439453 1.524871587753296 0.00045172180398367345 5.0385879148961976e-05 0.0 7.684384273010359e-34 0.0413900688290596 1.8718158119223046e-25 0.14234250414108102 -0.10551207964997669 0.7253267557055645 2.007075495183946 0.5442856819702483 -2.149579236809105 0.0030964631146699756 -0.007004256706139837 -0.0009605383994323377 0.03787746154655066 0.016633360600723485 -0.0008801917347098274 -4.2801803147032444 -1.7404897845578264 3.435908176695978 0.09542252077678325 -0.6651441898762372 -0.12745804106880565 0.1424563559654699 -0.10526611187834882 0.725353439270174 2.006148727788962 0.5431505110813688 -2.1496606504736366 0.0 0.0 0.0 0.0 0.0 0.0 1
12801.581999999999 0.4161461889743805 -1.5301833649030705 -0.8859370350837708 -2.3291670284666957 4.877832412719727 1.5248446464538574 0.0 0.0 0.0 0.0 0.0 0.0 0.0 0.0 0.0 0.0 0.0 0.0 0.4160194993019104 -1.5301124838045617 -0.8857673406600952 -2.328707834283346 4.878711700439453 1.524871587753296 0.00045172180398367345 5.0385879148961976e-05 0.0 7.684384273010359e-34 0.0413900688290596 1.8718158119223046e-25 0.14234250414108102 -0.10551207964997669 0.7253267557055645 2.007075495183946 0.5442856819702483 -2.149579236809105 0.0030964631146699756 -0.007004256706139837 -0.0009605383994323377 0.03787746154655066 0.016633360600723485 -0.0008801917347098274 -4.2801803147032444 -1.7404897845578264 3.435908176695978 0.09542252077678325 -0.6651441898762372 -0.12745804106880565 0.1424563559654699 -0.10526611187834882 0.725353439270174 2.006148727788962 0.5431505110813688 -2.1496606504736366 0.0 0.0 0.0 0.0 0.0 0.0 1
12801.59 0.4161461889743805 -1.5301833649030705 -0.8859370350837708 -2.3291670284666957 4.877832412719727 1.5248446464538574 0.0 0.0 0.0 0.0 0.0 0.0 0.0 0.0 0.0 0.0 0.0 0.0 0.4160194993019104 -1.5301124838045617 -0.8857673406600952 -2.328707834283346 4.878711700439453 1.524871587753296 0.00045172180398367345 5.0385879148961976e-05 0.0 7.684384273010359e-34 0.0413900688290596 1.8718158119223046e-25 0.14234250414108102 -0.10551207964997669 0.7253267557055645 2.007075495183946 0.5442856819702483 -2.149579236809105 0.0030964631146699756 -0.007004256706139837 -0.0009605383994323377 0.03787746154655066 0.016633360600723485 -0.0008801917347098274 -4.2801803147032444 -1.7404897845578264 3.435908176695978 0.09542252077678325 -0.6651441898762372 -0.12745804106880565 0.1424563559654699 -0.10526611187834882 0.725353439270174 2.006148727788962 0.5431505110813688 -2.1496606504736366 0.0 0.0 0.0 0.0 0.0 0.0 1
12801.598 0.4161461889743805 -1.5301833649030705 -0.8859370350837708 -2.3291670284666957 4.877832412719727 1.5248446464538574 0.0 0.0 0.0 0.0 0.0 0.0 0.0 0.0 0.0 0.0 0.0 0.0 0.4160194993019104 -1.5301124838045617 -0.8857673406600952 -2.328707834283346 4.878711700439453 1.524871587753296 0.00045172180398367345 5.0385879148961976e-05 0.0 7.684384273010359e-34 0.0413900688290596 1.8718158119223046e-25 0.14234250414108102 -0.10551207964997669 0.7253267557055645 2.007075495183946 0.5442856819702483 -2.149579236809105 0.0030964631146699756 -0.007004256706139837 -0.0009605383994323377 0.03787746154655066 0.016633360600723485 -0.0008801917347098274 -4.2801803147032444 -1.7404897845578264 3.435908176695978 0.09542252077678325 -0.6651441898762372 -0.12745804106880565 0.1424563559654699 -0.10526611187834882 0.725353439270174 2.006148727788962 0.5431505110813688 -2.1496606504736366 0.0 0.0 0.0 0.0 0.0 0.0 1
12801.606 0.4161461889743805 -1.5301833649030705 -0.8859370350837708 -2.3291670284666957 4.877832412719727 1.5248446464538574 0.0 0.0 0.0 0.0 0.0 0.0 0.0 0.0 0.0 0.0 0.0 0.0 0.4160194993019104 -1.5301124838045617 -0.8857673406600952 -2.328707834283346 4.878711700439453 1.524871587753296 0.00045172180398367345 5.0385879148961976e-05 0.0 7.684384273010359e-34 0.0413900688290596 1.8718158119223046e-25 0.14234250414108102 -0.10551207964997669 0.7253267557055645 2.007075495183946 0.5442856819702483 -2.149579236809105 0.0030964631146699756 -0.007004256706139837 -0.0009605383994323377 0.03787746154655066 0.016633360600723485 -0.0008801917347098274 -4.2801803147032444 -1.7404897845578264 3.435908176695978 0.09542252077678325 -0.6651441898762372 -0.12745804106880565 0.1424563559654699 -0.10526611187834882 0.725353439270174 2.006148727788962 0.5431505110813688 -2.1496606504736366 0.0 0.0 0.0 0.0 0.0 0.0 1
12801.614 0.4161461889743805 -1.5301833649030705 -0.8859370350837708 -2.3291670284666957 4.877832412719727 1.5248446464538574 0.0 0.0 0.0 0.0 0.0 0.0 0.0 0.0 0.0 0.0 0.0 0.0 0.4160194993019104 -1.5301124838045617 -0.8857673406600952 -2.328707834283346 4.878711700439453 1.524871587753296 0.00045172180398367345 5.0385879148961976e-05 0.0 7.684384273010359e-34 0.0413900688290596 1.8718158119223046e-25 0.14234250414108102 -0.10551207964997669 0.7253267557055645 2.007075495183946 0.5442856819702483 -2.149579236809105 0.0030964631146699756 -0.007004256706139837 -0.0009605383994323377 0.03787746154655066 0.016633360600723485 -0.0008801917347098274 -4.2801803147032444 -1.7404897845578264 3.435908176695978 0.09542252077678325 -0.6651441898762372 -0.12745804106880565 0.1424563559654699 -0.10526611187834882 0.725353439270174 2.006148727788962 0.5431505110813688 -2.1496606504736366 0.0 0.0 0.0 0.0 0.0 0.0 1
12801.622 0.4161461889743805 -1.5301833649030705 -0.8859370350837708 -2.3291670284666957 4.877832412719727 1.5248446464538574 0.0 0.0 0.0 0.0 0.0 0.0 0.0 0.0 0.0 0.0 0.0 0.0 0.4160194993019104 -1.5301124838045617 -0.8857673406600952 -2.328707834283346 4.878711700439453 1.524871587753296 0.00045172180398367345 5.0385879148961976e-05 0.0 7.684384273010359e-34 0.0413900688290596 1.8718158119223046e-25 0.14234250414108102 -0.10551207964997669 0.7253267557055645 2.007075495183946 0.5442856819702483 -2.149579236809105 0.0030964631146699756 -0.007004256706139837 -0.0009605383994323377 0.03787746154655066 0.016633360600723485 -0.0008801917347098274 -4.2801803147032444 -1.7404897845578264 3.435908176695978 0.09542252077678325 -0.6651441898762372 -0.12745804106880565 0.1424563559654699 -0.10526611187834882 0.725353439270174 2.006148727788962 0.5431505110813688 -2.1496606504736366 0.0 0.0 0.0 0.0 0.0 0.0 1
12801.63 0.4161461889743805 -1.5301833649030705 -0.8859370350837708 -2.3291670284666957 4.877832412719727 1.5248446464538574 0.0 0.0 0.0 0.0 0.0 0.0 0.0 0.0 0.0 0.0 0.0 0.0 0.4160194993019104 -1.5301124838045617 -0.8857673406600952 -2.328707834283346 4.878711700439453 1.524871587753296 0.00045172180398367345 5.0385879148961976e-05 0.0 7.684384273010359e-34 0.0413900688290596 1.8718158119223046e-25 0.14234250414108102 -0.10551207964997669 0.7253267557055645 2.007075495183946 0.5442856819702483 -2.149579236809105 0.0030964631146699756 -0.007004256706139837 -0.0009605383994323377 0.03787746154655066 0.016633360600723485 -0.0008801917347098274 -4.2801803147032444 -1.7404897845578264 3.435908176695978 0.09542252077678325 -0.6651441898762372 -0.12745804106880565 0.1424563559654699 -0.10526611187834882 0.725353439270174 2.006148727788962 0.5431505110813688 -2.1496606504736366 0.0 0.0 0.0 0.0 0.0 0.0 1
12801.637999999999 0.4161461889743805 -1.5301833649030705 -0.8859370350837708 -2.3291670284666957 4.877832412719727 1.5248446464538574 0.0 0.0 0.0 0.0 0.0 0.0 0.0 0.0 0.0 0.0 0.0 0.0 0.4160194993019104 -1.5301124838045617 -0.8857673406600952 -2.328707834283346 4.878711700439453 1.524871587753296 0.00045172180398367345 5.0385879148961976e-05 0.0 7.684384273010359e-34 0.0413900688290596 1.8718158119223046e-25 0.14234250414108102 -0.10551207964997669 0.7253267557055645 2.007075495183946 0.5442856819702483 -2.149579236809105 0.0030964631146699756 -0.007004256706139837 -0.0009605383994323377 0.03787746154655066 0.016633360600723485 -0.0008801917347098274 -4.2801803147032444 -1.7404897845578264 3.435908176695978 0.09542252077678325 -0.6651441898762372 -0.12745804106880565 0.1424563559654699 -0.10526611187834882 0.725353439270174 2.006148727788962 0.5431505110813688 -2.1496606504736366 0.0 0.0 0.0 0.0 0.0 0.0 1
12801.645999999999 0.4161461889743805 -1.5301833649030705 -0.8859370350837708 -2.3291670284666957 4.877832412719727 1.5248446464538574 0.0 0.0 0.0 0.0 0.0 0.0 0.0 0.0 0.0 0.0 0.0 0.0 0.4160194993019104 -1.5301124838045617 -0.8857673406600952 -2.328707834283346 4.878711700439453 1.524871587753296 0.00045172180398367345 5.0385879148961976e-05 0.0 7.684384273010359e-34 0.0413900688290596 1.8718158119223046e-25 0.14234250414108102 -0.10551207964997669 0.7253267557055645 2.007075495183946 0.5442856819702483 -2.149579236809105 0.0030964631146699756 -0.007004256706139837 -0.0009605383994323377 0.03787746154655066 0.016633360600723485 -0.0008801917347098274 -4.2801803147032444 -1.7404897845578264 3.435908176695978 0.09542252077678325 -0.6651441898762372 -0.12745804106880565 0.1424563559654699 -0.10526611187834882 0.725353439270174 2.006148727788962 0.5431505110813688 -2.1496606504736366 0.0 0.0 0.0 0.0 0.0 0.0 1
12801.653999999999 0.4161461889743805 -1.5301833649030705 -0.8859370350837708 -2.3291670284666957 4.877832412719727 1.5248446464538574 0.0 0.0 0.0 0.0 0.0 0.0 0.0 0.0 0.0 0.0 0.0 0.0 0.4160194993019104 -1.5301124838045617 -0.8857673406600952 -2.328707834283346 4.878711700439453 1.524871587753296 0.00045172180398367345 5.0385879148961976e-05 0.0 7.684384273010359e-34 0.0413900688290596 1.8718158119223046e-25 0.14234250414108102 -0.10551207964997669 0.7253267557055645 2.007075495183946 0.5442856819702483 -2.149579236809105 0.0030964631146699756 -0.007004256706139837 -0.0009605383994323377 0.03787746154655066 0.016633360600723485 -0.0008801917347098274 -4.2801803147032444 -1.7404897845578264 3.435908176695978 0.09542252077678325 -0.6651441898762372 -0.12745804106880565 0.1424563559654699 -0.10526611187834882 0.725353439270174 2.006148727788962 0.5431505110813688 -2.1496606504736366 0.0 0.0 0.0 0.0 0.0 0.0 1
12801.662 0.4161461889743805 -1.5301833649030705 -0.8859370350837708 -2.3291670284666957 4.877832412719727 1.5248446464538574 0.0 0.0 0.0 0.0 0.0 0.0 0.0 0.0 0.0 0.0 0.0 0.0 0.4160194993019104 -1.5301124838045617 -0.8857673406600952 -2.328707834283346 4.878711700439453 1.524871587753296 0.00045172180398367345 5.0385879148961976e-05 0.0 7.684384273010359e-34 0.0413900688290596 1.8718158119223046e-25 0.14234250414108102 -0.10551207964997669 0.7253267557055645 2.007075495183946 0.5442856819702483 -2.149579236809105 0.0030964631146699756 -0.007004256706139837 -0.0009605383994323377 0.03787746154655066 0.016633360600723485 -0.0008801917347098274 -4.2801803147032444 -1.7404897845578264 3.435908176695978 0.09542252077678325 -0.6651441898762372 -0.12745804106880565 0.1424563559654699 -0.10526611187834882 0.725353439270174 2.006148727788962 0.5431505110813688 -2.1496606504736366 0.0 0.0 0.0 0.0 0.0 0.0 1
12801.67 0.4161461889743805 -1.5301833649030705 -0.8859370350837708 -2.3291670284666957 4.877832412719727 1.5248446464538574 0.0 0.0 0.0 0.0 0.0 0.0 0.0 0.0 0.0 0.0 0.0 0.0 0.4160194993019104 -1.5301124838045617 -0.8857673406600952 -2.328707834283346 4.878711700439453 1.524871587753296 0.00045172180398367345 5.0385879148961976e-05 0.0 7.684384273010359e-34 0.0413900688290596 1.8718158119223046e-25 0.14234250414108102 -0.10551207964997669 0.7253267557055645 2.007075495183946 0.5442856819702483 -2.149579236809105 0.0030964631146699756 -0.007004256706139837 -0.0009605383994323377 0.03787746154655066 0.016633360600723485 -0.0008801917347098274 -4.2801803147032444 -1.7404897845578264 3.435908176695978 0.09542252077678325 -0.6651441898762372 -0.12745804106880565 0.1424563559654699 -0.10526611187834882 0.725353439270174 2.006148727788962 0.5431505110813688 -2.1496606504736366 0.0 0.0 0.0 0.0 0.0 0.0 1
12801.678 0.4161461889743805 -1.5301833649030705 -0.8859370350837708 -2.3291670284666957 4.877832412719727 1.5248446464538574 0.0 0.0 0.0 0.0 0.0 0.0 0.0 0.0 0.0 0.0 0.0 0.0 0.4160194993019104 -1.5301124838045617 -0.8857673406600952 -2.328707834283346 4.878711700439453 1.524871587753296 0.00045172180398367345 5.0385879148961976e-05 0.0 7.684384273010359e-34 0.0413900688290596 1.8718158119223046e-25 0.14234250414108102 -0.10551207964997669 0.7253267557055645 2.007075495183946 0.5442856819702483 -2.149579236809105 0.0030964631146699756 -0.007004256706139837 -0.0009605383994323377 0.03787746154655066 0.016633360600723485 -0.0008801917347098274 -4.2801803147032444 -1.7404897845578264 3.435908176695978 0.09542252077678325 -0.6651441898762372 -0.12745804106880565 0.1424563559654699 -0.10526611187834882 0.725353439270174 2.006148727788962 0.5431505110813688 -2.1496606504736366 0.0 0.0 0.0 0.0 0.0 0.0 1
12801.686 0.4161461889743805 -1.5301833649030705 -0.8859370350837708 -2.3291670284666957 4.877832412719727 1.5248446464538574 0.0 0.0 0.0 0.0 0.0 0.0 0.0 0.0 0.0 0.0 0.0 0.0 0.4160194993019104 -1.5301124838045617 -0.8857673406600952 -2.328707834283346 4.878711700439453 1.524871587753296 0.00045172180398367345 5.0385879148961976e-05 0.0 7.684384273010359e-34 0.0413900688290596 1.8718158119223046e-25 0.14234250414108102 -0.10551207964997669 0.7253267557055645 2.007075495183946 0.5442856819702483 -2.149579236809105 0.0030964631146699756 -0.007004256706139837 -0.0009605383994323377 0.03787746154655066 0.016633360600723485 -0.0008801917347098274 -4.2801803147032444 -1.7404897845578264 3.435908176695978 0.09542252077678325 -0.6651441898762372 -0.12745804106880565 0.1424563559654699 -0.10526611187834882 0.725353439270174 2.006148727788962 0.5431505110813688 -2.1496606504736366 0.0 0.0 0.0 0.0 0.0 0.0 1
12801.694 0.4161461889743805 -1.5301833649030705 -0.8859370350837708 -2.3291670284666957 4.877832412719727 1.5248446464538574 0.0 0.0 0.0 0.0 0.0 0.0 0.0 0.0 0.0 0.0 0.0 0.0 0.4160194993019104 -1.5301124838045617 -0.8857673406600952 -2.328707834283346 4.878711700439453 1.524871587753296 0.00045172180398367345 5.0385879148961976e-05 0.0 7.684384273010359e-34 0.0413900688290596 1.8718158119223046e-25 0.14234250414108102 -0.10551207964997669 0.7253267557055645 2.007075495183946 0.5442856819702483 -2.149579236809105 0.0030964631146699756 -0.007004256706139837 -0.0009605383994323377 0.03787746154655066 0.016633360600723485 -0.0008801917347098274 -4.2801803147032444 -1.7404897845578264 3.435908176695978 0.09542252077678325 -0.6651441898762372 -0.12745804106880565 0.1424563559654699 -0.10526611187834882 0.725353439270174 2.006148727788962 0.5431505110813688 -2.1496606504736366 0.0 0.0 0.0 0.0 0.0 0.0 1
12801.702 0.4161461889743805 -1.5301833649030705 -0.8859370350837708 -2.3291670284666957 4.877832412719727 1.5248446464538574 0.0 0.0 0.0 0.0 0.0 0.0 0.0 0.0 0.0 0.0 0.0 0.0 0.4160194993019104 -1.5301124838045617 -0.8857673406600952 -2.328707834283346 4.878711700439453 1.524871587753296 0.00045172180398367345 5.0385879148961976e-05 0.0 7.684384273010359e-34 0.0413900688290596 1.8718158119223046e-25 0.14234250414108102 -0.10551207964997669 0.7253267557055645 2.007075495183946 0.5442856819702483 -2.149579236809105 0.0030964631146699756 -0.007004256706139837 -0.0009605383994323377 0.03787746154655066 0.016633360600723485 -0.0008801917347098274 -4.2801803147032444 -1.7404897845578264 3.435908176695978 0.09542252077678325 -0.6651441898762372 -0.12745804106880565 0.1424563559654699 -0.10526611187834882 0.725353439270174 2.006148727788962 0.5431505110813688 -2.1496606504736366 0.0 0.0 0.0 0.0 0.0 0.0 1
12801.71 0.4161461889743805 -1.5301833649030705 -0.8859370350837708 -2.3291670284666957 4.877832412719727 1.5248446464538574 0.0 0.0 0.0 0.0 0.0 0.0 0.0 0.0 0.0 0.0 0.0 0.0 0.4160194993019104 -1.5301124838045617 -0.8857673406600952 -2.328707834283346 4.878711700439453 1.524871587753296 0.00045172180398367345 5.0385879148961976e-05 0.0 7.684384273010359e-34 0.0413900688290596 1.8718158119223046e-25 0.14234250414108102 -0.10551207964997669 0.7253267557055645 2.007075495183946 0.5442856819702483 -2.149579236809105 0.0030964631146699756 -0.007004256706139837 -0.0009605383994323377 0.03787746154655066 0.016633360600723485 -0.0008801917347098274 -4.2801803147032444 -1.7404897845578264 3.435908176695978 0.09542252077678325 -0.6651441898762372 -0.12745804106880565 0.1424563559654699 -0.10526611187834882 0.725353439270174 2.006148727788962 0.5431505110813688 -2.1496606504736366 0.0 0.0 0.0 0.0 0.0 0.0 1
12801.717999999999 0.4161461889743805 -1.5301833649030705 -0.8859370350837708 -2.3291670284666957 4.877832412719727 1.5248446464538574 0.0 0.0 0.0 0.0 0.0 0.0 0.0 0.0 0.0 0.0 0.0 0.0 0.4160194993019104 -1.5301124838045617 -0.8857673406600952 -2.328707834283346 4.878711700439453 1.524871587753296 0.00045172180398367345 5.0385879148961976e-05 0.0 7.684384273010359e-34 0.0413900688290596 1.8718158119223046e-25 0.14234250414108102 -0.10551207964997669 0.7253267557055645 2.007075495183946 0.5442856819702483 -2.149579236809105 0.0030964631146699756 -0.007004256706139837 -0.0009605383994323377 0.03787746154655066 0.016633360600723485 -0.0008801917347098274 -4.2801803147032444 -1.7404897845578264 3.435908176695978 0.09542252077678325 -0.6651441898762372 -0.12745804106880565 0.1424563559654699 -0.10526611187834882 0.725353439270174 2.006148727788962 0.5431505110813688 -2.1496606504736366 0.0 0.0 0.0 0.0 0.0 0.0 1
12801.725999999999 0.4161461889743805 -1.5301833649030705 -0.8859370350837708 -2.3291670284666957 4.877832412719727 1.5248446464538574 0.0 0.0 0.0 0.0 0.0 0.0 0.0 0.0 0.0 0.0 0.0 0.0 0.4160194993019104 -1.5301124838045617 -0.8857673406600952 -2.328707834283346 4.878711700439453 1.524871587753296 0.00045172180398367345 5.0385879148961976e-05 0.0 7.684384273010359e-34 0.0413900688290596 1.8718158119223046e-25 0.14234250414108102 -0.10551207964997669 0.7253267557055645 2.007075495183946 0.5442856819702483 -2.149579236809105 0.0030964631146699756 -0.007004256706139837 -0.0009605383994323377 0.03787746154655066 0.016633360600723485 -0.0008801917347098274 -4.2801803147032444 -1.7404897845578264 3.435908176695978 0.09542252077678325 -0.6651441898762372 -0.12745804106880565 0.1424563559654699 -0.10526611187834882 0.725353439270174 2.006148727788962 0.5431505110813688 -2.1496606504736366 0.0 0.0 0.0 0.0 0.0 0.0 1
12801.733999999999 0.4161461889743805 -1.5301833649030705 -0.8859370350837708 -2.3291670284666957 4.877832412719727 1.5248446464538574 0.0 0.0 0.0 0.0 0.0 0.0 0.0 0.0 0.0 0.0 0.0 0.0 0.4160194993019104 -1.5301124838045617 -0.8857673406600952 -2.328707834283346 4.878711700439453 1.524871587753296 0.00045172180398367345 5.0385879148961976e-05 0.0 7.684384273010359e-34 0.0413900688290596 1.8718158119223046e-25 0.14234250414108102 -0.10551207964997669 0.7253267557055645 2.007075495183946 0.5442856819702483 -2.149579236809105 0.0030964631146699756 -0.007004256706139837 -0.0009605383994323377 0.03787746154655066 0.016633360600723485 -0.0008801917347098274 -4.2801803147032444 -1.7404897845578264 3.435908176695978 0.09542252077678325 -0.6651441898762372 -0.12745804106880565 0.1424563559654699 -0.10526611187834882 0.725353439270174 2.006148727788962 0.5431505110813688 -2.1496606504736366 0.0 0.0 0.0 0.0 0.0 0.0 1
12801.742 0.4161461889743805 -1.5301833649030705 -0.8859370350837708 -2.3291670284666957 4.877832412719727 1.5248446464538574 0.0 0.0 0.0 0.0 0.0 0.0 0.0 0.0 0.0 0.0 0.0 0.0 0.4160194993019104 -1.5301124838045617 -0.8857673406600952 -2.328707834283346 4.878711700439453 1.524871587753296 0.00045172180398367345 5.0385879148961976e-05 0.0 7.684384273010359e-34 0.0413900688290596 1.8718158119223046e-25 0.14234250414108102 -0.10551207964997669 0.7253267557055645 2.007075495183946 0.5442856819702483 -2.149579236809105 0.0030964631146699756 -0.007004256706139837 -0.0009605383994323377 0.03787746154655066 0.016633360600723485 -0.0008801917347098274 -4.2801803147032444 -1.7404897845578264 3.435908176695978 0.09542252077678325 -0.6651441898762372 -0.12745804106880565 0.1424563559654699 -0.10526611187834882 0.725353439270174 2.006148727788962 0.5431505110813688 -2.1496606504736366 0.0 0.0 0.0 0.0 0.0 0.0 1
12801.75 0.4161461889743805 -1.5301833649030705 -0.8859370350837708 -2.3291670284666957 4.877832412719727 1.5248446464538574 0.0 0.0 0.0 0.0 0.0 0.0 0.0 0.0 0.0 0.0 0.0 0.0 0.4160194993019104 -1.5301124838045617 -0.8857673406600952 -2.328707834283346 4.878711700439453 1.524871587753296 0.00045172180398367345 5.0385879148961976e-05 0.0 7.684384273010359e-34 0.0413900688290596 1.8718158119223046e-25 0.14234250414108102 -0.10551207964997669 0.7253267557055645 2.007075495183946 0.5442856819702483 -2.149579236809105 0.0030964631146699756 -0.007004256706139837 -0.0009605383994323377 0.03787746154655066 0.016633360600723485 -0.0008801917347098274 -4.2801803147032444 -1.7404897845578264 3.435908176695978 0.09542252077678325 -0.6651441898762372 -0.12745804106880565 0.1424563559654699 -0.10526611187834882 0.725353439270174 2.006148727788962 0.5431505110813688 -2.1496606504736366 0.0 0.0 0.0 0.0 0.0 0.0 1
12801.758 0.4161461889743805 -1.5301833649030705 -0.8859370350837708 -2.3291670284666957 4.877832412719727 1.5248446464538574 0.0 0.0 0.0 0.0 0.0 0.0 0.0 0.0 0.0 0.0 0.0 0.0 0.4160194993019104 -1.5301124838045617 -0.8857673406600952 -2.328707834283346 4.878711700439453 1.524871587753296 0.00045172180398367345 5.0385879148961976e-05 0.0 7.684384273010359e-34 0.0413900688290596 1.8718158119223046e-25 0.14234250414108102 -0.10551207964997669 0.7253267557055645 2.007075495183946 0.5442856819702483 -2.149579236809105 0.0030964631146699756 -0.007004256706139837 -0.0009605383994323377 0.03787746154655066 0.016633360600723485 -0.0008801917347098274 -4.2801803147032444 -1.7404897845578264 3.435908176695978 0.09542252077678325 -0.6651441898762372 -0.12745804106880565 0.1424563559654699 -0.10526611187834882 0.725353439270174 2.006148727788962 0.5431505110813688 -2.1496606504736366 0.0 0.0 0.0 0.0 0.0 0.0 1
12801.766 0.4161461889743805 -1.5301833649030705 -0.8859370350837708 -2.3291670284666957 4.877832412719727 1.5248446464538574 0.0 0.0 0.0 0.0 0.0 0.0 0.0 0.0 0.0 0.0 0.0 0.0 0.4160194993019104 -1.5301124838045617 -0.8857673406600952 -2.328707834283346 4.878711700439453 1.524871587753296 0.00045172180398367345 5.0385879148961976e-05 0.0 7.684384273010359e-34 0.0413900688290596 1.8718158119223046e-25 0.14234250414108102 -0.10551207964997669 0.7253267557055645 2.007075495183946 0.5442856819702483 -2.149579236809105 0.0030964631146699756 -0.007004256706139837 -0.0009605383994323377 0.03787746154655066 0.016633360600723485 -0.0008801917347098274 -4.2801803147032444 -1.7404897845578264 3.435908176695978 0.09542252077678325 -0.6651441898762372 -0.12745804106880565 0.1424563559654699 -0.10526611187834882 0.725353439270174 2.006148727788962 0.5431505110813688 -2.1496606504736366 0.0 0.0 0.0 0.0 0.0 0.0 1
12801.774 0.4161461889743805 -1.5301833649030705 -0.8859370350837708 -2.3291670284666957 4.877832412719727 1.5248446464538574 0.0 0.0 0.0 0.0 0.0 0.0 0.0 0.0 0.0 0.0 0.0 0.0 0.4160194993019104 -1.5301124838045617 -0.8857673406600952 -2.328707834283346 4.878711700439453 1.524871587753296 0.00045172180398367345 5.0385879148961976e-05 0.0 7.684384273010359e-34 0.0413900688290596 1.8718158119223046e-25 0.14234250414108102 -0.10551207964997669 0.7253267557055645 2.007075495183946 0.5442856819702483 -2.149579236809105 0.0030964631146699756 -0.007004256706139837 -0.0009605383994323377 0.03787746154655066 0.016633360600723485 -0.0008801917347098274 -4.2801803147032444 -1.7404897845578264 3.435908176695978 0.09542252077678325 -0.6651441898762372 -0.12745804106880565 0.1424563559654699 -0.10526611187834882 0.725353439270174 2.006148727788962 0.5431505110813688 -2.1496606504736366 0.0 0.0 0.0 0.0 0.0 0.0 1
12801.782 0.4161461889743805 -1.5301833649030705 -0.8859370350837708 -2.3291670284666957 4.877832412719727 1.5248446464538574 0.0 0.0 0.0 0.0 0.0 0.0 0.0 0.0 0.0 0.0 0.0 0.0 0.4160194993019104 -1.5301124838045617 -0.8857673406600952 -2.328707834283346 4.878711700439453 1.524871587753296 0.00045172180398367345 5.0385879148961976e-05 0.0 7.684384273010359e-34 0.0413900688290596 1.8718158119223046e-25 0.14234250414108102 -0.10551207964997669 0.7253267557055645 2.007075495183946 0.5442856819702483 -2.149579236809105 0.0030964631146699756 -0.007004256706139837 -0.0009605383994323377 0.03787746154655066 0.016633360600723485 -0.0008801917347098274 -4.2801803147032444 -1.7404897845578264 3.435908176695978 0.09542252077678325 -0.6651441898762372 -0.12745804106880565 0.1424563559654699 -0.10526611187834882 0.725353439270174 2.006148727788962 0.5431505110813688 -2.1496606504736366 0.0 0.0 0.0 0.0 0.0 0.0 1
12801.789999999999 0.4161461889743805 -1.5301833649030705 -0.8859370350837708 -2.3291670284666957 4.877832412719727 1.5248446464538574 0.0 0.0 0.0 0.0 0.0 0.0 0.0 0.0 0.0 0.0 0.0 0.0 0.4160194993019104 -1.5301124838045617 -0.8857673406600952 -2.328707834283346 4.878711700439453 1.524871587753296 0.00045172180398367345 5.0385879148961976e-05 0.0 7.684384273010359e-34 0.0413900688290596 1.8718158119223046e-25 0.14234250414108102 -0.10551207964997669 0.7253267557055645 2.007075495183946 0.5442856819702483 -2.149579236809105 0.0030964631146699756 -0.007004256706139837 -0.0009605383994323377 0.03787746154655066 0.016633360600723485 -0.0008801917347098274 -4.2801803147032444 -1.7404897845578264 3.435908176695978 0.09542252077678325 -0.6651441898762372 -0.12745804106880565 0.1424563559654699 -0.10526611187834882 0.725353439270174 2.006148727788962 0.5431505110813688 -2.1496606504736366 0.0 0.0 0.0 0.0 0.0 0.0 1
12801.797999999999 0.4161461889743805 -1.5301833649030705 -0.8859370350837708 -2.3291670284666957 4.877832412719727 1.5248446464538574 0.0 0.0 0.0 0.0 0.0 0.0 0.0 0.0 0.0 0.0 0.0 0.0 0.4160194993019104 -1.5301124838045617 -0.8857673406600952 -2.328707834283346 4.878711700439453 1.524871587753296 0.00045172180398367345 5.0385879148961976e-05 0.0 7.684384273010359e-34 0.0413900688290596 1.8718158119223046e-25 0.14234250414108102 -0.10551207964997669 0.7253267557055645 2.007075495183946 0.5442856819702483 -2.149579236809105 0.0030964631146699756 -0.007004256706139837 -0.0009605383994323377 0.03787746154655066 0.016633360600723485 -0.0008801917347098274 -4.2801803147032444 -1.7404897845578264 3.435908176695978 0.09542252077678325 -0.6651441898762372 -0.12745804106880565 0.1424563559654699 -0.10526611187834882 0.725353439270174 2.006148727788962 0.5431505110813688 -2.1496606504736366 0.0 0.0 0.0 0.0 0.0 0.0 1
12801.805999999999 0.4161461889743805 -1.5301833649030705 -0.8859370350837708 -2.3291670284666957 4.877832412719727 1.5248446464538574 0.0 0.0 0.0 0.0 0.0 0.0 0.0 0.0 0.0 0.0 0.0 0.0 0.4160194993019104 -1.5301124838045617 -0.8857673406600952 -2.328707834283346 4.878711700439453 1.524871587753296 0.00045172180398367345 5.0385879148961976e-05 0.0 7.684384273010359e-34 0.0413900688290596 1.8718158119223046e-25 0.14234250414108102 -0.10551207964997669 0.7253267557055645 2.007075495183946 0.5442856819702483 -2.149579236809105 0.0030964631146699756 -0.007004256706139837 -0.0009605383994323377 0.03787746154655066 0.016633360600723485 -0.0008801917347098274 -4.2801803147032444 -1.7404897845578264 3.435908176695978 0.09542252077678325 -0.6651441898762372 -0.12745804106880565 0.1424563559654699 -0.10526611187834882 0.725353439270174 2.006148727788962 0.5431505110813688 -2.1496606504736366 0.0 0.0 0.0 0.0 0.0 0.0 1
12801.814 0.4161461889743805 -1.5301833649030705 -0.8859370350837708 -2.3291670284666957 4.877832412719727 1.5248446464538574 0.0 0.0 0.0 0.0 0.0 0.0 0.0 0.0 0.0 0.0 0.0 0.0 0.4160194993019104 -1.5301124838045617 -0.8857673406600952 -2.328707834283346 4.878711700439453 1.524871587753296 0.00045172180398367345 5.0385879148961976e-05 0.0 7.684384273010359e-34 0.0413900688290596 1.8718158119223046e-25 0.14234250414108102 -0.10551207964997669 0.7253267557055645 2.007075495183946 0.5442856819702483 -2.149579236809105 0.0030964631146699756 -0.007004256706139837 -0.0009605383994323377 0.03787746154655066 0.016633360600723485 -0.0008801917347098274 -4.2801803147032444 -1.7404897845578264 3.435908176695978 0.09542252077678325 -0.6651441898762372 -0.12745804106880565 0.1424563559654699 -0.10526611187834882 0.725353439270174 2.006148727788962 0.5431505110813688 -2.1496606504736366 0.0 0.0 0.0 0.0 0.0 0.0 1
12801.822 0.4161461889743805 -1.5301833649030705 -0.8859370350837708 -2.3291670284666957 4.877832412719727 1.5248446464538574 0.0 0.0 0.0 0.0 0.0 0.0 0.0 0.0 0.0 0.0 0.0 0.0 0.4160194993019104 -1.5301124838045617 -0.8857673406600952 -2.328707834283346 4.878711700439453 1.524871587753296 0.00045172180398367345 5.0385879148961976e-05 0.0 7.684384273010359e-34 0.0413900688290596 1.8718158119223046e-25 0.14234250414108102 -0.10551207964997669 0.7253267557055645 2.007075495183946 0.5442856819702483 -2.149579236809105 0.0030964631146699756 -0.007004256706139837 -0.0009605383994323377 0.03787746154655066 0.016633360600723485 -0.0008801917347098274 -4.2801803147032444 -1.7404897845578264 3.435908176695978 0.09542252077678325 -0.6651441898762372 -0.12745804106880565 0.1424563559654699 -0.10526611187834882 0.725353439270174 2.006148727788962 0.5431505110813688 -2.1496606504736366 0.0 0.0 0.0 0.0 0.0 0.0 1
12801.83 0.4161461889743805 -1.5301833649030705 -0.8859370350837708 -2.3291670284666957 4.877832412719727 1.5248446464538574 0.0 0.0 0.0 0.0 0.0 0.0 0.0 0.0 0.0 0.0 0.0 0.0 0.4160194993019104 -1.5301124838045617 -0.8857673406600952 -2.328707834283346 4.878711700439453 1.524871587753296 0.00045172180398367345 5.0385879148961976e-05 0.0 7.684384273010359e-34 0.0413900688290596 1.8718158119223046e-25 0.14234250414108102 -0.10551207964997669 0.7253267557055645 2.007075495183946 0.5442856819702483 -2.149579236809105 0.0030964631146699756 -0.007004256706139837 -0.0009605383994323377 0.03787746154655066 0.016633360600723485 -0.0008801917347098274 -4.2801803147032444 -1.7404897845578264 3.435908176695978 0.09542252077678325 -0.6651441898762372 -0.12745804106880565 0.1424563559654699 -0.10526611187834882 0.725353439270174 2.006148727788962 0.5431505110813688 -2.1496606504736366 0.0 0.0 0.0 0.0 0.0 0.0 1
12801.838 0.4161461889743805 -1.5301833649030705 -0.8859370350837708 -2.3291670284666957 4.877832412719727 1.5248446464538574 0.0 0.0 0.0 0.0 0.0 0.0 0.0 0.0 0.0 0.0 0.0 0.0 0.4160194993019104 -1.5301124838045617 -0.8857673406600952 -2.328707834283346 4.878711700439453 1.524871587753296 0.00045172180398367345 5.0385879148961976e-05 0.0 7.684384273010359e-34 0.0413900688290596 1.8718158119223046e-25 0.14234250414108102 -0.10551207964997669 0.7253267557055645 2.007075495183946 0.5442856819702483 -2.149579236809105 0.0030964631146699756 -0.007004256706139837 -0.0009605383994323377 0.03787746154655066 0.016633360600723485 -0.0008801917347098274 -4.2801803147032444 -1.7404897845578264 3.435908176695978 0.09542252077678325 -0.6651441898762372 -0.12745804106880565 0.1424563559654699 -0.10526611187834882 0.725353439270174 2.006148727788962 0.5431505110813688 -2.1496606504736366 0.0 0.0 0.0 0.0 0.0 0.0 1
12801.846 0.4161461889743805 -1.5301833649030705 -0.8859370350837708 -2.3291670284666957 4.877832412719727 1.5248446464538574 0.0 0.0 0.0 0.0 0.0 0.0 0.0 0.0 0.0 0.0 0.0 0.0 0.4160194993019104 -1.5301124838045617 -0.8857673406600952 -2.328707834283346 4.878711700439453 1.524871587753296 0.00045172180398367345 5.0385879148961976e-05 0.0 7.684384273010359e-34 0.0413900688290596 1.8718158119223046e-25 0.14234250414108102 -0.10551207964997669 0.7253267557055645 2.007075495183946 0.5442856819702483 -2.149579236809105 0.0030964631146699756 -0.007004256706139837 -0.0009605383994323377 0.03787746154655066 0.016633360600723485 -0.0008801917347098274 -4.2801803147032444 -1.7404897845578264 3.435908176695978 0.09542252077678325 -0.6651441898762372 -0.12745804106880565 0.1424563559654699 -0.10526611187834882 0.725353439270174 2.006148727788962 0.5431505110813688 -2.1496606504736366 0.0 0.0 0.0 0.0 0.0 0.0 1
12801.854 0.4161461889743805 -1.5301833649030705 -0.8859370350837708 -2.3291670284666957 4.877832412719727 1.5248446464538574 0.0 0.0 0.0 0.0 0.0 0.0 0.0 0.0 0.0 0.0 0.0 0.0 0.4160194993019104 -1.5301124838045617 -0.8857673406600952 -2.328707834283346 4.878711700439453 1.524871587753296 0.00045172180398367345 5.0385879148961976e-05 0.0 7.684384273010359e-34 0.0413900688290596 1.8718158119223046e-25 0.14234250414108102 -0.10551207964997669 0.7253267557055645 2.007075495183946 0.5442856819702483 -2.149579236809105 0.0030964631146699756 -0.007004256706139837 -0.0009605383994323377 0.03787746154655066 0.016633360600723485 -0.0008801917347098274 -4.2801803147032444 -1.7404897845578264 3.435908176695978 0.09542252077678325 -0.6651441898762372 -0.12745804106880565 0.1424563559654699 -0.10526611187834882 0.725353439270174 2.006148727788962 0.5431505110813688 -2.1496606504736366 0.0 0.0 0.0 0.0 0.0 0.0 1
12801.862 0.4161461889743805 -1.5301833649030705 -0.8859370350837708 -2.3291670284666957 4.877832412719727 1.5248446464538574 0.0 0.0 0.0 0.0 0.0 0.0 0.0 0.0 0.0 0.0 0.0 0.0 0.4160194993019104 -1.5301124838045617 -0.8857673406600952 -2.328707834283346 4.878711700439453 1.524871587753296 0.00045172180398367345 5.0385879148961976e-05 0.0 7.684384273010359e-34 0.0413900688290596 1.8718158119223046e-25 0.14234250414108102 -0.10551207964997669 0.7253267557055645 2.007075495183946 0.5442856819702483 -2.149579236809105 0.0030964631146699756 -0.007004256706139837 -0.0009605383994323377 0.03787746154655066 0.016633360600723485 -0.0008801917347098274 -4.2801803147032444 -1.7404897845578264 3.435908176695978 0.09542252077678325 -0.6651441898762372 -0.12745804106880565 0.1424563559654699 -0.10526611187834882 0.725353439270174 2.006148727788962 0.5431505110813688 -2.1496606504736366 0.0 0.0 0.0 0.0 0.0 0.0 1
12801.869999999999 0.4161461889743805 -1.5301833649030705 -0.8859370350837708 -2.3291670284666957 4.877832412719727 1.5248446464538574 0.0 0.0 0.0 0.0 0.0 0.0 0.0 0.0 0.0 0.0 0.0 0.0 0.4160194993019104 -1.5301124838045617 -0.8857673406600952 -2.328707834283346 4.878711700439453 1.524871587753296 0.00045172180398367345 5.0385879148961976e-05 0.0 7.684384273010359e-34 0.0413900688290596 1.8718158119223046e-25 0.14234250414108102 -0.10551207964997669 0.7253267557055645 2.007075495183946 0.5442856819702483 -2.149579236809105 0.0030964631146699756 -0.007004256706139837 -0.0009605383994323377 0.03787746154655066 0.016633360600723485 -0.0008801917347098274 -4.2801803147032444 -1.7404897845578264 3.435908176695978 0.09542252077678325 -0.6651441898762372 -0.12745804106880565 0.1424563559654699 -0.10526611187834882 0.725353439270174 2.006148727788962 0.5431505110813688 -2.1496606504736366 0.0 0.0 0.0 0.0 0.0 0.0 1
12801.877999999999 0.4161461889743805 -1.5301833649030705 -0.8859370350837708 -2.3291670284666957 4.877832412719727 1.5248446464538574 0.0 0.0 0.0 0.0 0.0 0.0 0.0 0.0 0.0 0.0 0.0 0.0 0.4160194993019104 -1.5301124838045617 -0.8857673406600952 -2.328707834283346 4.878711700439453 1.524871587753296 0.00045172180398367345 5.0385879148961976e-05 0.0 7.684384273010359e-34 0.0413900688290596 1.8718158119223046e-25 0.14234250414108102 -0.10551207964997669 0.7253267557055645 2.007075495183946 0.5442856819702483 -2.149579236809105 0.0030964631146699756 -0.007004256706139837 -0.0009605383994323377 0.03787746154655066 0.016633360600723485 -0.0008801917347098274 -4.2801803147032444 -1.7404897845578264 3.435908176695978 0.09542252077678325 -0.6651441898762372 -0.12745804106880565 0.1424563559654699 -0.10526611187834882 0.725353439270174 2.006148727788962 0.5431505110813688 -2.1496606504736366 0.0 0.0 0.0 0.0 0.0 0.0 1
12801.885999999999 0.4161461889743805 -1.5301833649030705 -0.8859370350837708 -2.3291670284666957 4.877832412719727 1.5248446464538574 0.0 0.0 0.0 0.0 0.0 0.0 0.0 0.0 0.0 0.0 0.0 0.0 0.4160194993019104 -1.5301124838045617 -0.8857673406600952 -2.328707834283346 4.878711700439453 1.524871587753296 0.00045172180398367345 5.0385879148961976e-05 0.0 7.684384273010359e-34 0.0413900688290596 1.8718158119223046e-25 0.14234250414108102 -0.10551207964997669 0.7253267557055645 2.007075495183946 0.5442856819702483 -2.149579236809105 0.0030964631146699756 -0.007004256706139837 -0.0009605383994323377 0.03787746154655066 0.016633360600723485 -0.0008801917347098274 -4.2801803147032444 -1.7404897845578264 3.435908176695978 0.09542252077678325 -0.6651441898762372 -0.12745804106880565 0.1424563559654699 -0.10526611187834882 0.725353439270174 2.006148727788962 0.5431505110813688 -2.1496606504736366 0.0 0.0 0.0 0.0 0.0 0.0 1
12801.894 0.4161461889743805 -1.5301833649030705 -0.8859370350837708 -2.3291670284666957 4.877832412719727 1.5248446464538574 0.0 0.0 0.0 0.0 0.0 0.0 0.0 0.0 0.0 0.0 0.0 0.0 0.4160194993019104 -1.5301124838045617 -0.8857673406600952 -2.328707834283346 4.878711700439453 1.524871587753296 0.00045172180398367345 5.0385879148961976e-05 0.0 7.684384273010359e-34 0.0413900688290596 1.8718158119223046e-25 0.14234250414108102 -0.10551207964997669 0.7253267557055645 2.007075495183946 0.5442856819702483 -2.149579236809105 0.0030964631146699756 -0.007004256706139837 -0.0009605383994323377 0.03787746154655066 0.016633360600723485 -0.0008801917347098274 -4.2801803147032444 -1.7404897845578264 3.435908176695978 0.09542252077678325 -0.6651441898762372 -0.12745804106880565 0.1424563559654699 -0.10526611187834882 0.725353439270174 2.006148727788962 0.5431505110813688 -2.1496606504736366 0.0 0.0 0.0 0.0 0.0 0.0 1
12801.902 0.4161461889743805 -1.5301833649030705 -0.8859370350837708 -2.3291670284666957 4.877832412719727 1.5248446464538574 0.0 0.0 0.0 0.0 0.0 0.0 0.0 0.0 0.0 0.0 0.0 0.0 0.4160194993019104 -1.5301124838045617 -0.8857673406600952 -2.328707834283346 4.878711700439453 1.524871587753296 0.00045172180398367345 5.0385879148961976e-05 0.0 7.684384273010359e-34 0.0413900688290596 1.8718158119223046e-25 0.14234250414108102 -0.10551207964997669 0.7253267557055645 2.007075495183946 0.5442856819702483 -2.149579236809105 0.0030964631146699756 -0.007004256706139837 -0.0009605383994323377 0.03787746154655066 0.016633360600723485 -0.0008801917347098274 -4.2801803147032444 -1.7404897845578264 3.435908176695978 0.09542252077678325 -0.6651441898762372 -0.12745804106880565 0.1424563559654699 -0.10526611187834882 0.725353439270174 2.006148727788962 0.5431505110813688 -2.1496606504736366 0.0 0.0 0.0 0.0 0.0 0.0 1
12801.91 0.4161461889743805 -1.5301833649030705 -0.8859370350837708 -2.3291670284666957 4.877832412719727 1.5248446464538574 0.0 0.0 0.0 0.0 0.0 0.0 0.0 0.0 0.0 0.0 0.0 0.0 0.4160194993019104 -1.5301124838045617 -0.8857673406600952 -2.328707834283346 4.878711700439453 1.524871587753296 0.00045172180398367345 5.0385879148961976e-05 0.0 7.684384273010359e-34 0.0413900688290596 1.8718158119223046e-25 0.14234250414108102 -0.10551207964997669 0.7253267557055645 2.007075495183946 0.5442856819702483 -2.149579236809105 0.0030964631146699756 -0.007004256706139837 -0.0009605383994323377 0.03787746154655066 0.016633360600723485 -0.0008801917347098274 -4.2801803147032444 -1.7404897845578264 3.435908176695978 0.09542252077678325 -0.6651441898762372 -0.12745804106880565 0.1424563559654699 -0.10526611187834882 0.725353439270174 2.006148727788962 0.5431505110813688 -2.1496606504736366 0.0 0.0 0.0 0.0 0.0 0.0 1
