Andreas691667/Digital_Twin_UR/monitor/robot_data.csv
timestamp target_q_0 target_q_1 target_q_2 target_q_3 target_q_4 target_q_5 target_qd_0 target_qd_1 target_qd_2 target_qd_3 target_qd_4 target_qd_5 target_qdd_0 target_qdd_1 target_qdd_2 target_qdd_3 target_qdd_4 target_qdd_5 actual_q_0 actual_q_1 actual_q_2 actual_q_3 actual_q_4 actual_q_5 actual_qd_0 actual_qd_1 actual_qd_2 actual_qd_3 actual_qd_4 actual_qd_5 actual_TCP_pose_0 actual_TCP_pose_1 actual_TCP_pose_2 actual_TCP_pose_3 actual_TCP_pose_4 actual_TCP_pose_5 actual_TCP_speed_0 actual_TCP_speed_1 actual_TCP_speed_2 actual_TCP_speed_3 actual_TCP_speed_4 actual_TCP_speed_5 actual_TCP_force_0 actual_TCP_force_1 actual_TCP_force_2 actual_TCP_force_3 actual_TCP_force_4 actual_TCP_force_5 target_TCP_pose_0 target_TCP_pose_1 target_TCP_pose_2 target_TCP_pose_3 target_TCP_pose_4 target_TCP_pose_5 target_TCP_speed_0 target_TCP_speed_1 target_TCP_speed_2 target_TCP_speed_3 target_TCP_speed_4 target_TCP_speed_5 runtime_state
121.87299999999999 0.8645551800727844 -2.0742436848082484 0.10423070589174444 -4.576110979119772 4.7966132164001465 1.6406968832015991 -0.0028536838945001364 0.4943281412124634 -8.913661440601572e-05 -0.0019256231607869267 0.0 -0.0 0.0 0.0 0.0 0.0 0.0 0.0 0.8645627498626709 -2.073235651055807 0.10424262682069951 -4.576061864892477 4.79664945602417 1.6406223773956299 -0.0024751380551606417 0.4927069842815399 -8.497617818647996e-05 -0.0018386993324384093 0.0 -0.0 0.2784872763103867 0.1114891565726572 0.45595367446331253 -2.024834965720406 -0.7691965942483817 -1.5266777555196085 -0.09698827205486732 -0.11499731103094601 0.13079233341827426 0.37339741164695384 -0.3184998668446651 -0.0031665558253730617 3.423539171154764 2.7830860548096905 -7.989373705724218 -0.2969139236433992 0.27829412653095714 -0.027826447627775516 0.27868174467832163 0.11171976897773944 0.4556805680137449 -2.025836214214322 -0.7696019370420393 -1.5257590229407865 -0.09718398563410899 -0.11538242066206678 0.13136659554645652 0.3745592824795342 -0.31949545076718516 -0.003547369865517397 1
121.881 0.8645671010017395 -2.0703870258727015 0.10420209566225225 -4.576106687585348 4.796640872955322 1.6406804323196411 -0.0011591733200475574 0.48081713914871216 -0.00014373565500136465 -0.0017073233611881733 0.0 -0.0 0.0 0.0 0.0 0.0 0.0 0.0 0.8644858598709106 -2.0693022213377894 0.10420638719667608 -4.576106449166769 4.796628952026367 1.6406641006469727 -0.0009212043951265514 0.4766576290130615 -0.00014262128388509154 -0.0018063579918816686 0.0 -0.0 0.2777166692274768 0.11055513252309324 0.45698818178619344 -2.0212240919141005 -0.7673886598720506 -1.5297578331048465 -0.09432127756729772 -0.11120536190117192 0.12594848770045677 0.36114375458110126 -0.3080958573135748 -0.0015898913828718386 3.301643929112987 2.7571129629554374 -7.964292012194528 -0.3015984542423737 0.28062661378050857 -0.025714689233520164 0.27792319900715384 0.1108292940316648 0.45670041291488706 -2.0222116805653902 -0.7679179417864623 -1.5288435175099473 -0.0950117646398496 -0.11213341270277284 0.12721470807949772 0.36440765817042226 -0.3108297327799677 -0.0018337062981104173 1
121.889 0.8645140528678894 -2.066334386865133 0.10425883928407842 -4.576142450372213 4.796637058258057 1.6406968832015991 -0.0005704360082745552 0.4710703194141388 -9.594881703378633e-05 -0.0027409810572862625 0.0 -0.0 0.0 0.0 0.0 0.0 0.0 0.0 0.8645670413970947 -2.0653845272459925 0.10427552858461553 -4.576203008691305 4.796677112579346 1.6406551599502563 -0.0006063550827093422 0.47386419773101807 -8.107427856884897e-05 -0.0028920299373567104 0.0 -0.0 0.2769237007309426 0.10964952043791848 0.4580259808515255 -2.017507311785641 -0.7657170725581857 -1.5328513721999704 -0.09419265596648034 -0.11094000888454394 0.12456936526238395 0.35826700940339107 -0.30558591402879215 -0.0012712273320562688 3.12482029832342 2.8062886463582437 -7.441734810955467 -0.2916353980468516 0.27050946573411944 -0.02332347381854953 0.27712056831596227 0.10986497905894393 0.4577772505248213 -2.0183808857978685 -0.7660502283853139 -1.532107304792676 -0.09356036111981245 -0.11017142648964294 0.12398277835747602 0.35622850054217803 -0.3038804790596567 -0.0012313578909664217 1
121.89699999999999 0.8645432591438293 -2.062441965142721 0.1043160597430628 -4.576114316979879 4.7966132164001465 1.6406506299972534 -0.0005295720184221864 0.47792184352874756 -6.204550300026312e-05 -0.002564327558502555 0.0 -0.0 0.0 0.0 0.0 0.0 0.0 0.0 0.8645508289337158 -2.0614754162230433 0.10430843034853154 -4.576190610925192 4.796648979187012 1.6406224966049194 -0.0004887150716967881 0.4830188453197479 -5.997490370646119e-05 -0.0023641285952180624 0.0 -0.0 0.27614524550772646 0.10873206005355718 0.45905858113410625 -2.013739593293844 -0.7640046418732095 -1.5359999028535942 -0.09631394718751216 -0.1133788633723754 0.12643739838060106 0.36564343173556274 -0.3118905974086076 -0.0011664970782662642 2.9967548278920715 2.922173325577435 -7.233923849186665 -0.2857263252036371 0.26315522172755584 -0.02132841791363435 0.2763409822083349 0.1089640002420464 0.45881128843184127 -2.014562690321158 -0.7643810565166489 -1.5352615278439083 -0.09523184441267199 -0.11212263717445017 0.12523336666105198 0.3616098599753573 -0.3084536632843659 -0.001200187663840535 1
121.905 0.8645269870758057 -2.058542390862936 0.10429221788515264 -4.576158185998434 4.7966532707214355 1.6406968832015991 -0.0003904898767359555 0.4894236624240875 -5.09293022332713e-05 -0.002805099356919527 0.0 -0.0 0.0 0.0 0.0 0.0 0.0 0.0 0.8645356297492981 -2.0575558147826136 0.10424691835512334 -4.57616986850881 4.796637058258057 1.6406551599502563 -0.0003698753716889769 0.490503191947937 -5.268601671559736e-05 -0.0031710572075098753 0.0 -0.0 0.2753692065752287 0.10781572228008399 0.4600759695021755 -2.010055555083686 -0.7622425109056282 -1.5390561522182025 -0.09819938634191883 -0.11553946943312475 0.12775652185724046 0.3707262993530098 -0.31623222804513906 -0.001058091247712521 3.219736665926111 2.704076453466824 -7.578440856195963 -0.2954743362503896 0.27627942759300017 -0.023679548047135405 0.2755663506393949 0.1080415638006838 0.4598258732180502 -2.010960187949887 -0.76258985780518 -1.538313293260771 -0.09787793572311573 -0.11516902331841863 0.1276475388952683 0.3701811639682064 -0.315774472203498 -0.0010772332964836962 1
121.913 0.8645226955413818 -2.0547477207579554 0.10425454774965459 -4.576247116128439 4.796640872955322 1.6406223773956299 -0.000409084081184119 0.4921833574771881 -4.863102003582753e-05 -0.00488415639847517 0.0 -0.0 0.0 0.0 0.0 0.0 0.0 0.0 0.8645269870758057 -2.0537525616087855 0.10423070589174444 -4.576230426827902 4.7966694831848145 1.6407132148742676 -0.0006624753586947918 0.4893728494644165 -4.735164111480117e-05 -0.004912186414003372 0.0 -0.0 0.27460777511133005 0.10691300602817982 0.46105961501100595 -2.0065397847712507 -0.7604952143601748 -1.5419991197982215 -0.09837511236139611 -0.11585687233917429 0.12676490140122054 0.36854718181560914 -0.3143704758072866 -0.001348916449263027 3.2273409989583097 2.71806304978261 -7.587487225796047 -0.2946609329236248 0.27455525853977414 -0.014991241492614408 0.27480324835139947 0.10714500588622258 0.4608032809517555 -2.0074571450456165 -0.7610496108142514 -1.5412508146096038 -0.09888226988997038 -0.11635114680091777 0.12764672223112106 0.3707043032501891 -0.3162135309309254 -0.0010994863429913497 1
121.92099999999999 0.8644782900810242 -2.050936838189596 0.10425168672670537 -4.576234241525167 4.796677112579346 1.6406402587890625 -0.0004761639575008303 0.4856243431568146 -6.581872730748728e-05 -0.004732807166874409 0.0 -0.0 0.0 0.0 0.0 0.0 0.0 0.0 0.8644782900810242 -2.0499173603453578 0.10419732729067022 -4.576253791848654 4.796665191650391 1.6406835317611694 -0.00043058025767095387 0.4847647547721863 -6.426384788937867e-05 -0.004496403969824314 0.0 -0.0 0.27384294407707854 0.10599555627922752 0.4620469931513464 -2.0029663846637966 -0.7588100836928079 -1.5450213571355516 -0.09776312204371296 -0.11503100002745377 0.12501650226700242 0.36532867422551724 -0.311657657734435 -0.0011104789576623132 2.8132940803228412 2.7667934767226834 -7.353932067042969 -0.2822441896986139 0.2631815138968754 -0.014594336642399012 0.27404671821634413 0.10623322191374071 0.46179254430732614 -2.0038719455418272 -0.759270259604584 -1.5443090363448924 -0.09786691274834879 -0.11517169978643599 0.12537477158642607 0.365802135988149 -0.3120604725939096 -0.0011572552470152458 1
121.92899999999999 0.864523708820343 -2.047124048272604 0.10428792635072881 -4.576322217980856 4.796700954437256 1.640673041343689 -0.00040142826037481427 0.48447343707084656 -6.0237387515371665e-05 -0.004871772136539221 0.0 -0.0 0.0 0.0 0.0 0.0 0.0 0.0 0.8645107746124268 -2.0460926494994105 0.10424548784364873 -4.576290269891256 4.796620845794678 1.6406641006469727 -0.0003736477519851178 0.48391595482826233 -5.8694575272966176e-05 -0.0049749212339520454 0.0 -0.0 0.27306071345220106 0.10509563437773474 0.4630379976576819 -1.9992544748256456 -0.757184762755831 -1.5480012084714427 -0.09793892330658148 -0.11521926675756178 0.12418384098527128 0.3643344034575813 -0.31078660350065845 -0.0010522503312648326 2.9517006643251626 2.624789056787213 -7.193307047961419 -0.27089740229784215 0.2530587114952939 -0.019396639319855084 0.2732677792945777 0.10533274155137984 0.46277651751596 -2.000273048702162 -0.7575872422170081 -1.5472445176217875 -0.09795766383057114 -0.11525614987689765 0.1244863534475252 0.3648395966152155 -0.31120993480082043 -0.0010808380116108809 1
121.937 0.8645346164703369 -2.043217798272604 0.10419303575624639 -4.576374431649679 4.7966694831848145 1.6406224966049194 -0.0003609725972637534 0.48135805130004883 -6.870794459246099e-05 -0.005124187562614679 0.0 -0.0 0.0 0.0 0.0 0.0 0.0 0.0 0.8645150661468506 -2.042269369164938 0.10421401659120733 -4.576350112954611 4.796645164489746 1.6406879425048828 -0.0003414136590436101 0.4770175814628601 -7.167024887166917e-05 -0.005083819851279259 0.0 -0.0 0.27228703757213135 0.10418493776677099 0.4640109611497861 -1.9957061514302834 -0.7554869097196473 -1.5509338816652758 -0.09685773800426942 -0.11393432065270531 0.12182687750122141 0.35899511939345086 -0.3062285533716599 -0.0010102110249801054 3.263775359027048 2.9074858540936788 -7.640594838685784 -0.2918962280567642 0.27161932394926125 -0.028221449954622904 0.27247810118076743 0.10441376226132248 0.4637631846415811 -1.9966525112003892 -0.7560027707229022 -1.5501979685930292 -0.09765752410732811 -0.11488695876867983 0.12307903358014513 0.36227494390556947 -0.3090140812015788 -0.0010358852133214617 1
121.945 0.8645107746124268 -2.0394321880736292 0.10424262682069951 -4.5763582191863 4.796608924865723 1.6406357288360596 -0.00029366565286181867 0.46506980061531067 -6.790630868636072e-05 -0.0038658722769469023 0.0 -0.0 0.0 0.0 0.0 0.0 0.0 0.0 0.8644987940788269 -2.038452287713522 0.10423070589174444 -4.576357980767721 4.796645164489746 1.6406627893447876 -0.0002819108194671571 0.46162664890289307 -6.664918328169733e-05 -0.00434849364683032 0.0 -0.0 0.2715133244226181 0.1032694640160656 0.4649883147491361 -1.9920585021962396 -0.753798290202119 -1.5539550318003514 -0.09399385472168784 -0.11054031554051007 0.11738226640301 0.34784269889362973 -0.2967278712543271 -0.0009291538828306888 3.1705051029767257 2.943542915572251 -7.918802719811612 -0.30015568039718477 0.2806750153919217 -0.023409375525581536 0.27170788632922416 0.10350787039120601 0.46473997745785195 -1.9929503080145254 -0.7542935142634061 -1.5531791237856407 -0.09458276400139984 -0.11124056708604382 0.11843635471856982 0.35083078308700083 -0.29927210764773876 -0.0009458237672783753 1
121.95299999999999 0.8645679950714111 -2.0357376537718714 0.10425454774965459 -4.576410194436544 4.796620845794678 1.6406716108322144 -0.00013900987687520683 0.45583629608154297 -6.314212805591524e-05 -0.004647608380764723 0.0 -0.0 0.0 0.0 0.0 0.0 0.0 0.0 0.8644782304763794 -2.0346867046751917 0.10426646867860967 -4.576345821420187 4.796612739562988 1.6406596899032593 -0.0001322066964348778 0.45651572942733765 -6.205365934874862e-05 -0.004610548727214336 0.0 -0.0 0.2707461586035962 0.10236462300836273 0.46595212320971235 -1.9884028367082194 -0.7521073514803862 -1.556925740828433 -0.09327721828501824 -0.10963257516908095 0.11551949957179893 0.34375321740850934 -0.2932499944008799 -0.0007721852527521593 3.144686961458635 2.693697053649979 -7.226331518526668 -0.29153420310116246 0.2675707009248507 -0.034333598123508446 0.2709478378489756 0.10263562405945434 0.46567901929689265 -1.9894277033065206 -0.7526697610000639 -1.5559931008160433 -0.09304999704171764 -0.10938875631068619 0.11549278670614739 0.343233675096447 -0.29275335319833756 -0.000778043405736151 1
121.961 0.8644944429397583 -2.031886716882223 0.1042411963092249 -4.576401611367697 4.796608924865723 1.6406596899032593 -0.00015365744184236974 0.45900288224220276 -4.425621955306269e-05 -0.004605958238244057 0.0 -0.0 0.0 0.0 0.0 0.0 0.0 0.0 0.8645389080047607 -2.0309654674925746 0.10426980653871709 -4.57649888614797 4.796689510345459 1.6407012939453125 -0.00014740260667167604 0.4617801606655121 -4.3538610043469816e-05 -0.004476891364902258 0.0 -0.0 0.2699753635808727 0.10147197570581999 0.46688409710140166 -1.9849958641866556 -0.7504725875053906 -1.5597082762799885 -0.09461263484359836 -0.11121897860639607 0.11631740312316437 0.34789167304991364 -0.2967447677280623 -0.0007947873105600604 3.2583817489197395 2.71294655955895 -7.3250617759520615 -0.2904491922777621 0.26949648841428986 -0.033006997822865446 0.27017113821730643 0.10169600223428113 0.46665387375766665 -1.9857863954614179 -0.7509131472597057 -1.5590346702819475 -0.0939896303497715 -0.11047991905241394 0.11574647154127564 0.3456671841353938 -0.29487312919368136 -0.0007971346216755021 1
121.969 0.8644945025444031 -2.028167863885397 0.1042411963092249 -4.576478143731588 4.796677112579346 1.6407058238983154 -0.00016265898011624813 0.46578261256217957 -4.152924884692766e-05 -0.00552864046767354 0.0 -0.0 0.0 0.0 0.0 0.0 0.0 0.0 0.8645508289337158 -2.0272251568236292 0.1042411963092249 -4.576470514337057 4.796685695648193 1.640638828277588 -0.00014951845514588058 0.46433714032173157 -5.275238800095394e-05 -0.005594158079475164 0.0 -0.0 0.2692124258677414 0.10058073202742432 0.46782454618977337 -1.981395869605374 -0.7488876955123044 -1.5626446842334565 -0.0954910488381977 -0.11225151128389954 0.11633534089991528 0.34898619711476425 -0.297665881367257 -0.000800194538052834 3.4056776470134404 2.7677261016823467 -7.622897425920721 -0.3040784229485828 0.2836342307605344 -0.036379103319649324 0.26941011024486977 0.10079237510270811 0.46758684192029276 -1.982344465223166 -0.7491936576295086 -1.56189347834946 -0.09571673654306423 -0.11250956583518426 0.11684397099119757 0.3501273429555649 -0.2986736494534728 -0.0008154283718684336 1
121.97699999999999 0.8644945025444031 -2.0244204006590785 0.10423356691469365 -4.576461931268209 4.796644687652588 1.6406595706939697 -0.0001775776909198612 0.4670657515525818 -5.216250428929925e-05 -0.00596130033954978 0.0 -0.0 0.0 0.0 0.0 0.0 0.0 0.0 0.8645312786102295 -2.023496767083639 0.1042707602130335 -4.576618572274679 4.79667329788208 1.6406551599502563 -0.00016831824905239046 0.4650716185569763 -5.1417871873127297e-05 -0.005549535155296326 0.0 -0.0 0.26843679222838934 0.09966370164500252 0.468753354497488 -1.977939562425418 -0.7472500034413658 -1.5654395672148878 -0.09591908030720712 -0.11275501904999977 0.11596401541140908 0.34957403843966567 -0.29817930571934753 -0.0008199613266182268 3.3186260630735482 2.6632539100687627 -7.594785268542454 -0.29899091493346985 0.2762524901101034 -0.038217687532211116 0.26864117989994407 0.09989359236896536 0.4685279058684084 -1.9787174185877698 -0.7475915201059139 -1.5648140208800254 -0.09629126681852175 -0.11318769737554735 0.11657999382322741 0.3507672957738418 -0.29921753096605574 -0.0008319560918117781 1
121.985 0.8645280599594116 -2.0208002529540003 0.10426646867860967 -4.576566358605856 4.796689510345459 1.6406760215759277 -0.00010959056817227975 0.4623158276081085 -4.930532304570079e-05 -0.005671209190040827 0.0 -0.0 0.0 0.0 0.0 0.0 0.0 0.0 0.8645389080047607 -2.0197912655272425 0.10429221788515264 -4.576549669305319 4.796628952026367 1.6406714916229248 -8.996858377940953e-05 0.46063753962516785 -4.863911453867331e-05 -0.005111367907375097 0.0 -0.0 0.26767384967996327 0.09877644680466838 0.46968628861662526 -1.9742624894083693 -0.7455747142270753 -1.56833363534878 -0.0952643926798391 -0.1119556329251168 0.11434474719747431 0.34653733034808487 -0.29558633298452547 -0.0007354139484266315 3.418380686455931 2.7717099283557793 -7.442128762550238 -0.3001879061490225 0.27885891970049925 -0.03283118011456578 0.2678872115085199 0.0990144465528188 0.4694300625774936 -1.9753191402316328 -0.7459890328388644 -1.567567641605818 -0.09557007151983887 -0.11231997401893054 0.11487146143960962 0.34738585106280817 -0.29631397262028714 -0.0007572905287537013 1
121.993 0.8645226359367371 -2.017183919946188 0.10426980653871709 -4.5765937767424525 4.796620845794678 1.6406716108322144 -7.812544208718464e-05 0.4636740982532501 -4.674446608987637e-05 -0.005704239010810852 0.0 -0.0 0.0 0.0 0.0 0.0 0.0 0.0 0.8645637631416321 -2.016229291955465 0.10430366197694951 -4.5766343079009 4.796685695648193 1.6406641006469727 -7.487554103136063e-05 0.4650217294692993 -4.614528006641194e-05 -0.006060976069420576 0.0 -0.0 0.26693357546070323 0.0979082526127763 0.47056696674866555 -1.9709295121986168 -0.74400829798495 -1.5710605201902277 -0.09649552948707674 -0.11339928246645391 0.11483446178245585 0.34916193690588043 -0.29780560358097796 -0.0007261975142193691 3.2161550520298614 2.785351840330463 -7.48191318891947 -0.29191599856962314 0.2700370351151601 -0.027285524702042107 0.26713550559180704 0.09813893318756926 0.4703281614270081 -1.9718266938114253 -0.7444313039965874 -1.5703011042669874 -0.0961258056513012 -0.11295752795671828 0.11467138352423806 0.34839451560984674 -0.29717748643010444 -0.0007276571727996667 1
122.00099999999999 0.8645796775817871 -2.013522287408346 0.10427886644472295 -4.576649805108541 4.796617031097412 1.6406714916229248 -6.667458364972845e-05 0.4631956219673157 -4.443649959284812e-05 -0.007591475732624531 0.0 -0.0 0.0 0.0 0.0 0.0 0.0 0.0 0.8645150661468506 -2.012660642663473 0.10427552858461553 -4.576697727242941 4.796640872955322 1.6406596899032593 -6.419488636311144e-05 0.4629044234752655 -4.3894669943256304e-05 -0.007624057121574879 0.0 -0.0 0.2661944811369889 0.09702776500363954 0.471440932344134 -1.9675883063502766 -0.742447091180733 -1.5737398535243174 -0.09643055535844972 -0.11330452843512717 0.11366546287595135 0.34635294983760745 -0.2954310621785788 -0.0007120925632090704 3.3019101400368944 2.7912235783602863 -7.29015087950532 -0.288597913092942 0.27222904464100556 -0.019209139625206584 0.26636813999003034 0.09725969596347604 0.47123210663506465 -1.9683104890973964 -0.74286895794163 -1.5730539607914917 -0.0964185074960558 -0.11330664481283557 0.11386998321581628 0.34661787974791625 -0.2956185498665927 -0.0007150112611108482 1
122.009 0.8645800352096558 -2.009945055047506 0.10422164598573858 -4.576701541940206 4.796689510345459 1.6406432390213013 -5.7989345805253834e-05 0.45160678029060364 -3.060631570406258e-05 -0.0072328937239944935 0.0 -0.0 0.0 0.0 0.0 0.0 0.0 0.0 0.8645800352096558 -2.008982320825094 0.1042097250567835 -4.576738258401388 4.796661376953125 1.6406879425048828 -2.8372656743158586e-05 0.4477194845676422 -4.4008011172991246e-05 -0.007048206869512796 0.0 -0.0 0.26542773154143273 0.09614878402190581 0.4723341612240068 -1.9641220323845732 -0.740862382491908 -1.5764487238744995 -0.09350063990620297 -0.10986190571025628 0.10943142878463467 0.335255777386894 -0.28592937808392893 -0.0006549999649680235 2.8878470222311705 2.9335184158907617 -7.556599297016798 -0.29410432349710314 0.2772780315038899 -0.015058252995680723 0.2656311965164487 0.09638383036621455 0.4721019892964577 -1.9650169617741988 -0.7413010937056181 -1.5757924877357312 -0.09425080040545061 -0.11075487494210218 0.11051557693087975 0.338083467916152 -0.28834036978562366 -0.0006900898014711893 1
122.017 0.8645182847976685 -2.006322523156637 0.10423070589174444 -4.576782127419943 4.796661376953125 1.6407289505004883 -2.568471791164484e-05 0.43336907029151917 -5.621385571430437e-05 -0.006938979960978031 0.0 -0.0 0.0 0.0 0.0 0.0 0.0 0.0 0.8645095229148865 -2.0054289303221644 0.10428363481630498 -4.576785942117208 4.796633243560791 1.640634298324585 -2.4972063329187222e-05 0.43111956119537354 -0.00025838668807409704 -0.007691518869251013 0.0 -0.0 0.264685262898749 0.09525382255146475 0.4732117003279694 -1.960697843424413 -0.7392769841333494 -1.5792484252436811 -0.09033227128389502 -0.10612038649368832 0.10477779836122 0.3219553684388405 -0.2746215326338492 -0.0006274184987795493 2.9261502349385533 2.814960782202861 -7.511534485448916 -0.2939598341013082 0.2750458123740434 -0.018262988695722838 0.2648760784027699 0.09547736400154952 0.47298598235093914 -1.9616259061828887 -0.73958423200532 -1.5784854411873297 -0.09070018360178753 -0.10655597815280021 0.10553884212563844 0.3243941201637074 -0.2766998642025991 -0.0006320899305594417 1
122.02499999999999 0.864510715007782 -2.002702852288717 0.10429031053651983 -4.576830049554342 4.796645164489746 1.640699863433838 -3.016113259945996e-05 0.43036437034606934 -9.631385182728991e-05 -0.008700498379766941 0.0 -0.0 0.0 0.0 0.0 0.0 0.0 0.0 0.8645346164703369 -2.0018254719176234 0.10433990160097295 -4.576830049554342 4.79667329788208 1.6406968832015991 -2.9921480745542794e-05 0.4300147593021393 -8.558736590202898e-05 -0.00828051008284092 0.0 -0.0 0.2639269224005829 0.09436670507636236 0.4740951448469719 -1.9572253079868824 -0.7375848560527763 -1.5819951794581997 -0.0903946700231264 -0.10619889196058675 0.10398270613018398 0.3208069167202805 -0.27362421045475455 -0.0006310342318217428 3.1661287203475976 2.527336566032079 -6.745411368697306 -0.2801357271457303 0.25885353062958055 -0.02175575844667231 0.2641138826130393 0.09458139415093163 0.47387455143826007 -1.958117358532224 -0.7379951040688384 -1.5812778321641958 -0.09043583849871968 -0.10624230366370571 0.10416008066274703 0.3207396550889523 -0.273578095575698 -0.0006316463243347418 1
122.033 0.8645561933517456 -1.9991589985289515 0.1043475309955042 -4.576869388619894 4.796657085418701 1.640673041343689 -2.7214176952838898e-05 0.43853387236595154 -8.890994251942175e-08 -0.008395865559577942 0.0 -0.0 0.0 0.0 0.0 0.0 0.0 0.0 0.8645800948143005 -1.9983216724791468 0.10431844392885381 -4.57693400005483 4.796652793884277 1.6406300067901611 -2.6415402317070402e-05 0.43876996636390686 -5.8051843332407316e-09 -0.009209892712533474 0.0 -0.0 0.2631827888434245 0.09351247637853119 0.4749347545028335 -1.9539165053845708 -0.7361978202838245 -1.5845745558462903 -0.09252452229866258 -0.10870733932495413 0.1055531718615557 0.3268409802866338 -0.27874093666264144 -0.000639679086578296 2.7107276886337486 2.501943228042697 -6.962445925694009 -0.280228188419906 0.2622500694885849 -0.01778874114286539 0.2633630113858936 0.0937146048085266 0.4747407824555477 -1.954656184057681 -0.7364606036121466 -1.5839986950191882 -0.09236906839618007 -0.10852078323891597 0.10567700436224733 0.3272719851762115 -0.2791260559774251 -0.0006404118815909387 1
122.041 0.8645064234733582 -1.9956299267210902 0.10427886644472295 -4.576957365075582 4.796628952026367 1.640634298324585 -4.8555313696851954e-05 0.4389256536960602 -0.00017950627079699188 -0.011428972706198692 0.0 -0.0 0.0 0.0 0.0 0.0 0.0 0.0 0.8645269870758057 -1.994746824304098 0.10425311723817998 -4.57699789623403 4.796605110168457 1.6406804323196411 -2.60060860455269e-05 0.43769606947898865 -0.0001517062628408894 -0.01188250258564949 0.0 -0.0 0.26243482078523084 0.09262084260952627 0.4757842428521945 -1.9505965170859194 -0.7345858481018944 -1.5871693271894456 -0.09271081168673882 -0.10891036988033123 0.10456401255830833 0.3238665975053798 -0.27622120219427476 -0.0006363938850778074 3.1586499260408183 2.688586564265159 -7.026453889136758 -0.288739299983539 0.2702543649589364 -0.014989424178622496 0.2626246763010478 0.09283280715185324 0.4755779786665863 -1.95141124776405 -0.7349679590231787 -1.58660337891268 -0.092879273138943 -0.10911285609336834 0.10501713091712464 0.3251190765301429 -0.27730354303840504 -0.0006607667577198216 1
122.04899999999999 0.8644902110099792 -1.9922143421568812 0.10428792635072881 -4.577073474923605 4.796645164489746 1.6407012939453125 -2.1913241653237492e-05 0.4332144856452942 -0.000197632223716937 -0.011517640203237534 0.0 -0.0 0.0 0.0 0.0 0.0 0.0 0.0 0.8645269870758057 -1.991347452203268 0.10427457491029912 -4.577138086358541 4.796637535095215 1.640650749206543 -2.1392374037532136e-05 0.4292314052581787 -0.00018092981190420687 -0.012139002792537212 0.0 -0.0 0.26171133225602333 0.09176645721292762 0.47659407363732265 -1.9474439864742341 -0.7331246395362714 -1.5897062467205625 -0.09117214425876444 -0.10709927161142462 0.10201672471962268 0.31720999305555847 -0.27054152597494596 -0.0006195827402033134 2.863853737171961 2.802613874756394 -7.114605121966692 -0.292263754025916 0.276039170715897 -0.010695951772784932 0.26190105086469373 0.09197457719196935 0.4763927305942602 -1.948239705437882 -0.733386773866713 -1.5891038643528155 -0.09191685867215342 -0.10796712560124799 0.10314110845301667 0.32068868741087486 -0.273532563521153 -0.0006258845557826278 1
122.05699999999999 0.8645420074462891 -1.9888483486571253 0.10430366197694951 -4.577202459374899 4.796652793884277 1.6406804323196411 -1.9968450942542404e-05 0.4213554561138153 -0.00013912310532759875 -0.01241094060242176 0.0 -0.0 0.0 0.0 0.0 0.0 0.0 0.0 0.8645226955413818 -1.987950941125387 0.10427886644472295 -4.577181240121359 4.796677112579346 1.6406686305999756 -1.9535009414539672e-05 0.418574720621109 -0.0001291337248403579 -0.011895629577338696 0.0 -0.0 0.2609949956304146 0.09091783998873593 0.47740424148107896 -1.9442252202169408 -0.7315683020854435 -1.592276212973055 -0.08913469917625512 -0.1047029186280403 0.09901767699185092 0.3093255033891786 -0.2638187550973894 -0.0006028379279093696 2.7173743916159903 2.6919969592584145 -7.085363805816658 -0.2914060348267627 0.2749202394666158 -0.009367744165086931 0.26117803713546694 0.09114339186255345 0.4771917135903974 -1.9450627676487282 -0.7319896333342394 -1.591562066368885 -0.08969492544288647 -0.1053652962558804 0.09976382941016548 0.3110477425394029 -0.26527511176726914 -0.0006070138476147526 1
122.065 0.8645064234733582 -1.9855548344054164 0.10429460207094365 -4.577240844766134 4.796669006347656 1.6406551599502563 -1.8340753740631044e-05 0.4172157943248749 -0.00010625286085996777 -0.012106206268072128 0.0 -0.0 0.0 0.0 0.0 0.0 0.0 0.0 0.8645194172859192 -1.984706541100973 0.104286019002096 -4.577309509316915 4.796617031097412 1.6406629085540771 -1.7974442016566172e-05 0.41812625527381897 -5.36324514541775e-05 -0.011753875762224197 0.0 -0.0 0.26029682854776176 0.09010509170362539 0.4781683327719677 -1.9411645381028424 -0.7302109192125729 -1.59460492540996 -0.08924232007462578 -0.10482674080664303 0.09848031993193607 0.30914858927394884 -0.2636698845349676 -0.0006007626392805363 2.7020668568986554 2.597471118322756 -6.695991019628933 -0.2822739660600093 0.2632076525667166 -0.012051154759802778 0.26048470346983743 0.09031362117799123 0.4779730347648815 -1.9419525839823515 -0.7305186452435906 -1.5940707769173832 -0.08901783388576669 -0.10456049791106248 0.09834883856751601 0.3081451596432344 -0.262819329977166 -0.0005996204790898127 1
122.073 0.8645107746124268 -1.9823047123351039 0.104286019002096 -4.577365776101583 4.796625137329102 1.6407012939453125 -1.7011108866427094e-05 0.41615596413612366 -8.019488450372592e-05 -0.010501742362976074 0.0 -0.0 0.0 0.0 0.0 0.0 0.0 0.0 0.8645064234733582 -1.9815226993956507 0.10427886644472295 -4.577433248559469 4.796600818634033 1.6406760215759277 -1.6645279174554162e-05 0.41291162371635437 -8.165660983650014e-05 -0.009969848208129406 0.0 -0.0 0.25961485459641603 0.08930166455039228 0.47891298718675035 -1.9382057019770598 -0.7288257583161288 -1.5969019634327792 -0.08822087751822337 -0.10362356961441621 0.09693396794082014 0.3065095740901378 -0.26143428744331765 -0.0005925374106766198 3.0119348513057598 2.708433979296572 -7.092054843812614 -0.28888153614582734 0.2682433860255211 -0.019508865560809437 0.25978575533806864 0.08950050367482856 0.4787339744800805 -1.9389057781112573 -0.7291033005304373 -1.5963673337666633 -0.08889505123920827 -0.10441646830066632 0.09777121281407479 0.3085766755799933 -0.2631928105684757 -0.0005973010703364287 1
122.08099999999999 0.8645313382148743 -1.979105611840719 0.10423356691469365 -4.577489992181295 4.796592712402344 1.6406714916229248 -1.5769828678457998e-05 0.40000537037849426 -0.00010699195263441652 -0.009124788455665112 0.0 -0.0 0.0 0.0 0.0 0.0 0.0 0.0 0.8645474910736084 -1.9782787762083949 0.10423356691469365 -4.577477355996603 4.796661376953125 1.6406641006469727 -1.5498264474445023e-05 0.3929515779018402 -0.00010399070743005723 -0.00838270504027605 0.0 -0.0 0.2589264510387705 0.0884994975883161 0.47966925691809265 -1.9351580113383766 -0.7274151768695057 -1.599309025562224 -0.08407079165609348 -0.09875643084082948 0.09190785474563974 0.2925213241283157 -0.24948801503251583 -0.0005637787181856503 2.8443241348389225 2.8522577583782738 -7.4024322603057 -0.2973662655925233 0.27891689562830924 -0.009800581715516543 0.2590983670343505 0.08870527872263231 0.47947334304557565 -1.935939333886077 -0.7278179103914307 -1.5986319020352724 -0.0855691849141638 -0.10051318194582055 0.09362152835047272 0.2973186844367023 -0.2535849803790289 -0.0005736979058710953 1
122.089 0.8645064234733582 -1.9759685001769007 0.10426646867860967 -4.577428957025045 4.796645164489746 1.640701413154602 -1.4736956472916063e-05 0.3737732172012329 -0.00012434142990969121 -0.0078041693195700645 0.0 -0.0 0.0 0.0 0.0 0.0 0.0 0.0 0.8645193576812744 -1.975170751611227 0.10428363481630498 -4.577529092828268 4.79664945602417 1.6406477689743042 -1.4499541066470556e-05 0.3679673969745636 -0.00012022173905279487 -0.006868141703307629 0.0 -0.0 0.25825995964843723 0.0877080891283113 0.4804027214830557 -1.932153599495298 -0.7260205261076662 -1.6016667838384115 -0.07883750620272764 -0.0926031688327619 0.08575424557690871 0.2746429879811152 -0.23425811893417453 -0.0005281402235604063 3.0385024909339484 2.8628968114907942 -7.1176990412184535 -0.29011168097442724 0.2721406497564465 -0.018685337912991894 0.2584383805133065 0.08791353162496546 0.4802207738497143 -1.932856765464296 -0.7262764463516638 -1.601101664176897 -0.0800919719142968 -0.09407390887083458 0.08714683637046595 0.2783438924095677 -0.23741693083273183 -0.0005361832197874492 1
122.097 0.8645356297492981 -1.9728976688780726 0.10426551500429326 -4.577541252175802 4.796677112579346 1.6406551599502563 -1.3831071555614471e-05 0.36395177245140076 -6.337140075629577e-05 -0.005830311682075262 0.0 -0.0 0.0 0.0 0.0 0.0 0.0 0.0 0.8644534945487976 -1.9721509418883265 0.1043770948993128 -4.577528854409689 4.796640872955322 1.640684962272644 -2.7108526410302147e-05 0.36388540267944336 -5.8757610531756654e-05 -0.0057291737757623196 0.0 -0.0 0.25761467446259184 0.08692756274374415 0.48112231265512034 -1.929170604301221 -0.7245300154042208 -1.6040183715247867 -0.07807272399995026 -0.0916968624332862 0.084525351061816 0.2724328270628096 -0.23240896408272654 -0.0005355537267226773 2.9948221798780246 2.587457330261485 -6.630061505537693 -0.2822935325635569 0.263751508578578 -0.022614178927218252 0.25777604437692103 0.08714166419570421 0.48093154887087247 -1.9299835110601058 -0.7249990098580962 -1.6033590152509574 -0.07804181872016017 -0.09167127564486478 0.08462620110373917 0.2724221848387816 -0.23236075827092173 -0.0005223377911739061 1
122.10499999999999 0.8645031452178955 -1.9699269733824671 0.10427695909609014 -4.577585121194357 4.796661376953125 1.6406432390213013 -5.20165849593468e-05 0.36670389771461487 -2.680244688235689e-05 -0.004724954720586538 0.0 -0.0 0.0 0.0 0.0 0.0 0.0 0.0 0.8644869327545166 -1.9692260227599085 0.10431415239442998 -4.577569147149557 4.796637058258057 1.6406967639923096 -0.0001225061423610896 0.3673202097415924 -4.511593215283938e-05 -0.004239343106746674 0.0 -0.0 0.2569879629867966 0.08620414270981686 0.48179214750452204 -1.9264051346324074 -0.7232795842867237 -1.6061059221943819 -0.0788593289418544 -0.09266110238147285 0.08508881966970329 0.2761938754825633 -0.23560912306791704 -0.0006363540548520126 3.132258761039562 2.4078274890001117 -6.744017102583246 -0.2812880316731622 0.25947550820345017 -0.037601086656418155 0.25713958676968834 0.08638465597307453 0.48162274240939107 -1.9271393272524058 -0.7236732644263646 -1.6055801587185379 -0.07872425955616455 -0.09248019353818862 0.08499670048615862 0.2753745322964565 -0.23489994041327902 -0.0005648658162005295 1
122.113 0.8645313382148743 -1.9670607052245082 0.10436374345888311 -4.577620883981222 4.796645164489746 1.6406179666519165 -0.00016093628073576838 0.3697020709514618 -4.770354280481115e-05 -0.0034213848412036896 0.0 -0.0 0.0 0.0 0.0 0.0 0.0 0.0 0.8645355701446533 -1.9662968120970667 0.10432321230043584 -4.577568908730978 4.796625137329102 1.6406716108322144 -0.00015802212874405086 0.3669421374797821 -4.647346577257849e-05 -0.0034431752283126116 0.0 -0.0 0.2563549839257553 0.08547973603686408 0.4824731684273231 -1.9235066690930256 -0.7220340596661414 -1.6082841935327554 -0.07888173887293083 -0.09270849919102643 0.08470539257372685 0.2765204565841032 -0.2358684040096816 -0.0006716204002729732 3.218142731400957 2.4311448818118615 -6.9877583255497395 -0.2896145541457086 0.2732022246885755 -0.024611073419127796 0.25651427475516775 0.08566250243148311 0.482297757969744 -1.9242727450502228 -0.7224225390247726 -1.6077527009915178 -0.07943009485442164 -0.09335320855510794 0.08543615510945107 0.2786347744772033 -0.2376741704663288 -0.0006784236456455828 1
122.121 0.8644988536834717 -1.9641906223692835 0.1042707602130335 -4.577568908730978 4.796661376953125 1.6406223773956299 -0.00014826578262727708 0.35356101393699646 -8.551872451789677e-05 -0.002013100078329444 0.0 -0.0 0.0 0.0 0.0 0.0 0.0 0.0 0.8644581437110901 -1.963482519189352 0.10427886644472295 -4.577625175515646 4.796628952026367 1.6406477689743042 -0.00014527425810229033 0.3473089933395386 -8.41974833747372e-05 -0.0016872104024514556 0.0 -0.0 0.2557572151144074 0.08474963600889124 0.48311317426438766 -1.9209176509210815 -0.7207693533884647 -1.610376567335183 -0.07470923352639501 -0.08778920119075329 0.07996452888429702 0.2628692077737983 -0.2242671952927295 -0.0006319212472706107 3.06441908155358 2.6586755808960283 -7.273203631268425 -0.2931188100675452 0.2759600850212337 -0.02115807043330658 0.2559121027089565 0.08494140546579326 0.4829530405124413 -1.9215522662019178 -0.7211058994085886 -1.609897493335802 -0.07603256938323885 -0.08935183887499515 0.08146640954641003 0.26738653998386114 -0.2281008968733762 -0.0006435529459825288 1
122.12899999999999 0.8645193576812744 -1.961419244805807 0.10426551500429326 -4.5776008568205775 4.79667329788208 1.6406551599502563 -0.00013698269322048873 0.33724942803382874 -7.871945854276419e-05 -0.001110454322770238 0.0 -0.0 0.0 0.0 0.0 0.0 0.0 0.0 0.8644945621490479 -1.960790296594137 0.10436851183046514 -4.577612777749533 4.796617031097412 1.6406716108322144 -0.00013442525232676417 0.33749064803123474 -5.9061116189695895e-05 -0.0008607953204773366 0.0 -0.0 0.2551690347451575 0.08407335128850126 0.48374613554474544 -1.9181673763032396 -0.7195244438825948 -1.6124170508330704 -0.07268531988954177 -0.08541423991835286 0.07746287898980507 0.25605378584243227 -0.2184402369777438 -0.0006076989793547365 2.975995358414526 2.7265202735095855 -6.923129665770453 -0.29054193303978293 0.27280148431474605 -0.02071299942150322 0.25531377264662797 0.08424427811759592 0.4835884694802845 -1.91888707207565 -0.7198484627025238 -1.6119152499456442 -0.0726110935905972 -0.08533233066883256 0.07745983824561158 0.255671357004099 -0.21810188933004387 -0.0006097594015965524 1
122.137 0.8644663691520691 -1.9587866268553675 0.1043313185321253 -4.577584882775778 4.796640872955322 1.6406744718551636 -0.00012729545414913446 0.33225923776626587 2.558367896199343e-06 -0.0005165459006093442 0.0 -0.0 0.0 0.0 0.0 0.0 0.0 0.0 0.8645074367523193 -1.9580608807005824 0.10434276262392217 -4.577580829659933 4.796665191650391 1.6406179666519165 -0.0001250840723514557 0.33480650186538696 1.670431259981342e-07 -0.0005280690384097397 0.0 -0.0 0.254586807791623 0.08338728477317024 0.48437100274329303 -1.915520884505483 -0.7183265380650594 -1.6145139369817334 -0.07222618963104374 -0.08487307923798193 0.07657811234917777 0.2543120800244593 -0.21695006386165158 -0.0005948880053006266 2.9982785054462027 2.4646618591937446 -6.656014348382881 -0.28228090644125825 0.2622779247185354 -0.03129597933733622 0.25474567883606836 0.0835628321068719 0.4842029270504284 -1.916258232723703 -0.718582518928813 -1.6139355105847586 -0.07164322584368943 -0.08418248376602482 0.0760769789789292 0.25237590576615904 -0.2153162753098241 -0.0005935362264869996 1
122.145 0.8644826412200928 -1.9561392269530238 0.10434276262392217 -4.577616830865377 4.796608924865723 1.6406804323196411 -0.0002257153973914683 0.33736085891723633 4.6497063144190776e-11 -0.00048560567665845156 0.0 -0.0 0.0 0.0 0.0 0.0 0.0 0.0 0.8645161986351013 -1.9554058514037074 0.10434276262392217 -4.577604909936422 4.796645164489746 1.6406551599502563 -0.0002149447100237012 0.3378540575504303 3.0359256775192023e-12 -0.0005100531852804124 0.0 -0.0 0.25401016616071526 0.08271594655228823 0.4849755204605771 -1.9129401300838123 -0.717122335601995 -1.6164284491815837 -0.07300695781784754 -0.08582205645173611 0.0769773737967354 0.2566460379688815 -0.21893735701316253 -0.00068902967677477 2.98624008706087 2.556937184296567 -6.854438657202946 -0.29414654054440137 0.27414660561738546 -0.020892701640646855 0.25416826067401205 0.08289495625549942 0.48480728144287755 -1.9136672884771346 -0.7174283979600462 -1.6158538136034932 -0.07286388347547423 -0.08565234175807315 0.07694902835448511 0.25628202450984267 -0.21864180415801654 -0.0006991204541382489 1
122.15299999999999 0.8644912242889404 -1.953531404534811 0.10436374345888311 -4.577612777749533 4.796657562255859 1.6406714916229248 -0.00022559959325008094 0.3385104238986969 8.450610545530923e-16 -0.00040728869498707354 0.0 -0.0 0.0 0.0 0.0 0.0 0.0 0.0 0.8644706606864929 -1.952862402001852 0.104286019002096 -4.577580829659933 4.796661376953125 1.6406968832015991 -0.0002165556070394814 0.3362743556499481 5.517645079436172e-17 -0.00037333311047405005 0.0 -0.0 0.25347044135836205 0.08206385810533137 0.4855484416916781 -1.9105336438092289 -0.71589612428002 -1.618306484811638 -0.07278616526866785 -0.0855543365819388 0.07634537592783412 0.25553798511326914 -0.2180128763822681 -0.0006884818343967398 3.2768211109650136 2.6362259045863223 -6.941734519490141 -0.29169115275041696 0.27068255367207805 -0.02509112994524007 0.2536058303806553 0.08223054465420829 0.48540448235313993 -1.9111243321895603 -0.7162238389658078 -1.6178440707894508 -0.07323803387554904 -0.08609202752783948 0.07692229530278585 0.2572178398974033 -0.2194367545783964 -0.0007006500447303393 1
122.161 0.8645236492156982 -1.9509574375548304 0.10426980653871709 -4.577624937097067 4.796600818634033 1.6406641006469727 -0.0001932992454385385 0.32380831241607666 1.535856777924037e-20 -0.0002987921761814505 0.0 -0.0 0.0 0.0 0.0 0.0 0.0 0.0 0.864523708820343 -1.9503518543639125 0.10427457491029912 -4.5776008568205775 4.796628952026367 1.640684962272644 -0.00015583007188979536 0.31869223713874817 1.0028048294783519e-21 -0.00028015911811962724 0.0 -0.0 0.2529197394544366 0.08144021854195495 0.48611442546311523 -1.9080581928113565 -0.714858271699491 -1.620096076619638 -0.06909302817066275 -0.08120368184436734 0.07209189187767091 0.242243987141106 -0.20664922790794607 -0.0006031133076434386 3.1079058629217715 2.837398461824996 -7.387345540714084 -0.2993998238941395 0.28307693049225996 -0.016916871000637164 0.2530479950454664 0.08159482701458629 0.48597476511048426 -1.9086583122091465 -0.7151864246877307 -1.619618847839566 -0.0701708143648761 -0.0824828424086973 0.07331315822679771 0.24612208028739635 -0.20995743900738265 -0.0006477568450143653 1
122.169 0.8645442128181458 -1.9483949146666468 0.10435325304140264 -4.577604433099264 4.7966814041137695 1.6406432390213013 -0.0001409069518558681 0.29864302277565 2.7913443770412235e-25 -0.000282143650110811 0.0 -0.0 0.0 0.0 0.0 0.0 0.0 0.0 0.8644902110099792 -1.9478632412352503 0.10434419313539678 -4.577637573281759 4.79662561416626 1.6406923532485962 -0.00013662842684425414 0.29281550645828247 1.8225484901628578e-26 -0.000268907577265054 0.0 -0.0 0.2523750823781781 0.08078932213945428 0.48668303630921445 -1.905616036068342 -0.7136862678293031 -1.6219753228392357 -0.06359504818563487 -0.07473360674507305 0.06599016822916094 0.22255951759057424 -0.1898699711307384 -0.0005475856692950611 3.069150269015509 2.948972322966684 -7.3823591954117544 -0.29459906943832875 0.2784703577288457 -0.025410664049033835 0.25249120373695144 0.0809365566615548 0.4865670243271267 -1.9060913538951998 -0.7139655095435815 -1.6216498815750389 -0.06483439918937949 -0.07619912250968752 0.06735658223385882 0.22699330049966515 -0.193631302498907 -0.00056003964915949 1
122.17699999999999 0.8645368218421936 -1.946005483666891 0.10432655016054326 -4.577604433099264 4.796685218811035 1.6406879425048828 -0.0001502669183537364 0.28243929147720337 5.073131186962413e-30 -0.0002340767387067899 0.0 -0.0 0.0 0.0 0.0 0.0 0.0 0.0 0.8644793033599854 -1.9454266033568324 0.10434276262392217 -4.577592512170309 4.796661376953125 1.6407012939453125 -0.00016979279462248087 0.2817913293838501 3.3123921471425606e-31 -0.00022434665879700333 0.0 -0.0 0.25185161615014634 0.08016571008001791 0.4872347550306923 -1.9032228783051586 -0.7125228484993362 -1.623834348334715 -0.0612975057414876 -0.07204438410193992 0.06327937805780275 0.2142045213406362 -0.1827463633632106 -0.0005652926047221474 3.286835832527544 2.658056736314906 -6.66329194915882 -0.2856481454695586 0.2670113348551324 -0.033915037397410454 0.2519748130447246 0.08032696797922914 0.487101559097387 -1.903793101879321 -0.712842631138271 -1.6233760966039887 -0.06141199250547402 -0.07218069703720549 0.0634791355693959 0.21470061907770868 -0.18314822206025805 -0.0005466721401932211 1
122.18499999999999 0.8644495010375977 -1.9436332188048304 0.10434610048402959 -4.577584882775778 4.796628952026367 1.6406716108322144 -0.00024148936790879816 0.2839930057525635 9.220165002089163e-35 -0.0001994714402826503 0.0 -0.0 0.0 0.0 0.0 0.0 0.0 0.0 0.8644750118255615 -1.9430653057494105 0.10439998308290654 -4.577633520165914 4.7966814041137695 1.6406551599502563 -0.0003007079067174345 0.28388160467147827 6.020108781335514e-36 -0.00019236296066083014 0.0 -0.0 0.2513325805236024 0.07955184430274093 0.4877687021277556 -1.9009111478863574 -0.71147988609874 -1.625632795878068 -0.061838778505362735 -0.07272363963878516 0.06352335459049484 0.21581817609521511 -0.1841248021970471 -0.0006991562985513516 2.9976330283936248 2.4745756698788015 -6.470735162136107 -0.2844159036626107 0.26809197223048287 -0.023405227762118334 0.25146180823036174 0.079702216719325 0.48763807629560246 -1.9014557916967827 -0.7117375514151438 -1.6251789796930443 -0.06184589167834221 -0.07270806859711183 0.06360505404537951 0.21589283543034596 -0.18419797960421475 -0.0006400910826622128 1
122.193 0.864496648311615 -1.9414106808104457 0.10434133211244756 -4.577616830865377 4.796657085418701 1.6407177448272705 -0.0017795652383938432 0.2891780436038971 1.6757203477874033e-39 -0.00017378332267981023 0.0 -0.0 0.0 0.0 0.0 0.0 0.0 0.0 0.864454984664917 -1.940812727014059 0.10436660448183233 -4.577596803704733 4.796669006347656 1.6407012939453125 -0.0017987752798944712 0.2888467311859131 1.094119827960174e-40 -0.00016836338909342885 0.0 -0.0 0.2508468827372502 0.07897634253553541 0.48827044143541526 -1.8987124384230707 -0.7104042337124844 -1.627269805209159 -0.06289665984353401 -0.0744766700307975 0.06441981123679155 0.21960986253718254 -0.18736740555263812 -0.002204204975398048 3.167871737482731 2.4227616428045122 -6.664701023463185 -0.2885936432730969 0.27102951857036406 -0.03621290992294683 0.2509737948306381 0.07914142426299801 0.488131990435331 -1.8993082591882797 -0.7107209301474073 -1.6267523571319493 -0.06294138863981193 -0.07452959766680238 0.06455175209584796 0.21986561050907852 -0.1875697517677971 -0.0021854577176602867 1
122.201 0.8644837737083435 -1.939160486260885 0.10433847108949834 -4.577541013757223 4.796616554260254 1.6406893730163574 -0.0012030275538563728 0.28135251998901367 3.0828566215145976e-44 -0.0001539585500722751 0.0 -0.0 0.0 0.0 0.0 0.0 0.0 0.0 0.8645204901695251 -1.9385744533934535 0.10435611406435186 -4.577608486215109 4.796620845794678 1.6406879425048828 -0.0009836740791797638 0.274356871843338 1.401298464324817e-45 -0.00014968967298045754 0.0 -0.0 0.25034988969915767 0.07842197853717246 0.48876650588106474 -1.8964698660940549 -0.7095062843367872 -1.6288337702431348 -0.05988255384438698 -0.07066477066035624 0.060982290807249075 0.20861265169516172 -0.17796121100264103 -0.001368769569757683 3.3363462915792006 2.6606672137676766 -7.18069936658529 -0.2932734712940075 0.2749871308409982 -0.02897495761593756 0.2504860137432243 0.07856983365167497 0.4886391661989094 -1.8970157633862774 -0.7097197005910816 -1.6284584101814081 -0.06137341616757555 -0.07248598238728911 0.06259515666533948 0.21392488686023794 -0.1825064887243801 -0.00159794246901595 1
122.20899999999999 0.8645249009132385 -1.936986585656637 0.10428125063051397 -4.5776008568205775 4.796657085418701 1.6406716108322144 -0.0004350137314759195 0.25637316703796387 0.0 -0.0001381945621687919 0.0 -0.0 0.0 0.0 0.0 0.0 0.0 0.0 0.8645117878913879 -1.936498304406637 0.10430938402284795 -4.577633043328756 4.796689510345459 1.6407088041305542 -0.0003793267533183098 0.2512858808040619 0.0 -0.0001347453217022121 0.0 -0.0 0.24990279137270288 0.07788429764512828 0.4892191764697705 -1.8945573016778343 -0.7085217823884385 -1.6303470949913843 -0.05496248395667044 -0.06467744194277002 0.055678979774305366 0.1910705381330417 -0.16299944297852145 -0.0007320393307614512 2.875338702761954 2.930247592625029 -7.235319379212454 -0.2981919049792706 0.28705783414506275 -0.012236383911046528 0.2500105194489446 0.07801987228952319 0.4891096926948528 -1.8950000991422868 -0.7088143934911734 -1.629983722796666 -0.05605232261365959 -0.06597835890874892 0.05685004868438646 0.19494039751965853 -0.16629634262228987 -0.0007948668818506298 1
122.217 0.8645367622375488 -1.9348913631834925 0.10434610048402959 -4.577608963052267 4.796661376953125 1.640699863433838 -0.00029120632098056376 0.23726888000965118 0.0 -0.00012535946734715253 0.0 -0.0 0.0 0.0 0.0 0.0 0.0 0.0 0.8645117878913879 -1.9344731769957484 0.10432225862611944 -4.577564617196554 4.79664945602417 1.6406686305999756 -8.309346594614908e-05 0.23349244892597198 0.0 -0.00012251474254298955 0.0 -0.0 0.249460165357532 0.07737006662914893 0.48967446287335076 -1.89246598848459 -0.7076405988687706 -1.6318886188058686 -0.05116062012504459 -0.06011082814478737 0.05157814727003517 0.17754296513393686 -0.15145928405887388 -0.00041083110882645394 3.331026816589621 2.6390728636348966 -6.646575161368015 -0.28416426980093273 0.2666664619537972 -0.032445701661862704 0.2495461405526188 0.07747786815606537 0.4895816892557459 -1.8928892148333003 -0.707818116504837 -1.6315407643497164 -0.05195625847214841 -0.06111929388446423 0.052444163013483425 0.18041767650763216 -0.1539038689207737 -0.0006242443999182289 1
122.225 0.8644955158233643 -1.9329997501769007 0.10436994234193975 -4.577552934686178 4.796677112579346 1.6406879425048828 -6.38517303741537e-05 0.23177209496498108 0.0 -0.00011470630124676973 0.0 -0.0 0.0 0.0 0.0 0.0 0.0 0.0 0.8644580841064453 -1.9325486622252406 0.1044238249408167 -4.577584882775778 4.796701908111572 1.6406760215759277 -0.00010019122419180349 0.23265281319618225 0.0 -0.00011232004908379167 0.0 -0.0 0.2490372148523302 0.07684765234933695 0.490111030194944 -1.8905686835399755 -0.7066425670382747 -1.6334228702639304 -0.051044036815619816 -0.059972635143156504 0.05123884831348431 0.17690381469299013 -0.1509304974049041 -0.00042675464945924447 2.8270454783800205 2.4940540478620674 -6.512055481713341 -0.28680497384222 0.2674723897069963 -0.02020975805719825 0.24913753380792597 0.07698168864911806 0.490006972649865 -1.8909931451052355 -0.70689339656443 -1.6330289891888394 -0.05083581146604341 -0.05972045353090051 0.051082174004784514 0.17623763300694234 -0.15035071331669114 -0.0003891776472544838 1
122.23299999999999 0.8644592761993408 -1.931188245812887 0.10436994234193975 -4.577588459054464 4.79664945602417 1.6406760215759277 -9.947107901098207e-05 0.233514666557312 0.0 -0.0001057221888913773 0.0 -0.0 0.0 0.0 0.0 0.0 0.0 0.0 0.864454984664917 -1.93070711712026 0.10437423387636358 -4.577588935891622 4.796669006347656 1.6406792402267456 -0.00013986935664433986 0.23541229963302612 0.0 -0.00010369183291913942 0.0 -0.0 0.2486343472782398 0.0763782300015309 0.490509133566373 -1.8887970522601067 -0.7058514770964386 -1.6347077108303718 -0.051707115774833064 -0.06076376548479591 0.051701850672871176 0.17900914397188644 -0.15272772653439867 -0.0004703108660768424 3.144279329360338 2.2470630106445295 -6.248935460182748 -0.2797169325443594 0.25802782559071896 -0.03873820937148813 0.2487387674080744 0.07650505975681406 0.49040285925579014 -1.8892572444941909 -0.7060919080613652 -1.634338722623782 -0.05127707148843953 -0.060245787865125515 0.05132307875195102 0.17756464733250596 -0.15149397433650177 -0.0004272475546650628 1
122.241 0.8644376397132874 -1.9294115505614222 0.10432941118349248 -4.5775610409178675 4.796652793884277 1.6406804323196411 -0.00012219372729305178 0.22851653397083282 0.0 -9.804325236473233e-05 0.0 -0.0 0.0 0.0 0.0 0.0 0.0 0.0 0.8644581437110901 -1.928932329217428 0.10433417955507451 -4.577592989007467 4.796640872955322 1.640673041343689 -0.00011700198228936642 0.22313380241394043 0.0 -9.629477426642552e-05 0.0 -0.0 0.24824483733040967 0.07592593136451709 0.4908927590057256 -1.8870792903503282 -0.7050978149368728 -1.6359545340377122 -0.049066834639836465 -0.05765556521223965 0.04887207407407447 0.16967445505934212 -0.14476260337808192 -0.0004302089933979683 3.031101579909883 2.599261299503827 -6.79791641385865 -0.28192296662119626 0.2660654402177525 -0.03035170595978495 0.24835486472920054 0.07604650498291686 0.49078969227651287 -1.8875439028389958 -0.7052690889263867 -1.6356408905617663 -0.05023614490497782 -0.05902805973660714 0.05008901603226007 0.1737649645805539 -0.14825869766108438 -0.00044295683621813726 1
122.249 0.8644988536834717 -1.927742143670553 0.10433084169496709 -4.5775610409178675 4.796665191650391 1.6406463384628296 -0.00011194766557309777 0.20682498812675476 0.0 -9.140449401456863e-05 0.0 -0.0 0.0 0.0 0.0 0.0 0.0 0.0 0.864532470703125 -1.9273449383177699 0.1043008009540003 -4.577588459054464 4.796608924865723 1.6407088041305542 -5.324236553860828e-05 0.19995038211345673 0.0 -8.988288027467206e-05 0.0 -0.0 0.2478905822410099 0.07553950701297091 0.49123596482120196 -1.8854841358082577 -0.70443987071893 -1.637001878962692 -0.04401379748622638 -0.05170800047644652 0.04368717410866238 0.1520523341385564 -0.1297082431219486 -0.00033390490892332874 2.8878484768239785 2.6459217394682764 -7.116297139962395 -0.2929398184159873 0.2771976935689986 -0.021220732505875518 0.24798371290727725 0.07562956793834162 0.4911553989127549 -1.885870975530704 -0.7045908763814968 -1.6368527514081725 -0.045513612545313956 -0.05348561882025363 0.04521697947771419 0.15727680969598995 -0.13417412468200984 -0.0004022608233104425 1
122.25699999999999 0.8644826412200928 -1.9261928997435511 0.10433847108949834 -4.577577014962667 4.796637058258057 1.6407012939453125 -1.539529198568701e-10 0.18326860666275024 0.0 -8.560778223909438e-05 0.0 -0.0 0.0 0.0 0.0 0.0 0.0 0.0 0.8644955158233643 -1.9258610210814417 0.10437995592226201 -4.577564855615133 4.796677112579346 1.640638828277588 -1.5020582434105423e-12 0.17894253134727478 0.0 -8.427169086644426e-05 0.0 -0.0 0.24756672536429852 0.0751370410856756 0.4915723520487874 -1.8839894980169867 -0.7037149703501867 -1.6382725156858984 -0.0394341801011167 -0.046307995662411755 0.039005366461329426 0.13606971117863573 -0.11608293537384959 -0.00025117197153844064 3.0182369738307697 2.639913105376531 -6.625126820632152 -0.27969075668476245 0.26245886910936544 -0.035110096364990455 0.24764046596261066 0.07522501161180481 0.4914934471858913 -1.8843546556411446 -0.7038421068617982 -1.6379328733808407 -0.040378691984672206 -0.047415976650829646 0.03996977724318204 0.13935830368586413 -0.11889158225950196 -0.0002572449337237178 1
122.265 0.8645074367523193 -1.924784322778219 0.10437900224794561 -4.577624937097067 4.796620845794678 1.6407333612442017 -1.3950284191445289e-18 0.16949619352817535 0.0 -8.050251199165359e-05 0.0 -0.0 0.0 0.0 0.0 0.0 0.0 0.0 0.8644955158233643 -1.9244724712767542 0.10434133211244756 -4.577581068078512 4.796608924865723 1.6406923532485962 -1.3610744838438626e-20 0.16579820215702057 0.0 -7.931989239295945e-05 0.0 -0.0 0.24725802201789188 0.07478419948779175 0.4918682525359635 -1.8826401077310706 -0.7031039734102611 -1.6391632491343353 -0.03656951353647092 -0.042943748555017765 0.036062369991015523 0.12607369122211734 -0.10755518749984444 -0.0002327208879810174 3.0450433170739086 2.3530446153252713 -6.337164511274607 -0.27415917700091896 0.26046077870412526 -0.028358816571898655 0.24732122891715969 0.07486073446572988 0.4918018478912757 -1.882954819407032 -0.7032059247140061 -1.6389070881423748 -0.03737728544286005 -0.04389343069412838 0.036883301417406304 0.12888741585311086 -0.10995296266565296 -0.0002379119431073688 1
122.273 0.8645031452178955 -1.923504491845602 0.10437423387636358 -4.577581068078512 4.796685695648193 1.6406879425048828 -1.2640906671603732e-26 0.15984413027763367 0.0 -7.597191142849624e-05 0.0 -0.0 0.0 0.0 0.0 0.0 0.0 0.0 0.8644988536834717 -1.9232694111266078 0.10438329378236944 -4.577545066873068 4.7966814041137695 1.6406879425048828 -1.233323527038674e-28 0.16096501052379608 0.0 -7.491785800084472e-05 0.0 -0.0 0.24699621575166916 0.07446758040459354 0.4921382738732382 -1.881425353126335 -0.7024789018984349 -1.640146996083473 -0.03553148079439853 -0.04172486213999646 0.034945076376650716 0.1224004440810064 -0.10442079457230548 -0.00022593766403862137 2.7436354285723654 2.2737592987690167 -6.237908984810209 -0.282438071168983 0.2634835192758174 -0.028775207916960446 0.2470464764012157 0.07452746821635821 0.4920830985829913 -1.8817004935521127 -0.7026061627183887 -1.6399434576261176 -0.03527824097509913 -0.04142787888995584 0.034714011309256755 0.12154735836803626 -0.10369211129067789 -0.0002243635084983871 1
122.28099999999999 0.8645312786102295 -1.9223963222899378 0.10437423387636358 -4.577533145944113 4.796700954437256 1.6406804323196411 -1.1454426770313975e-34 0.1497853696346283 0.0 -6.00056882831268e-05 0.0 -0.0 0.0 0.0 0.0 0.0 0.0 0.0 0.8645389080047607 -1.9221521816649378 0.10435468355287725 -4.5775655708708705 4.796677112579346 1.640650749206543 -1.117563282219023e-36 0.14322373270988464 0.0 -4.944962347508408e-05 0.0 -0.0 0.24674709386179206 0.07418905667804074 0.49237519003887253 -1.880345371224068 -0.7020704708418606 -1.6409189995333284 -0.03163478764615421 -0.037151811767018504 0.031040579231337313 0.10892645753245414 -0.09291857657900311 -0.00020104496228053777 3.047763264469956 2.2571599402755806 -6.343500346472853 -0.27940704447687903 0.26113303014105754 -0.03369830224738817 0.2468037039263854 0.07424958329453475 0.4923275067362889 -1.8805558857573166 -0.7021029013993485 -1.6407823496952139 -0.03308026213974202 -0.038848803525550764 0.03247455576441074 0.11390977428654303 -0.09717100318364578 -0.0002102508378943065 1
122.289 0.8645389080047607 -1.9214493236937464 0.10429841676820928 -4.577496906320089 4.796717643737793 1.640634298324585 0.0009708257857710123 0.1180010512471199 0.0 9.214198144036345e-06 0.0 -0.0 0.0 0.0 0.0 0.0 0.0 0.0 0.8644817471504211 -1.9211918316283167 0.10430938402284795 -4.577512880364889 4.796640872955322 1.6406805515289307 0.001011886983178556 0.10838780552148819 0.0 3.008607563970145e-05 0.0 -0.0 0.2465433617590499 0.07393585628687188 0.4925814600991837 -1.8794099890539815 -0.7015798085108824 -1.6416141299986557 -0.024027134706413638 -0.027876756499501783 0.023461809655159246 0.08247973729394038 -0.07036695918814828 0.0008597022737602945 2.9400853605137804 2.6262740982305637 -6.74606815272311 -0.2895591266455952 0.2736032262576015 -0.02458913246902079 0.24660275347272112 0.07401382704361067 0.49252562578428183 -1.8796670767649086 -0.7017348823353857 -1.6414776641928284 -0.026143997624881718 -0.030379603595392237 0.025551398941053505 0.08978164457101247 -0.0765875419780547 0.0008051571333330715 1
122.297 0.864588737487793 -1.92067350963735 0.10435039201845342 -4.577460666696066 4.796633243560791 1.6406595706939697 0.0015680250944569707 0.08015265315771103 0.0 5.565749597735703e-05 0.0 -0.0 0.0 0.0 0.0 0.0 0.0 0.0 0.864546537399292 -1.9205252132811488 0.10441810289491826 -4.577497144738668 4.7966814041137695 1.6406968832015991 0.0013459204928949475 0.07235383987426758 0.0 0.0003129786055069417 0.0 -0.0 0.24638693131443484 0.07376790541572645 0.4927413633689965 -1.8786175626136923 -0.7012283696962592 -1.6421665660229563 -0.016076772785690474 -0.018432723955048635 0.015668462761457728 0.05528417216901081 -0.047160535637319236 0.0012441577881758938 2.9328290756919957 2.4188245227001834 -6.322481309796484 -0.28327818349900874 0.26519592775681594 -0.030397959470287853 0.2464206608055703 0.07382840979952983 0.49270327380442835 -1.8787342171842487 -0.7014191271641271 -1.641999719830164 -0.01783053881874687 -0.020419831947726095 0.017338572123242517 0.06102457089999782 -0.05205153319519216 0.0014554650086682768 1
122.30499999999999 0.864600658416748 -1.920096059838766 0.1043623129474085 -4.577505012551779 4.7966814041137695 1.6406595706939697 0.0007559152436442673 0.0546291284263134 0.0 0.001017603906802833 0.0 -0.0 0.0 0.0 0.0 0.0 0.0 0.0 0.8645097017288208 -1.9199849567809046 0.10432225862611944 -4.577465196649069 4.796701908111572 1.6407058238983154 0.0006132602575235069 0.05024037882685661 0.0 0.0011806623078882694 0.0 -0.0 0.24628041512658055 0.07362773039941994 0.49284806451007507 -1.8781863189141 -0.7009582388471192 -1.6425443004481817 -0.011083919239192028 -0.012812891772614254 0.01094971049647397 0.03911701595088703 -0.03337628761078356 0.000542030769330537 2.6569991922775418 2.196195697456321 -5.713165121293758 -0.26818985117095295 0.251230090092784 -0.03201458021152437 0.24629160585756446 0.07367402659176593 0.4928260958769216 -1.8782213089089905 -0.7011469668220631 -1.6424215870965309 -0.012073121400783976 -0.013929496445695211 0.011886133258150614 0.04233550796660604 -0.03611449542225298 0.000678620630615869 1
122.31299999999999 0.8645707964897156 -1.919737001458639 0.10435039201845342 -4.577473302880758 4.7966694831848145 1.6407012939453125 0.0005219856975600123 0.038488470017910004 0.0 0.0013175745261833072 0.0 -0.0 0.0 0.0 0.0 0.0 0.0 0.0 0.8645751476287842 -1.9197389088072718 0.10434276262392217 -4.57741703609609 4.796644687652588 1.6406596899032593 0.0004759638977702707 0.033282920718193054 0.0 0.0012724747648462653 0.0 -0.0 0.24621898382887056 0.07358537735339181 0.4929078033349202 -1.8777960970110792 -0.7009597621613894 -1.6427208243025813 -0.007318382233468368 -0.008437882322223028 0.007291210257116459 0.02628727213476674 -0.022428816148186946 0.00042848569097911766 2.7587347632267685 2.079333843801588 -5.8903429962061145 -0.2691971296074968 0.2502653280892466 -0.03145799465107617 0.24621644976619445 0.07357748982535184 0.49290465327190935 -1.8778629828727083 -0.7009155462211725 -1.6426809742428272 -0.008470369582379563 -0.009775504756337858 0.008418744915698948 0.030281842035993146 -0.025836552848158407 0.00046717261896200434 1
122.321 0.8645463585853577 -1.9195863209166468 0.10435039201845342 -4.577413221398825 4.796657085418701 1.6406269073486328 0.0004817403678316623 0.014986267313361168 0.0 0.0011600665748119354 0.0 -0.0 0.0 0.0 0.0 0.0 0.0 0.0 0.8646194934844971 -1.9196506939330042 0.10429364839662725 -4.577372928658956 4.79667329788208 1.6406641006469727 0.0003590042470023036 0.008297671563923359 0.0 0.001297934097237885 0.0 -0.0 0.24620433270943876 0.07357889710113245 0.49292397873191196 -1.8777040640943023 -0.7009339393411441 -1.642771146909004 -0.0017816543161799647 -0.0019742594247870076 0.0018975884894762243 0.0072976055850481 -0.006230592722685233 0.00034658815820806736 2.6456998973141697 2.1160815781943287 -6.218445105397492 -0.27790823164563805 0.25952217102714037 -0.030913382719054104 0.24618782801443642 0.07353745177092277 0.4929420799064267 -1.877659211654681 -0.7008868771387329 -1.6428867309318889 -0.0032790974663057387 -0.003691660164876886 0.0033301270689835784 0.012281284105853952 -0.010482052614508946 0.00046001476501096285 1
122.329 0.8646019697189331 -1.9196669063963832 0.10426551500429326 -4.577349086801046 4.79667329788208 1.6406804323196411 0.0021169923711568117 -0.013102972880005836 0.0 0.0029880942311137915 0.0 -0.0 0.0 0.0 0.0 0.0 0.0 0.0 0.8646645545959473 -1.9197598896422328 0.10426170030702764 -4.577349086801046 4.796628952026367 1.6407370567321777 0.0028519732877612114 -0.017248066142201424 0.0 0.0040045627392828465 0.0 -0.0 0.2462261024228229 0.07362573063354802 0.49289808436543203 -1.8777667393952777 -0.7009803832596774 -1.6425819153081052 0.003851908540985839 0.005470647519273148 -0.0033984427110894193 -0.010086514201697988 0.00858214239172632 0.0028738245973352946 2.781794243792614 2.2308554882824305 -6.454407586870755 -0.2814974262204497 0.2626892604970458 -0.02595397704234039 0.24621271967734043 0.07358292842169563 0.49291870311755515 -1.8777363854022537 -0.7009117951769295 -1.6427571190405197 0.0029269986529043253 0.004139803686438027 -0.002585680637069711 -0.00770310856114478 0.0065553944894083845 0.0021336231126733644 1
122.33699999999999 0.8646546006202698 -1.9199325046935023 0.10426646867860967 -4.577265640298361 4.79667329788208 1.6406760215759277 0.004258205182850361 -0.026295864954590797 -0.0001465741515858099 0.007904292084276676 0.0 -0.0 0.0 0.0 0.0 0.0 0.0 0.0 0.8646873831748962 -1.9200245342650355 0.10425883928407842 -4.577193161050314 4.796645164489746 1.640638828277588 0.005093677435070276 -0.02962697297334671 -0.0012006893521174788 0.009615861810743809 0.0 -0.0 0.2462938237619047 0.0737104779391538 0.49285326679761954 -1.8778660545150652 -0.7011417645386254 -1.6425594284949367 0.006856648031224855 0.009744299863900132 -0.00577627105719802 -0.016166233727405204 0.013733036026308314 0.00513264862505115 3.124178435335983 2.3403887833314627 -6.7603735062387305 -0.2907232293014658 0.2723019114704657 -0.028908812933418737 0.24627267015110282 0.07367079388157269 0.49286826982684373 -1.8778803991632076 -0.701042586076246 -1.6425958935357134 0.006000221423872445 0.00845958795498613 -0.005055595374221846 -0.0141248797068317 0.01200636174242092 0.0042908335065646 1
122.345 0.8647067546844482 -1.9202715359129847 0.10417348543276006 -4.57706942180776 4.796689510345459 1.6406641006469727 0.0054145497269928455 -0.04144398495554924 -0.00451374426484108 0.01343190111219883 0.0 -0.0 0.0 0.0 0.0 0.0 0.0 0.0 0.8647440075874329 -1.9203854999937953 0.10415441194643194 -4.577037235299581 4.796652793884277 1.6406879425048828 0.0053335921838879585 -0.046045251190662384 -0.005917257629334927 0.014443943277001381 0.0 -0.0 0.24638713883682045 0.07383786890775165 0.49277414704903766 -1.8781413842925894 -0.7012731705494555 -1.6422751121587968 0.011105622963177565 0.01481942103508246 -0.009561724552569458 -0.028597864681328633 0.024286023216931102 0.00540476008983136 3.168342315883968 2.5693443228340747 -7.204635068220439 -0.3000533315871774 0.2804075943641279 -0.02835543346225989 0.24636368723176066 0.07379273181665694 0.49279871478077664 -1.8780879713919763 -0.7011947520288122 -1.6424117679816435 0.009919660808154096 0.013451093716357256 -0.008461523568338694 -0.024792291096518114 0.021054149390023327 0.005476283792291645 1
122.353 0.8647509217262268 -1.9206892452635707 0.10413581529726201 -4.576809545556539 4.796660900115967 1.6407042741775513 0.004815778695046902 -0.0565502904355526 -0.010956577956676483 0.019194811582565308 0.0 -0.0 0.0 0.0 0.0 0.0 0.0 0.0 0.8647837042808533 -1.9208299122252406 0.10405379930605108 -4.576838155786032 4.7966814041137695 1.6406879425048828 0.004605836700648069 -0.05941718816757202 -0.012711537070572376 0.02172345295548439 0.0 -0.0 0.24650385386968865 0.07398413996983091 0.4926809429896219 -1.8784737047430882 -0.7014435276360085 -1.642020017475439 0.01505196942424307 0.01921738707398634 -0.012771314008149182 -0.03843832561393189 0.03260675877022401 0.00470880389845536 3.234049747387985 2.653598089362677 -6.884601113655817 -0.2944647302333626 0.2778482947001094 -0.030321052563965 0.24646970004379976 0.07393587492851948 0.4927245569682889 -1.8782358588847874 -0.701299874220638 -1.6421982235269408 0.014122005654024964 0.018193328988667712 -0.012120792779742243 -0.03683426824211128 0.031261830822093425 0.004911719691355265 1
122.36099999999999 0.8648313879966736 -1.9212213955321253 0.1039817968951624 -4.576629777947897 4.796689510345459 1.6406879425048828 0.004006896633654833 -0.06915032118558884 -0.014371349476277828 0.031689081341028214 0.0 -0.0 0.0 0.0 0.0 0.0 0.0 0.0 0.8648348450660706 -1.9213501415648402 0.10394555727113897 -4.576541563073629 4.796677112579346 1.6407088041305542 0.004542676731944084 -0.07094486057758331 -0.014955729246139526 0.0349566675722599 0.0 -0.0 0.24664089128565794 0.0741627122356708 0.4925781284483311 -1.8787652108979218 -0.7016193715216369 -1.6417323040365983 0.018577412605805983 0.023334755626694133 -0.014502736754715518 -0.0388874686979402 0.03291028133851894 0.004659908538079019 3.2194243413517176 2.750200347412283 -6.866456859575658 -0.29399069684339474 0.2758714616992947 -0.02783454452020949 0.24660543056916107 0.07411817002545497 0.4926036395745219 -1.8786986769066332 -0.7015940882872927 -1.6418115195008927 0.01797795164561642 0.02245287480191988 -0.014298226824794431 -0.03955427342993469 0.03349789032329842 0.004121996428472454 1
122.369 0.8648586869239807 -1.9217993221678675 0.10391027132143194 -4.5763777695097865 4.796652793884277 1.6407043933868408 0.007756202481687069 -0.0767296776175499 -0.013542968779802322 0.04235604405403137 0.0 -0.0 0.0 0.0 0.0 0.0 0.0 0.0 0.8648631572723389 -1.9218808613219203 0.10389930406679326 -4.576253553430075 4.796657085418701 1.6406314373016357 0.00961725227534771 -0.07789858430624008 -0.013041063211858273 0.04368746653199196 0.0 -0.0 0.24677586589675338 0.07433343530079059 0.4924804156896903 -1.8790134638382245 -0.701870843852271 -1.6415396296356515 0.02013109229531984 0.026850556892866525 -0.015063116717991052 -0.03609602796013935 0.030494279596576256 0.009734431475465705 3.2627310774147267 2.601637762242244 -7.0024418787105605 -0.29313846283369194 0.27672298772164056 -0.022127958636153675 0.24674944470064789 0.07430158153820925 0.4924894301313283 -1.8790492435120063 -0.7018075549924875 -1.641470825347818 0.01996619490112634 0.026035709567455375 -0.014981341432486653 -0.03659939322423702 0.030927955576210312 0.007873767213018133 1
122.377 0.8649306893348694 -1.922410627404684 0.10386068025697881 -4.576026102105612 4.796669006347656 1.6406596899032593 0.012013308703899384 -0.0798015147447586 -0.009837061166763306 0.04741569235920906 0.0 -0.0 0.0 0.0 0.0 0.0 0.0 0.0 0.8649709224700928 -1.9225050411620082 0.1037982145892542 -4.575961729089254 4.796669006347656 1.6406179666519165 0.011691313236951828 -0.08051209151744843 -0.00945290457457304 0.048101507127285004 0.0 -0.0 0.246931764060412 0.07455088820934687 0.49235534769156225 -1.8793765183020539 -0.7021640278499 -1.6411755468277605 0.02055627969462624 0.0280467833396024 -0.014817767200662113 -0.03200077056643822 0.026991921273948047 0.011800656023557204 3.1924366333073304 2.4203249231763477 -6.985195783164059 -0.30027240796598137 0.2812732314320393 -0.032312762502272184 0.2469054286693531 0.07450646317002899 0.4923788920000407 -1.8793140790228473 -0.7020443852896004 -1.6412415511832465 0.020363419677185596 0.027925714853426525 -0.014766056485481332 -0.03227239780427846 0.027227276759388033 0.012122984423051188 1
122.38499999999999 0.8650473952293396 -1.923079629937643 0.10373956361879522 -4.575634380380148 4.796669006347656 1.6406760215759277 0.011095316149294376 -0.08314826339483261 -0.00907814223319292 0.04885488003492355 0.0 -0.0 0.0 0.0 0.0 0.0 0.0 0.0 0.8650146126747131 -1.9232937298216761 0.10369950929750615 -4.575538774529928 4.796645164489746 1.640717625617981 0.0119862649589777 -0.08347438275814056 -0.009457000531256199 0.04954573139548302 0.0 -0.0 0.2471342897657715 0.07480672493445926 0.4922052959231032 -1.879795210097213 -0.7023257599352616 -1.6407337765692107 0.021266064752701697 0.028987113494702427 -0.01537404783180375 -0.03316399400737568 0.027973724412782494 0.01209915373950948 3.1548572061044875 2.8331642905598837 -7.086945650000978 -0.29844513810341333 0.28055096921975475 -0.023199286478646785 0.247077332455485 0.0747474166407999 0.492249395642618 -1.8796310654145651 -0.7023069844360792 -1.6408708214542131 0.021192637694530985 0.028602704047545575 -0.015300737035985394 -0.033151614451873174 0.02796645933324486 0.011207117727468166 1
122.393 0.8651273250579834 -1.9237476787962855 0.10362655321230108 -4.575202365914816 4.796701908111572 1.6406967639923096 0.011637723073363304 -0.0896650180220604 -0.015018044970929623 0.049531735479831696 0.0 -0.0 0.0 0.0 0.0 0.0 0.0 0.0 0.8651794791221619 -1.924002309838766 0.10357362428774053 -4.57511891941213 4.796685695648193 1.6407132148742676 0.011749672703444958 -0.09125109016895294 -0.016733502969145775 0.04945017397403717 0.0 -0.0 0.24731587357677748 0.0750695868553156 0.4920685844794669 -1.8801214245017754 -0.7026284005848663 -1.6403626565292044 0.02350315375223616 0.031560224412739105 -0.018070460634527906 -0.044716252604293474 0.03777311705136717 0.011892277667662654 3.295000260105632 2.9256186125942008 -6.86501909740663 -0.2937654638994299 0.2742548116680825 -0.03204070847667987 0.2472557013238998 0.07497905605217199 0.49212427131922637 -1.8799441581577025 -0.7024884344591046 -1.6405790712345072 0.023048678502600263 0.03098154347278277 -0.01747966465799769 -0.04213547206479086 0.035585710875895404 0.011773603343869777 1
122.401 0.8652485013008118 -1.9245058498778285 0.10349065462221319 -4.574815412560934 4.796632766723633 1.6406924724578857 0.01379220001399517 -0.09839989989995956 -0.02091972343623638 0.044818803668022156 0.0 -0.0 0.0 0.0 0.0 0.0 0.0 0.0 0.8652617335319519 -1.9246961079039515 0.10342485109438115 -4.574735542336935 4.796657085418701 1.6406716108322144 0.013636010698974133 -0.10026508569717407 -0.022091027349233627 0.04268086329102516 0.0 -0.0 0.24749522358777193 0.07531202829734496 0.49192878649250366 -1.8804985619407413 -0.7029714710111798 -1.6399848700876698 0.02530167451625734 0.034330150340704337 -0.021329606727272032 -0.06080863812977546 0.051483128118983215 0.013808987560270936 3.1902661952652718 2.852553377625031 -6.651461449895287 -0.28640922724330387 0.26998673223653413 -0.022164102430038857 0.24744303879604823 0.07524963748770054 0.4919725024533723 -1.88032004448334 -0.7028756345946378 -1.6400908904678893 0.0249307455098557 0.033941040110346855 -0.020583983479732233 -0.056871488317734524 0.04812556071552969 0.013958294130075941 1
122.40899999999999 0.8653756380081177 -1.9252826176085414 0.10333520570863897 -4.574482818643087 4.796637058258057 1.640650749206543 0.01465645246207714 -0.11234630644321442 -0.02413356676697731 0.036431118845939636 0.0 -0.0 0.0 0.0 0.0 0.0 0.0 0.0 0.865420937538147 -1.9254781208434046 0.10335332552065069 -4.57446350673818 4.796640872955322 1.6406968832015991 0.013740734197199345 -0.11227046698331833 -0.022969072684645653 0.03358807414770126 0.0 -0.0 0.2476764340056566 0.07558089101134938 0.49177075561433914 -1.8809582814608965 -0.7033540944864239 -1.639437274373916 0.027419332138014535 0.036881475981615404 -0.02484090760646938 -0.07752848636998792 0.0657448129058012 0.01393812641235087 3.1378892488438055 2.795357850200106 -6.552770752966768 -0.2864138440142805 0.26772036640979113 -0.02528607162191013 0.24763666049922628 0.07551942501114285 0.49180944058097387 -1.8808269823727302 -0.7032959155572674 -1.6396061444264962 0.027631902057980575 0.037434013581857835 -0.02477322157502349 -0.0763149156068539 0.06469792617674808 0.01485528825522166 1
122.41699999999999 0.8654844760894775 -1.926122327844137 0.1032031218158167 -4.574288030663961 4.796632766723633 1.640638828277588 0.013823398388922215 -0.11701890081167221 -0.017940374091267586 0.02743624709546566 0.0 -0.0 0.0 0.0 0.0 0.0 0.0 0.0 0.8655081987380981 -1.9263884029784144 0.10315114656557256 -4.574263473550314 4.796657085418701 1.6406670808792114 0.012418936006724834 -0.11602194607257843 -0.01519168820232153 0.02400331012904644 0.0 -0.0 0.24789820126462406 0.07586898073533738 0.49156118057570997 -1.8818061301791762 -0.7038616456440517 -1.6387502356264037 0.027169936354766017 0.036155749615342805 -0.025446885975694285 -0.08172573418314655 0.06938991901758448 0.012607288552483708 3.1124004563403393 2.6004761621190364 -6.405677744421584 -0.28313975596250607 0.26473158911589495 -0.027790565710555163 0.2478346132509245 0.07578956326853344 0.4916242637874792 -1.8815162336428841 -0.703755699414697 -1.6389787341238247 0.02769975120898781 0.03724900024613103 -0.02574006192704937 -0.08197682894782193 0.06957737039367301 0.014018210898183902 1
122.425 0.8655513525009155 -1.9271093807616175 0.103065315877096 -4.574096342126364 4.79669713973999 1.640720009803772 0.010342871770262718 -0.1189972311258316 -0.009179976768791676 0.017263181507587433 0.0 -0.0 0.0 0.0 0.0 0.0 0.0 0.0 0.865542471408844 -1.9273392162718714 0.10309249559511358 -4.574067731896871 4.796660900115967 1.6407012939453125 0.010401270352303982 -0.11926037073135376 -0.00811159797012806 0.014837617054581642 0.0 -0.0 0.24812136555044872 0.07614253041675068 0.49136117165254967 -1.8825871636729803 -0.7042214728432802 -1.6381189093029414 0.026939586982943166 0.03521246938336955 -0.025997834161322966 -0.08574357008762877 0.07288352492341833 0.01058126074972359 3.0900224535081793 2.7644235252400824 -6.768446159673338 -0.2856761992342859 0.2698570462710215 -0.022901374920941277 0.24807265088863814 0.07608312863841163 0.49140557682599234 -1.8824346366422828 -0.7041042092420888 -1.6382539082779313 0.027116942727860343 0.03540000617494532 -0.025876467388261368 -0.08451877923014556 0.07182262374227612 0.010523867304484342 1
122.43299999999999 0.865659773349762 -1.9281078777708949 0.10303241411317998 -4.5739881000914515 4.79670524597168 1.6406924724578857 0.010814040899276733 -0.13093550503253937 -0.0067763375118374825 0.01141584012657404 0.0 -0.0 0.0 0.0 0.0 0.0 0.0 0.0 0.8656924962997437 -1.9283067188658656 0.10297567049135381 -4.573923965493673 4.79670524597168 1.6407042741775513 0.011298581957817078 -0.1366662085056305 -0.007461776956915855 0.011686206795275211 0.0 -0.0 0.2483427726579351 0.07644757892748671 0.4911451977080974 -1.8834417182018162 -0.7047388290859703 -1.6373711004109353 0.030429240764533 0.0396418585757749 -0.030028815941023537 -0.10090567636885481 0.0857836948041637 0.011503165930780209 3.3648303199484926 2.70096530594817 -6.91245900392105 -0.29273628766375825 0.2762138746143834 -0.023304131904860262 0.24829352606552085 0.07637853276444943 0.49119119581502524 -1.8832742869396042 -0.704636676050997 -1.6375377887694074 0.029146831107663362 0.037964044845242205 -0.028691155887943152 -0.09622051290930071 0.08180629426975186 0.011008952760655057 1
122.44099999999999 0.8657222986221313 -1.9292336903014125 0.10296518007387334 -4.5739082298674525 4.7966814041137695 1.640684962272644 0.01188996247947216 -0.15525418519973755 -0.0083914864808321 0.013264642097055912 0.0 -0.0 0.0 0.0 0.0 0.0 0.0 0.0 0.8657475709915161 -1.9295293293394984 0.10293704668153936 -4.573816200295919 4.796669006347656 1.640638828277588 0.012611974962055683 -0.15726013481616974 -0.008509928360581398 0.013132850639522076 0.0 -0.0 0.24861423383979864 0.07679088622899949 0.49088028010272977 -1.8845110115158068 -0.7054030862418161 -1.6365119849821415 0.034985521633359065 0.045463176562223366 -0.03463934692009241 -0.11629671958196365 0.09885926967343592 0.012847464849723397 3.060089495050124 2.5859538580598955 -6.900687485301381 -0.3002245547680717 0.2793549658407222 -0.025565887384620355 0.24854432566641615 0.07669830885908067 0.49094157119407916 -1.884310694722092 -0.705219060627939 -1.6366764308925934 0.034608595762412875 0.04477009904794538 -0.03415387634883754 -0.11457605496076868 0.09739993376655753 0.012122234241090879 1
122.449 0.8658564686775208 -1.9304615459837855 0.10287839571108037 -4.573820253411764 4.7967329025268555 1.6407549381256104 0.012755311094224453 -0.16969498991966248 -0.005515091586858034 0.011500304564833641 0.0 -0.0 0.0 0.0 0.0 0.0 0.0 0.0 0.8658490180969238 -1.9308721027769984 0.102912727986471 -4.573840995828146 4.796637058258057 1.6406596899032593 0.0124278599396348 -0.17279461026191711 -0.004254196770489216 0.00961295049637556 0.0 -0.0 0.24889925044889188 0.07716546486022796 0.49057957521158846 -1.8857920360992593 -0.7061195859645717 -1.6353990857779208 0.03784448872662241 0.04878384009925705 -0.03784928724523792 -0.12755981053620669 0.10845836177582666 0.012676215735472498 2.8833145603741848 2.499411065792574 -6.564989626061575 -0.28422662274989396 0.26575356223833996 -0.028539999449521927 0.24881852727392867 0.07705940973547505 0.4906671233265615 -1.8854643269751918 -0.7057770823923714 -1.6356926315567932 0.03735732925849161 0.04831922582246182 -0.03715979991022083 -0.12473012130900384 0.10603417988214167 0.01300151965078101 1
122.457 0.86592036485672 -1.9318696461119593 0.10294133821596319 -4.573784490624899 4.7966814041137695 1.6406596899032593 0.01104687713086605 -0.17328381538391113 -0.0017661898164078593 0.006170819513499737 0.0 -0.0 0.0 0.0 0.0 0.0 0.0 0.0 0.8659223318099976 -1.932200094262594 0.10292035738100225 -4.573804517785543 4.796721458435059 1.6406716108322144 0.010638687759637833 -0.17593355476856232 -0.001416337094269693 0.004921112209558487 0.0 -0.0 0.2491918951597636 0.07752307186077242 0.4902908421920816 -1.8870578623854206 -0.7066896757881964 -1.634468841451347 0.038136725743321484 0.04853550260352034 -0.03861944398186677 -0.13135293915957663 0.11170513796842767 0.010886707675744232 2.878736230217218 2.75654037699292 -6.396041263439735 -0.27715127448359894 0.2603835620995327 -0.0277802735915 0.24911679142753795 0.077439575188963 0.49036814275033525 -1.8866688435079515 -0.7065609469208249 -1.6347204567551836 0.037636744817092165 0.04808287509502206 -0.037961189912686114 -0.12865287225200875 0.10940096184318679 0.01129140121620712 1
122.46499999999999 0.8659715056419373 -1.9333259067931117 0.10292941728700811 -4.573784490624899 4.7966814041137695 1.6406476497650146 0.010903733782470226 -0.18591773509979248 -0.0006421766011044383 0.0023672261741012335 0.0 -0.0 0.0 0.0 0.0 0.0 0.0 0.0 0.8660072684288025 -1.9336863956847132 0.10295516649355108 -4.573812385598654 4.796669006347656 1.6407042741775513 0.010672555305063725 -0.18558849394321442 -0.0005550292553380132 0.0017274824203923345 0.0 -0.0 0.24950448032533448 0.07792759193974516 0.48996645757776786 -1.8884025421991528 -0.7074249755285039 -1.6332935212697097 0.039942383622628044 0.050692194479018474 -0.040984939143510306 -0.14048393861593433 0.11947164671938743 0.010933626289338924 2.891484055961544 2.7501065247440186 -6.456695081222474 -0.27805527017284165 0.2591021835034671 -0.020567420040985693 0.2494327101839109 0.07782910205406544 0.49004496990003094 -1.8880744507362832 -0.7072817660666824 -1.6336242117500963 0.04005473114293989 0.050897429025914286 -0.04099622299041324 -0.14031129142736104 0.11932989397167329 0.011165150552040882 1
122.473 0.8661120533943176 -1.9348675213255824 0.10287982622255498 -4.5738283596434535 4.796669006347656 1.6406760215759277 0.00956150982528925 -0.1940314620733261 -0.0005605226615443826 0.0009321239194832742 0.0 -0.0 0.0 0.0 0.0 0.0 0.0 0.0 0.8660610914230347 -1.9352261028685511 0.10287267366518194 -4.573873420754904 4.796669006347656 1.6406760215759277 0.009914697147905827 -0.1989009827375412 -0.0005920407129451632 0.0007216977537609637 0.0 -0.0 0.24983920887639371 0.0783404296418615 0.48960950451784413 -1.8900154393237976 -0.7082624941713942 -1.6320470955968056 0.04280269468193606 0.053817727840086024 -0.04411976355501534 -0.15142359692097446 0.1287666733220639 0.010195092310632717 2.9936062602582547 2.59752308255211 -6.812161122849683 -0.2867755423281045 0.27006261658103853 -0.023793609891262658 0.2497591025103325 0.0782634425140652 0.489693564748267 -1.889580028356619 -0.7081191100464048 -1.6323163126404936 0.04178522851078926 0.05250150134953966 -0.04299612796351672 -0.14753660928514978 0.12544726833771924 0.00983487524305686 1
122.481 0.8661353588104248 -1.9365774593748988 0.10287696519960576 -4.573844572106832 4.796637058258057 1.6406596899032593 0.009570443071424961 -0.21517422795295715 -0.0017406548140570521 0.00045849449816159904 0.0 -0.0 0.0 0.0 0.0 0.0 0.0 0.0 0.8662089705467224 -1.9368912182249964 0.1028979460345667 -4.573824306527609 4.79667329788208 1.640650749206543 0.009083614684641361 -0.22031426429748535 -0.0017644137842580676 0.000415726681239903 0.0 -0.0 0.25019300724531324 0.07880729533893374 0.48924720768307756 -1.8914792107059637 -0.7091305249262463 -1.630810537653974 0.047549651249401456 0.05915276490326448 -0.04917416379058897 -0.1688851639864061 0.1435693670032489 0.009397278285718054 2.877256987417914 2.7383672272163344 -6.767473718565945 -0.2932545116958207 0.2743245112234104 -0.023084713228185418 0.2501281616044241 0.07871079683774251 0.48931245025876935 -1.891237473450785 -0.7089619700440455 -1.631024315092266 0.04640390435716857 0.05795944203551718 -0.04800232796670639 -0.16490812777700722 0.1402090581173162 0.009876804455618492 1
122.48899999999999 0.866253674030304 -1.938307901422018 0.10285550752748662 -4.573828598062033 4.796612739562988 1.6406059265136719 0.007391433697193861 -0.2273971289396286 -0.0011084917932748795 0.00032527989242225885 0.0 -0.0 0.0 0.0 0.0 0.0 0.0 0.0 0.8661605715751648 -1.9388042889037074 0.10288888612856084 -4.5738564930357875 4.7967658042907715 1.6407058238983154 0.0076698921620845795 -0.22902996838092804 -0.0009203640511259437 0.0003033132816199213 0.0 -0.0 0.25061896626586605 0.07927957203734047 0.4888176550126932 -1.8934861585019014 -0.7098510057216898 -1.6294395099882488 0.04943282973100877 0.06088847911936108 -0.051154197626725434 -0.17495867174674798 0.1487518401145997 0.007993669226829597 2.980227722168311 2.460796135155901 -6.516066161642781 -0.2831366099364156 0.2644155638149327 -0.027390527999333177 0.2504975453083266 0.07919015785729719 0.48892586008763067 -1.89284197577748 -0.7099215901288235 -1.6296959309845334 0.04912464985686644 0.06043896800389383 -0.050777425452769934 -0.17385552564053416 0.14778504046628144 0.007713393924467326 1
122.497 0.8661983609199524 -1.940155645410055 0.10288602510561162 -4.57387699703359 4.796669006347656 1.6406805515289307 0.004921813495457172 -0.23772111535072327 -0.0006083955522626638 0.0002522350987419486 0.0 -0.0 0.0 0.0 0.0 0.0 0.0 0.0 0.8662803173065186 -1.940627237359518 0.10287267366518194 -4.5739246807494105 4.796664714813232 1.6406193971633911 0.004158730152994394 -0.2403309941291809 -0.0005466936272569001 0.0002388329157838598 0.0 -0.0 0.2509971620642367 0.07978089206772043 0.4884030090209497 -1.895205870173151 -0.7109783118069211 -1.6279484399147242 0.05207148251736205 0.0628089224625305 -0.053774942065358954 -0.18335043010066904 0.15585109108733744 0.0044974392367883205 3.002922086577585 2.6049649890930238 -6.535375498662729 -0.284538600000693 0.2645504018094188 -0.028225055147447206 0.25090326783000905 0.07964131130676139 0.4885139968963954 -1.8947442996735069 -0.7106008910973372 -1.6283552376309374 0.05147014900810678 0.062351957621477404 -0.05316176871966842 -0.18138623488082112 0.15420671071003444 0.005257011163973884 1
122.505 0.866278886795044 -1.942153116265768 0.10285550752748662 -4.573936601678366 4.7967329025268555 1.6406714916229248 0.0028903724160045385 -0.24691566824913025 -0.000479506968986243 0.00016695984231773764 0.0 -0.0 0.0 0.0 0.0 0.0 0.0 0.0 0.8662833571434021 -1.942697664300436 0.1028817335711878 -4.5739082298674525 4.796652793884277 1.6407221555709839 0.0026126878801733255 -0.24839209020137787 -0.00045320449862629175 0.00015796486695762724 0.0 -0.0 0.25144721950335197 0.08031406780492936 0.4879420172776693 -1.8972033376304178 -0.7118065348558089 -1.6263731170842102 0.053863061559779726 0.06439084449313541 -0.055743969862050595 -0.1894828404937574 0.16106370744575668 0.002962515415465375 3.162280360920302 2.6967793442351518 -6.80993734665832 -0.29116720024200204 0.2742372307973648 -0.025196164808234982 0.251334337029312 0.08016819092476549 0.4880583376861841 -1.8967745987925344 -0.7115775681185407 -1.6268234112335664 0.05354139310224981 0.06410629738838435 -0.055370385448533906 -0.1883704683052251 0.16011944035483827 0.0032381902667121235 1
122.51299999999999 0.8663286566734314 -1.9442326031126917 0.10283166566957647 -4.573936601678366 4.796713352203369 1.6406805515289307 0.002236961154267192 -0.2596103549003601 -0.00031952321296557784 0.0001392842677887529 0.0 -0.0 0.0 0.0 0.0 0.0 0.0 0.0 0.8663092255592346 -1.9448210201659144 0.10285407701601201 -4.573948522607321 4.796652793884277 1.6406596899032593 0.0019852151162922382 -0.2638912498950958 -0.0003204323584213853 0.0001340921298833564 0.0 -0.0 0.25190608940324566 0.08086396140362573 0.4874582089803287 -1.8993251540533003 -0.7128861025530174 -1.624783554441289 0.057188263894736406 0.06809917682576458 -0.05939132041806779 -0.20121315217612043 0.17102661356108279 0.0023564703652166723 3.0103276181228074 2.491274440681382 -6.981575381405828 -0.28833708594573665 0.2710737862733987 -0.03065348947334427 0.25178291688175175 0.08071696425573283 0.48758847608778855 -1.8987873510166875 -0.7125758969692635 -1.6252270775852171 0.056259353242124686 0.06709344558902071 -0.058377341170794746 -0.19794998487353194 0.16824631393488196 0.0026022005527065514 1
122.521 0.8662868142127991 -1.946498533288473 0.10285312334169561 -4.57388772586965 4.796652793884277 1.6406968832015991 0.0022992086596786976 -0.2770984470844269 -0.00102862692438066 0.00012060852168360725 0.0 -0.0 0.0 0.0 0.0 0.0 0.0 0.0 0.8663451075553894 -1.9469677410521449 0.10283834138979131 -4.573924442330831 4.796664714813232 1.6407132148742676 0.0027102180756628513 -0.2806631922721863 -0.001062414376065135 9.998917812481523e-05 0.0 -0.0 0.2523724902599184 0.08142453624773541 0.486974343628854 -1.9014027033910181 -0.7138188062113225 -1.6231623112048317 0.060730046263643846 0.07253540014524447 -0.0634706945114012 -0.21459187932465645 0.18238188693341217 0.0031069897710615376 2.9777883034894503 2.627041567307429 -6.841143859111095 -0.2890860671530186 0.2716080955450335 -0.0235856267406735 0.2522759573681893 0.08129209154425238 0.48708509030282704 -1.9009230731607516 -0.7135600724983077 -1.6235832407700748 0.06001372792642658 0.07153865172610759 -0.06261696693650294 -0.2118236865406638 0.18005044819760477 0.0026908752008882653 1
122.529 0.8663151264190674 -1.9487973652281703 0.10282498994936162 -4.573932071725363 4.796713352203369 1.6406834125518799 0.0019629420712590218 -0.2881748676300049 -0.000820216431748122 7.997325883479789e-05 0.0 -0.0 0.0 0.0 0.0 0.0 0.0 0.0 0.8662987947463989 -1.9493514500060023 0.10285312334169561 -4.573924442330831 4.796685695648193 1.6406805515289307 0.0017235195264220238 -0.28853875398635864 -0.0007363212644122541 -3.0291957955341786e-05 0.0 -0.0 0.2528931700929269 0.08201915958918934 0.4864375154557862 -1.9037579275305838 -0.7148710590499748 -1.6214777027729155 0.06238907462855821 0.07414307708536623 -0.06544401811737707 -0.2204338616325197 0.18736685789246652 0.002130558721792892 2.9705452166376594 2.4828680554950857 -6.64954283465017 -0.28693658023353086 0.26842070312837985 -0.024190256375896904 0.2527750947761027 0.08188180766648782 0.48655854077896665 -1.9032588796427523 -0.7146278587311605 -1.6218682007730092 0.062325197917785985 0.07415320000731965 -0.0653114155003188 -0.22014002402510346 0.18710997515056974 0.002369638219759564 1
122.53699999999999 0.8662608861923218 -1.9511600933470667 0.10282498994936162 -4.573968311349386 4.796685695648193 1.6406551599502563 0.0010908368276432157 -0.2948661148548126 -0.0005369191057980061 -7.005772204138339e-05 0.0 -0.0 0.0 0.0 0.0 0.0 0.0 0.0 0.8663389682769775 -1.951726575891012 0.10282498994936162 -4.573996683160299 4.796664714813232 1.6406716108322144 0.0009473246755078435 -0.2972011864185333 -0.0004610006290022284 -7.188098970800638e-05 0.0 -0.0 0.25339979306042937 0.08263347632811427 0.4858891697406075 -1.9061346456992385 -0.716048402677127 -1.6196146662036843 0.06419714520281164 0.07601081531734925 -0.06760658442812398 -0.22686302142675635 0.19281744592510056 0.0013658218456257798 2.9353929124790357 2.36715854462909 -6.762343219599075 -0.28191458171535816 0.2630781410134537 -0.026542243721296502 0.25328689365159507 0.0824700288349271 0.48602010297400206 -1.9056170190674921 -0.7157163964400707 -1.6201268611059167 0.063717041115575 0.07548285482102021 -0.06703104999769717 -0.22512547555093565 0.1913705649476222 0.0015062548232893283 1
122.54499999999999 0.8663850426673889 -1.9535910091795863 0.10284263292421514 -4.573972364465231 4.796664714813232 1.6406804323196411 0.000726749247405678 -0.3074089288711548 -0.000550098076928407 -8.920648542698473e-05 0.0 -0.0 0.0 0.0 0.0 0.0 0.0 0.0 0.8663314580917358 -1.9541899166502894 0.10281402269472295 -4.573968311349386 4.796637058258057 1.6406893730163574 0.0007451680721715093 -0.31115609407424927 -0.0010600448586046696 -8.742545469431207e-05 0.0 -0.0 0.25393326027878715 0.08326360668557128 0.4853290692348478 -1.908509570757614 -0.7171484105947215 -1.6177788130874953 0.06715802417320813 0.07943145013731935 -0.0711181266545224 -0.2379642150441958 0.20225318405311332 0.0011848566397884266 2.9816075199499767 2.731382465391526 -6.959983738397838 -0.29034060843511694 0.27220078887743226 -0.021155573511635863 0.25379906708512556 0.08312032942561541 0.4854692186337247 -1.907883571831785 -0.716901751809089 -1.618232905661688 0.06633928293391271 0.0784673920131741 -0.0701314125957555 -0.23473137603809882 0.19948610216427418 0.001159823785714228 1
122.553 0.8663300275802612 -1.9561144314207972 0.10273200670351201 -4.573924442330831 4.79667329788208 1.6406641006469727 0.0011056248331442475 -0.3212553858757019 -0.004287606570869684 -8.156165131367743e-05 0.0 -0.0 0.0 0.0 0.0 0.0 0.0 0.0 0.8663581609725952 -1.95670809368276 0.10273629823793584 -4.5739482841887416 4.796669006347656 1.6407012939453125 0.0014811960281804204 -0.3256104588508606 -0.005101912189275026 -9.121780749410391e-05 0.0 -0.0 0.2544827143420196 0.08391630333918274 0.48474464956485896 -1.9110250723419993 -0.7183000230429046 -1.6158688626247502 0.07036849582662669 0.08348650207924706 -0.07524486918127275 -0.2520752095667767 0.21421684906406604 0.001951948269435494 3.2928501869177706 2.7216982810475567 -6.933630783469624 -0.29306788765135394 0.2739032787047498 -0.022341763025938037 0.25435923820564826 0.0837601815154477 0.48488177749448 -1.910445772000678 -0.7180359170650323 -1.6163663874128456 0.06943741494360423 0.08225008961324638 -0.07407283934864141 -0.24812118480674283 0.21087198688264575 0.001568082046550168 1
122.56099999999999 0.8663254976272583 -1.958628316918844 0.1027000586139124 -4.573956390420431 4.796669006347656 1.640689492225647 0.0019913851283490658 -0.33923617005348206 -0.007616329938173294 -0.00023051387688610703 0.0 -0.0 0.0 0.0 0.0 0.0 0.0 0.0 0.866330087184906 -1.9593082867064417 0.10277921358217412 -4.573960205117697 4.796648979187012 1.6407012939453125 0.0019652924966067076 -0.3424839377403259 -0.007770189084112644 -0.0003218195925001055 0.0 -0.0 0.2550397344930597 0.08456582284491351 0.4841532116497317 -1.913534517983319 -0.7194504795677137 -1.613963935157876 0.07400066028253283 0.08794093749428762 -0.07978708376966659 -0.2671402747700684 0.22702263778852963 0.002467006093527969 2.9202670696672364 2.7668349017470346 -6.925708532613026 -0.28745952594292207 0.2686526001314913 -0.015834601615805584 0.2549008525655337 0.08439771744656456 0.48429885468687683 -1.9129602689258944 -0.7191724238094481 -1.614437447617271 0.07332843959374867 0.08715580947120964 -0.07893837226540538 -0.26447766157932684 0.22476187822293048 0.002488071300412321 1
122.56899999999999 0.8663961887359619 -1.9612637958922328 0.1027453581439417 -4.573979755441183 4.796669006347656 1.6406923532485962 0.0011297822929918766 -0.34991690516471863 -0.004711853805929422 -0.0012265817495062947 0.0 -0.0 0.0 0.0 0.0 0.0 0.0 0.0 0.8663553595542908 -1.961980482141012 0.10270911851991826 -4.574032445947164 4.796685695648193 1.6406716108322144 0.000957799784373492 -0.35028666257858276 -0.003240822348743677 -0.001289893756620586 0.0 -0.0 0.255614286872384 0.08524707057405378 0.4835228013528016 -1.916280677127231 -0.7207484899120306 -1.6118992347739256 0.0752429025651214 0.08905114958735862 -0.08134613075669318 -0.2703653803684456 0.22977741375290545 0.001458801522673719 2.9846171036373654 2.6471086892739515 -6.754719121203384 -0.2845224229293388 0.2665810707669345 -0.025402996412829552 0.2554567355019848 0.08507813897237117 0.4836970878875569 -1.9154603423734808 -0.720409061454071 -1.6124498433794046 0.0752904577820357 0.089176533297557 -0.08137498383276208 -0.271169131991358 0.23043446308793333 0.001634173531768618 1
122.577 0.8663553595542908 -1.9640361271300257 0.10273296037782842 -4.574024339715475 4.796700954437256 1.6406714916229248 0.0006576348678208888 -0.3502378463745117 -0.00128046830650419 -0.0020417594350874424 0.0 -0.0 0.0 0.0 0.0 0.0 0.0 0.0 0.8663716912269592 -1.9647470913329066 0.10272103944887334 -4.57402839283132 4.79669713973999 1.6407088041305542 0.0005954518564976752 -0.3511074483394623 -0.0010603592963889241 -0.0020880664233118296 0.0 -0.0 0.2562063044482355 0.08594922604692133 0.4828853248139145 -1.9189571779287244 -0.7219559271301994 -1.6098255603291645 0.07510166522694993 0.088758891739029 -0.08161936593161824 -0.26993446754524014 0.22941740288852316 0.0010920850645675256 3.177993495259151 2.4129436098849726 -6.7595489809079385 -0.2834391750688689 0.26274494086890743 -0.03384242213297358 0.2560550538151895 0.08576451733888013 0.4830518491936968 -1.9182603332006565 -0.7216512273856641 -1.6104025816619953 0.07496763583254323 0.08861984746151103 -0.08136193796928458 -0.2694011434635971 0.2289704936693576 0.0011536228310837172 1
122.585 0.8663434386253357 -1.9668470821776332 0.10273725191225225 -4.574040075341696 4.796652793884277 1.6407639980316162 0.0004638801619876176 -0.3549327552318573 -0.0007519641658291221 -0.0018756362842395902 0.0 -0.0 0.0 0.0 0.0 0.0 0.0 0.0 0.8663389682769775 -1.967586179772848 0.10272246996034795 -4.574072261849874 4.796689510345459 1.6406269073486328 0.0004320619045756757 -0.3575678765773773 -0.000719904899597168 -0.001824161154218018 0.0 -0.0 0.2568133214415382 0.08665425550053382 0.48222330146084796 -1.9217709626657502 -0.7233208003002852 -1.6077379824646811 0.07634173976545254 0.09015769435223736 -0.08338220696853425 -0.274388945092367 0.2332188886593876 0.0009367286470469545 3.0522198074239517 2.814327429949026 -6.949388174073994 -0.2921197628060795 0.27008079548905717 -0.029996752570453915 0.2566535590812422 0.08647266608858967 0.4823995481430104 -1.920989631997228 -0.7228490025890697 -1.6082139476532484 0.07581490759860296 0.08954845077353281 -0.08269191024424113 -0.2724457133773678 0.23156527477646574 0.0009649579958235706 1
122.59299999999999 0.8663434386253357 -1.9698268375792445 0.10269290605653936 -4.5740961037077845 4.796652793884277 1.6407088041305542 0.0003583259240258485 -0.3632884621620178 -0.00037834973772987723 -0.0019693654030561447 0.0 -0.0 0.0 0.0 0.0 0.0 0.0 0.0 0.8663270473480225 -1.9705373249449671 0.10271054903139287 -4.574067731896871 4.796745300292969 1.6406521797180176 0.00033904091105796397 -0.3664696514606476 -0.00034372537629678845 -0.0018725063418969512 0.0 -0.0 0.2574493474542463 0.08739190212920318 0.48153442358295934 -1.9246920136276036 -0.7245788454743927 -1.605557065796213 0.07806083675183628 0.09215008851352047 -0.08576099420176903 -0.28091816553058063 0.23877601705140009 0.0008551913210904881 2.93656657391419 2.7637785092671625 -6.83205383803378 -0.29030280792233415 0.26776896616464174 -0.030280066062537678 0.2572897111649136 0.08722273149768908 0.481695509657433 -1.9239803721240756 -0.7242969287432112 -1.605944584698115 0.0774132161690885 0.09139629725354932 -0.08494530882950481 -0.27859815149492445 0.23679655736082914 0.0008701457123279658 1
122.601 0.866330087184906 -1.9727517567076625 0.10270625749696904 -4.574116369287008 4.796648979187012 1.6407593488693237 0.00033347378484904766 -0.38125211000442505 -0.0004316336999181658 -0.0020626066252589226 0.0 -0.0 0.0 0.0 0.0 0.0 0.0 0.0 0.8663672804832458 -1.9735681019225062 0.10270196596254522 -4.574071546594137 4.796648979187012 1.6406804323196411 0.0003188343544024974 -0.3856145143508911 -0.0004197847447358072 -0.0021556054707616568 0.0 -0.0 0.25808585123718 0.08817048206689111 0.48082363579996495 -1.927562088276104 -0.726021451543696 -1.6031669396464305 0.08195171462523726 0.09673969714490885 -0.09064857534424456 -0.29578894820370544 0.25139608242185235 0.0008621584729012923 2.9068109047519535 2.759851075134664 -6.829542030008716 -0.2824741694861703 0.26504687915602376 -0.014412493806900382 0.2579121175009653 0.0879522285200033 0.4810121171545319 -1.9268386559654278 -0.7255551965493426 -1.603723616358668 0.08107891715542191 0.09570820619560812 -0.08951592882428666 -0.2923940524542236 0.24852902619068626 0.0008706757669601599 1
122.609 0.8663226366043091 -1.9759780369200648 0.10271054903139287 -4.574140211144918 4.79669713973999 1.6406300067901611 0.00019011864787898958 -0.3952234387397766 -0.000594977755099535 -0.002640793565660715 0.0 -0.0 0.0 0.0 0.0 0.0 0.0 0.0 0.866388738155365 -1.9767152271666468 0.10266143480409795 -4.574136158029074 4.796677112579346 1.6407058238983154 0.00018240854842588305 -0.39835837483406067 -0.0005368393030948937 -0.0032373243011534214 0.0 -0.0 0.25875353117879524 0.08896160435890228 0.480073495565061 -1.9307246595593537 -0.7274579331130553 -1.6007170359002574 0.08441813818580315 0.09960517358544918 -0.09414630272960656 -0.3064162058391476 0.26042148386460584 0.0007443171243577078 3.038153987174603 2.711391821853888 -6.758348491885887 -0.2819329178973829 0.2641777399040893 -0.022955972464167106 0.25860050573832677 0.08875428573703106 0.4802535699539625 -1.9300164451338924 -0.7271165133263937 -1.601403827577614 0.08384689571334746 0.09892038720780753 -0.09327274967731516 -0.3036016605598877 0.25806093108547556 0.0007475738072660474 1
