Andreas691667/Digital_Twin_UR/src/controller_monitor/simulation_data/robot_output_2_blocks.csv
timestamp actual_q_0 actual_q_1 actual_q_2 actual_q_3 actual_q_4 actual_q_5 actual_qd_0 actual_qd_1 actual_qd_2 actual_qd_3 actual_qd_4 actual_qd_5 safety_status output_bit_register_65 output_bit_register_66
20959.814 3.712045907974243 -0.8254993718913575 0.8429515997516077 -1.588297029534811 -1.5707605520831507 2.141317129135132 0.0 0.0 0.0 -0.0 0.0 0.0 1 False False
20959.863999999998 3.7120370864868164 -0.8254546088031312 0.8429721037494105 -1.5883289776244105 -1.5708168188678187 2.141312837600708 0.0 0.0 0.0 -0.0 0.0 0.0 1 False False
20959.914 3.712066650390625 -0.8254869741252442 0.8429539839373987 -1.588252683679098 -1.5707686583148401 2.141267776489258 0.0 0.0 0.0 -0.0 0.0 0.0 1 False False
20959.964 3.7120370864868164 -0.8254993718913575 0.8429673353778284 -1.5882569752135218 -1.5707405249225062 2.141308546066284 0.0 0.0 0.0 -0.0 0.0 0.0 1 False False
20960.014 3.7120251655578613 -0.8254869741252442 0.8429539839373987 -1.588297029534811 -1.5707443396197718 2.141295909881592 0.0 0.0 0.0 -0.0 0.0 0.0 1 False False
20960.064 3.7121024131774902 -0.8255242270282288 0.8429301420794886 -1.588269372979635 -1.570801083241598 2.14132022857666 0.0 0.0 0.0 -0.0 0.0 0.0 1 False False
20960.113999999998 3.712094783782959 -0.8254909080317994 0.8429563681231897 -1.5882498226561488 -1.5707805792437952 2.1412882804870605 0.0 0.0 0.0 -0.0 0.0 0.0 1 False False
20960.164 3.712070941925049 -0.8255328100970765 0.8429892698871058 -1.5882898769774378 -1.570801083241598 2.141263484954834 0.0 0.0 0.0 -0.0 0.0 -1.0981999848619448e-14 1 False False
20960.214 3.7120370864868164 -0.8254869741252442 0.8429811636554163 -1.5882412395873011 -1.570772949849264 2.141238212585449 0.0 0.0 0.0 -0.0 0.0 -1.668167726809917e-33 1 False False
20960.264 3.712066650390625 -0.8254996699145813 0.8430126349078577 -1.5882650814452113 -1.5707767645465296 2.1412954330444336 0.0 0.0 0.0 -0.0 0.0 -0.0 1 False False
20960.314 3.712066650390625 -0.8254954975894471 0.8430097738849085 -1.5882932148375453 -1.5707967917071741 2.141329050064087 0.0 0.0 0.0 -0.0 0.0 -0.0 1 False False
20960.363999999998 3.712062358856201 -0.8255208295634766 0.8429630438434046 -1.5882488689818324 -1.5707882086383265 2.1412720680236816 0.0 0.0 0.0 -0.0 0.0 -0.0 1 False False
20960.414 3.7120370864868164 -0.8254546088031312 0.8429845015155237 -1.588269372979635 -1.5707810560809534 2.141279697418213 0.0 0.0 0.0 -0.0 0.0 -0.0 1 False False
20960.464 3.712099313735962 -0.8254673641971131 0.8430503050433558 -1.588269372979635 -1.5708044211017054 2.141317129135132 0.0 0.0 0.0 -0.0 0.0 -0.0 1 False False
20960.514 3.7121036052703857 -0.8254340452006836 0.8429721037494105 -1.5882250271239222 -1.570784870778219 2.141275405883789 0.0 0.0 0.0 -0.0 0.0 -0.0 1 False False
20960.564 3.712094783782959 -0.8254502576640625 0.8429673353778284 -1.5882250271239222 -1.570756737385885 2.1412546634674072 0.0 0.0 0.0 -0.0 0.0 -0.0 1 False False
20960.613999999998 3.712082862854004 -0.8254951399615784 0.8430669943438929 -1.5882889233031214 -1.5708006064044397 2.141263484954834 0.0 0.0 0.0 -0.0 0.0 -2.813690903533117e-12 1 False False
20960.664 3.712094783782959 -0.825430766945221 0.842971150075094 -1.5882932148375453 -1.5707891623126429 2.14125919342041 0.0 0.0 0.0 -0.0 0.0 -4.274002479646291e-31 1 False False
20960.714 3.712062358856201 -0.8255123060992737 0.8429430166827601 -1.5882774792113246 -1.5708649794207972 2.141247272491455 0.0 0.0 0.0 -0.0 0.0 -0.0 1 False False
20960.764 3.7120580673217773 -0.8254740995219727 0.8429349104510706 -1.5882650814452113 -1.570756737385885 2.141312837600708 0.0 0.0 0.0 -0.0 0.0 -0.0 1 False False
20960.814 3.712045907974243 -0.8254740995219727 0.8429630438434046 -1.5883251629271449 -1.5707610289203089 2.1412546634674072 0.0 0.0 0.0 -0.0 0.0 -0.0 1 False False
20960.863999999998 3.712013006210327 -0.8255037230304261 0.842992130910055 -1.5883370838561 -1.5707691351519983 2.14125919342041 0.0 0.0 0.0 -0.0 0.0 -0.0 1 False False
20960.914 3.7121198177337646 -0.8254426878741761 0.8430259863482874 -1.5882212124266566 -1.570784870778219 2.141247272491455 0.0 0.0 0.0 -0.0 0.0 -0.0 1 False False
20960.964 3.7120580673217773 -0.825536922817566 0.8430054823504847 -1.588297029534811 -1.5707810560809534 2.141279697418213 0.0 0.0 0.0 -0.0 0.0 -0.0 1 False False
20961.014 3.712094783782959 -0.8254546088031312 0.8429964224444788 -1.5882607899107875 -1.570772949849264 2.1413257122039795 0.0 0.0 0.0 -0.0 0.0 -0.0 1 False False
20961.064 3.712118625640869 -0.8254265350154419 0.8430169264422815 -1.5882894001402796 -1.5707967917071741 2.141340970993042 0.0 0.0 0.0 -0.0 0.0 -0.0 1 False False
20961.113999999998 3.7121152877807617 -0.8254708212665101 0.8429587523089808 -1.5882607899107875 -1.5707691351519983 2.141324758529663 0.0 0.0 0.0 -0.0 0.0 -0.0 1 False False
20961.164 3.712110996246338 -0.8254993718913575 0.8429802099810999 -1.5882774792113246 -1.5707810560809534 2.1412882804870605 0.0 0.0 0.0 -0.0 0.0 -0.0 1 False False
20961.214 3.7120862007141113 -0.8255199950984498 0.8429563681231897 -1.588280817071432 -1.570829216633932 2.141247272491455 0.0 0.0 0.0 -0.0 0.0 -0.0 1 False False
20961.264 3.7120399475097656 -0.825458900337555 0.8429630438434046 -1.588285585443014 -1.5707967917071741 2.1413002014160156 0.0 0.0 0.0 -0.0 0.0 -4.589350766082134e-08 1 False False
20961.314 3.712050199508667 -0.8255326312831421 0.8430083433734339 -1.5882889233031214 -1.5707810560809534 2.141317129135132 0.0 0.0 0.0 -0.0 0.0 -6.971237004775968e-27 1 False False
20961.363999999998 3.7120862007141113 -0.8255155247500916 0.8430007139789026 -1.5882250271239222 -1.5707929770099085 2.141270875930786 0.0 0.0 0.0 -0.0 0.0 -1.401298464324817e-45 1 False False
20961.414 3.712062358856201 -0.8254459065249939 0.8430216948138636 -1.588273664514059 -1.5707691351519983 2.141312837600708 0.0 0.0 0.0 -0.0 0.0 -0.0 1 False False
20961.464 3.7121188640594482 -0.8254912060550232 0.8429721037494105 -1.5882607899107875 -1.5708006064044397 2.141270875930786 0.0 0.0 0.0 -0.0 0.0 -0.0 1 False False
20961.664 3.7120249271392822 -0.8254954975894471 0.8430083433734339 -1.5883165798582972 -1.5708206335650843 2.14125919342041 0.0 0.0 0.0 -0.0 0.0 -0.0 1 False False
20961.714 3.712104082107544 -0.8255123060992737 0.8429964224444788 -1.588292738000387 -1.570784870778219 2.1412546634674072 0.0 0.0 0.0 -0.0 0.0 -0.0 1 False False
20961.764 3.712095260620117 -0.825463132267334 0.8429802099810999 -1.5882774792113246 -1.5707529226886194 2.141308546066284 0.0 0.0 0.0 -0.0 0.0 -0.0 1 False False
20961.814 3.712099552154541 -0.8255038422397156 0.8430255095111292 -1.5883285007872523 -1.5707686583148401 2.141308546066284 0.0 0.0 0.0 -0.0 0.0 -0.0 1 False False
20961.863999999998 3.712062358856201 -0.8255155843547364 0.8429721037494105 -1.588280817071432 -1.5707691351519983 2.1412763595581055 0.0 0.0 0.0 -0.0 0.0 3.4379435062681374e-12 1 False False
20961.914 3.712062358856201 -0.8254869741252442 0.842992130910055 -1.5882650814452113 -1.5707886854754847 2.141317129135132 0.0 0.0 0.0 -0.0 0.0 5.222246030787951e-31 1 False False
20961.964 3.712078809738159 -0.8254631918719788 0.8429477850543421 -1.5882655582823695 -1.5708168188678187 2.141267776489258 0.0 0.0 0.0 -0.0 0.0 0.0 1 False False
20962.014 3.7120862007141113 -0.825512246494629 0.8430331389056605 -1.588292738000387 -1.5707691351519983 2.141270875930786 0.0 0.0 0.0 -0.0 0.0 0.0 1 False False
20962.064 3.7120862007141113 -0.825458900337555 0.8429477850543421 -1.588245531121725 -1.5707686583148401 2.1412503719329834 0.0 0.0 0.0 -0.0 0.0 0.0 1 False False
20962.113999999998 3.71205472946167 -0.8254825633815308 0.8430050055133265 -1.5883094273009242 -1.570772949849264 2.1413159370422363 0.0 0.0 0.0 -0.0 0.0 0.0 1 False False
20962.164 3.7121191024780273 -0.8254950803569336 0.8429964224444788 -1.5883332691588343 -1.5708006064044397 2.141247272491455 0.0 0.0 0.0 -0.0 0.0 0.0 1 False False
20962.214 3.712111473083496 -0.8254708212665101 0.8429802099810999 -1.5882569752135218 -1.570801083241598 2.1412622928619385 0.0 0.0 0.0 -0.0 0.0 0.0 1 False False
20962.264 3.7120578289031982 -0.8255037826350708 0.8429887930499476 -1.5883051357665003 -1.570784870778219 2.141263484954834 0.0 0.0 0.0 -0.0 0.0 0.0 1 True False
20962.314 3.7120907306671143 -0.8255080145648499 0.8430255095111292 -1.5883013210692347 -1.5708168188678187 2.1412882804870605 0.0 0.0 0.0 -0.0 0.0 0.0 1 True False
20962.363999999998 3.7120816707611084 -0.825455443268158 0.8430050055133265 -1.5882569752135218 -1.570813004170553 2.141279697418213 0.0 0.0 0.0 -0.0 0.0 0.0 1 True False
20962.414 3.7120862007141113 -0.8254993718913575 0.8430050055133265 -1.5882531605162562 -1.570845905934469 2.141291618347168 0.0 0.0 0.0 -0.0 0.0 0.0 1 True False
20962.464 3.7120578289031982 -0.825487808590271 0.8430007139789026 -1.588280817071432 -1.5707967917071741 2.1413333415985107 0.0 0.0 0.0 -0.0 0.0 0.0 1 True False
20962.514 3.712050199508667 -0.8254954379848023 0.8429520765887659 -1.5883094273009242 -1.5708211104022425 2.1412558555603027 0.0 0.0 0.0 -0.0 0.0 0.0 1 True False
20962.564 3.7120158672332764 -0.825463132267334 0.8429973761187952 -1.5882650814452113 -1.5707967917071741 2.1412763595581055 0.0 0.0 0.0 -0.0 0.0 0.0 1 True False
20962.613999999998 3.712116003036499 -0.8254502576640625 0.8430255095111292 -1.5882898769774378 -1.5707724730121058 2.141296863555908 0.0 0.0 0.0 -0.0 0.0 0.0 1 True False
20962.664 3.712062358856201 -0.8254589599421998 0.8429964224444788 -1.5882412395873011 -1.5707767645465296 2.141263484954834 0.0 0.0 0.0 -0.0 0.0 0.0 1 True False
20962.714 3.712062358856201 -0.8254825633815308 0.8430097738849085 -1.5882569752135218 -1.5707925001727503 2.141167163848877 0.0 0.0 0.0 -0.0 0.0 -2.424522360655601e-09 1 True False
20962.764 3.71209979057312 -0.8254835170558472 0.8430336157428187 -1.5882650814452113 -1.570801083241598 2.1412081718444824 0.0 0.0 0.0 -0.0 0.0 0.00016385297931265086 1 True False
20962.814 3.712066888809204 -0.8254911464503785 0.842987362538473 -1.5882374248900355 -1.5707610289203089 2.141231060028076 0.0 0.0 0.0 -0.0 0.0 0.00013134939945302904 1 True False
20962.863999999998 3.7120532989501953 -0.8254997295192261 0.8429802099810999 -1.5882607899107875 -1.5708087126361292 2.1413214206695557 0.0 0.0 0.0 -0.0 0.0 9.020663128467277e-05 1 True False
20962.914 3.7120652198791504 -0.8255608242801209 0.8430126349078577 -1.5882731876769007 -1.5707929770099085 2.141263484954834 0.028706558048725128 -0.009505733847618103 0.008255786262452602 -0.0 0.0 0.015276524238288403 1 True False
20962.964 3.7142140865325928 -0.8268785637668152 0.8452046553241175 -1.5888434849181117 -1.5708254019366663 2.143489360809326 0.07413244247436523 -0.055966854095458984 0.08425015956163406 -0.020086174830794334 -4.0293572965310887e-05 0.06942909210920334 1 True False
20963.014 3.7195334434509277 -0.8312606376460572 0.8513410727130335 -1.5905820331969203 -1.5707886854754847 2.148637056350708 0.13612115383148193 -0.11327216774225235 0.1539621651172638 -0.04166465997695923 -1.6797904213439185e-12 0.12969377636909485 1 True False
20963.064 3.7275938987731934 -0.8383310598186036 0.8607824484454554 -1.5933214626707972 -1.5708368460284632 2.1568353176116943 0.194034144282341 -0.16359293460845947 0.22294136881828308 -0.05567360296845436 -2.551605150324271e-31 0.1929408758878708 1 True False
20963.113999999998 3.7390334606170654 -0.8475809854320069 0.8737013975726526 -1.5968548260130824 -1.5707805792437952 2.1680896282196045 0.25322121381759644 -0.20953504741191864 0.2892162501811981 -0.08301042020320892 -0.0 0.2562639117240906 1 True False
20963.164 3.753286361694336 -0.8593757909587403 0.8899701277362269 -1.6013637981810511 -1.5707772413836878 2.1823971271514893 0.3157714605331421 -0.2586308419704437 0.3623464107513428 -0.09923847764730453 6.947122165001929e-05 0.3163701295852661 1 True False
20963.214 3.7707579135894775 -0.8736692827991028 0.9100220839129847 -1.6069861851134242 -1.5708211104022425 2.199747085571289 0.37687918543815613 -0.3083493113517761 0.4271852970123291 -0.12001524865627289 6.0148548072902486e-05 0.379009485244751 1 True False
20963.264 3.7909605503082275 -0.8905073565295716 0.9332507292376917 -1.6135698757567347 -1.5708254019366663 2.220304250717163 0.43610382080078125 -0.3600113093852997 0.5021450519561768 -0.1435757577419281 2.1614512701738896e-23 0.4343137741088867 1 True False
20963.314 3.8146376609802246 -0.9099216622165223 0.9601624647723597 -1.621073385278219 -1.5707891623126429 2.243734836578369 0.5024597644805908 -0.40887367725372314 0.5687487721443176 -0.16934449970722198 9.810522169573233e-05 0.498892217874527 1 True False
20963.363999999998 3.8410415649414062 -0.9315713208964844 0.9904473463641565 -1.6294990978636683 -1.5708335081683558 2.270195484161377 0.5629920363426208 -0.4558000862598419 0.6466220021247864 -0.1780041605234146 3.823490630279914e-15 0.5662712454795837 1 True False
20963.414 3.8707261085510254 -0.9561756414226075 1.0241616407977503 -1.6389900646605433 -1.5707967917071741 2.2998573780059814 0.6144188046455383 -0.5115483999252319 0.7102980613708496 -0.19341830909252167 5.807891672092374e-34 0.62794429063797 1 True False
20963.464 3.903327226638794 -0.9828161162189026 1.0615599791156214 -1.6493941746153773 -1.5707686583148401 2.3323845863342285 0.6812989711761475 -0.5662137269973755 0.7742956280708313 -0.2244108021259308 0.0 0.6873892545700073 1 True False
20963.514 3.9390578269958496 -1.0124885600856324 1.10229999223818 -1.660823484460348 -1.570784870778219 2.3682777881622314 0.7410468459129333 -0.6189231276512146 0.8486119508743286 -0.24142569303512573 0.0 0.747511625289917 1 True False
20963.564 3.9778048992156982 -1.0442376893809815 1.1467106978045862 -1.672950883904928 -1.5707443396197718 2.4070990085601807 0.8114430904388428 -0.6653730869293213 0.9145552515983582 -0.25069713592529297 -3.1676092476118356e-05 0.8076601028442383 1 True False
20963.613999999998 4.019702434539795 -1.0787439507297059 1.1943934599505823 -1.686601301232809 -1.5707772413836878 2.4489028453826904 0.8673055171966553 -0.7119644284248352 0.9829705953598022 -0.28337588906288147 -7.884651154199673e-09 0.8590238094329834 1 True False
20963.664 4.064510822296143 -1.1156319838813324 1.245662037526266 -1.7008167705931605 -1.5707772413836878 2.493685245513916 0.9005513191223145 -0.7526438236236572 1.0459167957305908 -0.2866702377796173 -5.5670199799351394e-05 0.9162508249282837 1 True False
20963.714 4.11024808883667 -1.1533546310714264 1.2980244795428675 -1.7154413662352503 -1.5707967917071741 2.539642333984375 0.9184284806251526 -0.7513329386711121 1.0478893518447876 -0.28754472732543945 -0.00019286954193376005 0.9131415486335754 1 True False
20963.764 4.156169891357422 -1.1910234850696106 1.3504241148578089 -1.7300287685790003 -1.5708168188678187 2.585169553756714 0.9126939177513123 -0.7521833181381226 1.0505783557891846 -0.29245007038116455 -0.0009554005810059607 0.9223045110702515 1 True False
20963.814 4.201959609985352 -1.2288423639586945 1.4028084913836878 -1.7445131740965785 -1.5708335081683558 2.6312978267669678 0.9201238751411438 -0.7545680999755859 1.0481945276260376 -0.29874876141548157 -3.776447210501743e-11 0.9105005264282227 1 True False
20963.863999999998 4.247877597808838 -1.266587273483612 1.4550746122943323 -1.75932039837026 -1.5707843939410608 2.6769237518310547 0.9099462628364563 -0.7546550035476685 1.0432207584381104 -0.3089793622493744 -1.5015459782128336e-14 0.9142665266990662 1 True False
20963.914 4.293625354766846 -1.3041164439967652 1.5072715918170374 -1.7740961513915003 -1.5707925001727503 2.722808599472046 0.9205389022827148 -0.7542916536331177 1.042310357093811 -0.30751973390579224 0.0005741065251640975 0.9195279479026794 1 True False
20963.964 4.339404582977295 -1.3419599396041413 1.5596578756915491 -1.7885920010008753 -1.5708211104022425 2.7685303688049316 0.895951509475708 -0.7373136878013611 1.0341688394546509 -0.27547627687454224 4.517958984706638e-08 0.9039608240127563 1 True False
20964.014 4.382984161376953 -1.3779115092805405 1.609751049672262 -1.8026377163329066 -1.5707925001727503 2.812286138534546 0.8502650260925293 -0.6941321492195129 0.9672291278839111 -0.2661322355270386 0.0004371918912511319 0.8537034392356873 1 True False
20964.064 4.423681735992432 -1.4114216429046174 1.6561225096331995 -1.8154994450011195 -1.5708168188678187 2.853030204772949 0.781621515750885 -0.63865727186203 0.9001784920692444 -0.2511695325374603 2.2403221009881236e-05 0.7817704677581787 1 True False
20964.113999999998 4.461341857910156 -1.442319617872574 1.6992295424090784 -1.8275143108763636 -1.5708044211017054 2.890584945678711 0.7158278822898865 -0.5968548059463501 0.8217189311981201 -0.24859865009784698 3.4190652087318085e-08 0.7172724604606628 1 True False
20964.164 4.495883941650391 -1.4708509308150788 1.738702122365133 -1.8383151493468226 -1.5708850065814417 2.925015687942505 0.6552292704582214 -0.5415772795677185 0.7615500092506409 -0.18784219026565552 -0.0010664643486961722 0.6609485149383545 1 True False
20964.214 4.527468681335449 -1.4968208161047478 1.774484936391012 -1.8486157856383265 -1.570792023335592 2.9565248489379883 0.6007478833198547 -0.4941527843475342 0.6895769834518433 -0.1966782957315445 5.2683010731691127e-11 0.6056993007659912 1 True False
20964.264 4.555997371673584 -1.5201422733119507 1.8068812529193323 -1.8577281437315882 -1.5708406607257288 2.985106945037842 0.536653459072113 -0.4437984526157379 0.6136989593505859 -0.17291897535324097 -0.00024999206652864814 0.5379657745361328 1 True False
20964.314 4.581253528594971 -1.541112858136632 1.8360193411456507 -1.8658620319762171 -1.5708325544940394 3.010571241378784 0.48403212428092957 -0.387810617685318 0.543436586856842 -0.14702047407627106 -0.0004093071911484003 0.4751528799533844 1 True False
20964.363999999998 4.6035356521606445 -1.5593561113676806 1.861734692250387 -1.8728186092772425 -1.5708254019366663 3.032923460006714 0.41735443472862244 -0.34645360708236694 0.4786292612552643 -0.11965687572956085 0.00011240446474403143 0.4173281192779541 1 True False
20964.414 4.622986316680908 -1.5754429302611292 1.8835199514972132 -1.879127641717428 -1.570801083241598 3.052064895629883 0.35152468085289 -0.2898739278316498 0.4078187942504883 -0.1107674315571785 -0.00017121736891567707 0.3617258369922638 1 True False
20964.464 4.6391167640686035 -1.5888377628722132 1.9019234816180628 -1.8844720325865687 -1.5708492437945765 3.0683398246765137 0.29803213477134705 -0.2505076825618744 0.33023902773857117 -0.094709612429142 -9.086018663660841e-16 0.2941570580005646 1 True False
20964.514 4.652388572692871 -1.5995546780028285 1.9174321333514612 -1.8883587322630824 -1.570829216633932 3.0813257694244385 0.2307681143283844 -0.19044499099254608 0.26426637172698975 -0.08453786373138428 8.098127745638506e-13 0.24193331599235535 1 True False
20964.564 4.662351131439209 -1.6079260311522425 1.9286797682391565 -1.8917232952513636 -1.5707724730121058 3.0916433334350586 0.17566481232643127 -0.14066866040229797 0.20207342505455017 -0.05343330651521683 -1.3401689478900054e-20 0.17157481610774994 1 True False
20964.613999999998 4.669533729553223 -1.6137029133238734 1.9367621580706995 -1.8939668140807093 -1.570813004170553 3.0987367630004883 0.11079879850149155 -0.095329150557518 0.12522998452186584 -0.034336112439632416 -2.035719528466306e-39 0.11195476353168488 1 True False
20964.664 4.673553466796875 -1.6168981991209925 1.9414580504046839 -1.8952719173827113 -1.570813004170553 3.10274600982666 0.05055711790919304 -0.041260141879320145 0.061879515647888184 -0.018208462744951248 -0.0 0.05140334740281105 1 True False
20964.714 4.67445182800293 -1.617786546746725 1.9426043669330042 -1.8955990276732386 -1.570801083241598 3.103641986846924 0.004512136336416006 0.007193560246378183 0.013130249455571175 -0.012487189844250679 -0.0 -0.0005948538891971111 1 True False
20964.764 4.674465179443359 -1.616880556146139 1.9441292921649378 -1.8980232677855433 -1.5708654562579554 3.103710174560547 0.0004965071566402912 0.02816324681043625 0.049891840666532516 -0.07483698427677155 -0.0 0.0002974675444420427 1 True False
20964.814 4.674443244934082 -1.6148020229735316 1.94789964357485 -1.9040352306761683 -1.5707686583148401 3.103759527206421 0.000577422440983355 0.060802336782217026 0.09635578095912933 -0.156403049826622 -0.0 0.00035868570557795465 1 True False
20964.863999999998 4.67446231842041 -1.611152788201803 1.953529183064596 -1.9133740864195765 -1.5707886854754847 3.103726387023926 0.0008681025356054306 0.08760283142328262 0.1327231377363205 -0.2219109982252121 -0.0 0.0002925551380030811 1 True False
20964.914 4.674540042877197 -1.606039663354391 1.9614761511432093 -1.926220556298727 -1.5707686583148401 3.103722095489502 0.00033598733716644347 0.11223267763853073 0.18381555378437042 -0.2956607937812805 -0.0 0.0001255898387171328 1 True False
20964.964 4.674516201019287 -1.5998665295042933 1.9715102354632776 -1.9426619015135707 -1.5707925001727503 3.103750705718994 0.00011212812387384474 0.13830333948135376 0.22099584341049194 -0.3527398705482483 5.1763683586614206e-05 8.87460628291592e-05 1 True False
20965.014 4.674519062042236 -1.592048784295553 1.9840963522540491 -1.9623424015440882 -1.570768181477682 3.103717565536499 6.909009971423075e-05 0.16225185990333557 0.26306602358818054 -0.43583881855010986 3.2585400924010964e-21 5.055196015746333e-05 1 True False
20965.064 4.6745076179504395 -1.5832401714720667 1.9981382528888147 -1.9856482944884242 -1.5708211104022425 3.1037089824676514 4.992685717297718e-05 0.19281946122646332 0.3143782913684845 -0.49258196353912354 4.949736500611335e-40 -5.316308214571635e-20 1 True False
20965.113999999998 4.67451810836792 -1.5729676685728968 2.01475173631777 -2.0126759014525355 -1.5707362333880823 3.10370135307312 0.0 0.2230939269065857 0.3460920751094818 -0.5652891993522644 0.0 -8.075482664223522e-39 1 True False
20965.164 4.674556255340576 -1.5616101811504741 2.032759491597311 -2.041842599908346 -1.5707648436175745 3.10370135307312 0.0 0.2148672640323639 0.35119757056236267 -0.569145679473877 2.77479506647424e-17 -0.0 1 True False
20965.214 4.674540042877197 -1.5513744757375498 2.049198929463522 -2.068503519097799 -1.5708211104022425 3.103677749633789 0.0 0.19331015646457672 0.305417537689209 -0.49158716201782227 -1.0327000588006285e-08 -0.0 1 True False
20965.264 4.674536228179932 -1.5426233683577557 2.0631921927081507 -2.091672559777731 -1.5707886854754847 3.103693962097168 0.0 0.168868750333786 0.2654147148132324 -0.4334024488925934 -1.5686735026738007e-27 8.371412150154356e-06 1 True False
20965.314 4.674540042877197 -1.5349016052535553 2.075519863759176 -2.11120142559194 -1.5707967917071741 3.103750705718994 0.0 0.1379442662000656 0.2153676152229309 -0.3662855625152588 -0.0 1.2716188314901434e-24 1 True False
20965.363999999998 4.674495697021484 -1.5287666034749527 2.085256878529684 -2.1274296245970667 -1.5707767645465296 3.103717565536499 0.0 0.10979277640581131 0.17908507585525513 -0.2881685793399811 -0.0 1.9337918807682476e-43 1 True False
20965.414 4.674563884735107 -1.523929951047041 2.0931089560138147 -2.140069147149557 -1.570813004170553 3.1037144660949707 2.533099423628145e-20 0.08662750571966171 0.1390872597694397 -0.224899023771286 -0.0 0.0 1 True False
20965.464 4.674560546875 -1.5204070334187527 2.098834816609518 -2.1491672001280726 -1.5707405249225062 3.1037302017211914 0.0 0.05768056586384773 0.09185793995857239 -0.1437111794948578 -0.0 0.0 1 True False
20965.514 4.674535751342773 -1.5182325702956696 2.1023338476764124 -2.154855867425436 -1.5707805792437952 3.1037344932556152 0.0 0.029459156095981598 0.047873251140117645 -0.07685180753469467 -0.0 0.0 1 True False
20965.564 4.674511909484863 -1.5173785288682957 2.1036537329303187 -2.156950136224264 -1.5707972685443323 3.103759527206421 0.0 0.0012408769689500332 0.004333070479333401 -0.010457362048327923 -0.0 0.0 1 True False
20965.613999999998 4.67452335357666 -1.5174308580211182 2.103633228932516 -2.156914850274557 -1.5708087126361292 3.103750705718994 0.0 -9.37334282728134e-16 0.0002381877275183797 5.482682992503929e-13 -0.0 0.0 1 True False
20965.664 4.6745476722717285 -1.5174427789500733 2.1036298910724085 -2.1569463215269984 -1.5707724730121058 3.103726387023926 0.0 0.0 9.467949712416157e-05 -0.00017985865997616202 -0.0 8.242736657848582e-05 1 True False
20965.714 4.674540042877197 -1.517456279402115 2.1036298910724085 -2.1569820843138636 -1.570801083241598 3.1037144660949707 0.0 0.00013910398411098868 4.0099210309563205e-05 -0.0005959187401458621 -0.0 2.504016265447717e-05 1 True False
20965.764 4.674540042877197 -1.5174263764968892 2.103645149861471 -2.157022615472311 -1.5708168188678187 3.1037144660949707 0.0 0.00010922239744104445 3.855812246911228e-05 -0.000821554334834218 -0.0 1.4767276297789067e-05 1 True False
20965.814 4.674563884735107 -1.5174099442413826 2.1036418120013636 -2.1570145092406214 -1.5708168188678187 3.1037344932556152 0.0 0.00017507109441794455 1.846856279019704e-10 -0.00026904058177024126 -0.0 1.0471634595887735e-05 1 True False
20965.863999999998 4.6745476722717285 -1.517448791568615 2.1037071386920374 -2.157114168206686 -1.570784870778219 3.103726387023926 0.0 0.00016119018255267292 5.854791743331589e-05 -0.00011505931615829468 -0.0 2.397428716913664e-21 1 True False
20965.914 4.6745076179504395 -1.5173455824008961 2.103677574788229 -2.157034536401266 -1.570784870778219 3.103759527206421 0.0 0.0001556651695864275 2.769783882246302e-18 -7.018861651886255e-05 -0.0 3.6416944490873346e-40 1 True False
20965.964 4.674540042877197 -1.517406777744629 2.1036623159991663 -2.1570779285826625 -1.5708211104022425 3.103705883026123 0.0 0.00011695412104018033 0.0 -5.0497259508119896e-05 -0.0 0.0 1 True False
20966.014 4.674551963806152 -1.5173456382802506 2.1036461035357874 -2.157074113885397 -1.5707767645465296 3.103710174560547 0.0 9.129320096690208e-05 0.0 -6.60233979181105e-23 -0.0 0.0 1 True False
20966.064 4.674519062042236 -1.5173784655383606 2.103628937398092 -2.1570145092406214 -1.5707810560809534 3.103726387023926 0.0 1.812657427951039e-31 9.252754534827545e-05 -1.0029093109172716e-41 -0.0 0.0 1 True False
20966.113999999998 4.674503326416016 -1.5174443584731598 2.1037266890155237 -2.1570822201170863 -1.570813004170553 3.1037306785583496 0.0 0.0 4.460102910218156e-34 -0.0 -0.0 0.0 1 True False
20966.164 4.674462795257568 -1.5174696196666737 2.1035459677325647 -2.1572262249388636 -1.5707967917071741 3.1037344932556152 -3.186430744963291e-17 0.0005257556331343949 5.958593192190165e-07 -0.0026048938743770123 -0.0 7.842442573746666e-05 1 True False
20966.214 4.674560546875 -1.5174710762551804 2.1035669485675257 -2.1572543583311976 -1.5707529226886194 3.103771448135376 0.0 0.00046729479799978435 0.0003452630480751395 -8.792591688688844e-05 -0.0 2.5441928837126315e-14 1 True False
20966.264 4.674556255340576 -1.5174666208079834 2.1035659948932093 -2.157206197778219 -1.5707686583148401 3.103689670562744 0.0 0.0005709347897209227 0.0007065180689096451 -4.540954218142145e-16 -0.0 3.864634206290048e-33 1 True False
20966.314 4.674466609954834 -1.517838766132929 2.103063408528463 -2.155285497704977 -1.5707805792437952 3.103722095489502 0.0 -0.019725438207387924 -0.034033287316560745 0.06177939102053642 -0.0 0.0 1 True True
20966.363999999998 4.6744914054870605 -1.5197962087443848 2.099722687398092 -2.150356432000631 -1.5708211104022425 3.103755235671997 0.0 -0.05573802441358566 -0.08904743194580078 0.14895305037498474 -0.0 0.0 1 True True
20966.414 4.674504280090332 -1.523192123775818 2.094214741383688 -2.141804357568258 -1.5707562605487269 3.1037344932556152 0.0 -0.08302237838506699 -0.1273287981748581 0.20827102661132812 -0.0 0.0 1 True True
20966.464 4.674499988555908 -1.5279189993492146 2.086902920399801 -2.1298328838744105 -1.5707724730121058 3.103717565536499 0.0 -0.10519236326217651 -0.16943344473838806 0.2745647430419922 -0.0 0.0 1 True True
20966.514 4.674527645111084 -1.5339161095074196 2.0772441069232386 -2.114070554772848 -1.5708048979388636 3.103739023208618 0.0 -0.13093991577625275 -0.21340598165988922 0.357126921415329 -0.0 6.922571316181347e-08 1 True True
20966.564 4.674527645111084 -1.5411830947599192 2.0653417746173304 -2.095201631585592 -1.5708087126361292 3.1036734580993652 0.0 -0.15937572717666626 -0.25539693236351013 0.4070223569869995 -0.0 1.051540185154338e-26 1 True True
20966.613999999998 4.674459934234619 -1.5498446368477126 2.0515616575824183 -2.0725985966124476 -1.570813004170553 3.10370135307312 -1.4013462699274948e-12 -0.1896018236875534 -0.2961001396179199 0.481088250875473 -0.0 1.401298464324817e-45 1 True True
20966.664 4.674556255340576 -1.5599167778021474 2.035558525715963 -2.046462198297018 -1.5708254019366663 3.1037800312042236 0.0 -0.21151089668273926 -0.34867170453071594 0.545673131942749 -0.0 0.0 1 True True
20966.714 4.674527168273926 -1.5710870228209437 2.0176380316363733 -2.017362257043356 -1.570801083241598 3.103766918182373 0.0 -0.22266602516174316 -0.35529381036758423 0.5836749076843262 -0.0 0.0 1 True True
20966.764 4.67452335357666 -1.5815607510008753 2.0006616751300257 -1.9899589023985804 -1.570784870778219 3.103762626647949 0.0 -0.20063641667366028 -0.3224085867404938 0.5177540183067322 -0.0 0.0 1 True True
20966.814 4.674474716186523 -1.5907894573607386 1.986117188130514 -1.9659301243224085 -1.5707767645465296 3.1037464141845703 0.0 -0.1683809459209442 -0.2819461226463318 0.4425967037677765 -0.0 0.0 1 True True
20966.863999999998 4.674511909484863 -1.5986982784666957 1.9734204451190394 -1.945608755151266 -1.5708335081683558 3.103710174560547 0.0 -0.14347615838050842 -0.23394685983657837 0.3761305510997772 -0.0 0.0 1 True True
20966.914 4.674495697021484 -1.6050907574095667 1.963172737752096 -1.928640981713766 -1.5708416144000452 3.103710174560547 0.0 -0.11577048152685165 -0.17972323298454285 0.3070675730705261 -0.0 0.0 1 True True
20966.964 4.674565315246582 -1.610283990899557 1.9547784964190882 -1.9152823887267054 -1.5708211104022425 3.103717565536499 0.0 -0.09125411510467529 -0.1463240534067154 0.24298399686813354 -0.0 0.0 1 True True
20967.014 4.674516201019287 -1.614169260064596 1.9487083593951624 -1.9052049122252406 -1.5707886854754847 3.103717565536499 0.0 -0.0678589716553688 -0.10188593715429306 0.15947194397449493 -0.0 0.0 1 True True
20967.064 4.674522399902344 -1.6166116199889125 1.9445951620685022 -1.8987108669676722 -1.5707886854754847 3.103705883026123 0.0 -0.038586437702178955 -0.05649704858660698 0.0901004746556282 -0.0 0.0 1 True True
20967.113999999998 4.674556732177734 -1.6177779636778773 1.9428289572345179 -1.8958140812315882 -1.5707967917071741 3.1036646366119385 0.0 -0.010944182053208351 -0.014419907703995705 0.027720849961042404 -0.0 0.0 1 True True
20967.164 4.673884868621826 -1.6175667248167933 1.9425390402423304 -1.8955351314940394 -1.5707972685443323 3.1030337810516357 -0.0456058531999588 0.011826903559267521 -0.0179683119058609 0.0027598608285188675 -0.0 -0.03996335342526436 1 True True
20967.214 4.6699113845825195 -1.6166593037047328 1.941136662160055 -1.895303865472311 -1.5707805792437952 3.098968982696533 -0.11668360978364944 0.028735453262925148 -0.03538648784160614 0.00871069636195898 -0.0 -0.11173643171787262 1 True True
20967.264 4.662282943725586 -1.6147500477232875 1.9386585394488733 -1.8949047527708949 -1.5707691351519983 3.0914406776428223 -0.1864442378282547 0.050843626260757446 -0.059666454792022705 0.010736552998423576 -0.0 -0.18082641065120697 1 True True
20967.314 4.651249408721924 -1.611800333062643 1.9353216330157679 -1.894318243066305 -1.5708254019366663 3.080561876296997 -0.2553129196166992 0.06958655267953873 -0.08237659931182861 0.012602605856955051 -0.0 -0.2549658417701721 1 True True
20967.363999999998 4.636807441711426 -1.6079136333861292 1.9306142965899866 -1.8935195408263148 -1.5708282629596155 3.0659356117248535 -0.3186877369880676 0.08827473223209381 -0.10312651842832565 0.017132429406046867 -0.00026889791479334235 -0.32284173369407654 1 True True
20967.414 4.618894100189209 -1.60313143352651 1.9248674551593226 -1.8925816021361292 -1.5707772413836878 3.0480709075927734 -0.3963531255722046 0.1053704023361206 -0.1292269080877304 0.017112040892243385 -2.454914134415048e-21 -0.3917055130004883 1 True True
20967.464 4.597472190856934 -1.597330709496969 1.9181063810931605 -1.8913155994811 -1.570813004170553 3.0265018939971924 -0.46101102232933044 0.12410516291856766 -0.1451377272605896 0.02904052846133709 -3.729023369384057e-40 -0.4580869674682617 1 True True
20967.514 4.572309494018555 -1.5907350979247035 1.9099233786212366 -1.8901392422118128 -1.5708168188678187 3.001566171646118 -0.5271098017692566 0.13965155184268951 -0.16859790682792664 0.029881397262215614 -7.452952559106052e-05 -0.5315113663673401 1 True True
20967.564 4.54380464553833 -1.583219667474264 1.9009035269366663 -1.888625284234518 -1.570784870778219 2.973106861114502 -0.6013429760932922 0.16123758256435394 -0.18591207265853882 0.030237173661589622 -4.107552688040802e-18 -0.6032527685165405 1 True True
20967.613999999998 4.512053489685059 -1.5748211346068324 1.8909509817706507 -1.8868214092650355 -1.570813004170553 2.9412214756011963 -0.6753590703010559 0.1783367246389389 -0.2219989001750946 0.033370550721883774 -0.0006534887943416834 -0.6729092597961426 1 True True
20967.664 4.4765472412109375 -1.5654330591535945 1.8795273939715784 -1.885017534295553 -1.5707610289203089 2.905738115310669 -0.7469171285629272 0.20070521533489227 -0.2368433028459549 0.030860688537359238 0.00023490963212680072 -0.7350669503211975 1 True True
20967.714 4.43775749206543 -1.5550976556590577 1.8671954313861292 -1.882841249505514 -1.5708168188678187 2.8668429851531982 -0.8164030909538269 0.2165309190750122 -0.2578586935997009 0.03838993236422539 -0.003233719617128372 -0.8058427572250366 1 True True
20967.764 4.395380973815918 -1.5440481521985312 1.8536599318133753 -1.8804589710631312 -1.5707891623126429 2.824702739715576 -0.8841951489448547 0.2385890632867813 -0.27695342898368835 0.05433556064963341 -0.00018275831826031208 -0.88450688123703 1 True True
20967.814 4.349431991577148 -1.5316636872342606 1.839043919240133 -1.8781234226622523 -1.5707324186908167 2.778564453125 -0.9525247812271118 0.24957218766212463 -0.3010045289993286 0.050152163952589035 0.0004908591508865356 -0.952029287815094 1 True True
20967.863999999998 4.300091743469238 -1.5186862249723454 1.8233535925494593 -1.8754803142943324 -1.5707324186908167 2.7293360233306885 -1.019934892654419 0.26728737354278564 -0.32470938563346863 0.052594080567359924 0.0001122610701713711 -1.018782377243042 1 True True
20967.914 4.247961521148682 -1.5048254516771813 1.8065384070025843 -1.8725744686522425 -1.5708211104022425 2.6771626472473145 -1.0476744174957275 0.27824723720550537 -0.3346501588821411 0.05297194793820381 2.1218310853991784e-13 -1.0451998710632324 1 True True
20967.964 4.195486545562744 -1.4909723562053223 1.7900655905352991 -1.8698278866209925 -1.570813004170553 2.6247518062591553 -1.0431725978851318 0.2748890519142151 -0.3281973600387573 0.057162992656230927 -0.00027385068824514747 -1.051090955734253 1 True True
20968.014 4.143085956573486 -1.4771452856114884 1.7732756773578089 -1.8669330082335414 -1.5707600752459925 2.5724854469299316 -1.0469505786895752 0.2791944146156311 -0.3328804671764374 0.06322538107633591 0.0007036231108941138 -1.0525164604187012 1 True True
20968.064 4.090826034545898 -1.463085637693741 1.7566617170916956 -1.864213605920309 -1.5708654562579554 2.520050287246704 -1.0519658327102661 0.27449870109558105 -0.3362804353237152 0.05691134184598923 9.522734762867913e-05 -1.040550708770752 1 True True
20968.113999999998 4.038427352905273 -1.4494305414012452 1.740101162587301 -1.861366411248678 -1.5707843939410608 2.467587471008301 -1.0476984977722168 0.2806900143623352 -0.330448716878891 0.057846419513225555 4.7673038352513686e-05 -1.0490028858184814 1 True True
20968.164 3.986011266708374 -1.435367078786232 1.7231887022601526 -1.8584534130492152 -1.5708258787738245 2.4154112339019775 -1.0449106693267822 0.27420204877853394 -0.3337714672088623 0.05603230372071266 9.56291623879224e-05 -1.0459048748016357 1 True True
20968.214 3.933894157409668 -1.4217251551202317 1.7066510359393519 -1.8558293781676234 -1.5708211104022425 2.362913131713867 -1.0518051385879517 0.28039270639419556 -0.33151334524154663 0.05692896991968155 -3.3617063126267777e-12 -1.0389249324798584 1 True True
20968.264 3.881394147872925 -1.4077294629863282 1.6898348967181605 -1.8529192409911097 -1.570756737385885 2.310546398162842 -1.0459240674972534 0.2776479423046112 -0.33670535683631897 0.05575793981552124 -2.5374489176499537e-09 -1.0531597137451172 1 True True
20968.314 3.8290581703186035 -1.3938986969045182 1.6732295195208948 -1.8501159153380335 -1.570801083241598 2.258263349533081 -1.0445553064346313 0.27585288882255554 -0.33280691504478455 0.06224256381392479 -1.8197566900351927e-15 -1.0469802618026733 1 True True
20968.363999999998 3.7767279148101807 -1.3799696576646348 1.6564624945269983 -1.8474050960936488 -1.5708406607257288 2.2059109210968018 -1.0513916015625 0.27923354506492615 -0.3372757136821747 0.059841666370630264 -6.599742887608562e-12 -1.0417077541351318 1 True True
20968.414 3.7242581844329834 -1.3661302638104935 1.6399663130389612 -1.844431062737936 -1.570813004170553 2.1534066200256348 -1.0446088314056396 0.2751237452030182 -0.33623701333999634 0.05174946412444115 -1.0025025836242035e-30 -1.0479313135147095 1 True True
20968.464 3.671912670135498 -1.3523762387088318 1.6230586210833948 -1.8417049847044886 -1.570768181477682 2.101245880126953 -1.0463398694992065 0.2795749306678772 -0.32945773005485535 0.053513895720243454 -9.195166057907045e-05 -1.0511351823806763 1 True True
20968.514 3.619662284851074 -1.3382406693748017 1.6066187063800257 -1.838761945764059 -1.570829216633932 2.048799514770508 -1.0521711111068726 0.27302274107933044 -0.3389871418476105 0.058264341205358505 -6.000932986204716e-14 -1.0442806482315063 1 True True
20968.564 3.567201852798462 -1.3246315878680726 1.5897768179522913 -1.8361264667906703 -1.5707648436175745 1.9963009357452393 -1.045674204826355 0.2811076045036316 -0.3317680358886719 0.057639528065919876 -9.115430452852939e-33 -1.0518951416015625 1 True True
20968.613999999998 3.5149269104003906 -1.3105618220618744 1.5732048193561 -1.8332163296141566 -1.5708091894732874 1.9441016912460327 -1.0457838773727417 0.2745795249938965 -0.3338311016559601 0.05833851546049118 -0.0 -1.0494177341461182 1 True True
20968.664 3.4626176357269287 -1.2968847018531342 1.5563038031207483 -1.8304249248900355 -1.570829216633932 1.8917654752731323 -1.0538114309310913 0.2752079665660858 -0.33669939637184143 0.05594175308942795 -0.0 -1.0439679622650146 1 True True
20968.714 3.4101648330688477 -1.2829036277583619 1.539776627217428 -1.827646871606344 -1.570824925099508 1.8392897844314575 -1.0438693761825562 0.27927330136299133 -0.3304024040699005 0.05355308949947357 -0.0 -1.0442485809326172 1 True True
20968.764 3.3592686653137207 -1.2695166033557435 1.523550812398092 -1.8247915707030238 -1.5708087126361292 1.7885644435882568 -0.9771222472190857 0.2579774260520935 -0.3122301697731018 0.0566280335187912 -2.1374604330048896e-05 -0.9877545833587646 1 True True
20968.814 3.311917304992676 -1.256989286547043 1.5084498564349573 -1.8223511181273402 -1.5708254019366663 1.7410509586334229 -0.9155985713005066 0.24585281312465668 -0.2944401800632477 0.050545357167720795 -3.2468075187744818e-24 -0.9117384552955627 1 True True
20968.863999999998 3.2680039405822754 -1.2452034515193482 1.4945505301104944 -1.8199364147581996 -1.5707929770099085 1.697299838066101 -0.8465424180030823 0.2196180820465088 -0.2701941430568695 0.0494043231010437 0.00012258320930413902 -0.8438745141029358 1 True True
20968.914 3.2278192043304443 -1.2346230310252686 1.4815686384784144 -1.8176948032774867 -1.5708373228656214 1.6568390130996704 -0.7715753316879272 0.19971182942390442 -0.2513241171836853 0.04337061569094658 -3.0603006240248476e-11 -0.7779162526130676 1 True True
20968.964 3.19067645072937 -1.2248649162105103 1.469811741505758 -1.815843244592184 -1.570756737385885 1.619876503944397 -0.7049320340156555 0.19046607613563538 -0.22842776775360107 0.03790857642889023 8.594547398388386e-05 -0.7040647268295288 1 True True
20969.014 3.1572425365448 -1.2158059042743226 1.4592192808734339 -1.8140408001341761 -1.5708487669574183 1.5864523649215698 -0.6357148885726929 0.16813983023166656 -0.20217040181159973 0.02730192244052887 -2.6396652699644135e-18 -0.6322253942489624 1 True True
20969.064 3.1273369789123535 -1.2081400615027924 1.4496844450580042 -1.8123775921263636 -1.5708172957049769 1.556576132774353 -0.5653519034385681 0.14859390258789062 -0.18255233764648438 0.03288332745432854 -0.00019806752970907837 -0.561134397983551 1 True True
20969.113999999998 3.100940704345703 -1.201074705725052 1.441192928944723 -1.810883184472555 -1.5707925001727503 1.5300911664962769 -0.49874186515808105 0.13096903264522552 -0.16285176575183868 0.020341919735074043 -1.829528485631192e-14 -0.4938616156578064 1 True True
20969.164 3.078059673309326 -1.1949417156032105 1.4338162581073206 -1.8097111187376917 -1.5707691351519983 1.5072352886199951 -0.42486900091171265 0.11453600972890854 -0.13423441350460052 0.022655608132481575 -2.7790574591239885e-33 -0.4289133846759796 1 True True
20969.214 3.058602809906006 -1.189753310089447 1.4278081099139612 -1.808634420434469 -1.57074481645693 1.4877192974090576 -0.35251903533935547 0.09082396328449249 -0.1155393049120903 0.0231119804084301 -2.2051817722967826e-06 -0.35600608587265015 1 True True
20969.264 3.042513847351074 -1.1855262976935883 1.4226248900042933 -1.8078419170775355 -1.5708168188678187 1.4717447757720947 -0.2839558720588684 0.07422284036874771 -0.09203758835792542 0.01968168467283249 9.821872737347803e-08 -0.2889142632484436 1 True True
20969.314 3.030109405517578 -1.1822446149638672 1.4186132589923304 -1.8071710071959437 -1.5707929770099085 1.4592740535736084 -0.22070269286632538 0.055606137961149216 -0.07116744667291641 0.010110643692314625 1.491944742578905e-26 -0.21560612320899963 1 True True
20969.363999999998 3.0211241245269775 -1.179914490585663 1.415884796773092 -1.8066655598082484 -1.5708211104022425 1.4502677917480469 -0.14577242732048035 0.03981765732169151 -0.04839629307389259 0.006034018937498331 -4.74193220725283e-05 -0.14496681094169617 1 True True
20969.414 3.0156147480010986 -1.1784651738456269 1.4139364401446741 -1.8064428768553675 -1.5707972685443323 1.444788932800293 -0.07338901609182358 0.02081712894141674 -0.022506315261125565 0.007306111976504326 -2.8588616260094568e-05 -0.08101390302181244 1 True True
20969.464 3.0135762691497803 -1.1779372853091736 1.4133699576007288 -1.8063112697997035 -1.5707767645465296 1.4427083730697632 -0.005919602699577808 0.00047029281267896295 -0.0009746585274115205 0.0004439174081198871 -2.0463157852645963e-05 -0.008391655050218105 1 True True
20969.514 3.0136559009552 -1.1773552161506196 1.414351765309469 -1.8076030216612757 -1.5707967917071741 1.4428253173828125 -0.0024598329328000546 0.023923369124531746 0.0415671281516552 -0.06735969334840775 -1.4969963487244367e-22 -4.982363316230476e-05 1 True True
20969.564 3.013660192489624 -1.1758495432189484 1.4175570646869105 -1.8127523861327113 -1.5707648436175745 1.4427928924560547 -0.0002581758890300989 0.041672393679618835 0.08919034153223038 -0.14458400011062622 -2.2738870180598807e-41 -0.00020455376943573356 1 True True
20969.613999999998 3.013615608215332 -1.1730963450721283 1.4234169165240687 -1.8212782345213832 -1.5707572142230433 1.4427647590637207 -0.0002605248591862619 0.06642959266901016 0.1422233134508133 -0.21270638704299927 -0.0 -0.0002645287022460252 1 True True
20969.664 3.013627529144287 -1.1691885453513642 1.4315765539752405 -1.8331452808775843 -1.570784870778219 1.4427893161773682 -0.00029558109235949814 0.087468221783638 0.18906621634960175 -0.27163100242614746 -6.165702507132664e-05 -0.0001433105644537136 1 True True
20969.714 3.013558864593506 -1.1642441612533112 1.442092243825094 -1.848666330377096 -1.5707891623126429 1.4428261518478394 -0.00014254263078328222 0.10997393727302551 0.23413822054862976 -0.3484838604927063 -0.00012218570918776095 -8.346070535480976e-05 1 True True
20969.764 3.0135838985443115 -1.1579727095416565 1.4549663702594202 -1.8675829372801722 -1.5708006064044397 1.4427083730697632 -0.00011449823796283454 0.13033656775951385 0.27118951082229614 -0.4061966836452484 -0.00010188862506765872 -6.842465518275276e-05 1 True True
20969.814 3.0135838985443115 -1.1507522922805329 1.4699891249286097 -1.889965673486227 -1.5708168188678187 1.4428220987319946 -0.0001075688996934332 0.15555398166179657 0.3278522193431854 -0.48527535796165466 -8.29177224659361e-05 -4.798682627069105e-15 1 True True
20969.863999999998 3.0135960578918457 -1.1424829226783295 1.4877079168902796 -1.9159108601012171 -1.5707452932940882 1.442781925201416 -0.00010866662341868505 0.17147116363048553 0.3627849519252777 -0.5443853139877319 -5.219461601492371e-21 -7.2892083270253495e-34 1 True True
20969.914 3.0135881900787354 -1.1344494384578248 1.5045974890338343 -1.9413649044432582 -1.5708006064044397 1.4427529573440552 -4.054774763062596e-05 0.15217575430870056 0.3228059411048889 -0.4676305949687958 -1.2236315711013203e-17 -0.0 1 True True
20969.964 3.0135838985443115 -1.1271408957294007 1.5195563475238245 -1.9629479847350062 -1.570801083241598 1.4427452087402344 2.8846596251241863e-05 0.12891259789466858 0.27447670698165894 -0.4082947075366974 -2.0269177184673026e-05 -2.8871965929155863e-10 1 True True
20970.014 3.0135467052459717 -1.121371404533722 1.531783405934469 -1.9813505611815394 -1.570824925099508 1.4427971839904785 3.202875814167783e-05 0.10570406913757324 0.22976340353488922 -0.336848646402359 -2.593494536995422e-05 -5.537494291232847e-13 1 True True
20970.064 3.0135676860809326 -1.1166215997985383 1.542048756276266 -1.9962431393065394 -1.5707929770099085 1.4427495002746582 3.3251653803745285e-05 0.07983510196208954 0.17812354862689972 -0.2614472508430481 -1.9414645890947213e-08 -8.411469057005307e-32 1 True True
20970.113999999998 3.0135598182678223 -1.1128960114768525 1.5496481100665491 -2.0075932941832484 -1.5707605520831507 1.4427410364151 3.0831346521154046e-05 0.061456117779016495 0.13358259201049805 -0.2040390521287918 -2.949089856992677e-27 -0.0 1 True True
20970.164 3.013608932495117 -1.1104285281947632 1.554939095173971 -2.0155497990050257 -1.5708125273333948 1.4427893161773682 0.0 0.04072229936718941 0.08256270736455917 -0.1209443137049675 -0.0 -0.0 1 True True
20970.214 3.0135719776153564 -1.1089760822108765 1.5578668753253382 -2.0199080906310023 -1.570813004170553 1.4427286386489868 0.0 0.016167931258678436 0.03630583733320236 -0.0654146745800972 -0.0 -0.0 1 True True
20970.264 3.0135838985443115 -1.108929918413498 1.558349911366598 -2.0210610828795375 -1.5708006064044397 1.442765712738037 0.0 0.0008618710562586784 0.0021433390211313963 0.0013271229108795524 -2.2326849570541984e-12 -0.0 1 True True
20970.314 3.013592481613159 -1.1089084309390564 1.558410946522848 -2.02102055172109 -1.5707724730121058 1.4428014755249023 0.0 0.0032161828130483627 0.003976012580096722 0.001528892433270812 -3.391453546190166e-31 -0.0 1 True True
20970.363999999998 3.0135555267333984 -1.1085187059691926 1.5587552229510706 -2.02077641109609 -1.5707648436175745 1.4427614212036133 0.0 0.010907642543315887 0.013886326923966408 0.021356983110308647 -0.0 -0.0 1 True True
20970.414 3.01357102394104 -1.1084266763976593 1.5589125792132776 -2.0206223926939906 -1.5707362333880823 1.4427372217178345 0.00021073641255497932 -0.0036071932408958673 -0.008887994103133678 -0.010748231783509254 -6.701240636175498e-05 -0.002280083717778325 1 True True
20970.464 3.013592481613159 -1.108404503469803 1.558924976979391 -2.020677705804342 -1.570784870778219 1.4427690505981445 6.167693936731666e-05 -0.004850206431001425 -0.00452443677932024 -0.003213998395949602 -4.484761639347976e-20 -1.9343876500599322e-10 1 True False
20970.514 3.0135881900787354 -1.1084431272796174 1.5588539282428187 -2.0207253895201625 -1.570784870778219 1.4427977800369263 -7.906125935720618e-42 -0.002216055989265442 -0.002928756643086672 -0.0011282737832516432 -6.812362037570382e-39 7.502107473555952e-05 1 True False
20970.564 3.013559103012085 -1.1085997384837647 1.5587251822101038 -2.020865579644674 -1.5708373228656214 1.442781925201416 0.0 -0.001226353459060192 -0.0007776110433042049 -0.0004450648557394743 -0.0 3.6750723666045815e-05 1 True False
20970.613999999998 3.0136241912841797 -1.108604149227478 1.5586407820331019 -2.020769258538717 -1.5707486311541956 1.442765712738037 0.0 -0.011138468980789185 -0.02115825191140175 0.015812130644917488 -0.0 3.64961706509348e-05 1 True False
20970.664 3.0136046409606934 -1.1096267265132447 1.5568960348712366 -2.0182749233641566 -1.5707605520831507 1.4427168369293213 0.0 -0.024663101881742477 -0.05590590462088585 0.08974156528711319 -0.0 1.033897360086522e-11 1 True False
20970.714 3.0135881900787354 -1.1113090974143525 1.5531037489520472 -2.012447496453756 -1.5707967917071741 1.4427934885025024 0.0 -0.04979592561721802 -0.11320909857749939 0.15072789788246155 -0.0 4.581670216504712e-24 1 True False
20970.764 3.0135838985443115 -1.1143928927234192 1.5466130415545862 -2.0028826198973597 -1.5708048979388636 1.442781925201416 0.0 -0.07233230769634247 -0.15174688398838043 0.23710216581821442 -0.0 9.158314787782729e-05 1 True False
20970.814 3.0135676860809326 -1.1185880166343232 1.537670914326803 -1.9899689159789027 -1.5707805792437952 1.4427776336669922 0.0 -0.09692871570587158 -0.199680894613266 0.29742851853370667 -6.373389038749622e-10 7.283785089384764e-05 1 True False
20970.863999999998 3.0135512351989746 -1.123873845939972 1.52661639848818 -1.973659177819723 -1.5707891623126429 1.4427648782730103 0.0 -0.11403056234121323 -0.24499297142028809 0.35967448353767395 -9.681193625779058e-29 1.548184323796331e-11 1 True False
20970.914 3.0136241912841797 -1.1303590697101136 1.5131753126727503 -1.9536634884276332 -1.5708048979388636 1.4427862167358398 0.0 -0.14046639204025269 -0.28859931230545044 0.4335215091705322 -0.0 2.3516953148087413e-30 1 True False
20970.964 3.013584852218628 -1.137912170296051 1.4972580114947718 -1.9302550754942835 -1.5708487669574183 1.442765712738037 0.0 -0.1672082096338272 -0.345145046710968 0.49022266268730164 -0.0 0.0 1 True False
20971.014 3.0135838985443115 -1.1464351874640961 1.479358975087301 -1.9038554630675257 -1.5707686583148401 1.4427452087402344 0.0 -0.17292581498622894 -0.35610443353652954 0.5199984312057495 -0.0 0.0 1 True False
20971.064 3.0136122703552246 -1.1542981725982209 1.4629839102374476 -1.8795563183226527 -1.5707686583148401 1.4427934885025024 0.0 -0.143125981092453 -0.3072836995124817 0.4638129472732544 -0.0 0.0 1 True False
20971.113999999998 3.0135838985443115 -1.160931484108307 1.4489553610431116 -1.8586284122862757 -1.5707648436175745 1.4427977800369263 0.0 -0.12288624048233032 -0.26266998052597046 0.38998112082481384 -0.0 0.0 1 True False
20971.164 3.013559103012085 -1.1665674310973664 1.4370082060443323 -1.8412958584227503 -1.5707891623126429 1.4427934885025024 0.0 -0.09771037101745605 -0.20802761614322662 0.3080705404281616 -0.0 0.0 1 True False
20971.214 3.0135512351989746 -1.1710312527469178 1.4277837912188929 -1.8273784122862757 -1.5707724730121058 1.4427849054336548 0.0 -0.078440822660923 -0.16566868126392365 0.2425227165222168 -0.0 0.0 1 True False
20971.264 3.0135838985443115 -1.174411342745163 1.4207113424884241 -1.8169628582396449 -1.570801083241598 1.4427849054336548 0.0 -0.05433438718318939 -0.12041319161653519 0.18273940682411194 -5.61628429436171e-20 0.0 1 True False
20971.314 3.0135796070098877 -1.1766331654838105 1.4160955587970179 -1.8099380932249964 -1.5708006064044397 1.4427978992462158 0.0 -0.035284943878650665 -0.07086899876594543 0.10758988559246063 -8.53114849106188e-39 0.0 1 True False
20971.363999999998 3.013546943664551 -1.1777442258647461 1.4136632124530237 -1.8066655598082484 -1.5708449522601526 1.442826271057129 0.0 -0.012037452310323715 -0.02275172248482704 0.035323966294527054 -0.0 0.0 1 True False
20971.414 3.0135719776153564 -1.1777398449233552 1.4134143034564417 -1.806314607659811 -1.5707967917071741 1.442780613899231 0.0 0.0002498750400263816 -2.7522668172297315e-11 -1.0563305295363534e-05 -0.0 0.0 1 False False
20971.464 3.013625144958496 -1.1777561467937012 1.4134224096881312 -1.8063227138915003 -1.5707891623126429 1.442773461341858 0.0 0.0 -6.476381112570007e-41 0.000284564564935863 -0.0 0.0 1 False False
20971.514 3.013542652130127 -1.1778130692294617 1.413344685231344 -1.8063308201231898 -1.5708211104022425 1.442834734916687 0.0 -0.0002784462703857571 -0.00010051961726276204 0.0006517768488265574 -0.0 0.0 1 False False
20971.564 3.0135838985443115 -1.1779059630683442 1.4134023825274866 -1.80627503017568 -1.5707967917071741 1.442773461341858 0.0 -0.0006321761757135391 -0.00020508626766968518 0.0009463727474212646 -0.0 0.0 1 False False
20971.613999999998 3.0135881900787354 -1.177844451074936 1.4133532683001917 -1.806303163568014 -1.57074481645693 1.44281005859375 0.0 -0.0004573795013129711 -0.00032852235017344356 0.0002681135374587029 -0.0 0.0 1 False False
20971.664 3.0136165618896484 -1.1778310996345063 1.4133413473712366 -1.8063112697997035 -1.5707724730121058 1.4427862167358398 0.0 -0.0001981358218472451 -0.0002168649953091517 0.00012004849122604355 -0.0 0.0 1 False False
20971.714 3.0135796070098877 -1.17782677829776 1.413436237965719 -1.8063112697997035 -1.570784870778219 1.4428380727767944 0.0 -0.00020801843493245542 -0.00011377578630344942 8.640014129923657e-05 -0.0 0.0 1 False False
20971.764 3.013575315475464 -1.1778643888286133 1.4133575598346155 -1.8062550030150355 -1.5707805792437952 1.4427486658096313 0.0 -0.00011131637438666075 -8.69421346578747e-05 6.172123539727181e-05 -0.0 0.0 1 False False
20971.814 3.0135464668273926 -1.1778926116279145 1.4133871237384241 -1.8062507114806117 -1.5707891623126429 1.442821979522705 0.0 -8.570564386900514e-05 -4.0264902414870185e-13 1.0680075028215577e-21 -0.0 0.0 1 False False
20971.863999999998 3.0135302543640137 -1.1778224569610138 1.4133709112750452 -1.8062550030150355 -1.5707886854754847 1.4427776336669922 0.0 -1.8135254768041763e-20 -3.5313623136801198e-09 1.6223112581181272e-40 -0.0 0.0 1 False False
20971.914 3.0135838985443115 -1.1778644186309357 1.4133504072772425 -1.8062435589232386 -1.5707967917071741 1.4427496194839478 0.0 0.0 -8.309663459686093e-39 0.0 -0.0 0.0 1 False False
20971.964 3.0136005878448486 -1.1778556567481537 1.413375202809469 -1.8062712154784144 -1.5707767645465296 1.4427776336669922 0.0 0.0 -0.0 0.0 -0.0 0.0 1 False False
20972.014 3.0136168003082275 -1.177871899013855 1.4133709112750452 -1.8062874279417933 -1.5707362333880823 1.4427971839904785 0.0 0.0 -0.0 0.0 -0.0 0.0 1 False False
20972.064 3.0136005878448486 -1.1778513056090851 1.413403336201803 -1.8062387905516566 -1.5707805792437952 1.4427690505981445 0.0 0.0 -0.0 0.0 -0.0 0.0 1 False False
20972.113999999998 3.0135719776153564 -1.1779177647880097 1.4133871237384241 -1.8063112697997035 -1.5707925001727503 1.442765712738037 0.0 0.0 -0.0 0.0 -0.0 0.0 1 False False
20972.164 3.0135750770568848 -1.177892581825592 1.4133299032794397 -1.8062793217101039 -1.5708416144000452 1.44281005859375 0.0 0.0 -0.0 0.0 -0.0 0.0 1 False False
20972.214 3.0135345458984375 -1.177880660896637 1.413375202809469 -1.8062550030150355 -1.5707405249225062 1.44280207157135 0.0 0.0 -0.0 0.0 -0.0 0.0 1 False False
20972.264 3.0135586261749268 -1.1779177647880097 1.413403336201803 -1.8062473736205042 -1.5707648436175745 1.442834734916687 0.0 0.0 -0.0 0.0 -0.0 0.0 1 False False
20972.314 3.0135765075683594 -1.177843139772751 1.4133828322040003 -1.8062712154784144 -1.5707767645465296 1.4428057670593262 0.0 0.0 -0.0 0.0 -0.0 0.0 1 False False
20972.363999999998 3.0135927200317383 -1.17783875883136 1.4133699576007288 -1.8063112697997035 -1.5707967917071741 1.44280207157135 0.0 0.0 -0.0 0.0 -0.0 0.0 1 True False
20972.414 3.0135674476623535 -1.177922086124756 1.4133589903460901 -1.8063036404051722 -1.5707443396197718 1.44280207157135 0.0 0.0 -0.0 0.0 -0.0 0.0 1 True False
20972.464 3.0135884284973145 -1.1778311890414734 1.4133709112750452 -1.806263109246725 -1.5708168188678187 1.442745327949524 0.0 0.0 -0.0 0.0 -0.0 5.2583616277228814e-20 1 True False
20972.514 3.0135464668273926 -1.1778969329646607 1.4133580366717737 -1.8062111339964808 -1.5708335081683558 1.4427849054336548 0.0 0.0 -0.0 0.0 -0.0 7.987465706380816e-39 1 True False
20972.564 3.0135676860809326 -1.1778357785991211 1.4133742491351526 -1.8062588177123011 -1.5707886854754847 1.442818522453308 0.0 0.0 -1.1798228332627021e-33 0.0 -0.0 0.0 1 True False
20972.613999999998 3.0135838985443115 -1.1778763395598908 1.4133871237384241 -1.8062669239439906 -1.5707886854754847 1.4427934885025024 0.0 0.0 -0.0 0.0 -0.0 0.0 1 True False
20972.664 3.0135598182678223 -1.1778719586184998 1.4133999983416956 -1.8062669239439906 -1.5707886854754847 1.4428106546401978 0.0 0.0 -0.0 0.0 -0.0 0.0 1 True False
20972.714 3.0136301517486572 -1.1779013735106965 1.4133589903460901 -1.8062669239439906 -1.5708211104022425 1.4428057670593262 0.0 -2.0444495546418875e-27 -0.0 0.0 -0.0 0.0 1 True False
20972.764 3.01363468170166 -1.1778882306865235 1.4133742491351526 -1.8062712154784144 -1.5707886854754847 1.44281005859375 7.350233014222335e-35 0.0 -0.0 0.0 -0.0 1.9573512603183203e-24 1 True False
20972.814 3.0135927200317383 -1.1778882306865235 1.4133341948138636 -1.8062917194762171 -1.5707967917071741 1.4427862167358398 0.0 0.0 -0.0 0.0 -0.0 0.00010017430759035051 1 True False
20972.863999999998 3.0135793685913086 -1.1778882306865235 1.4133504072772425 -1.8062707386412562 -1.5708087126361292 1.4428186416625977 0.0 0.0 -0.0 0.0 -0.0 -0.0004906717222183943 1 True False
20972.914 3.0135719776153564 -1.177855746155121 1.4133837858783167 -1.8062917194762171 -1.5707648436175745 1.4428133964538574 0.0 0.0 -0.0 0.0 7.672160129423844e-11 -4.513449312071316e-06 1 True False
20972.964 3.0136213302612305 -1.1778719586184998 1.4133871237384241 -1.8063112697997035 -1.570801083241598 1.442846655845642 0.0 0.0 -0.0 0.0 1.1654027788402522e-29 -3.1007369510851655e-16 1 True False
20973.014 3.01361083984375 -1.1778643888286133 1.4133828322040003 -1.8062831364073695 -1.5707648436175745 1.4428374767303467 0.03133274242281914 0.0 -0.0 0.0 0.0 0.013997158035635948 1 True False
20973.064 3.0160040855407715 -1.1780312818339844 1.4135149160968226 -1.8063227138915003 -1.570796314870016 1.4452589750289917 0.081197589635849 -0.008546512573957443 0.008898576721549034 -0.0019541513174772263 -3.189534469871802e-10 0.07957108318805695 1 True False
20973.113999999998 3.0220625400543213 -1.1785236460021515 1.4140823523150843 -1.806389947930807 -1.5707967917071741 1.4511572122573853 0.15108221769332886 -0.012150074355304241 0.013640047051012516 -0.00362436193972826 -4.8449093913321873e-29 0.1536765992641449 1 True False
20973.164 3.0313234329223633 -1.1790759426406403 1.415013615285055 -1.8066860638060511 -1.5708044211017054 1.4605276584625244 0.22382871806621552 -0.013832539319992065 0.02233954705297947 -0.006139189936220646 -0.0 0.21962447464466095 1 True False
20973.214 3.044240951538086 -1.1800318223289032 1.416288201008932 -1.8070842228331507 -1.5708044211017054 1.4734612703323364 0.290789395570755 -0.019721100106835365 0.02849474735558033 -0.010134638287127018 7.870826811995357e-05 0.28922197222709656 1 True False
20973.264 3.060600757598877 -1.1811074179461976 1.417818848286764 -1.807502885858053 -1.5708168188678187 1.4898048639297485 0.36019906401634216 -0.025570916011929512 0.03246014565229416 -0.008662485517561436 7.666625606361777e-05 0.35974133014678955 1 True False
20973.314 3.080500602722168 -1.1825161439231415 1.4197056929217737 -1.808066030541891 -1.570784870778219 1.5095772743225098 0.4316045939922333 -0.029226070269942284 0.042051222175359726 -0.01013217307627201 1.7166866372839658e-17 0.4290587902069092 1 True False
20973.363999999998 3.103714942932129 -1.1840628546527405 1.4219453970538538 -1.8086992702879847 -1.5708335081683558 1.5330427885055542 0.5023272037506104 -0.03501024469733238 0.0466899499297142 -0.015733662992715836 3.264889164711349e-05 0.5019709467887878 1 True False
20973.414 3.1306796073913574 -1.186002956037857 1.4245742003070276 -1.8094374142088832 -1.5707648436175745 1.5598576068878174 0.5664809346199036 -0.038189977407455444 0.053230371326208115 -0.016590064391493797 6.452437810366973e-05 0.5664551854133606 1 True False
20973.464 3.16109561920166 -1.1880116027644654 1.4275110403644007 -1.8101026020445765 -1.5707443396197718 1.5902125835418701 0.6480187773704529 -0.044557806104421616 0.06343290209770203 -0.017009682953357697 0.0007106657139956951 0.6375792622566223 1 True False
20973.514 3.1948635578155518 -1.1904053849032898 1.4307978788958948 -1.8110391102232875 -1.5707648436175745 1.6240386962890625 0.7159062027931213 -0.04960409924387932 0.07068910449743271 -0.018925681710243225 0.0010567038552835584 0.7071476578712463 1 True False
20973.564 3.232102632522583 -1.192981169824936 1.4342344442950647 -1.8121687374510707 -1.57074481645693 1.6613712310791016 0.7835451364517212 -0.05477859452366829 0.07529693096876144 -0.018439246341586113 -5.555092866416089e-05 0.7740387916564941 1 True False
20973.613999999998 3.27298903465271 -1.195764885549881 1.4382689634906214 -1.8132573566832484 -1.5708325544940394 1.7021130323410034 0.8465695381164551 -0.05635342746973038 0.08263012021780014 -0.02407924458384514 1.949230681930203e-05 0.8450489044189453 1 True False
20973.664 3.3171958923339844 -1.198935554628708 1.442498509083883 -1.8144084415831507 -1.5708406607257288 1.7464778423309326 0.9229986071586609 -0.06567477434873581 0.08873512595891953 -0.023146161809563637 2.96088626418371e-24 0.9117277264595032 1 True False
20973.714 3.364994764328003 -1.2021033030799408 1.4471748510943812 -1.8156606159605921 -1.5707767645465296 1.794248342514038 0.9881497621536255 -0.06620929390192032 0.09188845753669739 -0.029453080147504807 4.498168070482663e-43 0.9854250550270081 1 True False
20973.764 3.416240692138672 -1.2056883436492463 1.4519479910479944 -1.8169485531248988 -1.5708048979388636 1.845463752746582 1.0395259857177734 -0.07119384407997131 0.10186930000782013 -0.02718288078904152 0.0 1.0473659038543701 1 True False
20973.814 3.468506336212158 -1.2092764240554352 1.4568718115436 -1.8184315166869105 -1.5707929770099085 1.8977142572402954 1.0451223850250244 -0.07244165986776352 0.10423138737678528 -0.03112395666539669 0.0 1.0505844354629517 1 True False
20973.863999999998 3.5209412574768066 -1.2128601235202332 1.4618929068194788 -1.8199306927123011 -1.5707805792437952 1.950202226638794 1.0459003448486328 -0.07076824456453323 0.09957513958215714 -0.031019048765301704 0.0 1.0380061864852905 1 True False
20973.914 3.5732784271240234 -1.2164636117270966 1.4669259230243128 -1.8211986027159632 -1.5707324186908167 2.0025174617767334 1.052893042564392 -0.07033954560756683 0.10031762719154358 -0.02529504895210266 -7.881026976974681e-05 1.0456207990646362 1 True False
20973.964 3.625670909881592 -1.2200835806182404 1.4719865957843226 -1.8227540455260218 -1.5707281271563929 2.0548696517944336 1.0437504053115845 -0.06968473643064499 0.10235049575567245 -0.027234544977545738 2.9824987965443306e-12 1.0505893230438232 1 True False
20974.014 3.678036689758301 -1.2237332624248047 1.4770129362689417 -1.8240448437132777 -1.570813004170553 2.107239007949829 1.0439445972442627 -0.07237569242715836 0.0979500561952591 -0.02856449782848358 4.530421525950482e-31 1.0416868925094604 1 True False
20974.064 3.730405569076538 -1.227353261118271 1.4820244948016565 -1.825444837609762 -1.5708048979388636 2.1596333980560303 1.0506666898727417 -0.0718948170542717 0.09776761382818222 -0.032272156327962875 0.0 1.0496599674224854 1 True False
20974.113999999998 3.782709836959839 -1.2309081119349976 1.4870455900775355 -1.8269158802428187 -1.5707891623126429 2.211819648742676 1.044625997543335 -0.07264398038387299 0.09907270967960358 -0.02568233758211136 0.0 1.056746482849121 1 True False
20974.164 3.8350799083709717 -1.2344922882369538 1.49205190340151 -1.8282705746092738 -1.5707886854754847 2.264324188232422 1.0457228422164917 -0.07517305016517639 0.10248971730470657 -0.029484272003173828 -2.4664424927323125e-05 1.0388199090957642 1 True False
20974.214 3.887432098388672 -1.2381532055190583 1.4969738165484827 -1.82975496868276 -1.5708048979388636 2.316689968109131 1.0517351627349854 -0.07456573843955994 0.10043690353631973 -0.03003772906959057 2.6459427317604423e-05 1.0479021072387695 1 True False
20974.264 3.939836263656616 -1.2417257887176056 1.502085034047262 -1.8310266933836878 -1.5707925001727503 2.3689942359924316 1.0438858270645142 -0.07251313328742981 0.10190622508525848 -0.025857483968138695 2.4089854155791814e-21 1.0483309030532837 1 True False
20974.314 3.992290496826172 -1.2453452509692688 1.507179085408346 -1.832529684106344 -1.5707686583148401 2.421381711959839 1.0458414554595947 -0.07043793797492981 0.10040035098791122 -0.027770204469561577 3.6592527188453246e-40 1.042590618133545 1 True False
20974.363999999998 4.044528484344482 -1.249014602308609 1.5121386686908167 -1.834013124505514 -1.5708373228656214 2.4738056659698486 1.0533199310302734 -0.07293111830949783 0.09916647523641586 -0.024734584614634514 0.0 1.049419641494751 1 True False
20974.414 4.096802711486816 -1.252526507978775 1.5170562903033655 -1.8352557621397914 -1.5707481543170374 2.526045083999634 1.0477917194366455 -0.07266306132078171 0.09780676662921906 -0.02658257633447647 7.823768100934103e-05 1.056879997253418 1 True False
20974.464 4.149227619171143 -1.2562315625003357 1.522111717854635 -1.8366557560362757 -1.5707967917071741 2.5784449577331543 1.0417040586471558 -0.07134084403514862 0.10174568742513657 -0.026927098631858826 7.031430141068995e-05 1.0350863933563232 1 True False
20974.514 4.201634407043457 -1.2598077219775696 1.5271628538714808 -1.8380910358824671 -1.570784870778219 2.630866527557373 1.0488914251327515 -0.0732726976275444 0.10120582580566406 -0.03002595342695713 -3.3382869192805216e-19 1.046130657196045 1 True False
20974.564 4.253975868225098 -1.2634766858867188 1.5320995489703577 -1.8394867382445277 -1.5708048979388636 2.683159351348877 1.0450347661972046 -0.07398325204849243 0.10179626941680908 -0.031087329611182213 -5.070865300386958e-38 1.0495212078094482 1 True False
20974.613999999998 4.30623197555542 -1.2670033437064667 1.537290398274557 -1.8409415684142054 -1.570801083241598 2.735426902770996 1.0241578817367554 -0.07107125967741013 0.0964558869600296 -0.025508353486657143 -0.0 1.01707923412323 1 True False
20974.664 4.355745792388916 -1.2704518300345917 1.542034927998678 -1.8422256908812464 -1.5708168188678187 2.784977436065674 0.963871955871582 -0.06535642594099045 0.092011459171772 -0.020733196288347244 -0.0 0.9577404856681824 1 True False
20974.714 4.401711940765381 -1.2736738187125702 1.5462592283831995 -1.843433519402975 -1.570829216633932 2.830874443054199 0.8841063380241394 -0.061085738241672516 0.08341068029403687 -0.019649213179945946 -0.00010991918679792434 0.8868128657341003 1 True False
20974.764 4.4443440437316895 -1.2765742999366303 1.5503366629229944 -1.8445717296996058 -1.570784870778219 2.8735899925231934 0.8180934190750122 -0.05543685704469681 0.07659745961427689 -0.0210333950817585 -8.826841076370329e-05 0.8222282528877258 1 True False
20974.814 4.483419895172119 -1.2792800825885315 1.5540865103351038 -1.8456560573973597 -1.5708168188678187 2.9127211570739746 0.7496088743209839 -0.05125870928168297 0.07545097917318344 -0.020894182845950127 -1.20869358966047e-07 0.7490435242652893 1 True False
20974.863999999998 4.51888370513916 -1.2816714209369202 1.557528320943014 -1.8467627964415492 -1.570801083241598 2.94830322265625 0.6807745099067688 -0.04709695279598236 0.06471860408782959 -0.01888296566903591 -1.8360087375069825e-26 0.672473669052124 1 True False
20974.914 4.551033973693848 -1.283896343117096 1.5606258551227015 -1.8474976025023402 -1.5707805792437952 2.980435609817505 0.605404257774353 -0.040855228900909424 0.06328308582305908 -0.01598726212978363 -2.802596928649634e-45 0.6025497317314148 1 True False
20974.964 4.5795674324035645 -1.2859385174563904 1.5633419195758265 -1.8482643566527308 -1.5708211104022425 3.0090246200561523 0.5360841155052185 -0.03544127941131592 0.05075043812394142 -0.014223558828234673 -2.1013624325848246e-13 0.5352427959442139 1 True False
20975.014 4.604736328125 -1.287625865345337 1.5657942930804651 -1.84889616588735 -1.5708048979388636 3.034062385559082 0.46376338601112366 -0.0321299247443676 0.044028181582689285 -0.015926543623209 -3.191975857662829e-32 0.46843764185905457 1 True False
20975.064 4.626556396484375 -1.2891746026328583 1.5678775946246546 -1.8494330845274867 -1.570756737385885 3.055614948272705 0.3979753851890564 -0.0271605234593153 0.0400565043091774 -0.011091336607933044 0.0006093753618188202 0.4066607654094696 1 True False
20975.113999999998 4.6446685791015625 -1.2903660100749512 1.5696623961078089 -1.8499337635436 -1.5708048979388636 3.073723316192627 0.33582985401153564 -0.024279287084937096 0.02954123541712761 -0.0062767029739916325 0.0002425953425699845 0.3264983594417572 1 True False
20975.164 4.6591410636901855 -1.2913876932910462 1.570951286946432 -1.8503433666624964 -1.570784870778219 3.088425397872925 0.2589929699897766 -0.017807986587285995 0.024009406566619873 -0.007256743963807821 -7.654273940715939e-05 0.25859516859054565 1 True False
20975.214 4.670324802398682 -1.2921095353415986 1.5720723311053675 -1.8506933651366175 -1.5707967917071741 3.0996506214141846 0.1920747607946396 -0.013241440057754517 0.01770460233092308 -0.0069595398381352425 -1.8552009350969456e-05 0.18938903510570526 1 True False
20975.264 4.677978038787842 -1.2926803094199677 1.5727837721454065 -1.850900789300436 -1.5707882086383265 3.1071949005126953 0.11812513321638107 -0.00629970571026206 0.011318251490592957 -0.0031727792229503393 -1.2242562661413103e-05 0.12027093023061752 1 True False
20975.314 4.682154178619385 -1.2929032903960724 1.5731361548053187 -1.8510281048216761 -1.5707967917071741 3.1113054752349854 0.04858950898051262 -0.0025357611011713743 0.002661907346919179 -0.002605024492368102 -6.146663907025118e-12 0.05084164813160896 1 True False
20975.363999999998 4.682950973510742 -1.292869732981064 1.5733807722674769 -1.8513943157591761 -1.5707967917071741 3.1121747493743896 -0.004856406711041927 0.0016131268348544836 0.024718772619962692 -0.0437728688120842 -9.33679552293164e-31 0.00037273071939125657 1 True False
20975.414 4.682971954345703 -1.2921933394721528 1.5753029028521937 -1.8540216885008753 -1.5707925001727503 3.1121582984924316 0.0005219377926550806 0.03075552172958851 0.05904882401227951 -0.09759727120399475 -1.663116866446046e-11 0.0005249797832220793 1 True False
20975.464 4.682933807373047 -1.2899580162814637 1.5792563597308558 -1.8602563343443812 -1.5707767645465296 3.1122524738311768 0.000664112507365644 0.06067926064133644 0.1015743762254715 -0.16100020706653595 -2.5262782311600984e-30 0.0009492905810475349 1 True False
20975.514 4.6830034255981445 -1.2863891285708924 1.585635010396139 -1.870153089562887 -1.570853058491842 3.112236261367798 0.000593556382227689 0.08595679700374603 0.14998577535152435 -0.2312515527009964 -0.0 0.0002324801025679335 1 True False
20975.564 4.683007717132568 -1.2816595298102875 1.5942705313311976 -1.8833400211729945 -1.570801083241598 3.1121938228607178 0.0004949650028720498 0.10261628031730652 0.19497495889663696 -0.313931941986084 -0.0 0.00010832467523869127 1 True False
20975.613999999998 4.683011054992676 -1.275688962345459 1.6053364912616175 -1.9001738033690394 -1.5707967917071741 3.112177610397339 0.0001820587058318779 0.12890689074993134 0.23748792707920074 -0.3584527373313904 5.9355992561904714e-05 7.784510671626776e-05 1 True False
20975.664 4.683071613311768 -1.2687174540809174 1.6182330290423792 -1.920502325097555 -1.570813004170553 3.112240791320801 7.610892498632893e-05 0.1548466682434082 0.29066362977027893 -0.4367615282535553 7.462649205189353e-13 5.235071398601576e-08 1 True False
20975.714 4.683006286621094 -1.2603371900371094 1.6337674299823206 -1.9442626438536585 -1.570813004170553 3.1122615337371826 5.349149432731792e-05 0.17772644758224487 0.3239244818687439 -0.505683958530426 1.133577985513491e-31 7.952087703177121e-27 1 True False
20975.764 4.683048248291016 -1.250772015457489 1.651219669972555 -1.9711672268309535 -1.5707247892962855 3.11224365234375 3.147316350873539e-42 0.1848915070295334 0.34737199544906616 -0.5295851230621338 3.070466103594072e-11 1.401298464324817e-45 1 True False
20975.814 4.683034896850586 -1.2419423919967194 1.6676085630999964 -1.9963013134398402 -1.5707805792437952 3.112189292907715 0.0 0.16462092101573944 0.30489641427993774 -0.46953582763671875 1.9599568986450322e-05 0.0 1 True False
20975.863999999998 4.683076858520508 -1.234391526584961 1.6814187208758753 -2.0180851421751917 -1.5707724730121058 3.1122334003448486 0.0 0.13873514533042908 0.2573491930961609 -0.3946858048439026 1.2690123185166158e-05 1.536091787102123e-08 1 True False
20975.914 4.683027267456055 -1.2279926103404541 1.6934130827533167 -2.036252637902731 -1.5707529226886194 3.112231731414795 0.0 0.11731267720460892 0.21525044739246368 -0.3432336449623108 7.209617347569974e-10 2.3333265277553344e-27 1 True False
20975.964 4.683055877685547 -1.2227873665145417 1.7029555479632776 -2.0508223972716273 -1.5707491079913538 3.1121909618377686 0.0 0.0933196172118187 0.16673795878887177 -0.2617441415786743 1.0951425072418861e-28 0.0 1 True False
20976.014 4.683006286621094 -1.2188221973231812 1.7100232283221644 -2.0621215305724085 -1.5707762877093714 3.1121819019317627 0.0 0.06707706302404404 0.126126229763031 -0.19807136058807373 0.0 0.0 1 True False
20976.064 4.68300199508667 -1.2161335510066529 1.715104881917135 -2.069883485833639 -1.5708006064044397 3.1122453212738037 0.0 0.040681224316358566 0.0760088637471199 -0.1275988519191742 0.0 0.0 1 True False
20976.113999999998 4.683032035827637 -1.2146668595126648 1.7177327314959925 -2.073972364465231 -1.5708454290973108 3.112231731414795 0.0 0.01870531216263771 0.036701273173093796 -0.05295857414603233 0.0 0.0 1 True False
20976.164 4.683011054992676 -1.2143991750529786 1.7183807531939905 -2.0749150715269984 -1.5708377997027796 3.112248182296753 0.0 -1.4816387006177933e-10 1.1912845820916118e-06 6.465023034252226e-05 0.0 0.0 1 True False
20976.214 4.683034896850586 -1.2143131655505677 1.7183950583087366 -2.0748993359007777 -1.5708048979388636 3.1122524738311768 0.0 -7.447319294556261e-37 0.00032941490644589067 9.820387414133436e-24 0.0 0.0 1 True False
20976.264 4.68296480178833 -1.214354322557785 1.718457047139303 -2.0749107799925746 -1.5708525816546839 3.112231731414795 0.0 0.00016215455252677202 0.0006438701529987156 -2.988568767459121e-11 0.0 0.0 1 True False
20976.314 4.683022975921631 -1.2143748563579102 1.7185214201556605 -2.074963232079977 -1.5708048979388636 3.11221981048584 0.0 9.10777598619461e-05 0.00045016605872660875 -4.5396421976778805e-30 0.0 0.0 1 True False
20976.363999999998 4.683043956756592 -1.214330331688263 1.7184751669513147 -2.074951311151022 -1.570784870778219 3.1122453212738037 0.0 0.0001338040892733261 0.00020566231978591532 -0.0 0.0 0.0 1 True False
20976.414 4.683011054992676 -1.2143586438945313 1.7185047308551233 -2.07489075283193 -1.57074481645693 3.112240791320801 1.0494977268186656e-28 0.00012280138616915792 8.404429536312819e-05 -8.485042053507641e-05 0.0 0.0 1 True False
20976.464 4.683034896850586 -1.2143184405616303 1.7184799353228968 -2.074958940545553 -1.5708168188678187 3.112257242202759 0.0 0.00011425217962823808 5.7292880228487775e-05 -0.00011900321260327473 0.0 0.0 1 True False
20976.514 4.68303918838501 -1.2143140000155945 1.7184584776507776 -2.0748945675291957 -1.570772949849264 3.1122028827667236 0.0 9.947847138391808e-05 1.948079974367851e-20 -8.951521886046976e-05 0.0 0.0 1 True False
20976.564 4.683027744293213 -1.2143436831286927 1.7185376326190394 -2.07494654277944 -1.5707767645465296 3.112236261367798 -3.02291755360784e-05 8.969798363978043e-05 0.0 -1.3642671881086699e-08 0.0 0.0 1 True False
20976.613999999998 4.682987213134766 -1.2143467527678986 1.7184842268573206 -2.0749827824034632 -1.570772949849264 3.1121819019317627 -0.0 6.214535721964232e-14 0.0 -2.0925866920151748e-05 0.0 0.0 1 True False
20976.664 4.682990074157715 -1.2143065196326752 1.7185290495501917 -2.074937959710592 -1.5708125273333948 3.11224365234375 0.0 0.0 0.0 -3.1786436256761446e-24 0.0 0.0 1 True False
20976.714 4.683022975921631 -1.214314029817917 1.7184627691852015 -2.0749551258482875 -1.5707810560809534 3.112210988998413 0.0 0.0 0.0 -4.834479701920619e-43 0.0 0.0 1 True False
20976.764 4.682999134063721 -1.2143184405616303 1.7185047308551233 -2.07491459468984 -1.5707686583148401 3.112248182296753 0.0 0.0 0.0 -3.057840876863338e-05 0.0 0.0 1 True False
20976.814 4.682992935180664 -1.2143949431231995 1.7183921972857874 -2.075158258477682 -1.5708172957049769 3.1122288703918457 -2.988464724333696e-27 0.0004237776738591492 -1.1718117662931395e-17 -0.000413963251048699 7.9545126656865e-15 4.832012828054344e-12 1 True False
20976.863999999998 4.682973861694336 -1.2144156855395813 1.7183683554278772 -2.0751048527159632 -1.5707967917071741 3.1122524738311768 0.0 0.00035673941601999104 0.00027252029394730926 0.0003849125641863793 1.2082923880846563e-33 7.33983891848354e-31 1 True False
20976.914 4.682999134063721 -1.2144292753985901 1.718391243611471 -2.075085302392477 -1.5708206335650843 3.112273693084717 0.0 0.000337451696395874 0.00021683252998627722 0.0034377221018075943 0.0 0.0 1 True True
20976.964 4.683027744293213 -1.214699701671936 1.7175996939288538 -2.072709699670309 -1.5708048979388636 3.112264394760132 0.0 -0.021222393959760666 -0.04381510242819786 0.06783375144004822 4.154731141170487e-05 0.0 1 True True
20977.014 4.683011054992676 -1.2169362765601655 1.7137907187091272 -2.067460676232809 -1.570784870778219 3.112257242202759 0.0 -0.05329792946577072 -0.09876807034015656 0.15703415870666504 4.022495712211195e-21 -7.188824383774772e-05 1 True True
20977.064 4.682990074157715 -1.2200464469245453 1.707735840474264 -2.058258195916647 -1.5708172957049769 3.1122243404388428 0.0 -0.07969856262207031 -0.14147326350212097 0.21487128734588623 6.110179784888003e-40 -5.75434896745719e-05 1 True True
20977.113999999998 4.682961940765381 -1.2245411735824128 1.6996596495257776 -2.04581417659902 -1.5707886854754847 3.1121983528137207 0.0 -0.09805294126272202 -0.1802920699119568 0.29380476474761963 0.0 -4.111364978598431e-05 1 True True
20977.164 4.6830644607543945 -1.230282263164856 1.689014736806051 -2.0297938785948695 -1.5708006064044397 3.1122689247131348 0.0 -0.12662069499492645 -0.23542949557304382 0.36466652154922485 0.0 -3.2457744964631274e-05 1 True True
20977.214 4.682994842529297 -1.2370180052569886 1.6765568892108362 -2.01024927715444 -1.5707767645465296 3.1121819019317627 0.0 -0.14856579899787903 -0.278810054063797 0.41910767555236816 0.0 -1.300574009165594e-18 1 True True
20977.264 4.683011054992676 -1.2451349657825013 1.661560360585348 -1.9871608219542445 -1.5708206335650843 3.112222909927368 0.0 -0.17132630944252014 -0.3206915855407715 0.49461254477500916 0.0 -3.808276233030483e-05 1 True True
20977.314 4.6830034255981445 -1.2544475060752411 1.6444900671588343 -1.9607678852477015 -1.5707772413836878 3.1122074127197266 0.0 -0.1911972463130951 -0.3552131950855255 0.5702918171882629 0.0 -2.1634378732926507e-09 1 True True
20977.363999999998 4.683048248291016 -1.2634582680514832 1.6276024023639124 -1.9348403416075648 -1.5708048979388636 3.1121983528137207 0.0 -0.17050990462303162 -0.3137750029563904 0.4880421459674835 0.0 -3.286266264216439e-28 1 True True
20977.414 4.682997703552246 -1.2714029115489502 1.6131532827960413 -1.9124413929381312 -1.5708087126361292 3.1121983528137207 0.0 -0.14612643420696259 -0.2742106318473816 0.4222686290740967 5.960382666239156e-18 -0.0 1 True True
20977.464 4.68300199508667 -1.2781435710242768 1.6008899847613733 -1.893468519250387 -1.5707925001727503 3.112231731414795 0.0 -0.12066806107759476 -0.22712253034114838 0.35101065039634705 9.053833771137993e-37 -0.0 1 True True
20977.514 4.682971000671387 -1.2835423809340973 1.5907700697528284 -1.8780933819212855 -1.5708168188678187 3.1122453212738037 0.0 -0.09599261730909348 -0.18191584944725037 0.27897825837135315 0.0 -0.0 1 True True
20977.564 4.6830363273620605 -1.2877309781363984 1.5830400625811976 -1.8660527668394984 -1.5708254019366663 3.1121954917907715 0.0 -0.0728360041975975 -0.13141556084156036 0.21584956347942352 0.0 -0.0 1 True True
20977.613999999998 4.683008193969727 -1.2907172304442902 1.5775497595416468 -1.8574663601317347 -1.570801083241598 3.112215280532837 0.0 -0.05007467046380043 -0.08692360669374466 0.13328970968723297 0.0 -0.0 1 True True
20977.664 4.682994842529297 -1.2925050121596833 1.5744078795062464 -1.852473875085348 -1.5708211104022425 3.1121327877044678 0.0 -0.02398413047194481 -0.046525709331035614 0.07486530393362045 0.0 -0.0 1 True True
20977.714 4.682999134063721 -1.2929828625968476 1.5732792059527796 -1.851175447503561 -1.5708048979388636 3.112257242202759 0.0 -1.344073297104842e-07 0.0021201258059591055 -0.007758308667689562 0.0 -0.0 1 True True
20977.764 4.682000637054443 -1.292969511156418 1.5733078161822718 -1.8511187038817347 -1.5708416144000452 3.1102659702301025 -0.03613869100809097 -0.0016952224541455507 5.246313594398089e-05 0.00029127357993274927 0.0 -0.07237545400857925 1 True True
20977.814 4.679228782653809 -1.293086664085724 1.573322598134176 -1.8511277637877406 -1.570784870778219 3.104750156402588 -0.07740350812673569 -0.0049050538800656796 0.0006506363861262798 0.00035272238892503083 0.0 -0.1459731161594391 1 True True
20977.863999999998 4.674546241760254 -1.2933036845973511 1.5735161940204065 -1.85107483486318 -1.5708091894732874 3.0957114696502686 -0.11066719144582748 -0.004870776552706957 0.00500402832403779 9.529601811664179e-05 0.0 -0.21094992756843567 1 True True
20977.914 4.668071269989014 -1.293492780332901 1.5737798849688929 -1.8511153660216273 -1.5707724730121058 3.0834739208221436 -0.14421828091144562 -0.004756605252623558 0.006455027032643557 -0.0006677042692899704 0.0 -0.28205040097236633 1 True True
20977.964 4.659826755523682 -1.2936914426139374 1.5741584936725062 -1.851182600060934 -1.5707767645465296 3.0673937797546387 -0.18453964591026306 -0.005910880398005247 0.008499887771904469 -0.0024387084413319826 0.0 -0.35655292868614197 1 True True
20978.014 4.649724006652832 -1.2940225166133423 1.5745862166034144 -1.851281305352682 -1.5707686583148401 3.048022508621216 -0.2192937284708023 -0.0074855065904557705 0.008915365673601627 -0.002551281824707985 0.0 -0.42106807231903076 1 True True
20978.064 4.637899875640869 -1.294370786552765 1.5749762693988245 -1.851412912408346 -1.5707886854754847 3.0249977111816406 -0.2507905960083008 -0.007525064516812563 0.00981843564659357 -0.0013606295688077807 -4.699432975030504e-05 -0.48432496190071106 1 True True
20978.113999999998 4.624293804168701 -1.2947839063457032 1.5755508581744593 -1.851504465142721 -1.5707524458514612 2.9985525608062744 -0.29178479313850403 -0.010135998949408531 0.010668343864381313 -0.00266760285012424 -2.843815127562266e-05 -0.5601639747619629 1 True True
20978.164 4.608661651611328 -1.2952352923205872 1.5760405699359339 -1.8516994915404261 -1.570813004170553 2.968618631362915 -0.32489556074142456 -0.009817131794989109 0.014203515835106373 -0.0035343237686902285 -2.939426849479787e-05 -0.6253818273544312 1 True True
20978.214 4.591477870941162 -1.2958145600608368 1.5766690413104456 -1.851774354974264 -1.5707605520831507 2.9352245330810547 -0.3657294511795044 -0.011153635568916798 0.012524987570941448 -0.0032400491181761026 1.1345724487910047e-05 -0.7008034586906433 1 True True
20978.264 4.572341442108154 -1.2962765854648133 1.5774582068072718 -1.8519937000670375 -1.5707724730121058 2.8983941078186035 -0.39411020278930664 -0.011367249302566051 0.01581031270325184 -0.003559103002771735 2.8847348145080503e-16 -0.7618627548217773 1 True True
20978.314 4.55150032043457 -1.2968873244575043 1.5782821814166468 -1.8521882496275843 -1.5707281271563929 2.858072519302368 -0.43825066089630127 -0.01322852075099945 0.01792510226368904 -0.00514599634334445 4.381919219741531e-35 -0.8339521884918213 1 True True
20978.363999999998 4.528926849365234 -1.29761956751857 1.5791552702533167 -1.852347036401266 -1.5707805792437952 2.814087152481079 -0.47303900122642517 -0.015715593472123146 0.019540593028068542 -0.0038464453537017107 0.0 -0.9151543974876404 1 True True
20978.414 4.504325866699219 -1.2983356279185791 1.5801799933062952 -1.8526016674437464 -1.5707925001727503 2.7668137550354004 -0.5054022669792175 -0.016165396198630333 0.019877910614013672 -0.005892012268304825 0.0 -0.9741029739379883 1 True True
20978.464 4.477739334106445 -1.2990482610515137 1.5811074415790003 -1.8528763256468714 -1.5707805792437952 2.7157607078552246 -0.5438147187232971 -0.014990398660302162 0.022454779595136642 -0.0052276416681706905 -0.001100766472518444 -1.0467450618743896 1 True True
20978.514 4.450859546661377 -1.2999263566783448 1.5822528044330042 -1.853039403954977 -1.5708211104022425 2.6636743545532227 -0.544750988483429 -0.015213224105536938 0.019908031448721886 -0.006557859014719725 6.984839274082333e-05 -1.051040768623352 1 True True
20978.564 4.42387580871582 -1.3007172805121918 1.583297077809469 -1.8533264599242152 -1.5707810560809534 2.6111984252929688 -0.539190411567688 -0.01727503538131714 0.02180575765669346 -0.0022660724353045225 0.0008358397171832621 -1.0405601263046265 1 True True
20978.613999999998 4.396902561187744 -1.3015517455390473 1.5842812697040003 -1.8535038433470667 -1.5707290808307093 2.5587453842163086 -0.5381259918212891 -0.017348162829875946 0.02186179719865322 -0.0025368223432451487 0.0013440924230962992 -1.0490072965621948 1 True True
20978.664 4.369795799255371 -1.3022724252990265 1.5853865782367151 -1.8538185558714808 -1.5707686583148401 2.5065958499908447 -0.5364429950714111 -0.016695894300937653 0.021685034036636353 -0.0021182349883019924 0.0033084533642977476 -1.0486469268798828 1 True True
20978.714 4.3424248695373535 -1.3031170827201386 1.5863545576678675 -1.8540688953795375 -1.5708687941180628 2.4542324542999268 -0.5384017825126648 -0.01591845043003559 0.020763501524925232 -0.0038450537249445915 -0.0007700406713411212 -1.0457451343536377 1 True True
20978.764 4.315246105194092 -1.3038754624179383 1.5874188582049769 -1.8543435535826625 -1.5708487669574183 2.4017040729522705 -0.5467429757118225 -0.014613693580031395 0.01857256144285202 -0.009444470517337322 -0.002049810718744993 -1.0474096536636353 1 True True
20978.814 4.2882256507873535 -1.3047325772098084 1.5885313192950647 -1.8545261822142542 -1.5708449522601526 2.349518299102783 -0.549003005027771 -0.01528345700353384 0.019882716238498688 -0.0071271080523729324 -0.0016157584032043815 -1.0537718534469604 1 True True
20978.863999999998 4.261262893676758 -1.3055637639812012 1.5895641485797327 -1.8547240696349085 -1.5708254019366663 2.2970657348632812 -0.5468352437019348 -0.01441777590662241 0.02033839374780655 -0.007666043005883694 -5.60752596356906e-05 -1.0400538444519043 1 True True
20978.914 4.234258651733398 -1.3063324254802247 1.5906036535846155 -1.8549477062621058 -1.5707529226886194 2.2445781230926514 -0.5383582711219788 -0.01665583625435829 0.020158367231488228 -0.004237058572471142 0.0008185403421521187 -1.049584150314331 1 True True
20978.964 4.207259654998779 -1.3071862024119874 1.59153920808901 -1.8551985226073207 -1.5707810560809534 2.1924850940704346 -0.5380056500434875 -0.01640697568655014 0.023790590465068817 -0.0018765773857012391 0.0010322625748813152 -1.0521304607391357 1 True True
20979.014 4.180170059204102 -1.3079422873309632 1.5926287809955042 -1.855448385278219 -1.5707247892962855 2.140049457550049 -0.5371094346046448 -0.01925310119986534 0.022142933681607246 -0.0019510689890012145 0.002411892404779792 -1.0434801578521729 1 True True
20979.064 4.152830123901367 -1.308741108780243 1.593656365071432 -1.8557259045042933 -1.5707405249225062 2.087536334991455 -0.5350632071495056 -0.016911199316382408 0.022268621250987053 -0.0019986957777291536 -7.24631390767172e-05 -1.0437101125717163 1 True True
20979.113999999998 4.125631332397461 -1.3094906371882935 1.5946157614337366 -1.855992933312887 -1.5708449522601526 2.03533935546875 -0.5440493822097778 -0.014404766261577606 0.020462187007069588 -0.0077157351188361645 -0.001010696985758841 -1.0516893863677979 1 True True
20979.164 4.0984625816345215 -1.310265229349472 1.5957563559161585 -1.8561679325499476 -1.5708492437945765 1.9829189777374268 -0.5462729334831238 -0.014433369971811771 0.01871645450592041 -0.008557246066629887 -0.0011447566794231534 -1.0412272214889526 1 True True
20979.214 4.071500301361084 -1.3111863893321534 1.5968125502215784 -1.8563782177367152 -1.5707724730121058 1.9304957389831543 -0.5494082570075989 -0.01334995124489069 0.02046000398695469 -0.009910913184285164 -0.0028956893365830183 -1.0464317798614502 1 True True
20979.264 4.0446248054504395 -1.3120042246631165 1.597882095967428 -1.856600900689596 -1.5707529226886194 1.8782576322555542 -0.5444653630256653 -0.015837503597140312 0.018898524343967438 -0.007097943220287561 0.00034663541009649634 -1.0509591102600098 1 True True
20979.314 4.017602443695068 -1.312728927736618 1.5989058653460901 -1.8568035564818324 -1.5707810560809534 1.82586669921875 -0.5376545786857605 -0.016842827200889587 0.022817224264144897 -0.002436885377392173 0.0008927276358008385 -1.0445209741592407 1 True True
20979.363999999998 3.990421772003174 -1.3136533063701172 1.5999158064471644 -1.8571464023985804 -1.5707486311541956 1.7733821868896484 -0.5342538356781006 -0.017760761082172394 0.023230234161019325 -0.001451320480555296 0.0019290075870230794 -1.040086269378662 1 True True
20979.414 3.9633285999298096 -1.3143364948085328 1.6009228865252894 -1.8573924503722132 -1.5707767645465296 1.7211207151412964 -0.5369600057601929 -0.017373573035001755 0.02157590351998806 -0.0033395537175238132 -6.3576881075277925e-06 -1.047836184501648 1 True True
20979.464 3.936011552810669 -1.315133885746338 1.6019790808307093 -1.8576346836485804 -1.570813004170553 1.6687560081481934 -0.5432342886924744 -0.015839574858546257 0.020776625722646713 -0.0037216367200016975 -0.0004946723347529769 -1.0478225946426392 1 True True
20979.514 3.9087893962860107 -1.3159649235061188 1.6030591169940394 -1.857901235620016 -1.5708325544940394 1.6163227558135986 -0.5478035807609558 -0.012730355374515057 0.017151115462183952 -0.008531961590051651 -0.0011118638794869184 -1.0456197261810303 1 True True
20979.564 3.8817832469940186 -1.3168151837638398 1.6041305700885218 -1.858072420159811 -1.5708044211017054 1.5641499757766724 -0.5490045547485352 -0.014116327278316021 0.018253659829497337 -0.008081714622676373 -0.002445072866976261 -1.0524431467056274 1 True True
20979.613999999998 3.8548734188079834 -1.3176133197597046 1.6051715056048792 -1.858262678185934 -1.5707691351519983 1.5117723941802979 -0.5468048453330994 -0.01528044231235981 0.018959714099764824 -0.0057215383276343346 8.910908218240365e-05 -1.0439027547836304 1 True True
20979.664 3.827946662902832 -1.3184430760196229 1.606194321309225 -1.8584653339781703 -1.5707529226886194 1.4592605829238892 -0.5410754680633545 -0.017402658239006996 0.021326079964637756 -0.0038834181614220142 0.0006603269139304757 -1.0473376512527466 1 True True
20979.714 3.8008036613464355 -1.3192848426154633 1.6072147528277796 -1.8587476215758265 -1.5707486311541956 1.4069904088974 -0.5347254872322083 -0.017873244360089302 0.024549275636672974 -0.0015831124037504196 0.0016337009146809578 -1.0510984659194946 1 True True
20979.764 3.773667573928833 -1.3199947041324158 1.6082547346698206 -1.859082361260885 -1.5707405249225062 1.354565143585205 -0.5388215780258179 -0.017793787643313408 0.021136531606316566 -0.002243093680590391 0.0016152163734659553 -1.0512515306472778 1 True True
20979.814 3.746412992477417 -1.3207262319377442 1.6092913786517542 -1.85927214244985 -1.5708654562579554 1.3022019863128662 -0.5396516919136047 -0.016823789104819298 0.0215230043977499 -0.0028598583303391933 -0.0005381745286285877 -1.0423778295516968 1 True True
20979.863999999998 3.7192678451538086 -1.3215747636607666 1.6103265921222132 -1.8596111736693324 -1.5708406607257288 1.2499842643737793 -0.5454583764076233 -0.015957485884428024 0.02040315419435501 -0.007455690763890743 -0.0008142791921272874 -1.057466745376587 1 True True
20979.914 3.6921284198760986 -1.322357953791954 1.6113327185260218 -1.859753271142477 -1.5708449522601526 1.1975034475326538 -0.5440927743911743 -0.014856341294944286 0.018021859228610992 -0.008566019125282764 -0.0012413308722898364 -1.043291449546814 1 True True
20979.964 3.6650993824005127 -1.3231852811625977 1.6123860518084925 -1.8599678478636683 -1.5708087126361292 1.145096778869629 -0.5461484789848328 -0.015164313837885857 0.020997226238250732 -0.006509208586066961 -0.0014065472641959786 -1.0428534746170044 1 True True
20980.014 3.6381945610046387 -1.3240249913981934 1.6134455839740198 -1.8601833782591761 -1.5707247892962855 1.0927878618240356 -0.5442091226577759 -0.016122115775942802 0.02124437503516674 -0.005603534635156393 0.0006075641722418368 -1.0421726703643799 1 True True
20980.064 3.611165761947632 -1.3248566550067444 1.6145089308368128 -1.860441347161764 -1.570716683064596 1.040427327156067 -0.5387246012687683 -0.016705874353647232 0.022041264921426773 -0.0029719884041696787 0.000975928851403296 -1.048045039176941 1 True True
20980.113999999998 3.5840961933135986 -1.325628788476326 1.6155760923968714 -1.8607360325255335 -1.5707891623126429 0.9880349636077881 -0.5366783142089844 -0.017819415777921677 0.023147104308009148 -0.001691016717813909 0.0024202188942581415 -1.0443217754364014 1 True True
20980.164 3.5568888187408447 -1.3263682436994095 1.6166027227984827 -1.8610221348204554 -1.570780102406637 0.9358392357826233 -0.537716269493103 -0.017275065183639526 0.023125501349568367 -0.0027141920290887356 -0.000286670692730695 -1.0492480993270874 1 True True
20980.214 3.5297183990478516 -1.3271760803512116 1.6176422278033655 -1.8612281284727992 -1.5708730856524866 0.8833897709846497 -0.5442329049110413 -0.017435194924473763 0.020657377317547798 -0.005755492951720953 -0.0007026548264548182 -1.047088623046875 1 True True
20980.264 3.502490997314453 -1.3279323142817994 1.6186555067645472 -1.8614832363524378 -1.5708087126361292 0.8309629559516907 -0.5462955236434937 -0.015184178948402405 0.01853151060640812 -0.005514800548553467 -0.0011663874611258507 -1.0463711023330688 1 True True
20980.314 3.475447654724121 -1.3287866574576874 1.6197188536273401 -1.8616858921446742 -1.5708006064044397 0.7785927057266235 -0.5468314290046692 -0.015447232872247696 0.019524306058883667 -0.010435386560857296 -0.0030006433371454477 -1.0452806949615479 1 True True
20980.363999999998 3.4485158920288086 -1.3296240133098145 1.6206978003131312 -1.8619290790953578 -1.570772949849264 0.7261822819709778 -0.5438312888145447 -0.015911826863884926 0.020974164828658104 -0.00766871077939868 0.00028465985087677836 -1.046810507774353 1 True True
20980.414 3.4215099811553955 -1.3304373037866135 1.6218350569354456 -1.8620954952635707 -1.5707972685443323 0.6739619970321655 -0.54217129945755 -0.01642538607120514 0.0221626665443182 -0.0038216663524508476 0.0009702742099761963 -1.0477598905563354 1 True True
20980.464 3.3944506645202637 -1.3312497448972245 1.6228645483600062 -1.8623858890929164 -1.5707443396197718 0.6216812133789062 -0.5362862348556519 -0.016911184415221214 0.02367270737886429 -0.0010770207736641169 0.0014255100395530462 -1.0483229160308838 1 True True
20980.514 3.3671772480010986 -1.3319935959628602 1.6238787809955042 -1.8626357517638148 -1.5707767645465296 0.5691322088241577 -0.5347490310668945 -0.018801160156726837 0.021635940298438072 -0.0030209242831915617 -3.866759652737528e-05 -1.0471022129058838 1 True True
20980.564 3.340050220489502 -1.3328134578517457 1.6248977820025843 -1.8628937206664027 -1.57082444826235 0.5167672634124756 -0.5441700220108032 -0.015386736951768398 0.020526312291622162 -0.003920178394764662 -0.00038227165350690484 -1.0481131076812744 1 True True
20980.613999999998 3.3128550052642822 -1.3336216968349 1.6259048620807093 -1.8631774387755335 -1.57082444826235 0.46453142166137695 -0.5414629578590393 -0.014612693339586258 0.020363181829452515 -0.005937287118285894 -0.00035855776513926685 -1.0427193641662598 1 True True
20980.664 3.28585147857666 -1.334398330455162 1.6270344893084925 -1.8634001217284144 -1.5708406607257288 0.41197365522384644 -0.548096239566803 -0.014554709196090698 0.01901901513338089 -0.009198459796607494 -0.0020584643352776766 -1.0466361045837402 1 True True
20980.714 3.2588369846343994 -1.3352156591466446 1.6280697027789515 -1.8635789356627406 -1.5708091894732874 0.3597688376903534 -0.5434330701828003 -0.015112838707864285 0.01932825706899166 -0.007389084901660681 0.00034049060195684433 -1.0542645454406738 1 True True
20980.764 3.2318308353424072 -1.3360644292882462 1.629153076802389 -1.863793512383932 -1.570756737385885 0.3074081540107727 -0.5409306287765503 -0.018209459260106087 0.02109857089817524 -0.0036334041506052017 0.000651577312964946 -1.0422817468643188 1 True True
20980.814 3.20467209815979 -1.3368511509946366 1.6301868597613733 -1.864007135430807 -1.5707648436175745 0.25502708554267883 -0.5383065342903137 -0.016961662098765373 0.022784512490034103 -0.0020442591048777103 0.00024665475939400494 -1.0495445728302002 1 True True
20980.863999999998 3.1783857345581055 -1.3377133768847962 1.6311972776996058 -1.8642693958678187 -1.5707686583148401 0.20410001277923584 -0.5058797597885132 -0.01659553125500679 0.02173803374171257 -0.002355457516387105 -3.522664826505206e-08 -0.9836641550064087 1 True True
20980.914 3.1536858081817627 -1.338347689514496 1.6321385542498987 -1.8645769558348597 -1.5708449522601526 0.15667852759361267 -0.47356557846069336 -0.015391443856060505 0.017852118238806725 -0.002584942849352956 -0.00010479181946720928 -0.9096515774726868 1 True True
20980.964 3.1308212280273438 -1.3389893782189866 1.6329944769488733 -1.8647028408446253 -1.570853058491842 0.11264999210834503 -0.4378424286842346 -0.010998658835887909 0.016486456617712975 -0.006699960213154554 -0.0014613907551392913 -0.8501432538032532 1 True True
20981.014 3.1099941730499268 -1.339627892976143 1.6338360945331019 -1.8648458919920863 -1.5707805792437952 0.07216651737689972 -0.40709373354911804 -0.010617421008646488 0.013108194805681705 -0.004649693612009287 0.00012017705012112856 -0.775929868221283 1 True True
