Andreas691667/Digital_Twin_UR/data_analysis/busters_stuff/old/04_11_2024_08_44_23.csv
actual_q_0 actual_q_1 actual_q_2 actual_q_3 actual_q_4 actual_q_5 actual_qd_0 actual_qd_1 actual_qd_2 actual_qd_3 actual_qd_4 actual_qd_5 actual_qdd_0 actual_qdd_1 actual_qdd_2 actual_qdd_3 actual_qdd_4 actual_qdd_5 timestamp
3.3477777180732176 -1.3056645702871865 1.5899193464519294 -1.8550511782146855 -1.5707962785952745 1.776981393646821             1077.541
3.3477777180732176 -1.3056645702871865 1.5899193464519294 -1.8550511782146855 -1.5707962785952745 1.776981393646821             1077.591
3.3477777180732176 -1.3056645702871865 1.5899193464519294 -1.8550511782146855 -1.5707962785952745 1.776981393646821             1077.646
3.3477777180732176 -1.3056645702871865 1.5899193464519294 -1.8550511782146855 -1.5707962785952745 1.776981393646821             1077.7009999999998
3.3477777180732176 -1.3056645702871865 1.5899193464519294 -1.8550511782146855 -1.5707962785952745 1.776981393646821             1077.7559999999999
3.3477777180732176 -1.3056645702871865 1.5899193464519294 -1.8550511782146855 -1.5707962785952745 1.776981393646821             1077.811
3.3477777180732176 -1.3056645702871865 1.5899193464519294 -1.8550511782146855 -1.5707962785952745 1.776981393646821             1077.866
3.3477777180732176 -1.3056645702871865 1.5899193464519294 -1.8550511782146855 -1.5707962785952745 1.776981393646821             1077.9209999999998
3.3477777180732176 -1.3056645702871865 1.5899193464519294 -1.8550511782146855 -1.5707962785952745 1.776981393646821             1077.9759999999999
3.3477777180732176 -1.3056645702871865 1.5899193464519294 -1.8550511782146855 -1.5707962785952745 1.776981393646821             1078.031
3.3477777180732176 -1.3056645702871865 1.5899193464519294 -1.8550511782146855 -1.5707962785952745 1.776981393646821             1078.0859999999998
3.3477777180732176 -1.3056645702871865 1.5899193464519294 -1.8550511782146855 -1.5707962785952745 1.776981393646821             1078.1409999999998
3.3485767041326433 -1.3058525783401478 1.5901317538508875 -1.8550755775192322 -1.5707962786234146 1.7777803797048584             1078.1909999999998
3.353781593594072 -1.3070773320413893 1.5915154538783454 -1.8552345235754282 -1.5707962788067293 1.7829852691572414             1078.2409999999998
3.3667752725108446 -1.3101348525639662 1.5949697738993862 -1.8556313223998036 -1.5707962792643633 1.7959789480514332             1078.2909999999997
3.389913533821313 -1.3155794775440541 1.6011209924887306 -1.8563379148086887 -1.5707962800792865 1.8191172093216907             1078.341
3.424622895740741 -1.323746878560652 1.6103483440774378 -1.8573978635801387 -1.5707962813017409 1.8538265711807995             1078.3909999999998
3.4714984201532113 -1.3347770786152855 1.6228100235996066 -1.8588293406158563 -1.570796282952684 1.900702095511807             1078.4409999999998
3.530401531003526 -1.348637469611709 1.638469191139077 -1.8606281141031158 -1.5707962850272357 1.959605206259757             1078.4909999999998
3.600557832689113 -1.3651458298356083 1.6571199765761313 -1.8627705356766882 -1.5707962874981216 2.029761507823423             1078.5409999999997
3.6806549284519288 -1.3839933414343046 1.678413484234195 -1.8652165275807624 -1.5707962903191195 2.1098586034470426             1078.591
3.7689402387703637 -1.404767607896456 1.7018837975265382 -1.8679125698308712 -1.5707962934285042 2.198143913612051             1078.6409999999998
3.863318819751142 -1.4269756715317607 1.726973983602977 -1.8707946873758143 -1.5707962967524922 2.2925224944288143             1078.6909999999998
3.961451181521231 -1.4500670309506605 1.7530620979965743 -1.8737914372595816 -1.5707963002086873 2.3906548560283643             1078.7409999999998
4.060851106619741 -1.4734566585440423 1.7794871892703412 -1.8768268957832777 -1.5707963037095256 2.4900547809541322             1078.7909999999997
4.15898346838983 -1.496548017962942 1.8055753036639386 -1.879823645667045 -1.5707963071657207 2.588187142553682             1078.841
4.253362049370608 -1.5187560815982466 1.8306654897403773 -1.8827057632119881 -1.5707963104897087 2.6825657233704447             1078.8909999999998
4.341647359689044 -1.5395303480603983 1.8541358030327209 -1.8854018054620971 -1.5707963135990934 2.770851033535454             1078.9409999999998
4.421744455451858 -1.5583778596590943 1.8754293106907842 -1.8878477973661711 -1.5707963164200913 2.8509481291590726             1078.9909999999998
4.491900757137446 -1.5748862198829938 1.8940800961278388 -1.8899902189397435 -1.5707963188909773 2.921104430722739             1079.0409999999997
4.550803867987762 -1.5887466108794173 1.9097392636673094 -1.891788992427003 -1.570796320965529 2.9800075414706892             1079.091
4.597679392400231 -1.5997768109340509 1.9222009431894782 -1.8932204694627206 -1.570796322616472 3.026883065801697             1079.1409999999998
4.632388754319657 -1.6079442119506484 1.931428294778185 -1.8942804182341706 -1.5707963238389264 3.0615924276608046             1079.1909999999998
4.655527015630126 -1.6133888369307363 1.9375795133675293 -1.8949870106430557 -1.5707963246538497 3.0847306889310606             1079.2409999999998
4.668520694546898 -1.6164463574533134 1.9410338333885702 -1.8953838094674311 -1.5707963251114836 3.097724367825254             1079.2909999999997
4.673725584008328 -1.6176711111545548 1.9424175334160279 -1.895542755523627 -1.5707963252947983 3.102929257277636             1079.341
4.674524570067753 -1.617859119207516 1.942629940814986 -1.8955671548281738 -1.5707963253229384 3.1037282433356737             1079.3909999999998
4.674524570067755 -1.6178591192075162 1.942629940814986 -1.8955671548281738 -1.5707963253229384 3.1037282433356754             1079.4409999999998
4.674524568933361 -1.617590442952229 1.9430606373226558 -1.8962665278691633 -1.5707963253087585 3.103728242202028             1079.4909999999998
4.674524561917543 -1.615928777544714 1.9457243393575347 -1.9005918970310878 -1.5707963252210602 3.1037282351908293             1079.5409999999997
4.674524545501502 -1.6120407106716723 1.951957033132483 -1.910712661702541 -1.570796325015858 3.1037282187855957             1079.5909999999997
4.674524518378254 -1.6056166891881647 1.9622549420979916 -1.927434598799286 -1.570796324676815 3.1037281916802044             1079.6409999999998
4.674524481050486 -1.5967757719960909 1.9764272110807948 -1.9504477941229525 -1.5707963242102145 3.1037281543770106             1079.6909999999998
4.674524435428403 -1.5859703829226701 1.9937485904224828 -1.9785745737197327 -1.5707963236399343 3.103728108784962             1079.7409999999998
4.674524384427581 -1.5738910635989214 2.013112120118114 -2.010017435239077 -1.5707963230024193 3.1037280578177175             1079.7909999999997
4.674524331566823 -1.5613712263381432 2.0331818139548288 -2.0426069792923927 -1.570796322341655 3.1037280049917597             1079.8409999999997
4.674524280566001 -1.5492919070143945 2.0525453436504604 -2.074049840811737 -1.57079632170414 3.103727954024515             1079.8909999999998
4.674524234943918 -1.5384865179409737 2.069866722992148 -2.102176620408517 -1.5707963211338598 3.1037279084324667             1079.9409999999998
4.67452419761615 -1.5296456007488999 2.084038991974951 -2.125189815732184 -1.5707963206672593 3.103727871129273             1079.9909999999998
4.674524170492902 -1.5232215792653923 2.09433690094046 -2.141911752828929 -1.5707963203282163 3.1037278440238816             1080.0409999999997
4.674524154076861 -1.5193335123923506 2.1005695947154086 -2.1520325175003823 -1.5707963201230142 3.103727827618648             1080.0909999999997
4.674524147061043 -1.5176718469848356 2.1032332967502874 -2.1563578866623065 -1.5707963200353159 3.1037278206074492             1080.1409999999998
4.674524145926649 -1.5174031707295483 2.103663993257957 -2.157057259703296 -1.570796320021136 3.103727819473802             1080.1909999999998
4.674524145926649 -1.5174031707295483 2.103663993257957 -2.157057259703296 -1.570796320021136 3.103727819473802             1080.2409999999998
4.674524145926649 -1.5174031707295483 2.103663993257957 -2.157057259703296 -1.570796320021136 3.103727819473802             1080.2909999999997
4.674524145926649 -1.5174031707295483 2.103663993257957 -2.157057259703296 -1.570796320021136 3.103727819473802             1080.3409999999997
4.674524145926649 -1.5174031707295483 2.103663993257957 -2.157057259703296 -1.570796320021136 3.103727819473802             1080.3909999999996
4.674524145926649 -1.5174031707295483 2.103663993257957 -2.157057259703296 -1.570796320021136 3.103727819473802             1080.4409999999998
4.674524145926649 -1.5174031707295483 2.103663993257957 -2.157057259703296 -1.570796320021136 3.103727819473802             1080.4909999999998
4.674524145926649 -1.5174031707295483 2.103663993257957 -2.157057259703296 -1.570796320021136 3.103727819473802             1080.5409999999997
4.674524145926649 -1.5174031707295483 2.103663993257957 -2.157057259703296 -1.570796320021136 3.103727819473802             1080.5909999999997
4.674524145926649 -1.5174031707295483 2.103663993257957 -2.157057259703296 -1.570796320021136 3.103727819473802             1080.6409999999996
4.674524145926649 -1.5174031707295483 2.103663993257957 -2.157057259703296 -1.570796320021136 3.103727819473802             1080.6909999999998
4.674524145926649 -1.5174031707295483 2.103663993257957 -2.157057259703296 -1.570796320021136 3.103727819473802             1080.7409999999998
4.674524145926649 -1.5174031707295483 2.103663993257957 -2.157057259703296 -1.570796320021136 3.103727819473802             1080.7909999999997
4.674524145926649 -1.5174031707295483 2.103663993257957 -2.157057259703296 -1.570796320021136 3.103727819473802             1080.8409999999997
4.674524145926649 -1.5174031707295483 2.103663993257957 -2.157057259703296 -1.570796320021136 3.103727819473802             1080.8909999999996
4.674524145926649 -1.5174031707295483 2.103663993257957 -2.157057259703296 -1.570796320021136 3.103727819473802             1080.9409999999998
4.674524145926649 -1.5174031707295483 2.103663993257957 -2.157057259703296 -1.570796320021136 3.103727819473802             1080.9909999999998
4.674524145926649 -1.5174031707295483 2.103663993257957 -2.1570572597032958 -1.570796320021136 3.103727819473802             1081.0409999999997
4.674524147061043 -1.5176718469848356 2.103233296750287 -2.156357886662306 -1.5707963200353159 3.1037278206074492             1081.0909999999997
4.674524154076861 -1.5193335123923506 2.100569594715408 -2.152032517500382 -1.5707963201230142 3.103727827618648             1081.1409999999996
4.674524170492902 -1.5232215792653923 2.0943369009404598 -2.141911752828929 -1.5707963203282163 3.1037278440238816             1081.1909999999996
4.67452419761615 -1.5296456007488999 2.0840389919749516 -2.125189815732184 -1.5707963206672593 3.103727871129273             1081.2409999999998
4.674524234943918 -1.5384865179409737 2.069866722992148 -2.102176620408517 -1.5707963211338598 3.1037279084324667             1081.2909999999997
4.674524280566001 -1.5492919070143945 2.0525453436504604 -2.074049840811737 -1.57079632170414 3.103727954024515             1081.3409999999997
4.674524331566823 -1.5613712263381432 2.0331818139548288 -2.0426069792923927 -1.570796322341655 3.1037280049917597             1081.3909999999996
4.674524384427581 -1.5738910635989214 2.013112120118114 -2.010017435239077 -1.5707963230024193 3.1037280578177175             1081.4409999999996
4.674524435428403 -1.5859703829226701 1.9937485904224828 -1.9785745737197327 -1.5707963236399343 3.103728108784962             1081.4909999999998
4.674524481050486 -1.5967757719960909 1.9764272110807948 -1.9504477941229525 -1.5707963242102145 3.1037281543770106             1081.5409999999997
4.674524518378254 -1.6056166891881647 1.9622549420979916 -1.927434598799286 -1.570796324676815 3.1037281916802044             1081.5909999999997
4.674524545501502 -1.6120407106716723 1.951957033132483 -1.9107126617025407 -1.570796325015858 3.1037282187855957             1081.6409999999996
4.674524561917543 -1.615928777544714 1.9457243393575345 -1.9005918970310876 -1.5707963252210602 3.1037282351908293             1081.6909999999996
4.674524568933361 -1.617590442952229 1.9430606373226558 -1.8962665278691633 -1.5707963253087585 3.103728242202028             1081.7409999999998
4.674524570067755 -1.6178591192075162 1.942629940814986 -1.8955671548281736 -1.5707963253229384 3.1037282433356754             1081.7909999999997
4.674524570067755 -1.6178591192075162 1.942629940814986 -1.8955671548281738 -1.5707963253229384 3.1037282433356754             1081.8409999999997
4.6743594456767745 -1.617815378459226 1.9425773227234135 -1.89555827748425 -1.5707963253230912 3.1035631189446895             1081.8909999999996
4.673246928560053 -1.6175206774106266 1.9422228110296762 -1.89549846683479 -1.5707963253241204 3.1024506018279254             1081.9420869565213
4.670356235617434 -1.6167549451548584 1.9413016706393318 -1.8953430586889835 -1.5707963253267945 3.099559908885199             1081.9931739130432
4.664978515805398 -1.6153304100678392 1.9395880209971346 -1.895053944112913 -1.5707963253317692 3.0941821890729626             1082.0442608695648
4.656521043848648 -1.6130900617471795 1.936892985870882 -1.8945992572744632 -1.5707963253395927 3.085724717115896             1082.0953478260865
4.644501413951693 -1.6099061129510974 1.9330628431352637 -1.8939530632882307 -1.5707963253507116 3.073705087218493             1082.1464347826084
4.628541733510447 -1.6056784615373352 1.9279771745557077 -1.893095046060434 -1.570796325365475 3.0577454067766507             1082.19752173913
4.60836281682381 -1.6003331524020732 1.9215470155722303 -1.8920101961338238 -1.5707963253841417 3.0375664900892594             1082.248608695652
4.583778378805259 -1.593820839418846 1.9137130050832818 -1.8906884985325922 -1.5707963254068837 3.01298205206979             1082.2996956521736
4.554689228694437 -1.586115247377458 1.9044435352295956 -1.8891246206072831 -1.5707963254337927 2.9838929019578813             1082.3507826086952
4.521077463768744 -1.5772116339228983 1.8937329011780362 -1.8873175998797025 -1.5707963254648853 2.9502811370309328             1082.401869565217
4.4830006630549235 -1.567125251494256 1.881599450905446 -1.8852705318878267 -1.5707963255001085 2.91220433631569             1082.4529565217388
4.440586081040651 -1.555889809263636 1.8680837349824935 -1.8829902580307143 -1.5707963255393442 2.8697897542998336             1082.5040434782604
4.394024841386127 -1.543555935075074 1.8532466563575216 -1.8804870534134146 -1.570796325582416 2.8232285146435694             1082.5551304347823
4.343566130635658 -1.5301896373834525 1.837167620140395 -1.8777743146918784 -1.570796325629093 2.7727698038912156             1082.606217391304
4.2895113919292545 -1.515870767193415 1.819942683386348 -1.8748682479178669 -1.5707963256790967 2.718715065182793             1082.6573043478259
4.232208518714214 -1.500691479998283 1.8016827048798323 -1.871787556383863 -1.570796325732105 2.6614121919656117             1082.7083913043475
4.172046048456712 -1.484754697718969 1.7825114949183654 -1.8685531284679797 -1.5707963257877586 2.6012497217058628             1082.7594782608692
4.109447356353391 -1.4681725706428945 1.762563965096377 -1.8651877254788707 -1.5707963258456659 2.538651029600203             1082.810565217391
4.044864849042947 -1.4510649393629038 1.7419842780890584 -1.8617156695006407 -1.570796325905408 2.4740685222873466             1082.8616521739127
3.9787741583177225 -1.43355779671618 1.7209239974362096 -1.8581625312377548 -1.5707963259665456 2.4079778315596534             1082.9127391304344
3.9116683348352925 -1.4157817497231595 1.6995402373260868 -1.8545548178599476 -1.5707963260286222 2.340872008074717             1082.9638260869563
3.8440520418300546 -1.3978704815264482 1.6779938123792513 -1.850919660847135 -1.570796326091171 2.273255715066953             1083.014913043478
3.776435748824817 -1.3799592133297371 1.6564473874324157 -1.8472845038343222 -1.5707963261537197 2.2056394220591895             1083.0659999999998
3.709329925342387 -1.3621831663367165 1.635063627322293 -1.8436767904565152 -1.5707963262157962 2.138533598574253             1083.1170869565215
3.6432392346171625 -1.3446760236899926 1.6140033466694441 -1.840123652193629 -1.5707963262769338 2.0724429078465594             1083.1681739130431
3.578656727306719 -1.3275683924100021 1.5934236596621256 -1.836651596215399 -1.570796326336676 2.007860400533703             1083.219260869565
3.5160580352033977 -1.3109862653339275 1.5734761298401372 -1.8332861932262903 -1.5707963263945832 1.9452617084280437             1083.2703478260867
3.455895564945896 -1.2950494830546138 1.5543049198786703 -1.830051765310407 -1.570796326450237 1.885099238168295             1083.3214347826083
3.3985926917308555 -1.2798701958594814 1.5360449413721546 -1.8269710737764029 -1.5707963265032452 1.827796364951114             1083.3725217391302
3.3445379530244512 -1.2655513256694437 1.5188200046181075 -1.8240650070023914 -1.5707963265532487 1.7737416262426902             1083.4236086956519
3.2940792422739826 -1.2521850279778226 1.502740968400981 -1.8213522682808552 -1.5707963265999259 1.7232829154903366             1083.4746956521735
3.2475180026194588 -1.2398511537892607 1.4879038897760093 -1.8188490636635557 -1.5707963266429976 1.6767216758340735             1083.5257826086954
3.2051034206051856 -1.2286157115586405 1.4743881738530564 -1.816568789806443 -1.5707963266822333 1.6343070938182158             1083.576869565217
3.1670266198913657 -1.2185293291299983 1.4622547235804664 -1.8145217218145673 -1.5707963267174565 1.5962302931029737             1083.627956521739
3.133414854965673 -1.2096257156754386 1.4515440895289071 -1.8127147010869866 -1.5707963267485492 1.5626185281760263             1083.6790434782606
3.104325704854853 -1.2019201236340509 1.4422746196752212 -1.8111508231616777 -1.570796326775458 1.5335293780641182             1083.7301304347823
3.079741266836299 -1.1954078106508235 1.4344406091862723 -1.809829125560446 -1.5707963267982001 1.508944940044647             1083.7812173913042
3.0595623501496645 -1.1900625015155617 1.428010450202795 -1.8087442756338359 -1.5707963268168668 1.4887660233572564             1083.8323043478258
3.0436026697084158 -1.1858348501017995 1.4229247816232384 -1.807886258406039 -1.5707963268316303 1.4728063429154143             1083.8833913043475
3.031583039811463 -1.1826509013057176 1.4190946388876209 -1.8072400644198066 -1.5707963268427492 1.4607867130180126             1083.9344782608694
3.0231255678547124 -1.180410552985058 1.4163996037613686 -1.8067853775813567 -1.5707963268505727 1.4523292410609456             1083.985565217391
3.017747848042675 -1.1789860178980383 1.4146859541191703 -1.8064962630052863 -1.5707963268555474 1.4469515212487085             1084.036652173913
3.014857155100059 -1.1782202856422703 1.4137648137288261 -1.80634085485948 -1.5707963268582215 1.4440608283059817             1084.0877391304346
3.0137446379833355 -1.1779255845936707 1.4134103020350888 -1.8062810442100197 -1.5707963268592506 1.4429483111892183             1084.1388260869562
3.013579513592356 -1.1778818438453806 1.4133576839435165 -1.806272166866096 -1.5707963268594034 1.4427831867982324             1084.189913043478
3.0135795135923544 -1.1778818438453802 1.4133576839435165 -1.806272166866096 -1.5707963268594034 1.4427831867982306             1084.2409999999998
3.013579513609194 -1.1776965965294781 1.4137463778115944 -1.806846108049477 -1.5707963268603005 1.4427831868151866             1084.2909999999997
3.0135795137133394 -1.1765509089199029 1.4161503087209626 -1.8103957265647161 -1.5707963268658482 1.4427831869200531             1084.3409999999997
3.0135795139570263 -1.1738701586187303 1.4217751740467521 -1.81870134218301 -1.5707963268788294 1.4427831871654262             1084.3909999999996
3.0135795143596553 -1.1694409144495892 1.4310688042425832 -1.8324242165336606 -1.5707963269002774 1.4427831875708415             1084.4409999999998
3.013579514913765 -1.1633452653264682 1.4438589568262938 -1.8513100182207824 -1.5707963269297947 1.4427831881287854             1084.4909999999998
3.0135795155909983 -1.1558951491225262 1.4594911103656705 -1.8743922879400117 -1.570796326965871 1.4427831888107057             1084.5409999999997
3.0135795163480763 -1.1475666815389003 1.4769662584641756 -1.9001959035952134 -1.5707963270062002 1.4427831895730228             1084.5909999999997
3.013579517132764 -1.1389344849735148 1.4950787037466788 -1.9269405454151904 -1.5707963270480005 1.4427831903631405             1084.6409999999996
3.013579517889842 -1.1306060173898889 1.512553851845184 -1.9527441610703922 -1.5707963270883298 1.4427831911254576             1084.6909999999998
3.0135795185670755 -1.1231559011859469 1.5281860053845606 -1.9758264307896214 -1.570796327124406 1.442783191807378             1084.7409999999998
3.013579519121185 -1.1170602520628259 1.5409761579682713 -1.9947122324767432 -1.5707963271539234 1.4427831923653218             1084.7909999999997
3.013579519523814 -1.1126310078936845 1.5502697881641023 -2.008435106827394 -1.5707963271753713 1.442783192770737             1084.8409999999997
3.013579519767501 -1.1099502575925122 1.5558946534898919 -2.016740722445688 -1.5707963271883525 1.4427831930161101             1084.8909999999996
3.0135795198716466 -1.108804569982937 1.55829858439926 -2.0202903409609267 -1.5707963271939003 1.4427831931209767             1084.9409999999998
3.013579519888486 -1.108619322667035 1.558687278267338 -2.020864282144308 -1.5707963271947973 1.4427831931379327             1084.9909999999998
3.013579519888486 -1.108619322667035 1.558687278267338 -2.020864282144308 -1.5707963271947973 1.4427831931379327             1085.0409999999997
3.013579519888486 -1.108619322667035 1.558687278267338 -2.020864282144308 -1.5707963271947973 1.4427831931379327             1085.0909999999997
3.013579519888486 -1.108619322667035 1.558687278267338 -2.020864282144308 -1.5707963271947973 1.4427831931379327             1085.1459999999997
3.013579519888486 -1.108619322667035 1.558687278267338 -2.020864282144308 -1.5707963271947973 1.4427831931379327             1085.2009999999996
3.013579519888486 -1.108619322667035 1.558687278267338 -2.020864282144308 -1.5707963271947973 1.4427831931379327             1085.2559999999996
3.013579519888486 -1.108619322667035 1.558687278267338 -2.020864282144308 -1.5707963271947973 1.4427831931379327             1085.3109999999997
3.013579519888486 -1.108619322667035 1.558687278267338 -2.020864282144308 -1.5707963271947973 1.4427831931379327             1085.3659999999995
3.013579519888486 -1.108619322667035 1.558687278267338 -2.020864282144308 -1.5707963271947973 1.4427831931379327             1085.4209999999996
3.013579519888486 -1.108619322667035 1.558687278267338 -2.020864282144308 -1.5707963271947973 1.4427831931379327             1085.4759999999997
3.013579519888486 -1.108619322667035 1.558687278267338 -2.020864282144308 -1.5707963271947973 1.4427831931379327             1085.5309999999997
3.013579519888486 -1.108619322667035 1.558687278267338 -2.020864282144308 -1.5707963271947973 1.4427831931379327             1085.5859999999996
3.013579519888486 -1.108619322667035 1.558687278267338 -2.020864282144308 -1.5707963271947973 1.4427831931379327             1085.6409999999996
3.0135795198716466 -1.108804569982937 1.55829858439926 -2.0202903409609267 -1.5707963271939003 1.4427831931209767             1085.6909999999996
3.013579519767501 -1.1099502575925122 1.5558946534898919 -2.0167407224456877 -1.5707963271883525 1.4427831930161101             1085.7409999999995
3.013579519523814 -1.1126310078936847 1.5502697881641023 -2.008435106827394 -1.5707963271753713 1.442783192770737             1085.7909999999995
3.013579519121185 -1.1170602520628259 1.5409761579682713 -1.9947122324767432 -1.5707963271539234 1.4427831923653218             1085.8409999999997
3.0135795185670755 -1.1231559011859469 1.5281860053845606 -1.9758264307896214 -1.570796327124406 1.442783191807378             1085.8909999999996
3.013579517889842 -1.1306060173898889 1.512553851845184 -1.9527441610703922 -1.5707963270883298 1.4427831911254576             1085.9409999999996
3.013579517132764 -1.1389344849735148 1.4950787037466788 -1.9269405454151904 -1.5707963270480005 1.4427831903631405             1085.9909999999995
3.0135795163480763 -1.1475666815389003 1.4769662584641756 -1.9001959035952134 -1.5707963270062002 1.4427831895730228             1086.0409999999995
3.0135795155909983 -1.1558951491225262 1.4594911103656705 -1.8743922879400117 -1.570796326965871 1.4427831888107057             1086.0909999999997
3.013579514913765 -1.1633452653264682 1.4438589568262938 -1.8513100182207824 -1.5707963269297947 1.4427831881287854             1086.1409999999996
3.0135795143596553 -1.1694409144495892 1.4310688042425832 -1.8324242165336606 -1.5707963269002774 1.4427831875708415             1086.1909999999996
3.0135795139570263 -1.1738701586187306 1.4217751740467521 -1.8187013421830098 -1.5707963268788294 1.4427831871654262             1086.2409999999995
3.0135795137133394 -1.1765509089199029 1.4161503087209626 -1.810395726564716 -1.5707963268658482 1.4427831869200531             1086.2909999999995
3.013579513609194 -1.1776965965294781 1.4137463778115944 -1.806846108049477 -1.5707963268603005 1.4427831868151866             1086.3409999999997
3.0135795135923544 -1.1778818438453802 1.4133576839435165 -1.806272166866096 -1.5707963268594034 1.4427831867982306             1086.3909999999996
3.0135795135923544 -1.1778818438453802 1.4133576839435165 -1.806272166866096 -1.5707963268594034 1.4427831867982306             1086.4409999999996
3.0135795135923544 -1.1778818438453802 1.4133576839435165 -1.806272166866096 -1.5707963268594034 1.4427831867982306             1086.4909999999995
3.0135795135923544 -1.1778818438453802 1.4133576839435165 -1.806272166866096 -1.5707963268594034 1.4427831867982306             1086.5409999999995
3.0135795135923544 -1.1778818438453802 1.4133576839435165 -1.806272166866096 -1.5707963268594034 1.4427831867982306             1086.5909999999994
3.0135795135923544 -1.1778818438453802 1.4133576839435165 -1.806272166866096 -1.5707963268594034 1.4427831867982306             1086.6409999999996
3.0135795135923544 -1.1778818438453802 1.4133576839435165 -1.806272166866096 -1.5707963268594034 1.4427831867982306             1086.6909999999996
3.0135795135923544 -1.1778818438453802 1.4133576839435165 -1.806272166866096 -1.5707963268594034 1.4427831867982306             1086.7409999999995
3.0135795135923544 -1.1778818438453802 1.4133576839435165 -1.806272166866096 -1.5707963268594034 1.4427831867982306             1086.7909999999995
3.0135795135923544 -1.1778818438453802 1.4133576839435165 -1.806272166866096 -1.5707963268594034 1.4427831867982306             1086.8409999999994
3.0135795135923544 -1.1778818438453802 1.4133576839435165 -1.806272166866096 -1.5707963268594034 1.4427831867982306             1086.8909999999996
3.0135795135923544 -1.1778818438453802 1.4133576839435165 -1.806272166866096 -1.5707963268594034 1.4427831867982306             1086.9409999999996
3.0135795135923544 -1.1778818438453802 1.4133576839435165 -1.806272166866096 -1.5707963268594034 1.4427831867982306             1086.9909999999995
3.0135795135923544 -1.1778818438453802 1.4133576839435165 -1.806272166866096 -1.5707963268594034 1.4427831867982306             1087.0409999999995
3.0135795135923544 -1.1778818438453802 1.4133576839435165 -1.806272166866096 -1.5707963268594034 1.4427831867982306             1087.0909999999994
3.0135795135923544 -1.1778818438453802 1.4133576839435165 -1.806272166866096 -1.5707963268594034 1.4427831867982306             1087.1409999999996
3.0135795135923544 -1.1778818438453802 1.4133576839435165 -1.806272166866096 -1.5707963268594034 1.4427831867982306             1087.1909999999996
3.0135795135923544 -1.1778818438453802 1.4133576839435165 -1.806272166866096 -1.5707963268594034 1.4427831867982306             1087.2409999999995
3.0135795135923544 -1.1778818438453802 1.4133576839435165 -1.806272166866096 -1.5707963268594034 1.4427831867982306             1087.2909999999995
3.0135795135923544 -1.1778818438453802 1.4133576839435165 -1.806272166866096 -1.5707963268594034 1.4427831867982306             1087.3409999999997
3.0135795135923544 -1.1778818438453802 1.4133576839435165 -1.806272166866096 -1.5707963268594034 1.4427831867982306             1087.3909999999996
3.0135795135923544 -1.1778818438453802 1.4133576839435165 -1.806272166866096 -1.5707963268594034 1.4427831867982306             1087.4409999999996
3.0135795135923544 -1.1778818438453802 1.4133576839435165 -1.806272166866096 -1.5707963268594034 1.4427831867982306             1087.4909999999995
3.0135795135923544 -1.1778818438453802 1.4133576839435165 -1.806272166866096 -1.5707963268594034 1.4427831867982306             1087.5409999999995
3.0135795135923544 -1.1778818438453802 1.4133576839435165 -1.806272166866096 -1.5707963268594034 1.4427831867982306             1087.5909999999997
3.0135795135923544 -1.1778818438453802 1.4133576839435165 -1.806272166866096 -1.5707963268594034 1.4427831867982306             1087.6409999999996
3.0135795135923544 -1.1778818438453802 1.4133576839435165 -1.806272166866096 -1.5707963268594034 1.4427831867982306             1087.6909999999996
3.0135795135923544 -1.1778818438453802 1.4133576839435165 -1.806272166866096 -1.5707963268594034 1.4427831867982306             1087.7409999999995
3.0135795135923544 -1.1778818438453802 1.4133576839435165 -1.806272166866096 -1.5707963268594034 1.4427831867982306             1087.7909999999995
3.0135795135923544 -1.1778818438453802 1.4133576839435165 -1.806272166866096 -1.5707963268594034 1.4427831867982306             1087.8409999999997
3.0135795135923544 -1.1778818438453802 1.4133576839435165 -1.806272166866096 -1.5707963268594034 1.4427831867982306             1087.8909999999996
3.0135795135923544 -1.1778818438453802 1.4133576839435165 -1.806272166866096 -1.5707963268594034 1.4427831867982306             1087.9409999999996
3.013717105299427 -1.1778913346681266 1.4133708629484494 -1.8062758550489044 -1.5707963268599747 1.4429207785052849             1087.9909999999995
3.014646347243278 -1.177955432067346 1.4134598689243354 -1.8063007636297705 -1.5707963268638339 1.44385002044901             1088.0409999999995
3.0170675794989954 -1.1781224442125946 1.413691782842119 -1.8063656654132476 -1.5707963268738891 1.4462712527043995             1088.0909999999994
3.0215853994478583 -1.1784340751186035 1.4141245151096273 -1.8064867667951645 -1.5707963268926515 1.4507890726526511             1088.1409999999996
3.0287129170081726 -1.1789257181632702 1.4148072131521547 -1.806677821825237 -1.5707963269222516 1.4579165902120013             1088.1909999999996
3.0388760098661067 -1.1796267496056514 1.4157806689930452 -1.8069502462696765 -1.5707963269644583 1.46807968306856             1088.2409999999995
3.0524175787065264 -1.180560822103955 1.4170777268342745 -1.8073132316738008 -1.5707963270206957 1.4816212519071474             1088.2909999999995
3.0696018024438323 -1.1817461582335331 1.4187236906370344 -1.8077738594246437 -1.5707963270920606 1.4988054756421283             1088.3409999999994
3.0906183934527958 -1.1831958440048724 1.420736731702315 -1.8083372148135652 -1.5707963271793413 1.519822066648248             1088.3909999999996
3.1155868527993933 -1.184918122381589 1.423128296251487 -1.8090065010988614 -1.5707963272830339 1.5447905259914674             1088.4409999999996
3.1445607254716452 -1.1869166867984182 1.4259035130068862 -1.8097831535683737 -1.5707963274033607 1.5737643986597987             1088.4909999999995
3.1775318556104484 -1.1891909746792082 1.4290616007723955 -1.8106669536020998 -1.5707963275402879 1.606735528794141             1088.5409999999995
3.2144346417404153 -1.1917364609549121 1.4325962760140272 -1.811656142734803 -1.570796327693543 1.6436383149191145             1088.5909999999994
3.2551502920007076 -1.1945449515815798 1.4364961604405078 -1.8127475367186228 -1.5707963278626327 1.684353965173898             1088.6409999999996
3.299511079375874 -1.1976048770583505 1.4407451885838587 -1.8139366395856837 -1.5707963280468604 1.7287147525430622             1088.6909999999996
3.3473045969266852 -1.200901585945445 1.4453230153799814 -1.8152177577107063 -1.570796328245344 1.7765082700874064             1088.7409999999995
3.3982780130209695 -1.2044176383821574 1.4502054237492388 -1.8165841138736163 -1.5707963284570339 1.8274816861747938             1088.7909999999995
3.4521423265644495 -1.208133099604848 1.4553647321770387 -1.8180279613221555 -1.5707963286807292 1.8813459997109858             1088.8409999999994
3.508576622231579 -1.2120258334649356 1.4607702022944167 -1.8195406978344906 -1.5707963289150975 1.9377802953704792             1088.8909999999996
3.5672323256963763 -1.2160717959468892 1.4663884464586197 -1.8211129797818237 -1.570796329158691 1.99643599882734             1088.9409999999996
3.6277374588632627 -1.2202453286862203 1.4721838353336878 -1.822734836191003 -1.5707963294099654 2.0569411319860396             1088.9909999999995
3.689700895097897 -1.2245194524874752 1.4781189054710382 -1.8243957828071309 -1.570796329667296 2.1189045682122902             1089.0409999999995
3.7527166144580137 -1.2288661608422282 1.4841547668900477 -1.8260849361561755 -1.5707963299289966 2.18192028756388             1089.0909999999994
3.816367958924255 -1.233256713447072 1.4902515106586354 -1.8277911276075802 -1.570796330193337 2.2455716320215093             1089.1409999999996
3.8802318876310107 -1.2376619297216114 1.4963686164738463 -1.8295030174368732 -1.57079633045856 2.309435560719624             1089.1909999999996
3.9438832320972517 -1.2420524823264552 1.502465360242434 -1.8312092088882779 -1.5707963307229003 2.3730869051772525             1089.2409999999995
4.0068989514573685 -1.246399190681208 1.5085012216614435 -1.8328983622373225 -1.570796330984601 2.436102624528843             1089.2909999999995
4.068862387692002 -1.250673314482463 1.514436291798794 -1.8345593088534504 -1.5707963312419315 2.498066060755093             1089.3409999999997
4.12936752085889 -1.2548468472217942 1.520231680673862 -1.8361811652626296 -1.5707963314932059 2.558571193913793             1089.3909999999996
4.188023224323686 -1.2588928097037477 1.525849924838065 -1.8377534472099628 -1.5707963317367994 2.617226897370654             1089.4409999999996
4.244457519990816 -1.2627855435638353 1.5312553949554433 -1.8392661837222979 -1.5707963319711677 2.6736611930301475             1089.4909999999995
4.298321833534296 -1.266501004786526 1.536414703383243 -1.840710031170837 -1.570796332194863 2.727525506566339             1089.5409999999995
4.349295249628581 -1.2700170572232385 1.5412971117525003 -1.8420763873337471 -1.5707963324065528 2.7784989226537267             1089.5909999999997
4.397088767179391 -1.2733137661103329 1.545874938548623 -1.8433575054587696 -1.5707963326050365 2.8262924401980705             1089.6409999999996
4.441449554554558 -1.2763736915871036 1.5501239666919742 -1.8445466083258306 -1.5707963327892642 2.870653227567235             1089.6909999999996
4.4821652048148515 -1.2791821822137712 1.5540238511184545 -1.8456380023096504 -1.5707963329583539 2.9113688778220186             1089.7409999999995
4.5190679909448175 -1.281727668489475 1.5575585263600862 -1.8466271914423535 -1.570796333111609 2.9482716639469926             1089.7909999999995
4.552039121083622 -1.2840019563702652 1.5607166141255955 -1.8475109914760797 -1.5707963332485362 2.981242794081334             1089.8409999999997
4.581012993755873 -1.2860005207870944 1.5634918308809946 -1.848287643945592 -1.570796333368863 3.0102166667496664             1089.8909999999996
4.605981453102471 -1.287722799163811 1.565883395430167 -1.8489569302308881 -1.5707963334725557 3.0351851260928857             1089.9409999999996
4.626998044111435 -1.2891724849351505 1.5678964364954473 -1.8495202856198096 -1.5707963335598363 3.0562017170990066             1089.9909999999995
4.64418226784874 -1.2903578210647284 1.5695424002982072 -1.8499809133706526 -1.5707963336312012 3.073385940833985             1090.0409999999995
4.65772383668916 -1.291291893563032 1.5708394581394365 -1.850343898774777 -1.5707963336874387 3.0869275096725737             1090.0909999999997
4.667886929547093 -1.2919929250054132 1.5718129139803267 -1.8506163232192163 -1.5707963337296453 3.097090602529132             1090.1409999999996
4.675014447107408 -1.2924845680500798 1.5724956120228542 -1.8508073782492886 -1.5707963337592454 3.104218120088481             1090.1909999999996
4.679532267056272 -1.2927961989560888 1.5729283442903628 -1.8509284796312058 -1.5707963337780078 3.108735940036735             1090.2409999999995
4.681953499311991 -1.2929632111013376 1.5731602582081463 -1.8509933814146828 -1.570796333788063 3.111157172292124             1090.2909999999995
4.68288274125584 -1.293027308500557 1.5732492641840323 -1.851018289995549 -1.5707963337919222 3.112086414235849             1090.3409999999997
4.683020332962913 -1.2930367993233032 1.5732624431889652 -1.8510219781783575 -1.5707963337924935 3.1122240059429025             1090.3909999999996
4.6830203329629105 -1.2930367993233032 1.5732624431889652 -1.8510219781783575 -1.5707963337924935 3.1122240059429025             1090.4409999999996
4.683020327505428 -1.292826290769684 1.5736508461758685 -1.851620889986443 -1.57079633421281 3.112224000474477             1090.4909999999995
4.683020293752872 -1.291524371546636 1.576052978090438 -1.8553249427788423 -1.570796336812316 3.112223966654243             1090.5409999999995
4.683020214776567 -1.288478060911766 1.5816736340176023 -1.8639919132128373 -1.5707963428947993 3.1122238875195816             1090.5909999999994
4.683020084288719 -1.2834448231607567 1.590960309274621 -1.878311832618275 -1.5707963529445246 3.11222375677009             1090.6409999999996
4.68301990470771 -1.2765179412568068 1.6037408902779322 -1.8980193043298301 -1.5707963667752363 3.112223576829             1090.6909999999996
4.683019685223393 -1.2680518904600728 1.619361345410004 -1.9221058210192634 -1.5707963836791636 3.1122233569045905             1090.7409999999995
4.6830194398623854 -1.258587711957109 1.6368234158861807 -1.9490320820276845 -1.5707964025760246 3.112223111051605             1090.7909999999995
4.683019185553364 -1.2487783864903088 1.654922306621534 -1.9769403106978116 -1.570796422162031 3.112222856232663             1090.8409999999994
4.683018940192356 -1.239314207987345 1.6723843770977107 -2.0038665717062325 -1.570796441058892 3.1122226103796775             1090.8909999999996
4.683018720708039 -1.230848157190611 1.6880048322297823 -2.027953088395666 -1.5707964579628193 3.112222390455268             1090.9409999999996
4.68301854112703 -1.223921275286661 1.7007854132330937 -2.0476605601072206 -1.570796471793531 3.112222210514178             1090.9909999999995
4.683018410639182 -1.2188880375356514 1.7100720884901124 -2.061980479512659 -1.5707964818432563 3.1122220797646865             1091.0409999999995
4.683018331662877 -1.2158417269007815 1.715692744417277 -2.070647449946654 -1.5707964879257397 3.112222000630025             1091.0909999999994
4.683018297910321 -1.2145398076777338 1.7180948763318464 -2.074351502739053 -1.5707964905252456 3.1122219668097912             1091.1409999999996
4.6830182924528385 -1.2143292991241146 1.7184832793187494 -2.0749504145471382 -1.570796490945562 3.1122219613413655             1091.1909999999996
4.6830182924528385 -1.2143292991241146 1.7184832793187494 -2.0749504145471382 -1.570796490945562 3.1122219613413655             1091.2409999999995
4.6830182924528385 -1.2143292991241146 1.7184832793187494 -2.0749504145471382 -1.570796490945562 3.1122219613413655             1091.2909999999995
4.6830182924528385 -1.2143292991241146 1.7184832793187494 -2.0749504145471382 -1.570796490945562 3.1122219613413655             1091.3409999999994
4.6830182924528385 -1.2143292991241146 1.7184832793187494 -2.0749504145471382 -1.570796490945562 3.1122219613413655             1091.3909999999994
4.6830182924528385 -1.2143292991241146 1.7184832793187494 -2.0749504145471382 -1.570796490945562 3.1122219613413655             1091.4409999999996
4.6830182924528385 -1.2143292991241146 1.7184832793187494 -2.0749504145471382 -1.570796490945562 3.1122219613413655             1091.4909999999995
4.6830182924528385 -1.2143292991241146 1.7184832793187494 -2.0749504145471382 -1.570796490945562 3.1122219613413655             1091.5409999999995
4.6830182924528385 -1.2143292991241146 1.7184832793187494 -2.0749504145471382 -1.570796490945562 3.1122219613413655             1091.5909999999994
4.6830182924528385 -1.2143292991241146 1.7184832793187494 -2.0749504145471382 -1.570796490945562 3.1122219613413655             1091.6409999999994
4.6830182924528385 -1.2143292991241146 1.7184832793187494 -2.0749504145471382 -1.570796490945562 3.1122219613413655             1091.6909999999996
4.6830182924528385 -1.2143292991241146 1.7184832793187494 -2.0749504145471382 -1.570796490945562 3.1122219613413655             1091.7409999999995
4.6830182924528385 -1.2143292991241146 1.7184832793187494 -2.0749504145471382 -1.570796490945562 3.1122219613413655             1091.7909999999995
4.6830182924528385 -1.2143292991241146 1.7184832793187494 -2.0749504145471382 -1.570796490945562 3.1122219613413655             1091.8409999999994
4.6830182924528385 -1.2143292991241146 1.7184832793187494 -2.0749504145471382 -1.570796490945562 3.1122219613413655             1091.8909999999994
4.6830182924528385 -1.2143292991241146 1.7184832793187494 -2.0749504145471382 -1.570796490945562 3.1122219613413655             1091.9409999999996
4.6830182924528385 -1.2143292991241146 1.7184832793187494 -2.0749504145471382 -1.570796490945562 3.1122219613413655             1091.9909999999995
4.6830182924528385 -1.2143292991241146 1.7184832793187494 -2.0749504145471387 -1.570796490945562 3.1122219613413655             1092.0409999999995
4.683018297910321 -1.2145398076777338 1.7180948763318462 -2.074351502739053 -1.5707964905252456 3.1122219668097912             1092.0909999999994
4.683018331662877 -1.2158417269007817 1.7156927444172767 -2.070647449946654 -1.5707964879257397 3.112222000630025             1092.1409999999994
4.683018410639182 -1.2188880375356517 1.7100720884901124 -2.061980479512659 -1.5707964818432563 3.1122220797646865             1092.1909999999993
4.68301854112703 -1.223921275286661 1.7007854132330937 -2.047660560107221 -1.570796471793531 3.112222210514178             1092.2409999999995
4.683018720708039 -1.230848157190611 1.6880048322297825 -2.027953088395666 -1.5707964579628193 3.112222390455268             1092.2909999999995
4.683018940192356 -1.239314207987345 1.6723843770977107 -2.003866571706233 -1.570796441058892 3.1122226103796775             1092.3409999999994
4.683019185553364 -1.2487783864903088 1.654922306621534 -1.9769403106978116 -1.570796422162031 3.112222856232663             1092.3909999999994
4.6830194398623854 -1.258587711957109 1.6368234158861807 -1.9490320820276845 -1.5707964025760246 3.112223111051605             1092.4409999999993
4.683019685223393 -1.2680518904600728 1.619361345410004 -1.9221058210192634 -1.5707963836791636 3.1122233569045905             1092.4909999999995
4.68301990470771 -1.2765179412568068 1.6037408902779324 -1.8980193043298301 -1.5707963667752363 3.112223576829             1092.5409999999995
4.683020084288719 -1.2834448231607567 1.590960309274621 -1.8783118326182753 -1.5707963529445246 3.11222375677009             1092.5909999999994
4.683020214776567 -1.2884780609117663 1.5816736340176023 -1.8639919132128373 -1.5707963428947993 3.1122238875195816             1092.6409999999994
4.683020293752872 -1.2915243715466362 1.5760529780904378 -1.8553249427788423 -1.570796336812316 3.112223966654243             1092.6909999999993
4.683020327505428 -1.292826290769684 1.5736508461758683 -1.8516208899864433 -1.57079633421281 3.112224000474477             1092.7409999999995
4.6830203329629105 -1.2930367993233032 1.5732624431889652 -1.8510219781783577 -1.5707963337924935 3.1122240059429025             1092.7909999999995
4.6830203329629105 -1.2930367993233032 1.5732624431889652 -1.8510219781783575 -1.5707963337924935 3.1122240059429025             1092.8409999999994
4.6829779232053035 -1.2930380564503439 1.573264074865631 -1.8510223527277694 -1.570796333792357 3.112142042732676             1092.8909999999994
4.682688054815306 -1.293046648845393 1.5732752272870256 -1.8510249127526581 -1.5707963337914228 3.1115818286421417             1092.9409999999993
4.681922255694026 -1.2930693489700205 1.5733046907083539 -1.8510316760455106 -1.5707963337889554 3.110101807111465             1092.9909999999993
4.680472234550968 -1.2931123310781805 1.5733604789466604 -1.85104448216837 -1.5707963337842834 3.1072994240164356             1093.0409999999995
4.67814929595306 -1.2931811885555644 1.5734498518862838 -1.8510649976189357 -1.5707963337767987 3.1028099971630874             1093.0909999999994
4.674783755373688 -1.2932809512589514 1.573579337984311 -1.851094720996663 -1.5707963337659545 3.0963055857823165             1093.1409999999994
4.6702243542417285 -1.2934161028555586 1.5737547567760315 -1.8511349881688632 -1.5707963337512638 3.0874938600245043             1093.1909999999993
4.66433767499058 -1.2935905981623943 1.5739812413803895 -1.8511869774368026 -1.5707963337322965 3.0761169704541333             1093.2409999999993
4.657007556107194 -1.2938078804856072 1.57426326100544 -1.8512517147018035 -1.5707963337086783 3.0619504175444088             1093.2909999999995
4.648134507181109 -1.2940708989598384 1.5746046434538012 -1.851330078631343 -1.5707963336800885 3.0448019211718784             1093.3409999999994
4.637635123953481 -1.2943821258875725 1.575008597628109 -1.8514228058251532 -1.5707963336462587 3.024510290111051             1093.3909999999994
4.625441503366116 -1.2947435740784885 1.5754777360364711 -1.8515304959813212 -1.57079633360697 3.000944291529016             1093.4409999999993
4.611500658610502 -1.2951568141888112 1.5760140972979202 -1.8516536170623892 -1.5707963335620514 2.9740015204800643             1093.4909999999993
4.595773934176842 -1.2956229920606628 1.5766191686478686 -1.8517925104614532 -1.5707963335113788 2.943607269400306             1093.5409999999995
4.578236420903084 -1.2961428460614124 1.5772939084435618 -1.8519473961682638 -1.5707963334548716 2.9097133976022924             1093.5909999999994
4.558876371023958 -1.296716724423029 1.5780387686695323 -1.8521183779353254 -1.570796333392492 2.8722972007696335             1093.6409999999994
4.537694613219999 -1.2973446025814324 1.5788537174430537 -1.852305448443997 -1.5707963333242427 2.831360280451617             1093.6909999999993
4.514703967666589 -1.2980261005158424 1.5797382615195947 -1.8525084944705905 -1.5707963332501649 2.786927413557832             1093.7409999999993
4.489928661082984 -1.298760500088133 1.580691468798273 -1.8527273020524722 -1.570796333170337 2.739045421852783             1093.7909999999995
4.4634037417813435 -1.2995467623821808 1.581711990827308 -1.852961561654161 -1.5707963330848715 2.6877820414505136             1093.8409999999994
4.43517449471577 -1.300383545043218 1.5827980853094774 -1.8532108733334298 -1.5707963329939147 2.6332247923092247             1093.8909999999994
4.405295856531333 -1.3012692196171824 1.583947638607568 -1.853474751907404 -1.5707963328976435 2.575479847725894             1093.9409999999993
4.373831830613108 -1.3022018888900693 1.585158188249832 -1.8537526321186617 -1.570796332796264 2.514670903830895             1093.9909999999995
4.340854902135204 -1.3031794042272824 1.5864269454354396 -1.854043873801334 -1.5707963326900096 2.4509380490826183             1094.0409999999995
4.306445453109798 -1.3041993829129843 1.5877508175399335 -1.8543477670472046 -1.5707963325791396 2.3844366337620895             1094.0909999999994
4.270691177436164 -1.305259225489449 1.5891264306206823 -1.854663537371809 -1.5707963324639367 2.3153361394675893             1094.1409999999994
4.23368649594971 -1.3063561330964122 1.5905501519223346 -1.854990350880535 -1.5707963323447047 2.2438190486092737             1094.1909999999993
4.195531971471005 -1.3074871248104218 1.5920181123822736 -1.8553273194347226 -1.5707963322217677 2.1700797139037924             1094.2409999999995
4.156333723854815 -1.3086490549841907 1.5935262291360701 -1.8556735058177631 -1.5707963320954679 2.0943232278689106             1094.2909999999995
4.116202845039132 -1.3098386305859466 1.595070228022936 -1.8560279289011996 -1.570796331966163 2.016764292318125             1094.3409999999994
4.075254814094209 -1.3110524285387837 1.5966456660911803 -1.8563895688108265 -1.5707963318342253 1.937626087855287             1094.3909999999994
4.033608912271589 -1.3122869130600137 1.5982479541036605 -1.8567573720927892 -1.570796331700039 1.8571391433692193             1094.4409999999993
3.9913876380531383 -1.3135384530005165 1.599872379043238 -1.857130256879685 -1.5707963315639988 1.7755402055283382             1094.4909999999995
3.9487161222000817 -1.314803339184093 1.6015141266182316 -1.8575071180566607 -1.5707963314265077 1.693071108275272             1094.5409999999995
3.9057215428020284 -1.316077801746814 1.6031683037678717 -1.8578868324275146 -1.5707963312879758 1.6099776423214789             1094.5909999999994
3.86253254032601 -1.317358027476373 1.6048299611677532 -1.8582682638807952 -1.5707963311488176 1.5265084246418692             1094.6409999999994
3.8192786326655077 -1.3186401771514362 1.606494115735291 -1.8586502685559014 -1.57079633100945 1.4429137679694244             1094.6909999999993
3.7760896301894893 -1.3199204028809952 1.6081557731351726 -1.859031700009182 -1.5707963308702917 1.3594445502898145             1094.7409999999995
3.733095050791436 -1.3211948654437162 1.6098099502848127 -1.859411414380036 -1.5707963307317598 1.2763510843360213             1094.7909999999995
3.6904235349383794 -1.3224597516272927 1.6114516978598061 -1.8597882755570116 -1.5707963305942687 1.193881987082955             1094.8409999999994
3.6482022607199287 -1.3237112915677955 1.6130761227993837 -1.8601611603439074 -1.5707963304582284 1.1122830492420737             1094.8909999999994
3.6065563588973086 -1.3249457760890255 1.614678410811864 -1.8605289636258702 -1.5707963303240422 1.0317961047560065             1094.9409999999993
3.5656083279523854 -1.3261595740418626 1.6162538488801081 -1.860890603535497 -1.5707963301921044 0.9526579002931679             1094.9909999999995
3.5254774491367016 -1.3273491496436185 1.617797847766974 -1.8612450266189335 -1.5707963300627996 0.8750989647423819             1095.0409999999995
3.486279201520512 -1.3285110798173874 1.6193059645207706 -1.861591213001974 -1.5707963299364998 0.7993424787074996             1095.0909999999994
3.4481246770418084 -1.329642071531397 1.6207739249807096 -1.8619281815561617 -1.5707963298135628 0.7256031440020205             1095.1409999999994
3.4111199955553535 -1.3307389791383601 1.622197646282362 -1.8622549950648877 -1.5707963296943308 0.6540860531437032             1095.1909999999993
3.37536571988172 -1.3317988217148249 1.6235732593631107 -1.862570765389492 -1.5707963295791278 0.584985558849203             1095.2409999999995
3.3409562708563136 -1.3328188004005268 1.6248971314676046 -1.8628746586353626 -1.5707963294682579 0.5184841435286747             1095.2909999999995
3.307979342378411 -1.3337963157377397 1.6261658886532122 -1.863165900318035 -1.5707963293620035 0.4547512887803986             1095.3409999999994
3.276515316460185 -1.3347289850106268 1.6273764382954763 -1.8634437805292927 -1.570796329260624 0.3939423448853989             1095.3909999999994
3.246636678275749 -1.3356146595845912 1.6285259915935668 -1.8637076591032669 -1.5707963291643527 0.3361974003020691             1095.4409999999993
3.2184074312101747 -1.3364514422456284 1.6296120860757362 -1.8639569707825356 -1.570796329073396 0.28164015116077934             1095.4909999999995
3.191882511908535 -1.3372377045396762 1.6306326081047713 -1.8641912303842245 -1.5707963289879305 0.23037677075851004             1095.5409999999995
3.1671072053249283 -1.3379721041119668 1.6315858153834495 -1.8644100379661062 -1.5707963289081026 0.18249477905346057             1095.5909999999994
3.1441165597715184 -1.3386536020463768 1.6324703594599905 -1.8646130839926998 -1.5707963288340248 0.13806191215967445             1095.6409999999994
3.1229348019675602 -1.33928148020478 1.633285308233512 -1.8648001545013713 -1.5707963287657756 0.09712499184165946             1095.6909999999996
3.1035747520884325 -1.3398553585663968 1.6340301684594825 -1.8649711362684331 -1.570796328703396 0.05970879500899873             1095.7409999999995
3.0860372388146766 -1.3403752125671464 1.6347049082551754 -1.8651260219752435 -1.5707963286468887 0.025814923210987217             1095.7909999999995
3.070310514381016 -1.340841390438998 1.635309979605124 -1.8652649153743075 -1.570796328596216 -0.0045793278687713546             1095.8409999999994
3.0563696696254024 -1.3412546305493207 1.635846340866573 -1.8653880364553754 -1.5707963285512976 -0.03152209891772362             1095.8909999999994
3.044176049038037 -1.3416160787402367 1.636315479274935 -1.8654957266115435 -1.5707963285120088 -0.055088097499758515             1095.9409999999996
3.0336766658104075 -1.3419273056679708 1.6367194334492432 -1.8655884538053538 -1.570796328478179 -0.07537972856058861             1095.9909999999995
3.024803616884324 -1.342190324142202 1.6370608158976043 -1.8656668177348932 -1.5707963284495892 -0.09252822493311763             1096.0409999999995
3.017473498000939 -1.342407606465415 1.6373428355226547 -1.865731554999894 -1.570796328425971 -0.10669477784284176             1096.0909999999994
3.011586818749789 -1.3425821017722506 1.6375693201270127 -1.8657835442678334 -1.5707963284070037 -0.11807166741321717             1096.1409999999994
3.0070274176178327 -1.3427172533688578 1.637744738918733 -1.8658238114400336 -1.570796328392313 -0.12688339317102182             1096.1909999999996
3.0036618770384598 -1.3428170160722446 1.6378742250167604 -1.865853534817761 -1.5707963283814688 -0.133387804551794             1096.2409999999995
3.0013389384405516 -1.3428858735496287 1.6379635979563838 -1.8658740502683266 -1.570796328373984 -0.13787723140514174             1096.2909999999995
2.999888917297495 -1.3429288556577887 1.6380193861946903 -1.8658868563911861 -1.570796328369312 -0.14067961450017208             1096.3409999999994
2.9991231181762132 -1.342951555782416 1.6380488496160186 -1.8658936196840386 -1.5707963283668447 -0.1421596360308479             1096.3909999999994
2.998833249786218 -1.3429601481774653 1.6380600020374132 -1.8658961797089273 -1.5707963283659105 -0.14271985012138222             1096.4409999999996
2.998790840028609 -1.342961405304506 1.638061633714079 -1.8658965542583392 -1.570796328365774 -0.14280181333161224             1096.4909999999995
2.9987908400286063 -1.342961405304506 1.638061633714079 -1.8658965542583392 -1.570796328365774 -0.14280181333160957             1096.5409999999995
2.9987908375813794 -1.3427405478580317 1.6384527923103132 -1.8665085704197473 -1.570796328244215 -0.14280181577132967             1096.5909999999994
2.998790822446168 -1.3413746244778415 1.640871966671366 -1.870293668895103 -1.570796327492416 -0.14280183086011544             1096.6409999999994
2.998790787031869 -1.338178552981371 1.6465324995625137 -1.8791502750004434 -1.5707963257333106 -0.142801866165784             1096.6909999999993
2.998790728518931 -1.3328978742722388 1.6558850611537157 -1.8937835181388678 -1.5707963228268453 -0.14280192449923887             1096.7409999999995
2.998790647991797 -1.3256304572336688 1.6687563167642183 -1.9139221946937996 -1.570796318826887 -0.14280200477936328             1096.7909999999995
2.998790549571351 -1.3167482036219098 1.6844875946071576 -1.9385357309222473 -1.570796313938129 -0.14280210289791367             1096.8409999999994
2.998790439547363 -1.306818752959659 1.7020735535341616 -1.9660511458480658 -1.5707963084729977 -0.14280221258441303             1096.8909999999994
2.9987903255109356 -1.296527187429481 1.7203008507799544 -1.994570014155218 -1.5707963028085596 -0.1428023262710443             1096.9409999999993
2.9987902154869475 -1.2865977367672303 1.7378868097069584 -2.0220854290810366 -1.5707962973434284 -0.14280243595754366             1096.9909999999995
2.9987901170665014 -1.2777154831554713 1.7536180875498977 -2.046698965309484 -1.5707962924546703 -0.14280253407609406             1097.0409999999995
2.9987900365393676 -1.2704480661169013 1.7664893431604003 -2.066837641864416 -1.570796288454712 -0.14280261435621847             1097.0909999999994
2.9987899780264295 -1.2651673874077691 1.7758419047516023 -2.0814708850028403 -1.5707962855482467 -0.14280267268967334             1097.1409999999994
2.9987899426121305 -1.2619713159112986 1.78150243764275 -2.090327491108181 -1.5707962837891414 -0.1428027079953419             1097.1909999999993
2.998789927476919 -1.2606053925311085 1.7839216120038028 -2.094112589583536 -1.5707962830373423 -0.14280272308412767             1097.2409999999995
2.9987899250296923 -1.260384535084634 1.784312770600037 -2.0947246057449442 -1.5707962829157833 -0.14280272552384776             1097.2909999999995
2.9987899250296923 -1.260384535084634 1.784312770600037 -2.0947246057449442 -1.5707962829157833 -0.14280272552384776             1097.3409999999994
2.9987899250296923 -1.260384535084634 1.784312770600037 -2.0947246057449442 -1.5707962829157833 -0.14280272552384776             1097.3909999999994
2.9987899250296923 -1.260384535084634 1.784312770600037 -2.0947246057449442 -1.5707962829157833 -0.14280272552384776             1097.4459999999995
2.9987899250296923 -1.260384535084634 1.784312770600037 -2.0947246057449442 -1.5707962829157833 -0.14280272552384776             1097.5009999999993
2.9987899250296923 -1.260384535084634 1.784312770600037 -2.0947246057449442 -1.5707962829157833 -0.14280272552384776             1097.5559999999994
2.9987899250296923 -1.260384535084634 1.784312770600037 -2.0947246057449442 -1.5707962829157833 -0.14280272552384776             1097.6109999999994
2.9987899250296923 -1.260384535084634 1.784312770600037 -2.0947246057449442 -1.5707962829157833 -0.14280272552384776             1097.6659999999993
2.9987899250296923 -1.260384535084634 1.784312770600037 -2.0947246057449442 -1.5707962829157833 -0.14280272552384776             1097.7209999999993
2.9987899250296923 -1.260384535084634 1.784312770600037 -2.0947246057449442 -1.5707962829157833 -0.14280272552384776             1097.7759999999994
2.9987899250296923 -1.260384535084634 1.784312770600037 -2.0947246057449442 -1.5707962829157833 -0.14280272552384776             1097.8309999999994
2.9987899250296923 -1.260384535084634 1.784312770600037 -2.0947246057449442 -1.5707962829157833 -0.14280272552384776             1097.8859999999993
2.9987899250296923 -1.260384535084634 1.784312770600037 -2.0947246057449447 -1.5707962829157833 -0.14280272552384776             1097.9409999999993
2.998789926260605 -1.2604956225470911 1.7841160246149341 -2.094416772237681 -1.5707962829769255 -0.1428027242967109             1097.9909999999993
2.9987899340876716 -1.2612020000740507 1.7828649658606672 -2.0924593355768133 -1.570796283365713 -0.14280271649365303             1098.0409999999993
2.9987899530561415 -1.2629138675418927 1.7798330931013417 -2.087715594429606 -1.5707962843079182 -0.14280269758336722             1098.0909999999992
2.9987899857157885 -1.2658613370763914 1.7746128568631632 -2.0795478870728172 -1.570796285930194 -0.14280266502390082             1098.1409999999994
2.998790032886974 -1.2701184447527956 1.7670731325328237 -2.067751052778099 -1.5707962882732895 -0.14280261799740818             1098.1909999999993
2.9987900939267127 -1.2756271622959103 1.7573166934558888 -2.0524858931974004 -1.5707962913052664 -0.14280255714490345             1098.2409999999993
2.9987901669947323 -1.2822214087801767 1.7456376840351842 -2.0342126337483646 -1.5707962949347143 -0.14280248430101336             1098.2909999999993
2.9987902493195397 -1.2896510623297535 1.732479092829182 -2.013624384999733 -1.570796299023967 -0.1428024022287299             1098.3409999999992
2.998790337464483 -1.297605971818597 1.718390225650388 -1.9915806040567454 -1.5707963034023185 -0.14280231435416316             1098.3909999999994
2.9987904275938155 -1.305739968570543 1.703984178663728 -1.9690405559465387 -1.5707963078792389 -0.14280222450129418             1098.4409999999993
2.998790515738759 -1.313694878059387 1.689895311484934 -1.9469967750035506 -1.5707963122575903 -0.14280213662672744             1098.4909999999993
2.9987905980635663 -1.3211245316089635 1.6767367202789318 -1.9264085262549193 -1.570796316346843 -0.14280205455444397             1098.5409999999993
2.998790671131586 -1.3277187780932298 1.6650577108582274 -1.9081352668058837 -1.5707963199762909 -0.1428019817105539             1098.5909999999994
2.9987907321713245 -1.3332274956363446 1.6553012717812923 -1.8928701072251848 -1.5707963230082678 -0.14280192085804916             1098.6409999999994
2.99879077934251 -1.3374846033127488 1.6477615474509528 -1.8810732729304669 -1.5707963253513633 -0.14280187383155651             1098.6909999999993
2.998790812002157 -1.3404320728472474 1.6425413112127742 -1.8729055655736782 -1.5707963269736391 -0.1428018412720901             1098.7409999999993
2.998790830970627 -1.3421439403150894 1.6395094384534485 -1.8681618244264706 -1.5707963279158443 -0.1428018223618043             1098.7909999999993
2.9987908387976936 -1.342850317842049 1.6382583796991819 -1.8662043877656032 -1.5707963283046318 -0.14280181455874644             1098.8409999999994
2.9987908400286063 -1.342961405304506 1.638061633714079 -1.8658965542583394 -1.570796328365774 -0.14280181333160957             1098.8909999999994
2.9987908400286063 -1.342961405304506 1.638061633714079 -1.8658965542583394 -1.570796328365774 -0.14280181333160957             1098.9409999999993
2.9987908400286063 -1.342961405304506 1.638061633714079 -1.8658965542583394 -1.570796328365774 -0.14280181333160957             1098.9909999999993
2.9987908400286063 -1.342961405304506 1.638061633714079 -1.8658965542583394 -1.570796328365774 -0.14280181333160957             1099.0409999999993
2.9987908400286063 -1.342961405304506 1.638061633714079 -1.8658965542583394 -1.570796328365774 -0.14280181333160957             1099.0909999999992
2.9987908400286063 -1.342961405304506 1.638061633714079 -1.8658965542583394 -1.570796328365774 -0.14280181333160957             1099.1409999999994
2.9987908400286063 -1.342961405304506 1.638061633714079 -1.8658965542583394 -1.570796328365774 -0.14280181333160957             1099.1909999999993
2.9987908400286063 -1.342961405304506 1.638061633714079 -1.8658965542583394 -1.570796328365774 -0.14280181333160957             1099.2409999999993
2.9987908400286063 -1.342961405304506 1.638061633714079 -1.8658965542583394 -1.570796328365774 -0.14280181333160957             1099.2909999999993
2.9987908400286063 -1.342961405304506 1.638061633714079 -1.8658965542583394 -1.570796328365774 -0.14280181333160957             1099.3409999999992
2.9987908400286063 -1.342961405304506 1.638061633714079 -1.8658965542583394 -1.570796328365774 -0.14280181333160957             1099.3909999999994
2.9987908400286063 -1.342961405304506 1.638061633714079 -1.8658965542583394 -1.570796328365774 -0.14280181333160957             1099.4409999999993
2.9987908400286063 -1.342961405304506 1.638061633714079 -1.8658965542583394 -1.570796328365774 -0.14280181333160957             1099.4909999999993
2.9987908400286063 -1.342961405304506 1.638061633714079 -1.8658965542583394 -1.570796328365774 -0.14280181333160957             1099.5409999999993
2.9987908400286063 -1.342961405304506 1.638061633714079 -1.8658965542583394 -1.570796328365774 -0.14280181333160957             1099.5909999999992
2.9987908400286063 -1.342961405304506 1.638061633714079 -1.8658965542583394 -1.570796328365774 -0.14280181333160957             1099.6409999999994
2.9987908400286063 -1.342961405304506 1.638061633714079 -1.8658965542583394 -1.570796328365774 -0.14280181333160957             1099.6909999999993
2.9987908400286063 -1.342961405304506 1.638061633714079 -1.8658965542583392 -1.570796328365774 -0.14280181333160957             1099.7409999999993
2.9988304246636552 -1.342957174825667 1.6380561730650072 -1.8658953240967495 -1.5707963283601287 -0.14258405752930756             1099.7909999999993
2.999096648580953 -1.3429287230123015 1.6380194478208534 -1.8658870507240912 -1.5707963283221613 -0.14111955488500055             1099.8421363636355
2.9997869482420674 -1.3428549494861526 1.6379242218777792 -1.865865598457893 -1.5707963282237147 -0.1373222038080343             1099.893272727272
3.001068287600027 -1.3427180105189833 1.637747462774982 -1.8658257786020447 -1.5707963280409776 -0.1302735325352511             1099.9444090909083
3.003078681724751 -1.3425031562000769 1.6374701315125435 -1.8657633020974818 -1.5707963277542667 -0.11921431763961479             1099.9955454545448
3.0059287204284733 -1.342198567603734 1.6370769723692782 -1.8656747321728644 -1.5707963273478105 -0.10353620253883618             1100.046681818181
3.009703091891172 -1.341795193956773 1.6365563027205812 -1.8655574369952614 -1.5707963268095315 -0.08277331600399793             1100.0978181818175
3.0144621062859946 -1.3412865898060289 1.635899802856277 -1.8654095423208306 -1.5707963261308282 -0.05659389066817992             1100.1489545454538
3.0202432194046853 -1.3406687521858514 1.6351023057984666 -1.865229884145502 -1.570796325306359 -0.02479188153508445             1100.2000909090902
3.027062556283012 -1.3399399577856046 1.6341615871193769 -1.865017961355659 -1.5707963243338245 0.012721415512338713             1100.2512272727265
3.034916434826193 -1.3391006001171664 1.633078154759208 -1.8647738883788203 -1.5707963232137496 0.055925745203266986             1100.302363636363
3.043782889434324 -1.338153026682426 1.6318550388439819 -1.864498347834322 -1.5707963219492669 0.10470027437038007             1100.3534999999993
3.0536231946278054 -1.3371013761407846 1.6304975815033902 -1.8641925431839994 -1.5707963205458992 0.15883197344123473             1100.4046363636355
3.064383388672768 -1.3359514154766534 1.6290132266886432 -1.8638581513828687 -1.5707963190113423 0.2180239979296389             1100.455772727272
3.075995797206501 -1.3347103771669522 1.627411309990317 -1.8634972755298094 -1.5707963173552475 0.281904069927028             1100.5069090909083
3.088380556862879 -1.3333867963486097 1.6257028484562022 -1.8631123975182455 -1.5707963155890043 0.35003285959383773             1100.5580454545448
3.1014471388977873 -1.3319903479860613 1.6239003304091524 -1.8627063306868281 -1.5707963137255236 0.42191236665088117             1100.609181818181
3.115095872814551 -1.3305316840387489 1.6220175052649317 -1.8622821724701168 -1.5707963117790198 0.4969943018707219             1100.6603181818175
3.1292194699893603 -1.3290222706286188 1.6200691733500634 -1.8618432570492616 -1.5707963097647937 0.5746884685690491             1100.7114545454538
3.143704547296698 -1.3274742252076221 1.618070975719678 -1.861393108002685 -1.5707963076990152 0.6543711440960533             1100.7625909090902
3.1584331507347656 -1.3259001537252126 1.6160391839753618 -1.8609353909567643 -1.5707963055985066 0.7353934613277999             1100.8137272727265
3.173284279050912 -1.3243129877958464 1.6139904900830042 -1.8604738662365123 -1.5707963034805243 0.8170897901576055             1100.864863636363
3.1881354073670582 -1.32272582186648 1.6119417961906466 -1.8600123415162604 -1.570796301362542 0.8987861189874107             1100.9159999999993
3.202864010805126 -1.3211517503840704 1.6099100044463304 -1.8595546244703396 -1.5707962992620332 0.979808436219157             1100.9671363636355
3.2173490881124636 -1.3196037049630738 1.607911806815945 -1.8591044754237631 -1.5707962971962548 1.059491111746162             1101.018272727272
3.231472685287273 -1.3180942915529437 1.6059634749010767 -1.8586655600029078 -1.5707962951820287 1.137185278444489             1101.0694090909083
3.245121419204037 -1.3166356276056312 1.604080649756856 -1.8582414017861966 -1.5707962932355248 1.2122672136643302             1101.1205454545448
3.258188001238945 -1.3152391792430829 1.6022781317098063 -1.8578353349547791 -1.5707962913720441 1.284146720721372             1101.171681818181
3.2705727608953232 -1.3139155984247404 1.6005696701756915 -1.8574504569432153 -1.570796289605801 1.3522755103881836             1101.2228181818175
3.282185169429056 -1.3126745601150391 1.5989677534773652 -1.857089581090156 -1.5707962879497062 1.416155582385572             1101.2739545454538
3.2929453634740184 -1.311524599450908 1.5974833986626182 -1.8567551892890253 -1.5707962864151492 1.475347606873976             1101.3250909090902
3.3027856686674997 -1.3104729489092666 1.5961259413220266 -1.8564493846387027 -1.5707962850117816 1.5294793059448304             1101.3762272727265
3.311652123275631 -1.3095253754745262 1.5949028254068005 -1.8561738440942044 -1.5707962837472988 1.5782538351119433             1101.427363636363
3.319506001818812 -1.308686017806088 1.5938193930466316 -1.8559297711173657 -1.570796282627224 1.6214581648028725             1101.4784999999993
3.3263253386971385 -1.3079572234058412 1.5928786743675418 -1.8557178483275227 -1.5707962816546894 1.6589714618502946             1101.5296363636355
3.332106451815829 -1.3073393857856637 1.5920811773097314 -1.8555381901521941 -1.5707962808302203 1.6907734709833904             1101.580772727272
3.336865466210652 -1.3068307816349196 1.5914246774454273 -1.8553902954777632 -1.570796280151517 1.7169528963192084             1101.6319090909083
3.340639837673351 -1.3064274079879585 1.5909040077967302 -1.8552730003001603 -1.570796279613238 1.7377157828540475             1101.6830454545448
3.343489876377073 -1.3061228193916157 1.590510848653465 -1.855184430375543 -1.5707962792067818 1.7533938979548251             1101.734181818181
3.345500270501797 -1.3059079650727092 1.5902335173910265 -1.85512195387098 -1.570796278920071 1.7644531128504597             1101.7853181818175
3.3467816098597565 -1.30577102610554 1.5900567582882292 -1.8550821340151318 -1.5707962787373337 1.771501784123246             1101.8364545454538
3.3474719095208707 -1.3056972525793908 1.589961532345155 -1.8550606817489335 -1.5707962786388872 1.7752991352002099             1101.8875909090902
3.3477381334381686 -1.3056688007660255 1.5899248071010013 -1.8550524083762752 -1.5707962786009197 1.7767636378445162             1101.9387272727265
3.3477777180732176 -1.3056645702871865 1.5899193464519294 -1.8550511782146855 -1.5707962785952745 1.7769813936468202             1101.989863636363
                  1102.0409999999993
