Andreas691667/Digital_Twin_UR/data_analysis/busters_stuff/old/case1_success_formatted.csv
timestamp;actual_q_0;actual_q_1;actual_q_2;actual_q_3;actual_q_4;actual_q_5;actual_qd_0;actual_qd_1;actual_qd_2;actual_qd_3;actual_qd_4;actual_qd_5;safety_status;output_bit_register_65;output_bit_register_66

8108.294;3.712094783782959;-0.825463132267334;0.8429759184466761;-1.5883094273009242;-1.5707929770099085;2.141295909881592;0.0;0.0;0.0;-0.0;0.0;-0.0;1;False;False

8108.313999999999;3.7120580673217773;-0.8254102033427735;0.8429878393756312;-1.5882731876769007;-1.5708449522601526;2.141279697418213;0.0;0.0;0.0;-0.0;0.0;-0.0;1;False;False

8108.334;3.712099313735962;-0.8254620593837281;0.8430040518390101;-1.588252683679098;-1.5707648436175745;2.1413302421569824;0.0;0.0;0.0;-0.0;0.0;-0.0;1;False;False

8108.353999999999;3.712115526199341;-0.8254825633815308;0.8429673353778284;-1.5882731876769007;-1.5707891623126429;2.141279697418213;0.0;0.0;0.0;-0.0;0.0;-0.0;1;False;False

8108.374;3.712118625640869;-0.8254836362651368;0.8429716269122522;-1.588245531121725;-1.5707691351519983;2.141279697418213;0.0;0.0;0.0;-0.0;0.0;-0.0;1;False;False

8108.393999999999;3.712094783782959;-0.8254824441722413;0.8429964224444788;-1.5882374248900355;-1.570801083241598;2.141263484954834;0.0;0.0;0.0;-0.0;0.0;-0.0;1;False;False

8108.414;3.712045907974243;-0.8254222434810181;0.8430407683001917;-1.5882774792113246;-1.570784870778219;2.1412014961242676;0.0;0.0;0.0;-0.0;0.0;-0.0;1;False;False

8108.433999999999;3.712062358856201;-0.8254869741252442;0.8430331389056605;-1.5882846317686976;-1.5708206335650843;2.1413002014160156;0.0;0.0;0.0;-0.0;0.0;-0.0;1;False;False

8108.454;3.712062358856201;-0.8254707616618653;0.8430007139789026;-1.588269372979635;-1.5708048979388636;2.141312837600708;0.0;0.0;0.0;-0.0;0.0;-0.0;1;False;False

8108.473999999999;3.7120862007141113;-0.8254792851260682;0.8429802099810999;-1.588268896142477;-1.5707929770099085;2.141238212585449;0.0;0.0;0.0;-0.0;0.0;-0.0;1;False;False

8108.494;3.7120537757873535;-0.8254825633815308;0.8430169264422815;-1.5883051357665003;-1.570772949849264;2.1412546634674072;0.0;0.0;0.0;-0.0;0.0;-0.0;1;False;False

8108.513999999999;3.7120699882507324;-0.8254869741252442;0.8429845015155237;-1.5883094273009242;-1.5707805792437952;2.14133358001709;0.0;0.0;0.0;-0.0;0.0;-0.0;1;False;False

8108.534;3.7120537757873535;-0.8254954975894471;0.8429845015155237;-1.5882774792113246;-1.570784870778219;2.141279697418213;0.0;0.0;0.0;-0.0;0.0;-0.0;1;False;False

8108.554;3.712122917175293;-0.8254135412028809;0.8429802099810999;-1.5883094273009242;-1.5707810560809534;2.141317129135132;0.0;0.0;0.0;-0.0;0.0;-0.0;1;False;False

8108.574;3.712094783782959;-0.8254783314517518;0.8430007139789026;-1.5882817707457484;-1.5707886854754847;2.141317129135132;0.0;0.0;0.0;-0.0;0.0;-0.0;1;False;False

8108.594;3.712111234664917;-0.8255284589580079;0.8430092970477503;-1.5882650814452113;-1.5708444754229944;2.1412546634674072;0.0;0.0;0.0;-0.0;0.0;-0.0;1;False;False

8108.614;3.71207857131958;-0.8254500788501282;0.8430083433734339;-1.588245531121725;-1.5707529226886194;2.1412220001220703;0.0;0.0;0.0;-0.0;0.0;-0.0;1;False;False

8108.634;3.7120580673217773;-0.8254912060550232;0.8430169264422815;-1.588273664514059;-1.5707810560809534;2.1412997245788574;0.0;0.0;0.0;-0.0;0.0;-0.0;1;False;False

8108.6539999999995;3.7120699882507324;-0.8254750531962891;0.8430708090411585;-1.5882417164244593;-1.5708206335650843;2.141267776489258;7.612011447210071e-22;0.0;0.0;-0.0;0.0;-0.0;1;False;False

8108.674;3.712062358856201;-0.8254546088031312;0.8429845015155237;-1.5882774792113246;-1.5707767645465296;2.1412720680236816;5.949913279523173e-42;0.0;0.0;-0.0;0.0;-0.0;1;False;False

8108.6939999999995;3.712066650390625;-0.8255123657039185;0.8430493513690394;-1.588285585443014;-1.570772949849264;2.141308546066284;0.0;0.0;0.0;-0.0;0.0;-0.0;1;False;False

8108.714;3.712050199508667;-0.8254469198039551;0.842992130910055;-1.5882731876769007;-1.5708373228656214;2.1412601470947266;0.0;0.0;0.0;-0.0;0.0;-0.0;1;False;False

8108.7339999999995;3.712094783782959;-0.8254619997790833;0.8429520765887659;-1.5882889233031214;-1.5708006064044397;2.141275405883789;0.0;0.0;0.0;-0.0;0.0;-0.0;1;False;False

8108.754;3.7120370864868164;-0.8254750531962891;0.8429520765887659;-1.5882774792113246;-1.5707929770099085;2.1412720680236816;0.0;0.0;0.0;-0.0;0.0;-0.0;1;False;False

8108.773999999999;3.712050199508667;-0.825463132267334;0.842992130910055;-1.588292738000387;-1.5707648436175745;2.1412501335144043;0.0;0.0;0.0;-0.0;0.0;-0.0;1;False;False

8108.794;3.712118625640869;-0.8254750531962891;0.8430050055133265;-1.5883289776244105;-1.5708006064044397;2.1412839889526367;0.0;0.0;0.0;-0.0;0.0;-0.0;1;False;False

8108.813999999999;3.712013006210327;-0.8254707616618653;0.8430007139789026;-1.588320871392721;-1.5707929770099085;2.1412720680236816;0.0;0.0;0.0;-0.0;0.0;-0.0;1;False;False

8108.834;3.712099313735962;-0.8254469198039551;0.8429930845843714;-1.5883051357665003;-1.5708048979388636;2.1412501335144043;0.0;0.0;0.0;-0.0;0.0;-0.0;1;False;False

8108.853999999999;3.7120537757873535;-0.8254878681949158;0.8429678122149866;-1.588273664514059;-1.5707967917071741;2.141270875930786;0.0;0.0;0.0;-0.0;0.0;-0.0;1;False;False

8108.874;3.712090492248535;-0.8253940504840394;0.8429964224444788;-1.5883175335326136;-1.5708168188678187;2.1412665843963623;0.0;0.0;0.0;-0.0;0.0;-0.0;1;False;False

8108.893999999999;3.7120537757873535;-0.825450138454773;0.8430126349078577;-1.588273664514059;-1.5707967917071741;2.141275405883789;0.0;0.0;0.0;-0.0;0.0;-0.0;1;False;False

8108.914;3.712066650390625;-0.8254620593837281;0.8430007139789026;-1.5882536373534144;-1.5708487669574183;2.1413040161132812;0.0;0.0;0.0;-0.0;0.0;-0.0;1;False;False

8108.933999999999;3.712082862854004;-0.8254664105227967;0.8429802099810999;-1.5883289776244105;-1.570813004170553;2.141230821609497;0.0;0.0;0.0;-0.0;0.0;-0.0;1;False;False

8108.954;3.712070941925049;-0.8254673641971131;0.8429759184466761;-1.588292738000387;-1.5707929770099085;2.141317129135132;0.0;0.0;0.0;-0.0;0.0;-0.0;1;False;False

8108.973999999999;3.7120742797851562;-0.8254793447307129;0.8429802099810999;-1.5882488689818324;-1.5707767645465296;2.141270637512207;0.0;0.0;0.0;-0.0;0.0;-0.0;1;False;False

8108.994;3.7120862007141113;-0.825483576660492;0.8430169264422815;-1.5882569752135218;-1.5707810560809534;2.141251564025879;0.0;0.0;0.0;-0.0;0.0;-0.0;1;False;False

8109.013999999999;3.7120537757873535;-0.8254673641971131;0.8430092970477503;-1.5883165798582972;-1.5708168188678187;2.141279697418213;0.0;0.0;0.0;-0.0;0.0;-0.0;1;False;False

8109.034;3.7120537757873535;-0.8254951399615784;0.8429635206805628;-1.5883008442320765;-1.5708168188678187;2.141247272491455;0.0;0.0;0.0;-0.0;0.0;-0.0;1;False;False

8109.054;3.7120742797851562;-0.825482503776886;0.8429845015155237;-1.588292738000387;-1.5707691351519983;2.141239643096924;0.0;0.0;0.0;-0.0;0.0;-0.0;1;False;False

8109.074;3.7121143341064453;-0.8254383963397522;0.8429802099810999;-1.588273664514059;-1.5707767645465296;2.141279697418213;0.0;0.0;0.0;-0.0;0.0;-0.0;1;False;False

8109.094;3.712118625640869;-0.8254383963397522;0.8430007139789026;-1.5882851086058558;-1.570824925099508;2.141247034072876;0.0;0.0;0.0;-0.0;0.0;-0.0;1;False;False

8109.114;3.712066650390625;-0.8254750531962891;0.8429802099810999;-1.588273664514059;-1.570768181477682;2.141254425048828;0.0;0.0;0.0;-0.0;0.0;-0.0;1;False;False

8109.134;3.712090492248535;-0.8255123657039185;0.8430007139789026;-1.5882889233031214;-1.5707605520831507;2.141267776489258;0.0;0.0;0.0;-0.0;0.0;-0.0;1;False;False

8109.1539999999995;3.7120656967163086;-0.825463132267334;0.8429964224444788;-1.5883289776244105;-1.5708168188678187;2.141242742538452;0.0;0.0;0.0;-0.0;0.0;-0.0;1;False;False

8109.174;3.712115526199341;-0.8254663509181519;0.8429802099810999;-1.5882531605162562;-1.5708048979388636;2.1413497924804688;0.0;0.0;0.0;-0.0;0.0;-0.0;1;False;False

8109.1939999999995;3.7120327949523926;-0.8254793447307129;0.842992130910055;-1.588268896142477;-1.5708006064044397;2.141267776489258;0.0;0.0;0.0;-0.0;0.0;-0.0;1;False;False

8109.214;3.7120370864868164;-0.8254663509181519;0.8430336157428187;-1.5883132419981898;-1.5707452932940882;2.1412839889526367;0.0;0.0;0.0;-0.0;0.0;-0.0;1;False;False

8109.2339999999995;3.712054491043091;-0.8254869741252442;0.8430450598346155;-1.5882488689818324;-1.5707767645465296;2.141275405883789;0.0;0.0;0.0;-0.0;0.0;-0.0;1;False;False

8109.254;3.712099313735962;-0.8254793447307129;0.8429935614215296;-1.5882612667479457;-1.570836369191305;2.141263484954834;0.0;0.0;0.0;-0.0;0.0;-0.0;1;False;False

8109.273999999999;3.712082862854004;-0.8255208891681214;0.8429935614215296;-1.588320871392721;-1.570784870778219;2.14125919342041;0.0;0.0;0.0;-0.0;0.0;-0.0;1;False;False

8109.294;3.7120251655578613;-0.8254588407329102;0.8430126349078577;-1.5883013210692347;-1.5708206335650843;2.141279697418213;0.0;0.0;0.0;-0.0;0.0;-0.0;1;False;False

8109.313999999999;3.7120862007141113;-0.8255199950984498;0.8430545965777796;-1.588268896142477;-1.5708048979388636;2.141263484954834;0.0;0.0;0.0;-0.0;0.0;-0.0;1;False;False

8109.334;3.7120819091796875;-0.8254869741252442;0.8430083433734339;-1.588349004785055;-1.5707805792437952;2.1413047313690186;0.0;0.0;0.0;-0.0;0.0;-0.0;1;False;False

8109.353999999999;3.7120862007141113;-0.8254350584796448;0.8429721037494105;-1.5882774792113246;-1.5707686583148401;2.14133358001709;0.0;0.0;0.0;-0.0;0.0;-0.0;1;False;False

8109.374;3.7120537757873535;-0.8254792851260682;0.842971150075094;-1.5883246860899867;-1.5707362333880823;2.141279697418213;0.0;0.0;0.0;-0.0;0.0;-0.0;1;False;False

8109.393999999999;3.712066650390625;-0.825463132267334;0.8429892698871058;-1.5882812939085902;-1.5707925001727503;2.141282796859741;0.0;0.0;0.0;-0.0;0.0;-0.0;1;False;False

8109.414;3.712082862854004;-0.8254222434810181;0.8429887930499476;-1.588297506371969;-1.5708254019366663;2.141275405883789;0.0;0.0;0.0;-0.0;0.0;-0.0;1;False;False

8109.433999999999;3.7120862007141113;-0.8254792851260682;0.8429845015155237;-1.5882774792113246;-1.5707843939410608;2.141263484954834;0.0;0.0;0.0;-0.0;0.0;-0.0;1;False;False

8109.454;3.7121024131774902;-0.8255250614932557;0.8430216948138636;-1.588320871392721;-1.5707443396197718;2.141291618347168;0.0;0.0;0.0;-0.0;0.0;-0.0;1;False;False

8109.473999999999;3.712062358856201;-0.8254017394832154;0.8429802099810999;-1.5883246860899867;-1.570784870778219;2.141263484954834;0.0;0.0;0.0;-0.0;0.0;-0.0;1;False;False

8109.494;3.7120862007141113;-0.8254546088031312;0.842992130910055;-1.58825745205068;-1.570784870778219;2.141287088394165;0.0;0.0;0.0;-0.0;0.0;-0.0;1;False;False

8109.513999999999;3.7120862007141113;-0.8254620593837281;0.8429802099810999;-1.5883094273009242;-1.5707967917071741;2.1412839889526367;0.0;0.0;0.0;-0.0;0.0;-0.0;1;False;False

8109.534;3.712094783782959;-0.8254664105227967;0.8430054823504847;-1.5882655582823695;-1.5707929770099085;2.141258955001831;0.0;0.0;0.0;-0.0;0.0;-0.0;1;False;False

8109.554;3.71207857131958;-0.825438455944397;0.8429515997516077;-1.5882379017271937;-1.5708091894732874;2.1412501335144043;0.0;0.0;0.0;-0.0;0.0;-0.0;1;False;False

8109.574;3.7120208740234375;-0.8254426878741761;0.8430174032794397;-1.588268896142477;-1.570813004170553;2.1412501335144043;0.0;0.0;0.0;-0.0;0.0;-0.0;1;False;False

8109.594;3.7120296955108643;-0.825451211338379;0.8430083433734339;-1.5882650814452113;-1.5707686583148401;2.141279697418213;0.0;0.0;0.0;-0.0;0.0;-0.0;1;False;False

8109.614;3.7120449542999268;-0.8254869741252442;0.8429587523089808;-1.588320871392721;-1.5707686583148401;2.141291618347168;0.0;0.0;0.0;-0.0;0.0;-0.0;1;False;False

8109.634;3.712099313735962;-0.8254426878741761;0.8429673353778284;-1.5883051357665003;-1.5707967917071741;2.141279697418213;0.0;0.0;0.0;-0.0;0.0;-0.0;1;False;False

8109.6539999999995;3.7120699882507324;-0.8255284589580079;0.8430216948138636;-1.5882493458189906;-1.5708044211017054;2.141295909881592;0.0;0.0;0.0;-0.0;0.0;-0.0;1;False;False

8109.674;3.712099313735962;-0.8254426878741761;0.8429845015155237;-1.5882450542845667;-1.5708211104022425;2.1413004398345947;0.0;0.0;0.0;-0.0;0.0;-0.0;1;False;False

8109.6939999999995;3.712099313735962;-0.8255027693561097;0.8430083433734339;-1.5882498226561488;-1.570801083241598;2.141324758529663;0.0;0.0;0.0;-0.0;0.0;-0.0;1;False;False

8109.714;3.7120580673217773;-0.8254792851260682;0.8430307547198694;-1.5882569752135218;-1.570813004170553;2.141263484954834;0.0;0.0;0.0;-0.0;0.0;-0.0;1;False;False

8109.7339999999995;3.712062358856201;-0.825463132267334;0.842992130910055;-1.5883094273009242;-1.570768181477682;2.141308546066284;0.0;0.0;0.0;-0.0;0.0;-0.0;1;False;False

8109.754;3.7120862007141113;-0.8254555028728028;0.8429349104510706;-1.5882889233031214;-1.5707686583148401;2.141275405883789;0.0;0.0;0.0;-0.0;0.0;-0.0;1;False;False

8109.773999999999;3.7120862007141113;-0.8254469794085999;0.8430054823504847;-1.5882498226561488;-1.5707767645465296;2.141291618347168;0.0;0.0;0.0;-0.0;0.0;-0.0;1;False;False

8109.794;3.7120742797851562;-0.8255232137492676;0.8429802099810999;-1.5882650814452113;-1.5707925001727503;2.1413583755493164;0.0;0.0;0.0;-0.0;0.0;-0.0;1;False;False

8109.813999999999;3.7120537757873535;-0.8254663509181519;0.8429802099810999;-1.588245531121725;-1.5708254019366663;2.141267776489258;0.0;0.0;0.0;-0.0;0.0;-0.0;1;False;False

8109.834;3.712045192718506;-0.8254588407329102;0.8429845015155237;-1.5883294544615687;-1.5707686583148401;2.1412558555603027;0.0;0.0;0.0;-0.0;0.0;-0.0;1;False;False

8109.853999999999;3.712099313735962;-0.8254869741252442;0.8430126349078577;-1.588297029534811;-1.570801083241598;2.1412720680236816;0.0;0.0;0.0;-0.0;0.0;-0.0;1;False;False

8109.874;3.7120742797851562;-0.825519935493805;0.8429845015155237;-1.5883013210692347;-1.5707648436175745;2.141312837600708;0.0;0.0;0.0;-0.0;0.0;-0.0;1;False;False

8109.893999999999;3.712090492248535;-0.8254546088031312;0.8429630438434046;-1.5883289776244105;-1.5707724730121058;2.141279697418213;0.0;0.0;0.0;-0.0;0.0;-0.0;1;False;False

8109.914;3.712094783782959;-0.8254308861545105;0.8429845015155237;-1.5883094273009242;-1.570829216633932;2.1412839889526367;0.0;0.0;0.0;-0.0;0.0;-0.0;1;False;False

8109.933999999999;3.7120776176452637;-0.8254783314517518;0.8429892698871058;-1.5882932148375453;-1.570801083241598;2.141242742538452;0.0;0.0;0.0;-0.0;0.0;-0.0;1;False;False

8109.954;3.7120862007141113;-0.825455443268158;0.8429473082171839;-1.5883013210692347;-1.5707486311541956;2.1412839889526367;0.0;0.0;0.0;-0.0;0.0;-0.0;1;False;False

8109.973999999999;3.712094783782959;-0.8254869741252442;0.8430336157428187;-1.5882774792113246;-1.5707767645465296;2.1412720680236816;0.0;0.0;0.0;-0.0;0.0;-0.0;1;False;False

8109.994;3.7120254039764404;-0.8254427474788208;0.8430293242083948;-1.5882569752135218;-1.5707405249225062;2.1413040161132812;0.0;0.0;0.0;-0.0;0.0;-0.0;1;False;False

8110.013999999999;3.7120981216430664;-0.8254997891238709;0.8429673353778284;-1.5882817707457484;-1.5708087126361292;2.141279697418213;0.0;0.0;0.0;-0.0;0.0;-0.0;1;False;False

8110.034;3.712087631225586;-0.8254674238017579;0.8429425398456019;-1.588297029534811;-1.570829216633932;2.141308546066284;0.0;0.0;0.0;-0.0;0.0;-0.0;1;False;False

8110.054;3.7120697498321533;-0.8254673641971131;0.8429802099810999;-1.5882932148375453;-1.570853058491842;2.141308546066284;0.0;0.0;0.0;-0.0;0.0;-0.0;1;False;False

8110.074;3.7120578289031982;-0.8254459661296387;0.8429587523089808;-1.5882889233031214;-1.570813004170553;2.141279697418213;0.0;0.0;0.0;-0.0;0.0;-0.0;1;False;False

8110.094;3.712029218673706;-0.8254954975894471;0.8430007139789026;-1.5882650814452113;-1.5708048979388636;2.141275405883789;0.0;0.0;0.0;-0.0;0.0;-0.0;1;False;False

8110.114;3.712095260620117;-0.825438455944397;0.8430097738849085;-1.5883013210692347;-1.5708211104022425;2.141247034072876;0.0;0.0;0.0;-0.0;0.0;-0.0;1;False;False

8110.134;3.7120935916900635;-0.8254578870585938;0.8429673353778284;-1.5882846317686976;-1.5707886854754847;2.141279697418213;0.0;0.0;0.0;-0.0;0.0;-0.0;1;False;False

8110.1539999999995;3.7120654582977295;-0.8254223030856629;0.8429802099810999;-1.5883251629271449;-1.5708048979388636;2.1412620544433594;0.0;0.0;0.0;-0.0;0.0;-0.0;1;False;False

8110.174;3.7120907306671143;-0.8255155247500916;0.8429563681231897;-1.588252683679098;-1.5707805792437952;2.1413040161132812;0.0;0.0;0.0;-0.0;0.0;-0.0;1;False;False

8110.1939999999995;3.7120816707611084;-0.8254673641971131;0.8429802099810999;-1.588252683679098;-1.5707686583148401;2.141267776489258;0.0;0.0;0.0;-0.0;0.0;-0.0;1;False;False

8110.214;3.7121026515960693;-0.825519935493805;0.8430126349078577;-1.5882650814452113;-1.5707529226886194;2.1412839889526367;0.0;0.0;0.0;-0.0;0.0;-0.0;1;False;False

8110.2339999999995;3.712062358856201;-0.825458900337555;0.8429349104510706;-1.5883094273009242;-1.5708211104022425;2.141279697418213;0.0;0.0;0.0;-0.0;0.0;-0.0;1;False;False

8110.254;3.7120578289031982;-0.8254546088031312;0.8430007139789026;-1.5883251629271449;-1.5707929770099085;2.1413216590881348;0.0;0.0;0.0;-0.0;0.0;-0.0;1;False;False

8110.273999999999;3.7121145725250244;-0.825487808590271;0.8430336157428187;-1.588280817071432;-1.5707529226886194;2.141287088394165;0.0;0.0;0.0;-0.0;0.0;-0.0;1;False;False

8110.294;3.7120578289031982;-0.8254954379848023;0.8429892698871058;-1.588252683679098;-1.570801083241598;2.1413040161132812;0.0;0.0;0.0;-0.0;0.0;-0.0;1;False;False

8110.313999999999;3.7120981216430664;-0.8254469794085999;0.8429425398456019;-1.5882650814452113;-1.5707524458514612;2.1412458419799805;0.0;0.0;0.0;-0.0;0.0;-0.0;1;False;False

8110.334;3.7120654582977295;-0.8254954975894471;0.8429473082171839;-1.5883289776244105;-1.5707805792437952;2.141279697418213;0.0;0.0;0.0;-0.0;0.0;-0.0;1;False;False

8110.353999999999;3.7120323181152344;-0.8255165380290528;0.8429515997516077;-1.5883094273009242;-1.570784870778219;2.141266345977783;0.0;0.0;0.0;-0.0;0.0;-0.0;1;False;False

8110.374;3.7120907306671143;-0.8254954975894471;0.8429802099810999;-1.5882731876769007;-1.5708168188678187;2.141275405883789;0.0;0.0;0.0;-0.0;0.0;-0.0;1;False;False

8110.393999999999;3.7120490074157715;-0.8254908484271546;0.842992130910055;-1.5882774792113246;-1.570784870778219;2.141291618347168;0.0;0.0;0.0;-0.0;0.0;-0.0;1;False;False

8110.414;3.712066888809204;-0.8254750531962891;0.8430293242083948;-1.5883375606932582;-1.5708044211017054;2.141308546066284;0.0;0.0;0.0;-0.0;0.0;-0.0;1;False;False

8110.433999999999;3.7120652198791504;-0.825463132267334;0.842987362538473;-1.588320871392721;-1.5707925001727503;2.141279697418213;0.0;0.0;0.0;-0.0;0.0;-0.0;1;False;False

8110.454;3.7120444774627686;-0.8254469794085999;0.8430174032794397;-1.5882569752135218;-1.5708335081683558;2.141263484954834;0.0;0.0;0.0;-0.0;0.0;-0.0;1;False;False

8110.473999999999;3.712095022201538;-0.8255478900722046;0.8430174032794397;-1.5883170566954554;-1.570784870778219;2.1412558555603027;0.0;0.0;0.0;-0.0;0.0;-0.0;1;False;False

8110.494;3.7120158672332764;-0.8254954975894471;0.8430245558368128;-1.588252683679098;-1.5707967917071741;2.141270637512207;0.0;0.0;0.0;-0.0;0.0;-0.0;1;False;False

8110.513999999999;3.7121026515960693;-0.8255037826350708;0.8429892698871058;-1.5882889233031214;-1.5707686583148401;2.1413047313690186;0.0;0.0;0.0;-0.0;0.0;-0.0;1;False;False

8110.534;3.7121188640594482;-0.8254502576640625;0.8429845015155237;-1.5882774792113246;-1.5708211104022425;2.141238212585449;0.0;0.0;0.0;-0.0;0.0;-0.0;1;False;False

8110.554;3.7120907306671143;-0.825478271847107;0.8430264631854456;-1.5882846317686976;-1.5708006064044397;2.141291618347168;0.0;0.0;0.0;-0.0;0.0;-0.0;1;False;False

8110.574;3.7120742797851562;-0.825478271847107;0.8429673353778284;-1.5882731876769007;-1.570784870778219;2.141279697418213;0.0;0.0;0.0;-0.0;0.0;-0.0;1;False;False

8110.594;3.7120907306671143;-0.8254750531962891;0.8430126349078577;-1.588285585443014;-1.5707686583148401;2.141313076019287;0.0;0.0;0.0;-0.0;0.0;-0.0;1;False;False

8110.614;3.712045669555664;-0.8254469794085999;0.8429539839373987;-1.588280817071432;-1.570784870778219;2.1412839889526367;0.0;0.0;0.0;-0.0;0.0;-0.0;1;False;False

8110.634;3.712078809738159;-0.8254716557315369;0.8430007139789026;-1.5882650814452113;-1.5708168188678187;2.141267776489258;0.0;0.0;0.0;-0.0;0.0;-0.0;1;False;False

8110.6539999999995;3.712066888809204;-0.8254993718913575;0.842987362538473;-1.5882846317686976;-1.5708335081683558;2.141251564025879;0.0;0.0;0.0;-0.0;0.0;-0.0;1;False;False

8110.674;3.7120907306671143;-0.8254869741252442;0.8430126349078577;-1.5882774792113246;-1.5708087126361292;2.141202449798584;0.0;0.0;0.0;-0.0;0.0;-0.0;1;False;False

8110.6939999999995;3.712095022201538;-0.8255037826350708;0.8430336157428187;-1.5882817707457484;-1.570801083241598;2.1412839889526367;0.0;0.0;0.0;-0.0;0.0;-0.0;1;False;False

8110.714;3.7120609283447266;-0.8254993718913575;0.8429845015155237;-1.588273664514059;-1.5707929770099085;2.1412601470947266;0.0;0.0;0.0;-0.0;0.0;-0.0;1;False;False

8110.7339999999995;3.7120368480682373;-0.8254621189883729;0.8429425398456019;-1.5883375606932582;-1.5708048979388636;2.141263484954834;0.0;0.0;0.0;-0.0;0.0;-0.0;1;False;False

8110.754;3.7120742797851562;-0.8255274456790467;0.8430007139789026;-1.588313718835348;-1.5708087126361292;2.141238212585449;0.0;0.0;0.0;-0.0;0.0;-0.0;1;False;False

8110.773999999999;3.7121071815490723;-0.8254716557315369;0.8429892698871058;-1.5882607899107875;-1.5707925001727503;2.1412513256073;0.0;0.0;0.0;-0.0;0.0;-0.0;1;False;False

8110.794;3.7120862007141113;-0.8254869741252442;0.8429892698871058;-1.588297029534811;-1.5707724730121058;2.141279697418213;0.0;0.0;0.0;-0.0;0.0;-0.0;1;False;False

8110.813999999999;3.712062358856201;-0.825463132267334;0.8429802099810999;-1.588269372979635;-1.5707805792437952;2.141270637512207;0.0;0.0;0.0;-0.0;0.0;-0.0;1;False;False

8110.834;3.712095022201538;-0.8254502576640625;0.842992130910055;-1.5882774792113246;-1.570829216633932;2.1413381099700928;0.0;0.0;0.0;-0.0;0.0;-0.0;1;False;False

8110.853999999999;3.7120578289031982;-0.8254750531962891;0.8429673353778284;-1.588252683679098;-1.5707767645465296;2.1413004398345947;0.0;0.0;0.0;-0.0;0.0;-0.0;1;False;False

8110.874;3.712062358856201;-0.825478271847107;0.8429802099810999;-1.5883094273009242;-1.5707891623126429;2.1413381099700928;0.0;0.0;0.0;-0.0;0.0;-0.0;1;False;False

8110.893999999999;3.712120532989502;-0.825438455944397;0.842971150075094;-1.588320871392721;-1.5708335081683558;2.141279697418213;0.0;0.0;0.0;-0.0;0.0;-0.0;1;False;False

8110.914;3.712050199508667;-0.8254501980594178;0.8429754416095179;-1.5883170566954554;-1.570853058491842;2.141230821609497;0.0;0.0;0.0;-0.0;0.0;-0.0;1;False;False

8110.933999999999;3.7120862007141113;-0.825458900337555;0.8430216948138636;-1.588297029534811;-1.5707686583148401;2.1412839889526367;0.0;0.0;0.0;-0.0;0.0;-0.0;1;False;False

8110.954;3.712078809738159;-0.8254546684077759;0.8430007139789026;-1.588268896142477;-1.5708048979388636;2.141235113143921;0.0;0.0;0.0;-0.0;0.0;-0.0;1;False;False

8110.973999999999;3.712099552154541;-0.825458900337555;0.842966381703512;-1.588320871392721;-1.5707929770099085;2.14133358001709;0.0;0.0;0.0;-0.0;0.0;-0.0;1;False;False

8110.994;3.7120323181152344;-0.8254502576640625;0.8429802099810999;-1.5882889233031214;-1.570784870778219;2.1412720680236816;0.0;0.0;0.0;-0.0;0.0;-0.0;1;False;False

8111.013999999999;3.7120907306671143;-0.8254427474788208;0.8429673353778284;-1.5883051357665003;-1.5707648436175745;2.1412839889526367;0.0;0.0;0.0;-0.0;0.0;-0.0;1;False;False

8111.034;3.7120742797851562;-0.825463132267334;0.8429515997516077;-1.5882889233031214;-1.5707529226886194;2.141263484954834;0.0;0.0;0.0;-0.0;0.0;-0.0;1;False;False

8111.054;3.712066888809204;-0.825455443268158;0.8429754416095179;-1.588280817071432;-1.570801083241598;2.141258955001831;0.0;0.0;0.0;-0.0;0.0;-0.0;1;False;False

8111.074;3.7120413780212402;-0.8254588407329102;0.8430174032794397;-1.5882288418211878;-1.570784870778219;2.141296148300171;0.0;0.0;0.0;-0.0;0.0;-0.0;1;False;False

8111.094;3.7120654582977295;-0.8254546088031312;0.8430383841144007;-1.5882569752135218;-1.570784870778219;2.141279697418213;0.0;0.0;0.0;-0.0;0.0;-0.0;1;False;False

8111.114;3.7120742797851562;-0.8255037230304261;0.8430097738849085;-1.5883251629271449;-1.5707605520831507;2.141291618347168;0.0;0.0;0.0;-0.0;0.0;-0.0;1;False;False

8111.134;3.712116003036499;-0.8255037826350708;0.8430007139789026;-1.5883251629271449;-1.5708091894732874;2.141238212585449;0.0;0.0;0.0;-0.0;0.0;-0.0;1;False;False

8111.1539999999995;3.712078809738159;-0.8254869741252442;0.8429473082171839;-1.5882932148375453;-1.5708296934710901;2.141221761703491;0.0;0.0;0.0;-0.0;0.0;-0.0;1;False;False

8111.174;3.7120578289031982;-0.8255123060992737;0.8430007139789026;-1.588245531121725;-1.5708335081683558;2.141295909881592;0.0;0.0;0.0;-0.0;0.0;-0.0;1;False;False

8111.1939999999995;3.712041139602661;-0.8255123060992737;0.842971150075094;-1.5882579288878382;-1.570801083241598;2.141263484954834;0.0;0.0;0.0;-0.0;0.0;-0.0;1;False;False

8111.214;3.7120907306671143;-0.8255123060992737;0.8430126349078577;-1.588313718835348;-1.5708006064044397;2.141308546066284;0.0;0.0;0.0;-0.0;0.0;-0.0;1;False;False

8111.2339999999995;3.712104320526123;-0.8254673641971131;0.8429630438434046;-1.5882932148375453;-1.5707686583148401;2.141263484954834;0.0;0.0;0.0;-0.0;0.0;-0.0;1;False;False

8111.254;3.712106943130493;-0.8255317372134705;0.8430174032794397;-1.5882774792113246;-1.5707810560809534;2.1412885189056396;0.0;0.0;0.0;-0.0;0.0;-0.0;1;False;False

8111.273999999999;3.7121071815490723;-0.8254664105227967;0.8429935614215296;-1.588285585443014;-1.570784870778219;2.14127516746521;0.0;0.0;0.0;-0.0;0.0;-0.0;1;False;False

8111.294;3.712078809738159;-0.8254792851260682;0.8430007139789026;-1.588269372979635;-1.5707767645465296;2.1412765979766846;0.0;0.0;0.0;-0.0;0.0;-0.0;1;False;False

8111.313999999999;3.7120201587677;-0.8255037826350708;0.8430174032794397;-1.5883289776244105;-1.5708487669574183;2.141313076019287;0.0;0.0;0.0;-0.0;0.0;-0.0;1;False;False

8111.334;3.7120742797851562;-0.8255478900722046;0.843020264302389;-1.5883056126036585;-1.5707772413836878;2.141279697418213;0.0;0.0;0.0;-0.0;0.0;-0.0;1;False;False

8111.353999999999;3.7120532989501953;-0.8254869741252442;0.8430503050433558;-1.5882932148375453;-1.5708044211017054;2.141279697418213;0.0;0.0;0.0;-0.0;0.0;-0.0;1;False;False

8111.374;3.7120413780212402;-0.825516478424408;0.8430293242083948;-1.5882331333556117;-1.570784870778219;2.1413040161132812;0.0;0.0;0.0;-0.0;0.0;-0.0;1;False;False

8111.393999999999;3.712050199508667;-0.8255123060992737;0.8429544607745569;-1.5882817707457484;-1.5707925001727503;2.141275405883789;0.0;0.0;0.0;-0.0;0.0;-0.0;1;False;False

8111.414;3.7120249271392822;-0.8254459065249939;0.8430245558368128;-1.5883289776244105;-1.5707805792437952;2.141242742538452;0.0;0.0;0.0;-0.0;0.0;-0.0;1;False;False

8111.433999999999;3.712083339691162;-0.8254459661296387;0.8429964224444788;-1.5883013210692347;-1.5707810560809534;2.141258955001831;0.0;0.0;0.0;-0.0;0.0;-0.0;1;False;False

8111.454;3.712083339691162;-0.8254792851260682;0.8429887930499476;-1.5883170566954554;-1.5707767645465296;2.141308546066284;0.0;0.0;0.0;-0.0;0.0;-0.0;1;False;False

8111.473999999999;3.712071418762207;-0.8254869741252442;0.8429721037494105;-1.588280817071432;-1.570829216633932;2.141254425048828;0.0;0.0;0.0;-0.0;0.0;-0.0;1;False;False

8111.494;3.712062358856201;-0.8254869145205994;0.8429887930499476;-1.5882846317686976;-1.5708335081683558;2.141324996948242;-1.0969368118862144e-20;0.0;0.0;-0.0;0.0;-0.0;1;False;False

8111.513999999999;3.7120490074157715;-0.8255274456790467;0.8429802099810999;-1.588297029534811;-1.5707805792437952;2.141266345977783;-8.573704524124961e-41;0.0;0.0;-0.0;0.0;-0.0;1;False;False

8111.554;3.71205472946167;-0.8254869741252442;0.8429892698871058;-1.5883251629271449;-1.5707767645465296;2.141270637512207;0.0;0.0;0.0;-0.0;0.0;-0.0;1;False;False

8111.594;3.7120249271392822;-0.8255403798869629;0.8429887930499476;-1.588297029534811;-1.5708254019366663;2.141263484954834;0.0;0.0;0.0;-0.0;0.0;-0.0;1;False;False

8111.614;3.7120862007141113;-0.8255202335170289;0.8429887930499476;-1.588268896142477;-1.5707767645465296;2.1412620544433594;0.0;0.0;0.0;-0.0;0.0;-0.0;1;False;False

8111.634;3.712021589279175;-0.8254751128009339;0.842971150075094;-1.5882932148375453;-1.570784870778219;2.141267776489258;0.0;0.0;0.0;-0.0;0.0;-0.0;1;False;False

8111.6539999999995;3.7120532989501953;-0.8255202931216736;0.8430169264422815;-1.5882731876769007;-1.5708006064044397;2.141238212585449;0.0;0.0;0.0;-0.0;0.0;-0.0;1;False;False

8111.674;3.712050199508667;-0.8255453866771241;0.8429887930499476;-1.5883013210692347;-1.570784870778219;2.141279697418213;0.0;0.0;0.0;-0.0;0.0;-0.0;1;False;False

8111.6939999999995;3.712095260620117;-0.8254497808269043;0.8429802099810999;-1.5882932148375453;-1.5707686583148401;2.141258955001831;0.0;0.0;0.0;-0.0;0.0;-0.0;1;False;False

8111.714;3.712104082107544;-0.8255001467517395;0.8430336157428187;-1.5882731876769007;-1.5708211104022425;2.141279697418213;0.0;0.0;0.0;-0.0;0.0;-0.0;1;False;False

8111.7339999999995;3.712092161178589;-0.8254216474345704;0.8430216948138636;-1.5882607899107875;-1.5707805792437952;2.141308546066284;0.0;0.0;0.0;-0.0;0.0;-0.0;1;False;False

8111.754;3.7120532989501953;-0.8254617017558594;0.8429473082171839;-1.588269372979635;-1.5707767645465296;2.141295909881592;0.0;0.0;0.0;-0.0;0.0;-0.0;1;False;False

8111.773999999999;3.712071418762207;-0.8254543107799073;0.8430379072772425;-1.5882569752135218;-1.5707724730121058;2.1412997245788574;0.0;0.0;0.0;-0.0;0.0;-0.0;1;False;False

8111.794;3.7120742797851562;-0.8255215448192139;0.8429763952838343;-1.5883094273009242;-1.5708254019366663;2.1412973403930664;0.0;0.0;0.0;-0.0;0.0;-0.0;1;False;False

8111.813999999999;3.712041139602661;-0.8254838746837159;0.8430083433734339;-1.5882569752135218;-1.5707648436175745;2.1411893367767334;0.0;0.0;0.0;-0.0;0.0;-0.0;1;False;False

8111.834;3.7121026515960693;-0.8254468005946656;0.8429763952838343;-1.588280817071432;-1.5708406607257288;2.141270637512207;0.0;0.0;0.0;-0.0;0.0;-0.0;1;False;False

8111.853999999999;3.7120578289031982;-0.8255039614490052;0.8429845015155237;-1.5883094273009242;-1.5708087126361292;2.1412103176116943;0.0;0.0;0.0;-0.0;0.0;-0.0;1;False;False

8111.874;3.712078809738159;-0.8254587215236207;0.8429220358477991;-1.5882932148375453;-1.570784870778219;2.141312837600708;0.0;0.0;0.0;-0.0;0.0;-0.0;1;False;False

8111.893999999999;3.712036609649658;-0.8254949611476441;0.8429515997516077;-1.5882498226561488;-1.5707843939410608;2.1412720680236816;0.0;0.0;0.0;-0.0;0.0;-0.0;1;False;False

8111.914;3.712071418762207;-0.8255409759334107;0.842971150075094;-1.588252683679098;-1.5707967917071741;2.141270875930786;0.0;0.0;0.0;-0.0;0.0;-0.0;1;False;False

8111.933999999999;3.7120532989501953;-0.8254572314075013;0.8429802099810999;-1.5883251629271449;-1.5708048979388636;2.141291618347168;0.0;0.0;0.0;-0.0;0.0;-0.0;1;False;False

8111.954;3.7120742797851562;-0.8254587215236207;0.8430083433734339;-1.5882374248900355;-1.5708044211017054;2.141275405883789;0.0;0.0;0.0;-0.0;0.0;-0.0;1;False;False

8111.973999999999;3.712095260620117;-0.8254838150790711;0.8430169264422815;-1.5883251629271449;-1.5708048979388636;2.141270875930786;0.0;0.0;0.0;-0.0;0.0;-0.0;1;False;False

8111.994;3.7120652198791504;-0.8254572314075013;0.8430083433734339;-1.5882774792113246;-1.570784870778219;2.141267776489258;0.0;0.0;0.0;-0.0;0.0;-0.0;1;False;False

8112.013999999999;3.7120578289031982;-0.825442449455597;0.8429439703570765;-1.5882774792113246;-1.5708044211017054;2.141275405883789;6.933069471415365e-06;0.0;0.0;-0.0;0.0;-0.0;1;False;False

8112.034;3.7120578289031982;-0.8254587811282654;0.8430083433734339;-1.588252683679098;-1.5707843939410608;2.1412885189056396;-2.771237594466111e-24;0.0;0.0;-0.0;0.0;-0.0;1;False;False

8112.054;3.7120578289031982;-0.8254290384105225;0.8429964224444788;-1.5882498226561488;-1.570784870778219;2.141279697418213;-2.1019476964872256e-44;0.0;0.0;-0.0;0.0;-0.0;1;False;False

8112.074;3.7121100425720215;-0.8254334491542359;0.8430336157428187;-1.5882774792113246;-1.5708335081683558;2.141238212585449;0.0;0.0;0.0;-0.0;0.0;-0.0;1;False;False

8112.094;3.71209979057312;-0.8255112928203125;0.8429635206805628;-1.5882412395873011;-1.5707967917071741;2.1412928104400635;0.0;0.0;0.0;-0.0;0.0;-0.0;1;False;False

8112.114;3.7120158672332764;-0.8254736226848145;0.8429802099810999;-1.588285585443014;-1.5707529226886194;2.141279697418213;0.0;0.0;0.0;-0.0;0.0;-0.0;1;False;False

8112.134;3.7121026515960693;-0.8255090278438111;0.8429587523089808;-1.5883051357665003;-1.5708368460284632;2.141295909881592;0.0;0.0;0.0;-0.0;0.0;-0.0;1;False;False

8112.1539999999995;3.712095260620117;-0.8254587215236207;0.8430007139789026;-1.5883094273009242;-1.570801083241598;2.141279697418213;0.0;0.0;0.0;-0.0;0.0;-0.0;1;False;False

8112.174;3.7120158672332764;-0.8254823845675965;0.8430083433734339;-1.588252683679098;-1.5707967917071741;2.141279697418213;0.0;0.0;0.0;-0.0;0.0;-0.0;1;False;False

8112.1939999999995;3.7121565341949463;-0.825495795612671;0.8429759184466761;-1.5882774792113246;-1.5708211104022425;2.141324758529663;0.0;0.0;0.0;-0.0;0.0;-0.0;1;False;False

8112.214;3.7120742797851562;-0.825495795612671;0.8429635206805628;-1.588252683679098;-1.5707767645465296;2.141279697418213;0.0;0.0;0.0;-0.0;0.0;-0.0;1;False;False

8112.2339999999995;3.712116241455078;-0.8254706424525757;0.8430007139789026;-1.5883013210692347;-1.5708487669574183;2.141291618347168;0.0;0.0;0.0;-0.0;0.0;-0.0;1;False;False

8112.254;3.712062358856201;-0.8254794639400025;0.842959229146139;-1.5883051357665003;-1.5707648436175745;2.1412997245788574;0.0;0.0;0.0;-0.0;0.0;-0.0;1;False;False

8112.273999999999;3.7120697498321533;-0.8255171340755005;0.8429635206805628;-1.5883175335326136;-1.570801083241598;2.1412765979766846;0.0;0.0;0.0;-0.0;0.0;-0.0;1;False;False

8112.294;3.712062358856201;-0.8254587215236207;0.8429964224444788;-1.588269372979635;-1.570801083241598;2.141247034072876;0.0;0.0;0.0;-0.0;0.0;-0.0;1;False;False

8112.313999999999;3.7120490074157715;-0.825487033729889;0.8429678122149866;-1.5883094273009242;-1.5707805792437952;2.141295909881592;0.0;0.0;0.0;-0.0;0.0;-0.0;1;False;False

8112.334;3.712045669555664;-0.8254543107799073;0.8430050055133265;-1.5883094273009242;-1.570801083241598;2.141254425048828;0.0;0.0;0.0;-0.0;0.0;-0.0;1;False;False

8112.353999999999;3.7120907306671143;-0.8255083721927186;0.8429635206805628;-1.5882445774474085;-1.5708006064044397;2.141275405883789;0.0;0.0;0.0;-0.0;0.0;-0.0;1;False;False

8112.374;3.7120862007141113;-0.8254869741252442;0.8429759184466761;-1.5882932148375453;-1.5707967917071741;2.141258955001831;0.0;0.0;0.0;-0.0;0.0;-0.0;1;False;False

8112.393999999999;3.7120697498321533;-0.8255083125880738;0.842959229146139;-1.5882731876769007;-1.5707648436175745;2.141258955001831;0.0;0.0;0.0;-0.0;0.0;-0.0;1;True;False

8112.414;3.7120816707611084;-0.8255215448192139;0.8429802099810999;-1.5883289776244105;-1.570829216633932;2.1413040161132812;0.0;0.0;0.0;-0.0;0.0;-0.0;1;True;False

8112.433999999999;3.712041139602661;-0.8254631918719788;0.8429549376117151;-1.588252683679098;-1.570801083241598;2.14133358001709;0.0;0.0;0.0;-0.0;0.0;-0.0;1;True;False

8112.454;3.7120578289031982;-0.8254869741252442;0.843062702809469;-1.588252683679098;-1.570801083241598;2.1413116455078125;0.0;0.0;0.0;-0.0;0.0;-0.0;1;True;False

8112.473999999999;3.7120158672332764;-0.825495795612671;0.8429887930499476;-1.588285585443014;-1.5708087126361292;2.14133358001709;0.0;0.0;0.0;-0.0;0.0;-0.0;1;True;False

8112.494;3.71209979057312;-0.8255171340755005;0.843029801045553;-1.5883013210692347;-1.570813004170553;2.141324758529663;0.0;0.0;0.0;-0.0;0.0;-0.0;1;True;False

8112.513999999999;3.712059259414673;-0.8254556220820923;0.8429964224444788;-1.588245531121725;-1.5708335081683558;2.141317367553711;0.0;0.0;0.0;-0.0;0.0;-0.0;1;True;False

8112.534;3.7120862007141113;-0.8254082959941407;0.8430288473712366;-1.588297029534811;-1.5707843939410608;2.1413040161132812;0.0;0.0;0.0;-0.0;0.0;-0.0;1;True;False

8112.554;3.7120907306671143;-0.8255366247943421;0.8430007139789026;-1.5883056126036585;-1.5708006064044397;2.1413159370422363;0.0;0.0;0.0;-0.0;0.0;-0.0;1;True;False

8112.574;3.7120697498321533;-0.825466052894928;0.8429964224444788;-1.5883289776244105;-1.5707805792437952;2.141242742538452;0.0;0.0;0.0;-0.0;0.0;-0.0;1;True;False

8112.594;3.7120697498321533;-0.8254587215236207;0.842992130910055;-1.5882498226561488;-1.5707805792437952;2.141313076019287;0.0;0.0;0.0;-0.0;0.0;-0.0;1;True;False

8112.614;3.7120742797851562;-0.825466052894928;0.8429845015155237;-1.5882889233031214;-1.5708091894732874;2.141247034072876;0.0;0.0;0.0;-0.0;0.0;-0.0;1;True;False

8112.634;3.7121191024780273;-0.8255542081645508;0.8430050055133265;-1.588285585443014;-1.570801083241598;2.1413662433624268;0.0;0.0;0.0;-0.0;0.0;-0.0;1;True;False

8112.6539999999995;3.712078809738159;-0.8254217070392151;0.8429759184466761;-1.5882650814452113;-1.5707648436175745;2.141313076019287;0.0;0.0;0.0;-0.0;0.0;-0.0;1;True;False

8112.674;3.712041139602661;-0.8254543107799073;0.8429887930499476;-1.5883251629271449;-1.5707605520831507;2.141287088394165;0.0;0.0;0.0;-0.0;0.0;-0.0;1;True;False

8112.6939999999995;3.712120532989502;-0.825466052894928;0.8429964224444788;-1.588280817071432;-1.5708087126361292;2.141295909881592;0.0;0.0;0.0;-0.0;0.0;-0.0;1;True;False

8112.714;3.712041139602661;-0.8254736226848145;0.8429606596576136;-1.5882331333556117;-1.5708087126361292;2.1412765979766846;0.0;0.0;0.0;-0.0;0.0;-0.0;1;True;False

8112.7339999999995;3.712104082107544;-0.8254217070392151;0.8429964224444788;-1.5883332691588343;-1.5708044211017054;2.1412839889526367;0.0;0.0;0.0;-0.0;0.0;-0.0;1;True;False

8112.754;3.712111473083496;-0.8255112928203125;0.8429392019854944;-1.5882851086058558;-1.5707648436175745;2.141247034072876;0.0;0.0;0.0;-0.0;0.0;-0.0;1;True;False

8112.773999999999;3.7120323181152344;-0.8254735630801697;0.8429845015155237;-1.5882889233031214;-1.570824925099508;2.1413216590881348;0.0;0.0;0.0;-0.0;0.0;-0.0;1;True;False

8112.794;3.7120907306671143;-0.8254869741252442;0.8430288473712366;-1.5883127651610316;-1.5707605520831507;2.141258955001831;0.0;0.0;0.0;-0.0;0.0;-0.0;1;True;False

8112.813999999999;3.7120816707611084;-0.8254260581782837;0.8430007139789026;-1.5882731876769007;-1.570801083241598;2.1411516666412354;0.0;0.0;0.0;-0.0;0.0;-0.0;1;True;False

8112.834;3.7121100425720215;-0.8255645793727417;0.8429563681231897;-1.5883056126036585;-1.5707767645465296;2.141312837600708;0.0;0.0;0.0;-0.0;0.0;0.00022059818729758263;1;True;False

8112.853999999999;3.7120862007141113;-0.8254587215236207;0.8430169264422815;-1.5882846317686976;-1.5707967917071741;2.1413304805755615;0.0;0.0;0.0;-0.0;0.0;2.4683460830843273e-10;1;True;False

8112.874;3.7121071815490723;-0.8255127233317872;0.8430417219745081;-1.588269372979635;-1.5708048979388636;2.141263484954834;0.0;0.0;0.0;-0.0;0.0;7.328742472242245e-18;1;True;False

8112.893999999999;3.712095260620117;-0.8254497808269043;0.8429225126849573;-1.588245531121725;-1.570813004170553;2.141279697418213;0.0;0.0;0.0;-0.0;0.0;1.016662622532749e-06;1;True;False

8112.914;3.7120816707611084;-0.8254763048938294;0.8429802099810999;-1.5882169208922328;-1.5707686583148401;2.1412720680236816;0.0;0.0;0.0;-0.0;0.0;3.0185635214270354e-14;1;True;False

8112.933999999999;3.7120907306671143;-0.8254617017558594;0.8429759184466761;-1.5882569752135218;-1.5707686583148401;2.1412482261657715;0.0;0.0;0.0;-0.0;0.0;-6.38835335848853e-05;1;True;False

8112.954;3.7120907306671143;-0.8254706424525757;0.842959229146139;-1.5882817707457484;-1.5707204977618616;2.1412928104400635;0.0;0.0;0.0;-0.0;2.654040187621831e-08;-5.998770924442454e-11;1;True;False

8112.973999999999;3.7120862007141113;-0.8254706424525757;0.8429635206805628;-1.5882774792113246;-1.5707805792437952;2.1412997245788574;0.0;0.0;0.0;-0.0;3.910541934715184e-08;-1.781089224057089e-18;1;True;False

8112.994;3.712123394012451;-0.8255039614490052;0.8429802099810999;-1.5882607899107875;-1.5707767645465296;2.141295909881592;0.0;0.0;0.0;-0.0;1.1610749652509237e-15;-5.288212894620232e-26;1;True;False

8113.013999999999;3.7120413780212402;-0.8254289788058777;0.8429802099810999;-1.588252683679098;-1.5707724730121058;2.1412839889526367;0.0;0.0;0.0;-0.0;3.4473366708564777e-23;-1.5701179062979068e-33;1;True;False

8113.034;3.7121026515960693;-0.8254993718913575;0.8430169264422815;-1.5883170566954554;-1.5708211104022425;2.141263484954834;0.0;0.0;0.0;-0.0;1.0235452490575953e-30;-4.661839731115801e-41;1;True;False

8113.054;3.7121386528015137;-0.8255320352366944;0.8430407683001917;-1.5883251629271449;-1.5707967917071741;2.1412928104400635;0.033507417887449265;-0.007717139553278685;0.006257412489503622;-0.0;3.038997941399081e-38;-0.0028582431841641665;1;True;False

8113.074;3.7126266956329346;-0.8257149022868653;0.8433807531939905;-1.5884372196593226;-1.570853058491842;2.1410646438598633;0.04053015261888504;-0.016554074361920357;0.028560269623994827;-0.012946336530148983;-0.00017544689762871712;-0.016751261427998543;1;True;False

8113.094;3.713726043701172;-0.826159731750824;0.8440759817706507;-1.5886923275389613;-1.5707724730121058;2.1405816078186035;0.07098336517810822;-0.032675888389348984;0.05030212923884392;-0.014291760511696339;-1.7229359605686057e-10;-0.03345569595694542;1;True;False

8113.114;3.715383291244507;-0.8269258302501221;0.8452900091754358;-1.589095254937643;-1.5708211104022425;2.1398515701293945;0.09561771154403687;-0.047618571668863297;0.07491764426231384;-0.025838691741228104;-5.1155516737754715e-18;-0.0427667498588562;1;True;False

8113.134;3.717599391937256;-0.8280427020839234;0.8471291700946253;-1.5897699795165003;-1.5708087126361292;2.1388189792633057;0.12608972191810608;-0.0641210600733757;0.0977066159248352;-0.031969211995601654;-1.518853435168455e-25;-0.05514666438102722;1;True;False

8113.1539999999995;3.720567226409912;-0.8295580309680481;0.8494094053851526;-1.5905114612975062;-1.5707605520831507;2.137605667114258;0.15510036051273346;-0.08166469633579254;0.12530755996704102;-0.040691424161195755;-4.5096128955648675e-33;-0.06983773410320282;1;True;False

8113.174;3.723921298980713;-0.8312383455089112;0.8520939985858362;-1.591445108453268;-1.5707891623126429;2.136179208755493;0.1817682534456253;-0.09300121665000916;0.13822823762893677;-0.052662283182144165;-1.3389406826623627e-40;-0.07889413088560104;1;True;False

8113.1939999999995;3.727693557739258;-0.8332555455020447;0.8551080862628382;-1.5924927196898402;-1.5708325544940394;2.1344540119171143;0.2079581320285797;-0.11171257495880127;0.1619001179933548;-0.05444083735346794;-0.0;-0.09498924762010574;1;True;False

8113.214;3.7321407794952393;-0.8356864017299195;0.8585508505450647;-1.5936294994749964;-1.5707967917071741;2.132392644882202;0.23740893602371216;-0.12481343746185303;0.18231157958507538;-0.054969314485788345;-0.0;-0.10468596965074539;1;True;False

8113.2339999999995;3.737229108810425;-0.8383706373027344;0.8624704519854944;-1.5949250660338343;-1.5708406607257288;2.1302480697631836;0.26181456446647644;-0.13442815840244293;0.20582573115825653;-0.06809776276350021;-0.0;-0.11444412916898727;1;True;False

8113.254;3.7428815364837646;-0.8411863607219239;0.8668578306781214;-1.5963121853270472;-1.570801083241598;2.1277740001678467;0.28798049688339233;-0.14488735795021057;0.2276877611875534;-0.07354963570833206;-0.0;-0.12872213125228882;1;True;False

8113.273999999999;3.748929738998413;-0.8442652982524415;0.8716767469989222;-1.59794344524526;-1.570801083241598;2.125011682510376;0.31454575061798096;-0.1625015139579773;0.2526630163192749;-0.09367582201957703;9.03084801393561e-05;-0.1375328153371811;1;True;False

8113.294;3.755549907684326;-0.8477608126452942;0.8768165747271937;-1.5998536549010218;-1.570784870778219;2.1221301555633545;0.345720499753952;-0.17862018942832947;0.2694578170776367;-0.09374299645423889;9.026922634802759e-05;-0.15215109288692474;1;True;False

8113.313999999999;3.76275897026062;-0.8515098851970215;0.8824523130999964;-1.6016527614989222;-1.5707724730121058;2.118947744369507;0.37440139055252075;-0.194184347987175;0.2868616282939911;-0.09279803186655045;6.27267945674248e-05;-0.1640537679195404;1;True;False

8113.334;3.7706902027130127;-0.8555309337428589;0.8884571234332483;-1.603694578210348;-1.5708168188678187;2.1155166625976562;0.40456292033195496;-0.2088521420955658;0.31078338623046875;-0.10288863629102707;6.975617725402117e-05;-0.17726849019527435;1;True;False

8113.353999999999;3.7790451049804688;-0.8597696584514161;0.8949182669269007;-1.605894228021139;-1.5707929770099085;2.1118671894073486;0.4328823983669281;-0.221838116645813;0.3330845534801483;-0.1277250200510025;7.58237874833867e-05;-0.19127443432807922;1;True;False

8113.374;3.7878711223602295;-0.864393488769867;0.9019315878497522;-1.6082507572569789;-1.5707686583148401;2.1078622341156006;0.4604159891605377;-0.23662765324115753;0.35746273398399353;-0.11461896449327469;5.370381768443622e-05;-0.20354600250720978;1;True;False

8113.393999999999;3.797199249267578;-0.8692311209491272;0.9094141165362757;-1.6106797657408656;-1.5707724730121058;2.103728771209717;0.48738935589790344;-0.24708594381809235;0.3742341101169586;-0.12415644526481628;2.224390982519253e-08;-0.21662618219852448;1;True;False

8113.414;3.8074846267700195;-0.8743395966342469;0.9171422163592737;-1.613382478753561;-1.5707805792437952;2.0992863178253174;0.5145124197006226;-0.25986602902412415;0.39585816860198975;-0.14164882898330688;6.604417004299858e-16;-0.2265678197145462;1;True;False

8113.433999999999;3.818143367767334;-0.8797744673541565;0.9252617994891565;-1.6162053547301234;-1.5707891623126429;2.0944888591766357;0.5464738607406616;-0.28147009015083313;0.42155683040618896;-0.1407342553138733;1.960910679608768e-23;-0.23525214195251465;1;True;False

8113.454;3.8290765285491943;-0.8855166000178833;0.9338467756854456;-1.6191240749754847;-1.5708211104022425;2.0896694660186768;0.5655200481414795;-0.2934359312057495;0.4494812488555908;-0.15656165778636932;1.0198407380812569e-06;-0.24775758385658264;1;True;False

8113.473999999999;3.8407938480377197;-0.8915175956538697;0.9431036154376429;-1.6223508320250453;-1.5708048979388636;2.084502935409546;0.5994574427604675;-0.3061651289463043;0.46373969316482544;-0.14956241846084595;3.027999468459448e-14;-0.2598201334476471;1;True;False

8113.494;3.8532495498657227;-0.8977923554233094;0.9527280966388147;-1.6253897152342738;-1.5707929770099085;2.079195022583008;0.6341341137886047;-0.31977197527885437;0.48527050018310547;-0.16264507174491882;0.0004230566555634141;-0.2762335538864136;1;True;False

8113.513999999999;3.866013526916504;-0.9043753308108826;0.9625003973590296;-1.629033704797262;-1.5707805792437952;2.07348370552063;0.6475580334663391;-0.3326137661933899;0.5071473121643066;-0.16821439564228058;2.0570816161580296e-09;-0.2882452607154846;1;True;False

8113.534;3.879290819168091;-0.9113550347140809;0.9729083220111292;-1.6324030361571253;-1.5707686583148401;2.067570209503174;0.6849652528762817;-0.3535996973514557;0.5280963182449341;-0.18294809758663177;-0.00019130851433146745;-0.30203136801719666;1;True;False

8113.554;3.8932998180389404;-0.9184348744205018;0.9837496916400355;-1.6362282238402308;-1.570801083241598;2.0613725185394287;0.7121556997299194;-0.361469566822052;0.5532468557357788;-0.18463179469108582;0.00010009620018536225;-0.31031447649002075;1;True;False

8113.574;3.9077773094177246;-0.9257083696177979;0.9950717131244105;-1.6398960552611292;-1.5707925001727503;2.055035352706909;0.7382137179374695;-0.3787822127342224;0.5802640914916992;-0.19544285535812378;3.2090330932987854e-05;-0.32638564705848694;1;True;False

8113.594;3.922934055328369;-0.9334687155536194;1.0068424383746546;-1.644008298913473;-1.570801083241598;2.048417091369629;0.7674348950386047;-0.3937954306602478;0.5861992239952087;-0.20139963924884796;3.396123429411091e-05;-0.33792054653167725;1;True;False

8113.614;3.938497543334961;-0.9416102927974244;1.0188763777362269;-1.6480847797789515;-1.570784870778219;2.0414798259735107;0.7923928499221802;-0.40739431977272034;0.6134689450263977;-0.2181057631969452;1.9637765372171323e-11;-0.35118430852890015;1;True;False

8113.634;3.9546735286712646;-0.9500095409205933;1.0313332716571253;-1.652379652062887;-1.570801083241598;2.034296751022339;0.8235112428665161;-0.4252889156341553;0.6406619548797607;-0.206043541431427;5.830631218751664e-19;-0.3613915741443634;1;True;False

8113.6539999999995;3.971406936645508;-0.9584962290576478;1.0445035139666956;-1.6568013630309046;-1.5707724730121058;2.026946544647217;0.8490625619888306;-0.43339765071868896;0.6657441258430481;-0.21750301122665405;-6.69283836032264e-05;-0.36675089597702026;1;True;False

8113.674;3.988781213760376;-0.9672326010516663;1.0579455534564417;-1.6612640819945277;-1.5708168188678187;2.0193841457366943;0.8789945840835571;-0.44559580087661743;0.6862202882766724;-0.23939499258995056;-1.9871636888074695e-12;-0.387626975774765;1;True;False

8113.6939999999995;4.006655216217041;-0.9765039843371888;1.0717690626727503;-1.6661015949644984;-1.5707772413836878;2.0115952491760254;0.9074380993843079;-0.4704016447067261;0.6978629231452942;-0.2386178821325302;-6.297438812907785e-05;-0.40248870849609375;1;True;False

8113.714;4.025015830993652;-0.9859098953059693;1.085902516041891;-1.6709305248656214;-1.5707967917071741;2.0033881664276123;0.9320999979972839;-0.4804595708847046;0.7278863787651062;-0.24521906673908234;-3.428003714223138e-11;-0.4123263657093048;1;True;False

8113.7339999999995;4.043973922729492;-0.9956568044475098;1.1008504072772425;-1.6759234867491664;-1.570813004170553;1.994959831237793;0.9667407274246216;-0.4913420081138611;0.7522013187408447;-0.2647956609725952;-1.0178051084989089e-18;-0.4176987111568451;1;True;False

8113.754;4.063530445098877;-1.0055799049190064;1.1159690062152308;-1.6809765301146449;-1.570756737385885;1.986363410949707;0.987277090549469;-0.49979066848754883;0.7698948979377747;-0.266035258769989;-3.021955721620217e-26;-0.43366846442222595;1;True;False

8113.773999999999;4.083606719970703;-1.0158802431872864;1.1314876715289515;-1.6863991222777308;-1.5707972685443323;1.9775501489639282;1.0170475244522095;-0.5270825624465942;0.7835172414779663;-0.26938992738723755;-8.972457462685324e-34;-0.44914230704307556;1;True;False

8113.794;4.104194164276123;-1.0265190166286011;1.147604767476217;-1.6917673550047816;-1.5707886854754847;1.9683361053466797;1.0506889820098877;-0.5319182276725769;0.817592442035675;-0.2700428068637848;-2.6640085105279097e-41;-0.4575307369232178;1;True;False

8113.813999999999;4.125291347503662;-1.0373046559146424;1.1639416853534144;-1.6973639927306117;-1.5707443396197718;1.9591904878616333;1.052304983139038;-0.5399311184883118;0.8138169646263123;-0.2862059473991394;-0.0;-0.4626717269420624;1;True;False

8113.834;4.146118640899658;-1.0479854506305237;1.1800292173968714;-1.7028848133482875;-1.5707405249225062;1.9500579833984375;1.0460898876190186;-0.5363856554031372;0.8090510368347168;-0.28809818625450134;-0.0;-0.4653796851634979;1;True;False

8113.853999999999;4.167038440704346;-1.0586484235576172;1.196432892476217;-1.7083450756468714;-1.5707529226886194;1.9407503604888916;1.0518301725387573;-0.5324769616127014;0.8149660229682922;-0.2698589563369751;0.0003060012822970748;-0.4664452373981476;1;True;False

8113.874;4.18808650970459;-1.0694435399821778;1.2126558462726038;-1.7138143978514613;-1.570716683064596;1.9314732551574707;1.0449587106704712;-0.5334253907203674;0.8119381666183472;-0.28121790289878845;3.451448549185443e-08;-0.4559987783432007;1;True;False

8113.893999999999;4.208984851837158;-1.0801928800395508;1.2288020292865198;-1.719581743279928;-1.5707724730121058;1.9223183393478394;1.0470656156539917;-0.5425586700439453;0.8056744337081909;-0.28376755118370056;1.0247659764557886e-15;-0.4621376097202301;1;True;False

8113.914;4.229828834533691;-1.0908945363811036;1.2451446692096155;-1.724988122979635;-1.5707486311541956;1.913141131401062;1.0512702465057373;-0.5338708758354187;0.8196278214454651;-0.27900201082229614;-0.0001597350201336667;-0.46584177017211914;1;True;False

8113.933999999999;4.250888347625732;-1.1016686123660584;1.2615864912616175;-1.730532785455221;-1.570813004170553;1.9037814140319824;1.0440939664840698;-0.5390949249267578;0.8100809454917908;-0.2878786623477936;-0.00017548994219396263;-0.45331525802612305;1;True;False

8113.954;4.271836280822754;-1.1123656791499634;1.2775147596942347;-1.7360412083067835;-1.570772949849264;1.8946205377578735;1.0458675622940063;-0.5367885828018188;0.8081792593002319;-0.2832566499710083;-1.0059439947696092e-09;-0.4592745900154114;1;True;False

8113.973999999999;4.292732238769531;-1.1232374769500275;1.293957535420553;-1.741565843621725;-1.5707767645465296;1.885439395904541;1.0481696128845215;-0.5366106033325195;0.8165308833122253;-0.2634947896003723;-0.00025163451209664345;-0.4639066159725189;1;True;False

8113.994;4.3137030601501465;-1.133912519817688;1.310169521962301;-1.7471825085081996;-1.5707967917071741;1.8761191368103027;1.0437555313110352;-0.532685399055481;0.8089596629142761;-0.28408369421958923;-0.00020565961312968284;-0.46329376101493835;1;True;False

8114.013999999999;4.334651470184326;-1.144668237572052;1.326510254536764;-1.7527266941466273;-1.570772949849264;1.8669052124023438;1.0468944311141968;-0.5385580658912659;0.8144885301589966;-0.2760486304759979;6.698036304442212e-05;-0.4594462215900421;1;True;False

8114.034;4.355536937713623;-1.1553359192660828;1.342727009450094;-1.7580529652037562;-1.5708048979388636;1.8576817512512207;1.0526669025421143;-0.5284312963485718;0.8154967427253723;-0.28886497020721436;-0.00012557668378576636;-0.46669891476631165;1;True;False

8114.054;4.37649393081665;-1.1661831897548218;1.3589146772967737;-1.7635981045165003;-1.5708649794207972;1.8484750986099243;1.043418049812317;-0.5367409586906433;0.8103834986686707;-0.2648874521255493;-0.00019713019719347358;-0.4620388150215149;1;True;False

8114.074;4.397514820098877;-1.176762507562973;1.3750718275653284;-1.7693611584105433;-1.5708048979388636;1.8391146659851074;1.0459109544754028;-0.5349306464195251;0.8143215179443359;-0.27410778403282166;-5.250139559209721e-11;-0.4545955955982208;1;True;False

8114.094;4.41835880279541;-1.1876256030849;1.3916824499713343;-1.7746144733824671;-1.5707648436175745;1.8300354480743408;1.0292004346847534;-0.5249910354614258;0.8103087544441223;-0.2564007639884949;-1.5588136959476317e-18;-0.4567284882068634;1;True;False

8114.114;4.438839912414551;-1.1979315441897889;1.4072917143451136;-1.7801805935301722;-1.570784870778219;1.821077585220337;1.0051419734954834;-0.5151368379592896;0.7831765413284302;-0.2864013612270355;-4.628258640585738e-26;-0.4502175450325012;1;True;False

8114.134;4.458611488342285;-1.208232657318451;1.4226554075824183;-1.7853747806944789;-1.570784870778219;1.8121657371520996;0.9785639643669128;-0.505250096321106;0.7622126340866089;-0.2554720938205719;4.451832865015604e-06;-0.43208804726600647;1;True;False

8114.1539999999995;4.47791051864624;-1.2180121105960389;1.4377501646624964;-1.7903744182982386;-1.5707772413836878;1.8037209510803223;0.9579843282699585;-0.4817451238632202;0.742689847946167;-0.24606218934059143;0.0021741294767707586;-0.4178674817085266;1;True;False

8114.174;4.496752738952637;-1.227726237182953;1.4524396101581019;-1.7953297100462855;-1.5708168188678187;1.7954777479171753;0.9192639589309692;-0.47739678621292114;0.7163572311401367;-0.23421324789524078;0.00022349218488670886;-0.4095228314399719;1;True;False

8114.1939999999995;4.514857769012451;-1.236977682714798;1.466316048298971;-1.8003269634642542;-1.5707891623126429;1.7873958349227905;0.8991430401802063;-0.461924284696579;0.6932400465011597;-0.2603965997695923;-8.256242800541713e-09;-0.3982497453689575;1;True;False

8114.214;4.53248405456543;-1.246085063820221;1.4801557699786585;-1.804922719995016;-1.5708611647235315;1.7795721292495728;0.8689982295036316;-0.4458949863910675;0.6821250319480896;-0.2196456789970398;-2.4513530540233477e-16;-0.3776099979877472;1;True;False

8114.2339999999995;4.5497050285339355;-1.2548154455474396;1.4934218565570276;-1.80930819133901;-1.5707805792437952;1.772070288658142;0.8429613709449768;-0.4237275719642639;0.6538136601448059;-0.22941912710666656;-5.874465497379688e-11;-0.37086784839630127;1;True;False

8114.254;4.5661702156066895;-1.263340876703598;1.5061081091510218;-1.8138700924315394;-1.570801083241598;1.76499605178833;0.8080379366874695;-0.42250484228134155;0.6321271657943726;-0.22864510118961334;0.003018408315256238;-0.3618567883968353;1;True;False

8114.273999999999;4.581988334655762;-1.2715253692916413;1.518590275441305;-1.8179336986937464;-1.5707967917071741;1.7578680515289307;0.7861754298210144;-0.39847397804260254;0.6084511876106262;-0.19386057555675507;-0.0003934915584977716;-0.3527609705924988;1;True;False

8114.294;4.597593784332275;-1.2792588335326691;1.5306084791766565;-1.8219486675658167;-1.5707805792437952;1.7509500980377197;0.7589963674545288;-0.38631972670555115;0.593422532081604;-0.1990765482187271;-8.586266631027684e-06;-0.33803415298461914;1;True;False

8114.313999999999;4.612320899963379;-1.2870789927295228;1.542136017476217;-1.8259593449034632;-1.5707805792437952;1.7444548606872559;0.7280150055885315;-0.3766186833381653;0.5652424097061157;-0.19554123282432556;-0.0001786033681128174;-0.32132279872894287;1;True;False

8114.334;4.626626014709473;-1.2942938667586823;1.5530098120318812;-1.8297440014281214;-1.57074481645693;1.7381782531738281;0.7021791338920593;-0.35626456141471863;0.541894793510437;-0.1871659755706787;0.0007893550209701061;-0.3089122474193573;1;True;False

8114.353999999999;4.640346050262451;-1.3012527388385315;1.5637911001788538;-1.833214899102682;-1.5707925001727503;1.7321382761001587;0.6757832765579224;-0.34551122784614563;0.5312808156013489;-0.16996893286705017;3.137399471597746e-05;-0.29588964581489563;1;True;False

8114.374;4.6535820960998535;-1.3080312770656128;1.574198071156637;-1.836787839929098;-1.5707925001727503;1.726318597793579;0.6422939300537109;-0.33259889483451843;0.49449819326400757;-0.17030496895313263;-0.0002695077855605632;-0.2869167625904083;1;True;False

8114.393999999999;4.6661906242370605;-1.3146710854819794;1.5838797728167933;-1.8399645290770472;-1.5707281271563929;1.720687747001648;0.6202531456947327;-0.3140062391757965;0.4809953272342682;-0.16765263676643372;0.00046149283298291266;-0.273417204618454;1;True;False

8114.414;4.6781110763549805;-1.3208090525916596;1.5930584112750452;-1.8434754810728968;-1.570813004170553;1.7154102325439453;0.5867516398429871;-0.30013659596443176;0.45781201124191284;-0.15166258811950684;-0.0010194050846621394;-0.25857728719711304;1;True;False

8114.433999999999;4.689815998077393;-1.3266360473683854;1.6020925680743616;-1.8463612995543421;-1.570784870778219;1.710381031036377;0.5665415525436401;-0.2897475063800812;0.4391178488731384;-0.1383112370967865;-6.313958351711335e-07;-0.24733738601207733;1;True;False

8114.454;4.7006144523620605;-1.3320954752019425;1.6108062903033655;-1.8491598568358363;-1.570756737385885;1.705632209777832;0.532802164554596;-0.270433634519577;0.41794469952583313;-0.1421412229537964;6.314940401352942e-05;-0.23985150456428528;1;True;False

8114.473999999999;4.710920810699463;-1.3374300462058564;1.6185925642596644;-1.851938863793844;-1.570853058491842;1.7010222673416138;0.5045009255409241;-0.2662264108657837;0.39116171002388;-0.13459984958171844;-0.00032572480267845094;-0.22173449397087097;1;True;False

8114.494;4.720915794372559;-1.342760444884636;1.626082722340719;-1.8545905552306117;-1.5707972685443323;1.6967262029647827;0.4861599802970886;-0.24477612972259521;0.3745935559272766;-0.14114901423454285;0.0004096748889423907;-0.21435149013996124;1;True;False

8114.513999999999;4.730140209197998;-1.347460688357689;1.6334813276873987;-1.8570753536620082;-1.5708211104022425;1.692604422569275;0.44817522168159485;-0.2271381914615631;0.34955018758773804;-0.11122506856918335;0.00040879278094507754;-0.19625627994537354;1;True;False

8114.534;4.738702774047852;-1.3517362934402009;1.6405065695392054;-1.8591071567931117;-1.5708282629596155;1.688744306564331;0.42387914657592773;-0.2108093798160553;0.3249169886112213;-0.11180274933576584;-0.0005951946950517595;-0.1853983849287033;1;True;False

8114.554;4.747106552124023;-1.3559509676745911;1.6466687361346644;-1.861488481561178;-1.5707967917071741;1.6851400136947632;0.39560186862945557;-0.20607389509677887;0.3042048513889313;-0.12212305516004562;0.0010067415423691273;-0.17331193387508392;1;True;False

8114.574;4.754516124725342;-1.3598939639380951;1.652325455342428;-1.863615175286764;-1.5708540121661585;1.6818207502365112;0.36084577441215515;-0.18995948135852814;0.28393837809562683;-0.09046816825866699;0.00022703077411279082;-0.16235056519508362;1;True;False

8114.594;4.761430263519287;-1.3634342414191742;1.6578410307513636;-1.8653127155699671;-1.5708211104022425;1.6787383556365967;0.3409735858440399;-0.16895414888858795;0.27123481035232544;-0.08121693134307861;-0.00048087979666888714;-0.14787621796131134;1;True;False

8114.614;4.768134593963623;-1.3667474550059815;1.6630924383746546;-1.8668667278685511;-1.5707886854754847;1.6758818626403809;0.31375783681869507;-0.1620352566242218;0.24482779204845428;-0.07792681455612183;-1.9225215908136306e-07;-0.13892923295497894;1;True;False

8114.634;4.774057865142822;-1.369827077989914;1.6676929632769983;-1.8686758480467738;-1.5707805792437952;1.673245906829834;0.27779993414878845;-0.1470034122467041;0.2122471183538437;-0.08361031115055084;0.00035720961750485003;-0.12562835216522217;1;True;False

8114.6539999999995;4.779303073883057;-1.372558445935585;1.6716330687152308;-1.8701192341246546;-1.5707839171039026;1.6708908081054688;0.2516940236091614;-0.12957066297531128;0.19648832082748413;-0.06115349754691124;-0.00045846551074646413;-0.11331548541784286;1;True;False

8114.674;4.784085750579834;-1.3749845039895554;1.6753657499896448;-1.8712479076781214;-1.5708096663104456;1.6687685251235962;0.2279776632785797;-0.11316483467817307;0.17698641121387482;-0.05627718195319176;0.0003968592209275812;-0.10108034312725067;1;True;False

8114.6939999999995;4.788269996643066;-1.3771692526391526;1.6787284056292933;-1.8723131618895472;-1.5707882086383265;1.6668962240219116;0.19998499751091003;-0.10036012530326843;0.16047602891921997;-0.05442050099372864;0.00013336044503375888;-0.0871795117855072;1;True;False

8114.714;4.791967868804932;-1.3790246409228821;1.6816232840167444;-1.873298784295553;-1.5707767645465296;1.6653367280960083;0.17452020943164825;-0.088798888027668;0.12878486514091492;-0.0428827665746212;3.844212187686935e-05;-0.07806576788425446;1;True;False

8114.7339999999995;4.795197486877441;-1.3805960428765793;1.6839597860919397;-1.8741418323912562;-1.5707686583148401;1.663897156715393;0.14451606571674347;-0.07266779243946075;0.11024101078510284;-0.046247947961091995;5.3709049097960815e-05;-0.061930932104587555;1;True;False

8114.754;4.7976579666137695;-1.3819633734277268;1.686000172291891;-1.8749767742552699;-1.570801083241598;1.6627720594406128;0.11285559087991714;-0.05951269716024399;0.09058065712451935;-0.03174200281500816;4.136462666792795e-05;-0.0506400503218174;1;True;False

8114.773999999999;4.79976749420166;-1.383003683095314;1.6876209417926233;-1.8754579029478968;-1.5708172957049769;1.6619020700454712;0.0870109498500824;-0.04279400408267975;0.06862127780914307;-0.020313480868935585;1.681724279478658e-05;-0.03855615109205246;1;True;False

8114.794;4.801079750061035;-1.383738563661911;1.6887372175799769;-1.8757592640318812;-1.5707925001727503;1.661283254623413;0.05796962231397629;-0.031058231368660927;0.04788791388273239;-0.015978198498487473;2.833864709828049e-05;-0.026720313355326653;1;True;False

8114.813999999999;4.802006244659424;-1.3841738265803833;1.6893451849566858;-1.8760343990721644;-1.5707767645465296;1.660908579826355;0.03119177184998989;-0.01766279898583889;0.023324554786086082;-0.007595614064484835;2.4483873858116567e-05;-0.013254034332931042;1;True;False

8114.834;4.802395343780518;-1.3843775999597092;1.6896618048297327;-1.87603821376943;-1.5707882086383265;1.6608134508132935;0.0039052285719662905;-1.5994188288459554e-05;0.0005262193735688925;-0.000491518119815737;2.1552225007326342e-05;-0.0010101879015564919;1;True;False

8114.853999999999;4.802247524261475;-1.3842440706542511;1.689735237752096;-1.8763724766173304;-1.5708215872394007;1.660829782485962;-0.005216752178966999;0.00969875417649746;0.01904252916574478;-0.03804965317249298;-0.0015298157231882215;0.00019823070033453405;1;True;False

8114.874;4.80225944519043;-1.3840116572431107;1.6903355757342737;-1.87709440807485;-1.5708168188678187;1.6608253717422485;-3.4942017919092905e-06;0.016427136957645416;0.03329237923026085;-0.04334487393498421;-0.00014809941058047116;0.00011425169941503555;1;True;False

8114.893999999999;4.802290916442871;-1.3835993719151993;1.6912334601031702;-1.8784123859801234;-1.5708296934710901;1.6607885360717773;0.0006257435888983309;0.02763862907886505;0.052631963044404984;-0.07902557402849197;0.0006160586490295827;3.817433025687933e-05;1;True;False

8114.914;4.802210807800293;-1.3828496199897309;1.6923921743976038;-1.8803407154478968;-1.5708368460284632;1.6608015298843384;0.0002093643561238423;0.04029282554984093;0.0687248557806015;-0.1094697043299675;0.0001557575014885515;2.8718162070617836e-07;1;True;False

8114.933999999999;4.802290916442871;-1.3820146930268784;1.6940372625934046;-1.8828960857787074;-1.570833985005514;1.6607884168624878;0.0017923585837706923;0.050431638956069946;0.08732720464468002;-0.14355050027370453;0.00013165098789613694;-0.0007926808902993798;1;True;False

8114.954;4.802303791046143;-1.3808691960624238;1.6959212462054651;-1.8858653507628382;-1.5708368460284632;1.660768985748291;0.0004553884791675955;0.06397636979818344;0.10139686614274979;-0.16215868294239044;2.6037396310130134e-05;-0.0006058542057871819;1;True;False

8114.973999999999;4.80230712890625;-1.3794896614602585;1.6982453505145472;-1.88946594814443;-1.570813004170553;1.6607657670974731;0.00036020539118908346;0.07044327259063721;0.12032186985015869;-0.20600302517414093;2.0193987438688055e-05;-0.00048601729213260114;1;True;False

8114.994;4.8022661209106445;-1.3779543501189728;1.7008526960956019;-1.8936177692809046;-1.570801083241598;1.6607776880264282;0.0006723875994794071;0.08184891194105148;0.13752786815166473;-0.21113571524620056;6.590413249796256e-05;-0.00034081318881362677;1;True;False

8115.013999999999;4.802339553833008;-1.3761884284070511;1.7037642637835901;-1.8984157047667445;-1.5707686583148401;1.660757064819336;0.00037119691842235625;0.09069612622261047;0.1522548794746399;-0.24881567060947418;5.5753869673935696e-05;-0.00020456590573303401;1;True;False

8115.034;4.802314758300781;-1.3743139964393158;1.7070210615741175;-1.9035855732359828;-1.5708168188678187;1.660780906677246;0.00018309292499907315;0.09818533062934875;0.17847836017608643;-0.28198161721229553;4.827683005714789e-05;-0.00019778366549871862;1;True;False

8115.054;4.802342891693115;-1.372141273026802;1.7107017675982874;-1.9093405208983363;-1.5707925001727503;1.6607526540756226;0.0001660743437241763;0.11252778768539429;0.1915430873632431;-0.2979709208011627;4.256818283465691e-05;-0.00016032368876039982;1;True;False

8115.074;4.802289962768555;-1.36978171885524;1.714773956929342;-1.9156433544554652;-1.5708296934710901;1.6607320308685303;0.00015020383580122143;0.1213889867067337;0.21441751718521118;-0.32135486602783203;6.636677426286042e-05;-0.0001418391038896516;1;True;False

8115.094;4.802310466766357;-1.3672958326390763;1.7190888563739222;-1.9226538143553675;-1.570801083241598;1.660802960395813;0.00019335759861860424;0.13458235561847687;0.22728684544563293;-0.35009968280792236;5.783661617897451e-05;-0.00012884898751508445;1;True;False

8115.114;4.802314758300781;-1.3645521116307755;1.723884407673971;-1.9301287136473597;-1.5708487669574183;1.660757064819336;0.00016909051919355989;0.14095132052898407;0.24578064680099487;-0.3807036280632019;6.149944238131866e-05;-0.00010848270176211372;1;True;False

8115.134;4.802342891693115;-1.3615190994790574;1.7290967146502894;-1.9382087192931117;-1.5707967917071741;1.6607407331466675;0.0001535632909508422;0.15291884541511536;0.26399296522140503;-0.41707903146743774;1.3525283670823285e-10;-9.254585893359035e-05;1;True;False

8115.1539999999995;4.8023481369018555;-1.3583346766284485;1.7347014586078089;-1.9467669926085414;-1.5708373228656214;1.6607778072357178;0.00023189075000118464;0.16356110572814941;0.2788548469543457;-0.44697728753089905;4.015779067029575e-18;-8.069193427218124e-05;1;True;False

8115.174;4.802314758300781;-1.355074943309166;1.740272347127096;-1.956085821191305;-1.5708053747760218;1.6607495546340942;0.0001836344163166359;0.17347724735736847;0.2929016649723053;-0.47050735354423523;1.1923211034869366e-25;-7.153003389248624e-05;1;True;False

8115.1939999999995;4.8023552894592285;-1.3514782947352906;1.7462475935565394;-1.9657870731749476;-1.5708254019366663;1.6607288122177124;0.00013703349395655096;0.18478527665138245;0.3185739815235138;-0.49806439876556396;3.5401092360448006e-33;-1.0228571462045366e-10;1;True;False

8115.214;4.802335262298584;-1.347619192009308;1.7528899351703089;-1.9760323963561;-1.5707967917071741;1.660742163658142;0.00012751377653330564;0.19545160233974457;0.3383188247680664;-0.5213346481323242;1.0510859521207588e-40;-3.036954534704498e-18;1;True;False

8115.2339999999995;4.802363872528076;-1.3436162036708375;1.7599166075335901;-1.9867459736266078;-1.5708211104022425;1.6607776880264282;0.00010604920680634677;0.2005537748336792;0.3488418161869049;-0.5594468116760254;2.0121049601584673e-05;-3.930452352474134e-10;1;True;False

8115.254;4.802313804626465;-1.3394237470677872;1.766942326222555;-1.9981376133360804;-1.5707805792437952;1.660757064819336;8.316871389979497e-05;0.1964210718870163;0.33996063470840454;-0.5512755513191223;3.347509118858949e-12;4.9708105507306755e-05;1;True;False

8115.273999999999;4.8023552894592285;-1.3355105978301545;1.7736943403827112;-2.008942266503805;-1.5707643667804163;1.6607201099395752;8.421747043030336e-05;0.19116584956645966;0.33431825041770935;-0.5425623655319214;-3.575490336515941e-05;3.201408981112763e-05;1;True;False

8115.294;4.802403926849365;-1.3318027567914505;1.780144516621725;-2.019372125665182;-1.5707767645465296;1.6607364416122437;7.285525498446077e-05;0.18633882701396942;0.31571489572525024;-0.4918770492076874;-2.747353573795408e-05;2.361236147407908e-05;1;True;False

8115.313999999999;4.802342891693115;-1.3282383245280762;1.786377255116598;-2.028994699517721;-1.5708211104022425;1.6607495546340942;6.41945080133155e-05;0.17621850967407227;0.2999085485935211;-0.47999322414398193;-6.85786583770609e-12;1.8704320609685965e-05;1;True;False

8115.334;4.802342891693115;-1.3248707515052338;1.7924087683307093;-2.0381766758360804;-1.5707886854754847;1.6607074737548828;5.466624982547463e-12;0.1674378663301468;0.2807675302028656;-0.45116448402404785;-2.0361619464663906e-19;1.5485680705751292e-05;1;True;False

8115.353999999999;4.802374839782715;-1.3216608178666611;1.7976706663714808;-2.046807905236715;-1.5707810560809534;1.6607407331466675;0.00010507598199183121;0.15414981544017792;0.2648907005786896;-0.414127379655838;-6.045547636283987e-27;1.3212216799729504e-05;1;True;False

8115.374;4.802351474761963;-1.3187572819045563;1.802655045186178;-2.0549446545042933;-1.5708568731891077;1.6607896089553833;7.330042717512697e-05;0.14109966158866882;0.2477671205997467;-0.39145493507385254;-1.7949776926125993e-34;1.1520870430103969e-05;1;True;False

8115.393999999999;4.802366733551025;-1.3159481447986145;1.8074911276446741;-2.062465807000631;-1.5707724730121058;1.6606943607330322;7.563976396340877e-05;0.1347087323665619;0.22744539380073547;-0.3617483377456665;-5.3291380598272793e-42;1.0213422683591489e-05;1;True;False

8115.414;4.802350997924805;-1.3132785123637696;1.8119381109820765;-2.0693818531432093;-1.5708048979388636;1.6607540845870972;6.63465543766506e-05;0.12262103706598282;0.21346616744995117;-0.3457752764225006;-0.0;1.460507235984121e-11;1;True;False

8115.433999999999;4.8023223876953125;-1.3109977406314393;1.815946404133932;-2.075709959069723;-1.5708172957049769;1.660757064819336;1.541158781037666e-06;0.10903757065534592;0.1925937533378601;-0.31100183725357056;-0.0;4.3363770050598416e-19;1;True;False

8115.454;4.802366733551025;-1.308865026836731;1.819594685231344;-2.0815612278380335;-1.5707886854754847;1.6607407331466675;1.204578584469632e-26;0.09974326938390732;0.17415301501750946;-0.27476802468299866;-0.0;1.2875094360237375e-26;1;True;False

8115.473999999999;4.8023552894592285;-1.306839720611908;1.8231561819659632;-2.0869046650328578;-1.5707767645465296;1.6607074737548828;0.0;0.09088286757469177;0.1565646231174469;-0.24147555232048035;-0.0;3.8227312765143397e-34;1;True;False

8115.494;4.802371025085449;-1.305188612346985;1.8262165228473108;-2.0917026005186976;-1.5708087126361292;1.6607288122177124;0.0;0.07929627597332001;0.13629823923110962;-0.22924047708511353;-0.0;1.1350517561031018e-41;1;True;False

8115.513999999999;4.802350997924805;-1.3037451666644593;1.8285906950580042;-2.095839639703268;-1.5707767645465296;1.6607778072357178;0.0;0.0719129741191864;0.11937908083200455;-0.19794254004955292;-0.0;0.0;1;True;False

8115.534;4.802350997924805;-1.3024204534343262;1.8308218161212366;-2.099435945550436;-1.5708048979388636;1.6607866287231445;0.0;0.062296148389577866;0.10763183236122131;-0.1578112691640854;-0.0;0.0;1;True;False

8115.554;4.802346706390381;-1.3011465531638642;1.8328340689288538;-2.1023198566832484;-1.5708211104022425;1.6607704162597656;0.0;0.05083002895116806;0.08916677534580231;-0.141078382730484;-0.0;0.0;1;True;False

8115.574;4.802350997924805;-1.300268219118454;1.8344391028033655;-2.1049653492369593;-1.57074481645693;1.6607156991958618;0.0;0.04084194451570511;0.066551573574543;-0.11408243328332901;-0.0;0.0;1;True;False

8115.594;4.802399635314941;-1.2996457380107422;1.8355158011065882;-2.1068622074522914;-1.5708048979388636;1.660724401473999;0.0;0.02916397526860237;0.05298862233757973;-0.08249711245298386;-0.0;0.0;1;True;False

8115.614;4.8023223876953125;-1.2990421813777466;1.8364523092852991;-2.108135839501852;-1.5708211104022425;1.660757064819336;0.0;0.023394212126731873;0.038527119904756546;-0.0544794537127018;-0.0;0.0;1;True;False

8115.634;4.802334308624268;-1.2988021236709137;1.8370283285724085;-2.1089512310423792;-1.5708211104022425;1.6607540845870972;0.0;0.010240576229989529;0.01950981095433235;-0.03324843943119049;-0.0;0.0;1;True;False

8115.6539999999995;4.802375316619873;-1.2987426978400727;1.837175194417135;-2.1092244587340296;-1.570784870778219;1.6607495546340942;0.0;-0.0015219674678519368;-0.0008831551531329751;0.0015336566139012575;-0.0;0.0;1;True;False

8115.674;4.802358150482178;-1.298769311313965;1.8371313253985804;-2.109204431573385;-1.5708006064044397;1.660757064819336;0.0;-1.1819812074619277e-17;-1.6732843999278657e-09;0.00010842511983355507;-0.0;0.0;1;True;False

8115.6939999999995;4.802350997924805;-1.2987709802440186;1.837151352559225;-2.1092287502684535;-1.5707648436175745;1.6607820987701416;0.0;-9.425502269140313e-15;-2.3562766833875426e-21;4.9100417527370155e-05;-0.0;1.6590133433691534e-10;1;True;False

8115.714;4.8023552894592285;-1.2987990838340302;1.8372004667865198;-2.1092244587340296;-1.5708330313311976;1.6607162952423096;0.0;-7.367027430582227e-35;-3.31804880228287e-33;3.339125760248862e-05;-0.0;4.925759631718548e-18;1;True;False

8115.7339999999995;4.802313327789307;-1.2987365287593384;1.8371918837176722;-2.1092845402159632;-1.5708206335650843;1.6607252359390259;0.0;0.0;-4.203895392974451e-45;7.930959708413177e-12;-0.0;1.4625023889991564e-25;1;True;False

8115.754;4.8022894859313965;-1.298709200029709;1.8372038046466272;-2.1092006168761195;-1.5707810560809534;1.6607614755630493;1.905613448070851e-25;0.000663475482724607;-0.0;2.3547733068580345e-19;-0.0;4.342302213218439e-33;1;True;False

8115.773999999999;4.802383899688721;-1.298803911810257;1.8371871153460901;-2.1092125378050746;-1.570829216633932;1.6607407331466675;1.401298464324817e-45;0.00026807686663232744;-0.0;6.991533224901898e-27;-0.0;1.289264652102048e-40;1;True;False

8115.794;4.802301406860352;-1.2987471681884308;1.8371995131122034;-2.1092688045897425;-1.5707886854754847;1.6607377529144287;0.0;0.00014657586871180683;9.446353215025738e-05;2.0758490959777526e-34;-0.0;0.0;1;True;False

8115.813999999999;4.802401542663574;-1.2987345618060608;1.8371380011187952;-2.109260698358053;-1.570784870778219;1.660724401473999;-4.526573320617899e-05;0.0004667718894779682;9.330448665423319e-05;-5.7170153013430536e-05;-0.0;0.0;1;True;False

8115.834;4.802326679229736;-1.2987335485270997;1.8371260801898401;-2.1092688045897425;-1.5707967917071741;1.6607201099395752;-5.425577182904817e-05;0.00022909142717253417;7.409890531562269e-05;-0.00010567606659606099;-0.0;0.0;1;True;False

8115.853999999999;4.802366733551025;-1.2987335485270997;1.8372152487384241;-2.109248777429098;-1.5707443396197718;1.660723328590393;-4.517757406574674e-05;0.00024258099438156933;4.619219180312939e-05;-6.662333908025175e-05;-0.0;0.0;1;True;False

8115.874;4.802320957183838;-1.2987426680377503;1.8371709028827112;-2.1092969379820765;-1.5708087126361292;1.6607438325881958;2.859540946045791e-12;0.0001589189050719142;5.5138003517640755e-05;-0.00010486419341759756;-0.0;0.0;1;True;False

8115.893999999999;4.8023552894592285;-1.298742727642395;1.8372085730182093;-2.1092449627318324;-1.570772949849264;1.6607201099395752;2.2350342654596183e-32;0.00014503470447380096;4.5787368435412645e-05;-0.00013607664732262492;-0.0;0.0;1;True;False

8115.914;4.802346706390381;-1.2987799805453797;1.8372038046466272;-2.10927214244985;-1.5707967917071741;1.6607614755630493;0.0;0.00011506363080115989;5.219794184085913e-05;-0.0001253685768460855;-0.0;0.0;1;True;False

8115.933999999999;4.8024091720581055;-1.2987381976893921;1.8372152487384241;-2.1093012295165003;-1.5708211104022425;1.6607526540756226;0.0;0.0001107722200686112;4.558798173093237e-05;-0.00017369094712194055;-0.0;0.0;1;True;False

8115.954;4.802379131317139;-1.298680917625763;1.8372367064105433;-2.1092807255186976;-1.5707648436175745;1.6607822179794312;0.0;0.00015317335783038288;5.062742275185883e-05;-0.00015078249271027744;-0.0;0.0;1;True;False

8115.973999999999;4.8023552894592285;-1.2987226110747834;1.8372324148761194;-2.109276433984274;-1.5708006064044397;1.6607778072357178;0.0;0.00013713014777749777;6.74558978062123e-05;-0.00020204484462738037;-0.0;0.0;1;True;False

8115.994;4.8023552894592285;-1.2987546187690278;1.8372152487384241;-2.109276433984274;-1.5707648436175745;1.6607030630111694;0.0;0.00012758569209836423;5.866228093509562e-05;-0.00016761309234425426;-0.0;0.0;1;True;False

8116.013999999999;4.802325248718262;-1.2987000805190583;1.8372038046466272;-2.1093207798399867;-1.570813004170553;1.6607364416122437;0.0;0.0001296943228226155;6.227639823919162e-05;-0.0001492190349381417;-0.0;0.0;1;True;False

8116.034;4.802334308624268;-1.298706279402115;1.8371828238116663;-2.1092807255186976;-1.5708087126361292;1.6607733964920044;0.0;0.00012079366570105776;2.338006307653351e-12;-0.000137875642394647;-0.0;0.0;1;True;False

8116.054;4.8023552894592285;-1.2986853581717988;1.8371871153460901;-2.1092807255186976;-1.570784870778219;1.6608266830444336;0.0;9.872584632830694e-05;3.292322229207792e-24;-0.00011571524373721331;-0.0;0.0;1;True;False

8116.074;4.802305698394775;-1.2986853581717988;1.837175194417135;-2.1093322239317835;-1.5708211104022425;1.6607614755630493;0.0;8.346625691046938e-05;4.6361657908549296e-36;-8.581446309108287e-05;-0.0;0.0;1;True;False

8116.094;4.802350997924805;-1.2986883384040375;1.8372109572040003;-2.109288831750387;-1.570772949849264;1.6607733964920044;0.0;8.434122719336301e-05;6.436730473069474e-05;-7.206929876701906e-05;-0.0;0.0;1;True;False

8116.114;4.8023600578308105;-1.298756168489792;1.8371952215777796;-2.1092807255186976;-1.5708048979388636;1.6607658863067627;0.0;7.43833661545068e-05;5.6313074310310185e-05;-6.211972504388541e-05;-0.0;0.0;1;True;False

8116.134;4.802375793457031;-1.298739032154419;1.8372152487384241;-2.109288831750387;-1.5707610289203089;1.6607614755630493;0.0;6.294288007469007e-13;5.0049875426338986e-05;-5.4584390454692766e-05;-0.0;0.0;1;True;False

8116.1539999999995;4.802326679229736;-1.2986764472774048;1.8372443358050745;-2.109312673608297;-1.5707967917071741;1.6607645750045776;0.0;4.919651773754575e-33;2.742952351747317e-16;-1.0101384759764187e-06;-0.0;0.0;1;True;False

8116.174;4.802371501922607;-1.298668996696808;1.837191406880514;-2.1093322239317835;-1.5707767645465296;1.6607451438903809;0.0;0.0;3.862554818496897e-28;-2.999192894362866e-14;-0.0;0.0;1;True;False

8116.1939999999995;4.80229377746582;-1.298706279402115;1.8372066656695765;-2.1092807255186976;-1.570784870778219;1.6607208251953125;0.0;0.0;5.439154002261421e-40;-8.904872934204146e-22;-0.0;0.0;1;True;False

8116.214;4.802334308624268;-1.298760549431183;1.8372018972979944;-2.109293123284811;-1.5707810560809534;1.6607733964920044;0.0;0.0;0.0;-2.6439370906604565e-29;-0.0;0.0;1;True;False

8116.2339999999995;4.802377700805664;-1.2986764472774048;1.8372109572040003;-2.1092845402159632;-1.5708168188678187;1.6607896089553833;0.0;0.0;0.0;-2.9261052986839786e-05;-0.0;-1.597677012910026e-08;1;True;False

8116.254;4.802321910858154;-1.2987574201873322;1.8371270338641565;-2.10927214244985;-1.5708325544940394;1.6608631610870361;0.0;8.480511848318883e-10;1.4922569562259014e-06;-0.0003356651868671179;-0.0012584312353283167;-4.743646026046547e-16;1;True;False

8116.273999999999;4.802285194396973;-1.298827425842621;1.8370626608477991;-2.109459539453024;-1.5708406607257288;1.6607319116592407;0.0;0.001109221950173378;2.101358461191442e-18;-0.0016300507122650743;-0.0002860364911612123;-1.4084311557763272e-23;1;True;False

8116.294;4.802342891693115;-1.2987767618945618;1.8371241728412073;-2.109495779077047;-1.5707648436175745;1.660757064819336;0.0;0.00024106312775984406;2.9590792644096935e-30;-0.000502602371852845;-4.982958489563316e-05;-4.181759557146305e-31;1;True;False

8116.313999999999;4.802292346954346;-1.2987164717963715;1.8370793501483362;-2.1094514332213343;-1.5707805792437952;1.6607319116592407;0.0;0.00010754374670796096;6.965931243030354e-05;-0.00013535401376429945;-3.206431938451715e-05;-1.2416018670454286e-38;1;True;False

8116.334;4.802310466766357;-1.298711971645691;1.8371194044696253;-2.109483858148092;-1.5708449522601526;1.6607853174209595;0.0;0.00010097947233589366;0.00012555326975416392;0.00014885823475196958;-2.3639664505026303e-05;-0.0;1;True;True

8116.353999999999;4.802343368530273;-1.2987663310817261;1.8370659987079065;-2.109460016290182;-1.5707724730121058;1.6608147621154785;0.0;0.0002479027316439897;0.0006800062255933881;0.0005827415152452886;-1.8721448213909753e-05;-0.0;1;True;True

8116.374;4.80233097076416;-1.2987648409656067;1.8369734922992151;-2.1091495953001917;-1.5707648436175745;1.660736322402954;0.0;-0.005505469627678394;-0.011145745404064655;0.03160898759961128;-1.5497407730435953e-05;-0.0;1;True;True

8116.393999999999;4.8022966384887695;-1.2989723247340699;1.8368313948260706;-2.1081301174559535;-1.5708087126361292;1.6607658863067627;0.0;-0.013239358551800251;-0.02710426226258278;0.051783930510282516;-1.3220743312558625e-05;-0.0;1;True;True

8116.414;4.802375793457031;-1.2992301148227234;1.8361933867083948;-2.106856485406393;-1.5707648436175745;1.6607201099395752;0.0;-0.025133466348052025;-0.048409633338451385;0.06999223679304123;-1.1527354217832908e-05;-0.0;1;True;True

8116.433999999999;4.802343368530273;-1.2999742788127442;1.8349393049823206;-2.1052056751646937;-1.5708254019366663;1.6607615947723389;0.0;-0.0442415289580822;-0.07412789762020111;0.10053111612796783;-1.0218520401394926e-05;-0.0;1;True;True

8116.454;4.8023176193237305;-1.3009767693332215;1.8332112471209925;-2.102866312066549;-1.5708048979388636;1.6607645750045776;0.0;-0.054613322019577026;-0.09058249741792679;0.13147538900375366;-1.4612172583028382e-11;-0.0;1;True;True

8116.473999999999;4.802321910858154;-1.3020854157260437;1.8313596884356897;-2.0996624432005824;-1.570772949849264;1.6607601642608643;0.0;-0.059956446290016174;-0.10524985194206238;0.165944904088974;-4.338486832609735e-19;-0.0;1;True;True

8116.494;4.8023600578308105;-1.3033700746348877;1.8291423956500452;-2.09621061901235;-1.5707767645465296;1.6607897281646729;0.0;-0.06879770010709763;-0.1270473152399063;0.1872645914554596;-1.2881357484416523e-26;-0.0;1;True;True

8116.513999999999;4.8023600578308105;-1.3049592238715668;1.8263748327838343;-2.0920239887633265;-1.5707529226886194;1.6607319116592407;0.0;-0.08742032945156097;-0.14569656550884247;0.21039526164531708;-3.824589797367837e-34;-0.0;1;True;True

8116.534;4.802321910858154;-1.3068180543235322;1.8233607451068323;-2.087480684319967;-1.5708416144000452;1.6607482433319092;0.0;-0.08942339569330215;-0.15450075268745422;0.25556424260139465;-1.1356122754888318e-41;-0.0;1;True;True

8116.554;4.802316188812256;-1.3086462777904053;1.8200729529010218;-2.082144876519674;-1.5707967917071741;1.660724401473999;0.0;-0.09585093706846237;-0.16908679902553558;0.25846314430236816;-0.0;-0.0;1;True;True

8116.574;4.80233097076416;-1.3107354801944275;1.816319767628805;-2.0764552555479945;-1.5707810560809534;1.6607704162597656;0.0;-0.11149509251117706;-0.19072341918945312;0.2938397228717804;-0.0;-0.0;1;True;True

8116.594;4.802371501922607;-1.313114659195282;1.8121932188617151;-2.0701495609679164;-1.570784870778219;1.6607601642608643;0.0;-0.11886219680309296;-0.21023710072040558;0.32808321714401245;-0.0;-0.0;1;True;True

8116.614;4.8023295402526855;-1.3155939739993592;1.8078816572772425;-2.063155790368551;-1.570784870778219;1.660768985748291;0.0;-0.13052530586719513;-0.22895564138889313;0.35996076464653015;-0.0;-0.0;1;True;True

8116.634;4.802285194396973;-1.318334237938263;1.803312126790182;-2.055641313592428;-1.5707691351519983;1.6607853174209595;0.0;-0.13847655057907104;-0.23841643333435059;0.3751899302005768;-0.0;-0.0;1;True;True

8116.6539999999995;4.802346706390381;-1.321332187657692;1.7982209364520472;-2.047697206536764;-1.5707886854754847;1.660698652267456;0.0;-0.15093563497066498;-0.2633447051048279;0.4044904112815857;-0.0;-0.0;1;True;True

8116.674;4.802351951599121;-1.3244496595910569;1.7928546110736292;-2.0391766033568324;-1.570813004170553;1.6608238220214844;0.0;-0.16472704708576202;-0.2801726460456848;0.44217684864997864;-0.0;-0.0;1;True;True

8116.6939999999995;4.802383899688721;-1.3277554225972672;1.7869823614703577;-2.030050893823141;-1.5707691351519983;1.660727620124817;0.0;-0.17501987516880035;-0.30090954899787903;0.4694627523422241;-0.0;-3.163595829391852e-05;1;True;True

8116.714;4.802297115325928;-1.3313933324864884;1.780797306691305;-2.0203448734679164;-1.57084829012026;1.6607074737548828;0.0;-0.18546201288700104;-0.3203752040863037;0.4902057945728302;-0.0;-5.1495212538554824e-09;1;True;True

8116.7339999999995;4.802334308624268;-1.3351957958987732;1.7743285338031214;-2.0100871525206507;-1.5708168188678187;1.6607526540756226;0.0;-0.19344258308410645;-0.3297300338745117;0.5230728387832642;-2.4795814290712315e-09;-1.528939600768233e-16;1;True;True

8116.754;4.802285194396973;-1.3391061139157792;1.7676013151751917;-1.9992572269835414;-1.5707929770099085;1.6607911586761475;0.0;-0.2015889585018158;-0.350492388010025;0.5426133871078491;6.25429893261753e-05;-4.5395588492317514e-24;1;True;True

8116.773999999999;4.802268981933594;-1.3432968717864533;1.7605140844928187;-1.9879094562926234;-1.5708168188678187;1.6607319116592407;0.0;-0.19565774500370026;-0.34336283802986145;0.5666918754577637;1.8569575131049953e-12;-1.3478361636839149e-31;1;True;True

8116.794;4.802334308624268;-1.3473103803447266;1.7534711996661585;-1.9772545299925746;-1.5708377997027796;1.6607733964920044;0.0;-0.1928357034921646;-0.33913761377334595;0.5260787606239319;5.513473499039612e-20;-4.001846371298849e-39;1;True;True

8116.813999999999;4.802350997924805;-1.3510632526925583;1.746965233479635;-1.9667870006956996;-1.5708325544940394;1.6607778072357178;0.0;-0.18338856101036072;-0.31948593258857727;0.5091787576675415;1.636999815607324e-27;-0.0;1;True;True

8116.834;4.802374839782715;-1.3545821768096467;1.7409494558917444;-1.956954141656393;-1.5707886854754847;1.6607526540756226;0.0;-0.17196300625801086;-0.2950025498867035;0.4664932191371918;4.860399373880195e-35;-0.0;1;True;True

8116.853999999999;4.8023881912231445;-1.3579989832690735;1.7351835409747522;-1.9477220974364222;-1.570784870778219;1.6607526540756226;0.0;-0.16655229032039642;-0.2787344753742218;0.4550730586051941;1.4433374182545616e-42;-0.0;1;True;True

8116.874;4.8023881912231445;-1.361196683054306;1.7295492331134241;-1.9390331707396449;-1.5707810560809534;1.660736322402954;0.0;-0.15785160660743713;-0.27073511481285095;0.42835134267807007;0.0;-0.0;1;True;True

8116.893999999999;4.802383899688721;-1.3642148834517975;1.7243559996234339;-1.9309565029540003;-1.5708048979388636;1.660724401473999;0.0;-0.1459677517414093;-0.2485215961933136;0.393225759267807;0.0;-0.0;1;True;True

8116.914;4.802286624908447;-1.3669945758632203;1.7196148077594202;-1.9235288105406703;-1.570784870778219;1.6607645750045776;0.0;-0.13367806375026703;-0.2292894423007965;0.35750725865364075;0.0;-0.0;1;True;True

8116.933999999999;4.802425861358643;-1.3695162546685715;1.7152803579913538;-1.9163867435851039;-1.570772949849264;1.6607407331466675;0.0;-0.12264753133058548;-0.21239584684371948;0.3286571800708771;0.0;-0.0;1;True;True

8116.954;4.8023600578308105;-1.3719045978835602;1.7112658659564417;-1.9100285969176234;-1.5707886854754847;1.660736322402954;0.0;-0.11393167823553085;-0.19816306233406067;0.3103164732456207;0.0;-0.0;1;True;True

8116.973999999999;4.802366733551025;-1.374069632296898;1.7074912230121058;-1.9041177235045375;-1.5707810560809534;1.6607332229614258;0.0;-0.10423809289932251;-0.17520417273044586;0.27732160687446594;0.0;-2.0352791452182828e-08;1;True;True

8116.994;4.8023295402526855;-1.376024992471077;1.7041710058795374;-1.898705621758932;-1.5708006064044397;1.6607526540756226;0.0;-0.09445683658123016;-0.16443678736686707;0.2576087415218353;0.0;-6.042926275103271e-16;1;True;True

8117.013999999999;4.802374839782715;-1.377698079948761;1.7012108008014124;-1.8940559826292933;-1.5708335081683558;1.6607614755630493;0.0;-0.08201874047517776;-0.14079974591732025;0.2299077808856964;0.0;-1.7941992845587822e-23;1;True;True

8117.034;4.802314758300781;-1.3792929661324997;1.6985600630389612;-1.8898455105223597;-1.5708087126361292;1.6607199907302856;0.0;-0.07379366457462311;-0.12620964646339417;0.19201509654521942;0.0;-5.327138683096006e-31;1;True;True

8117.054;4.802305698394775;-1.3805885177901764;1.6961095968829554;-1.88621248821401;-1.5708125273333948;1.6607482433319092;0.0;-0.06138811632990837;-0.11334288865327835;0.17446988821029663;0.0;-1.581675704600404e-38;1;True;True

8117.074;4.802305698394775;-1.3817865562490006;1.694073502217428;-1.883184095422262;-1.5707767645465296;1.660736322402954;0.0;-0.05361445993185043;-0.08503928780555725;0.1416168212890625;0.0;-0.0;1;True;True

8117.094;4.802375793457031;-1.3827307981303711;1.692591969166891;-1.880629678765768;-1.5707891623126429;1.660757064819336;0.0;-0.040768567472696304;-0.0717463418841362;0.1299116462469101;0.0;-0.0;1;True;True

8117.114;4.802350997924805;-1.3833639186671753;1.6913211981402796;-1.878582616845602;-1.5708330313311976;1.6607332229614258;0.0;-0.030871188268065453;-0.0558927096426487;0.08042719215154648;0.0;-0.0;1;True;True

8117.134;4.802369117736816;-1.3839096140912552;1.6902993361102503;-1.8773051700987757;-1.5707810560809534;1.6607288122177124;0.0;-0.023332959040999413;-0.03929639980196953;0.060035981237888336;0.0;-0.0;1;True;True

8117.1539999999995;4.8023552894592285;-1.3843089205077668;1.6898310820208948;-1.8764802418150843;-1.5707967917071741;1.6607941389083862;0.0;-0.012164818122982979;-0.01846170984208584;0.02700689807534218;0.0;-0.0;1;True;True

8117.174;4.8023176193237305;-1.38434490681205;1.6896432081805628;-1.8762084446349085;-1.5708048979388636;1.6607288122177124;0.0;-1.0864247869390997e-11;-2.0186815163469873e-05;0.0016947239637374878;0.0;-0.0;1;True;True

8117.1939999999995;4.802057266235352;-1.384325162773468;1.6896713415728968;-1.8761769733824671;-1.570801083241598;1.6607296466827393;-0.02396957017481327;0.00029870355501770973;-9.088941266277573e-10;0.0008983838488347828;1.968536480490002e-06;-0.004575836937874556;1;True;True

8117.214;4.801214218139648;-1.3843327325633545;1.6896799246417444;-1.8762489757933558;-1.570784870778219;1.6606143712997437;-0.053530748933553696;6.875495455460623e-05;-1.2798815570377937e-21;0.00046096742153167725;5.844761117148115e-14;-0.0110795171931386;1;True;True

8117.2339999999995;4.799971103668213;-1.3843415093472977;1.6896193663226526;-1.8761006794371546;-1.5707772413836878;1.6603270769119263;-0.08093594014644623;0.00029847686528228223;-0.0019522547954693437;0.003301712917163968;1.7353619172380302e-21;-0.010462476871907711;1;True;True

8117.254;4.798063278198242;-1.3842804294875641;1.6896393934832972;-1.8760339222350062;-1.5707443396197718;1.6601418256759644;-0.11184839904308319;0.0009926443453878164;-0.002501612761989236;0.0034007749054580927;5.152446398750248e-29;-0.012394857592880726;1;True;True

8117.273999999999;4.795436859130859;-1.3842563194087525;1.6895573774920862;-1.8761059246458949;-1.570784870778219;1.6598379611968994;-0.141351580619812;0.002297651953995228;-0.007149578537791967;0.0004734568065032363;-0.0009548236266709864;-0.016233311966061592;1;True;True

8117.294;4.7923054695129395;-1.3842217189124604;1.6893957296954554;-1.8760057888426722;-1.570756737385885;1.6594538688659668;-0.16611135005950928;0.003954787272959948;-0.005566223058849573;0.0008404632681049407;-0.0003334377543069422;-0.02147860825061798;1;True;True

8117.313999999999;4.788813591003418;-1.3841482263854523;1.6893370787249964;-1.8760096035399378;-1.5707686583148401;1.6589748859405518;-0.19295845925807953;0.004497952293604612;-0.006070187781006098;0.0016188202425837517;-0.0001908953272504732;-0.024930140003561974;1;True;True

8117.334;4.784539699554443;-1.3840654653361817;1.6891606489764612;-1.8759662113585414;-1.5708048979388636;1.658468246459961;-0.2274748980998993;0.005940953269600868;-0.007131435442715883;0.0010561232920736074;-0.00013401871547102928;-0.02817370556294918;1;True;True

8117.353999999999;4.779853343963623;-1.383903757934906;1.689017120991842;-1.8759900532164515;-1.5708449522601526;1.657832145690918;-0.25191056728363037;0.0075490945018827915;-0.007733604870736599;0.0016783949686214328;-0.00012287506251595914;-0.03142967447638512;1;True;True

8117.374;4.774515628814697;-1.383818195467331;1.6888802687274378;-1.8759223423399867;-1.5707805792437952;1.6572023630142212;-0.28047844767570496;0.007959894835948944;-0.008395250886678696;0.002564149908721447;-8.41991204652004e-05;-0.036220960319042206;1;True;True

8117.393999999999;4.768574237823486;-1.3836293679526825;1.6887295881854456;-1.875918527642721;-1.5708211104022425;1.6563568115234375;-0.30489692091941833;0.009141508489847183;-0.009829237125813961;0.0018723143730312586;-8.484944555675611e-05;-0.040120501071214676;1;True;True

8117.414;4.762156009674072;-1.3834479612163086;1.6884682814227503;-1.8758508167662562;-1.5707805792437952;1.6555463075637817;-0.3273071348667145;0.008278686553239822;-0.010699066333472729;0.00231085903942585;-0.0003753660712391138;-0.04271816089749336;1;True;True

8117.433999999999;4.755317687988281;-1.383345679645874;1.68829852739443;-1.8758145771422328;-1.570813004170553;1.6546223163604736;-0.3592759668827057;0.008684953674674034;-0.010469047352671623;0.0020822775550186634;0.00021089307847432792;-0.04672987759113312;1;True;True

8117.454;4.747831344604492;-1.3831434708884736;1.688099209462301;-1.8757959804930628;-1.5708172957049769;1.6536602973937988;-0.38977277278900146;0.009751912206411362;-0.008617371320724487;0.003146264236420393;9.714060433907434e-05;-0.04733579605817795;1;True;True

8117.473999999999;4.7396626472473145;-1.3829199385694046;1.687927548085348;-1.8757440052428187;-1.5707929770099085;1.6526674032211304;-0.4174659550189972;0.011189301498234272;-0.010487457737326622;0.0023574219085276127;6.307696457952261e-05;-0.05489642173051834;1;True;True

8117.494;4.730904579162598;-1.3827535820058365;1.6876509825335901;-1.8756801090636195;-1.5708048979388636;1.6515326499938965;-0.4446166455745697;0.010801788419485092;-0.013290702365338802;0.0032309438101947308;2.0735433370333567e-09;-0.0567268505692482;1;True;True

8117.513999999999;4.721835613250732;-1.3825078320554276;1.687375847493307;-1.8756400547423304;-1.570784870778219;1.6503701210021973;-0.4703592360019684;0.010833763517439365;-0.012952915392816067;0.00244065560400486;6.156537216131714e-17;-0.06290517747402191;1;True;True

8117.534;4.7121734619140625;-1.3823024940541764;1.6871326605426233;-1.8756128750243128;-1.5708091894732874;1.6491354703903198;-0.5006036162376404;0.010904865339398384;-0.013146740384399891;0.0027519487775862217;1.82793133185344e-24;-0.06320606917142868;1;True;True

8117.554;4.701651573181152;-1.3820653718760987;1.6868694464312952;-1.8755251369872035;-1.5708406607257288;1.6477652788162231;-0.5308741927146912;0.013651754707098007;-0.015892475843429565;0.0027022408321499825;5.427292094829851e-32;-0.06783799827098846;1;True;True

8117.574;4.690837860107422;-1.3818254631808777;1.6865223089801233;-1.8755337200560511;-1.5708335081683558;1.6463267803192139;-0.5560625195503235;0.012324069626629353;-0.018420323729515076;0.003660907270386815;1.6114119586626088e-39;-0.07405464351177216;1;True;True

8117.594;4.679479122161865;-1.3816798788360138;1.6861332098590296;-1.8753577671446742;-1.5707529226886194;1.6448768377304077;-0.5849136710166931;0.012739813886582851;-0.01710049994289875;0.003243808401748538;0.0006299049709923565;-0.07514394819736481;1;True;True

8117.614;4.667232036590576;-1.381259025340416;1.6857636610614222;-1.8753382168211878;-1.5708211104022425;1.6433511972427368;-0.6140672564506531;0.01641969196498394;-0.018387814983725548;0.002049070782959461;-0.002443060278892517;-0.08101028203964233;1;True;True

8117.634;4.654880046844482;-1.3810021442225953;1.6854241530047815;-1.8752905331053675;-1.5708449522601526;1.6416847705841064;-0.637708306312561;0.015341593883931637;-0.016632895916700363;0.005008834879845381;-0.0003037102287635207;-0.08427517861127853;1;True;True

8117.6539999999995;4.6418375968933105;-1.380654902463295;1.6851256529437464;-1.8751231632628382;-1.5707443396197718;1.640014410018921;-0.6665524840354919;0.013948905281722546;-0.01843131333589554;0.004454039037227631;0.0009673800086602569;-0.08629540354013443;1;True;True

8117.674;4.627979278564453;-1.3803294014981766;1.6846173445331019;-1.875131746331686;-1.5708931128131312;1.6383134126663208;-0.702383816242218;0.01787826046347618;-0.025025799870491028;0.001553261885419488;-0.0022698496468365192;-0.09115134179592133;1;True;True

