Andreas691667/Digital_Twin_UR/data_analysis/busters_stuff/old/case2_success.csv
timestamp actual_q_0 actual_q_1 actual_q_2 actual_q_3 actual_q_4 actual_q_5 actual_qd_0 actual_qd_1 actual_qd_2 actual_qd_3 actual_qd_4 actual_qd_5 safety_status output_bit_register_65 output_bit_register_66
422.53299999999996 3.7120699882507324 -0.8254221838763733 0.8429630438434046 -1.588285585443014 -1.5707810560809534 2.1412765979766846 0.0 0.0 -0.0 0.0 0.0 -0.0 1 False False
422.553 3.7120819091796875 -0.82550402105365 0.8430174032794397 -1.5882774792113246 -1.5707290808307093 2.141287088394165 0.0 0.0 -0.0 0.0 0.0 -0.0 1 False False
422.573 3.7120580673217773 -0.8254546088031312 0.8429587523089808 -1.5883289776244105 -1.570784870778219 2.141263246536255 0.0 0.0 -0.0 0.0 0.0 -0.0 1 False False
422.59299999999996 3.7121024131774902 -0.8254954975894471 0.8430259863482874 -1.5882536373534144 -1.5707529226886194 2.141226053237915 0.0 0.0 -0.0 0.0 0.0 -0.0 1 False False
422.613 3.712045669555664 -0.8254869741252442 0.8429811636554163 -1.588297029534811 -1.5707691351519983 2.141308546066284 0.0 0.0 -0.0 0.0 0.0 -0.0 1 False False
422.633 3.712106943130493 -0.8255317372134705 0.8430631796466272 -1.5882932148375453 -1.5707886854754847 2.141296148300171 0.0 0.0 -0.0 0.0 0.0 -0.0 1 False False
422.65299999999996 3.712050199508667 -0.8254546088031312 0.8429306189166468 -1.5882731876769007 -1.5707648436175745 2.141246795654297 0.0 0.0 -0.0 0.0 0.0 -0.0 1 False False
422.673 3.7120490074157715 -0.8255112928203125 0.8429845015155237 -1.5882932148375453 -1.5707810560809534 2.1412723064422607 0.0 0.0 -0.0 0.0 0.0 -0.0 1 False False
422.693 3.712050199508667 -0.8254825633815308 0.8429763952838343 -1.588325639764303 -1.5707810560809534 2.141284227371216 0.0 0.0 -0.0 0.0 0.0 -0.0 1 False False
422.71299999999997 3.712062358856201 -0.8254869741252442 0.8429964224444788 -1.588297029534811 -1.5708172957049769 2.141284227371216 0.0 0.0 -0.0 0.0 0.0 -0.0 1 False False
422.733 3.7121024131774902 -0.825463132267334 0.8430216948138636 -1.5882774792113246 -1.5707967917071741 2.1413040161132812 0.0 0.0 -0.0 0.0 0.0 -0.0 1 False False
422.753 3.7120606899261475 -0.8254954975894471 0.8430336157428187 -1.5882889233031214 -1.5708087126361292 2.141263246536255 0.0 0.0 -0.0 0.0 0.0 -0.0 1 False False
422.77299999999997 3.712111473083496 -0.8254383963397522 0.8429349104510706 -1.5882889233031214 -1.5707452932940882 2.141279697418213 0.0 0.0 -0.0 0.0 0.0 -0.0 1 False False
422.793 3.7120816707611084 -0.825463132267334 0.8430216948138636 -1.5883013210692347 -1.5707886854754847 2.1412603855133057 0.0 0.0 -0.0 0.0 0.0 -0.0 1 False False
422.813 3.712050199508667 -0.8254955571940918 0.8429845015155237 -1.5882817707457484 -1.5708330313311976 2.141300678253174 0.0 0.0 -0.0 0.0 0.0 -0.0 1 False False
422.83299999999997 3.7121071815490723 -0.8254950207522889 0.8429473082171839 -1.5883332691588343 -1.570732895527975 2.141263246536255 0.0 0.0 -0.0 0.0 0.0 -0.0 1 False False
422.853 3.7120862007141113 -0.825482503776886 0.8430054823504847 -1.5882288418211878 -1.570784870778219 2.141342878341675 0.0 0.0 -0.0 0.0 0.0 -0.0 1 False False
422.873 3.7120907306671143 -0.8254950803569336 0.8429892698871058 -1.5882374248900355 -1.570784870778219 2.1413040161132812 0.0 0.0 -0.0 0.0 0.0 -0.0 1 False False
422.893 3.712095022201538 -0.825482503776886 0.8429802099810999 -1.588285585443014 -1.5707767645465296 2.141284227371216 0.0 0.0 -0.0 0.0 0.0 -0.0 1 False False
422.91299999999995 3.7120490074157715 -0.825482503776886 0.8429515997516077 -1.588268896142477 -1.570829216633932 2.1413087844848633 0.0 0.0 -0.0 0.0 0.0 -0.0 1 False False
422.933 3.7120532989501953 -0.8255361479571839 0.8430054823504847 -1.5882898769774378 -1.570784870778219 2.14131760597229 0.0 0.0 -0.0 0.0 0.0 -0.0 1 False False
422.953 3.7120578289031982 -0.8255080741694947 0.8429754416095179 -1.588245531121725 -1.5708125273333948 2.1412603855133057 0.0 0.0 -0.0 0.0 0.0 -0.0 1 False False
422.97299999999996 3.7120907306671143 -0.8255242270282288 0.8429544607745569 -1.5882817707457484 -1.570829216633932 2.141308546066284 0.0 0.0 -0.0 0.0 0.0 -0.0 1 False False
422.993 3.712078809738159 -0.8255080741694947 0.8430054823504847 -1.5882498226561488 -1.5708211104022425 2.141287088394165 0.0 0.0 -0.0 0.0 0.0 -0.0 1 False False
423.013 3.712111473083496 -0.8254955571940918 0.8429845015155237 -1.5882250271239222 -1.5707967917071741 2.1412887573242188 0.0 0.0 -0.0 0.0 0.0 -0.0 1 False False
423.03299999999996 3.7120578289031982 -0.8254793447307129 0.8430140654193323 -1.5882655582823695 -1.5708125273333948 2.141267776489258 0.0 0.0 -0.0 0.0 0.0 -0.0 1 False False
423.053 3.7120862007141113 -0.8255112928203125 0.8430140654193323 -1.5882889233031214 -1.570772949849264 2.14127516746521 0.0 0.0 -0.0 0.0 0.0 -0.0 1 False False
423.073 3.712148904800415 -0.825458900337555 0.8429802099810999 -1.588252683679098 -1.570813004170553 2.141266107559204 0.0 0.0 -0.0 0.0 0.0 -0.0 1 False False
423.09299999999996 3.7120907306671143 -0.825491265659668 0.8430259863482874 -1.5882774792113246 -1.570784870778219 2.141270637512207 0.0 0.0 -0.0 0.0 0.0 -0.0 1 False False
423.113 3.7120490074157715 -0.8254707616618653 0.8429587523089808 -1.5882889233031214 -1.570801083241598 2.141338348388672 0.0 0.0 -0.0 0.0 0.0 -0.0 1 False False
423.133 3.712132453918457 -0.8255285185626526 0.8429673353778284 -1.5882531605162562 -1.5707886854754847 2.141258955001831 0.0 0.0 -0.0 0.0 0.0 -0.0 1 False False
423.15299999999996 3.712071418762207 -0.8254869741252442 0.8429964224444788 -1.5882650814452113 -1.5708254019366663 2.141313076019287 0.0 0.0 -0.0 0.0 0.0 -0.0 1 False False
423.173 3.712123394012451 -0.8254739803126832 0.8430383841144007 -1.5882889233031214 -1.5707972685443323 2.141284227371216 0.0 0.0 -0.0 0.0 0.0 -0.0 1 False False
423.193 3.7120609283447266 -0.8255123657039185 0.8429935614215296 -1.588229318658346 -1.5708406607257288 2.141267776489258 0.0 0.0 -0.0 0.0 0.0 -0.0 1 False False
423.21299999999997 3.7120654582977295 -0.825478271847107 0.8429802099810999 -1.5883094273009242 -1.570784870778219 2.1413049697875977 0.0 0.0 -0.0 0.0 0.0 -0.0 1 False False
423.233 3.7120862007141113 -0.8254793447307129 0.8429845015155237 -1.5882655582823695 -1.5708168188678187 2.141282558441162 0.0 0.0 -0.0 0.0 0.0 -0.0 1 False False
423.253 3.7120907306671143 -0.8255112928203125 0.8429964224444788 -1.5882889233031214 -1.570801083241598 2.141230583190918 0.0 0.0 -0.0 0.0 0.0 -0.0 1 False False
423.27299999999997 3.7121026515960693 -0.8254825633815308 0.8429763952838343 -1.588292738000387 -1.570801083241598 2.141291618347168 0.0 0.0 -0.0 0.0 0.0 -0.0 1 False False
423.293 3.712106943130493 -0.825491265659668 0.8429673353778284 -1.5882617435851039 -1.570784870778219 2.141300678253174 0.0 0.0 -0.0 0.0 0.0 -0.0 1 False False
423.313 3.712083101272583 -0.8254869741252442 0.8430264631854456 -1.5882812939085902 -1.5707891623126429 2.14131760597229 0.0 0.0 -0.0 0.0 0.0 -0.0 1 False False
423.33299999999997 3.7121026515960693 -0.8255070608905335 0.8430007139789026 -1.5882812939085902 -1.5707648436175745 2.1412453651428223 0.0 0.0 -0.0 0.0 0.0 -0.0 1 False False
423.353 3.712132453918457 -0.8254997891238709 0.8429802099810999 -1.5882569752135218 -1.5708044211017054 2.1412885189056396 0.0 0.0 -0.0 0.0 0.0 -0.0 1 False False
423.373 3.7120981216430664 -0.8254222434810181 0.8429673353778284 -1.5883094273009242 -1.5707610289203089 2.14127516746521 0.0 0.0 -0.0 0.0 0.0 -0.0 1 False False
423.393 3.7120578289031982 -0.8255242270282288 0.8429754416095179 -1.588292738000387 -1.570784870778219 2.141267776489258 0.0 0.0 -0.0 0.0 0.0 -0.0 1 False False
423.41299999999995 3.7120697498321533 -0.8255327504924317 0.8430174032794397 -1.588273664514059 -1.570756737385885 2.141284227371216 0.0 0.0 -0.0 0.0 0.0 -0.0 1 False False
423.433 3.712029218673706 -0.8254546088031312 0.8429515997516077 -1.5882617435851039 -1.570756737385885 2.141235113143921 0.0 0.0 -0.0 0.0 0.0 -0.0 1 False False
423.453 3.7120742797851562 -0.8255446714213868 0.8430083433734339 -1.5883332691588343 -1.570756737385885 2.141266107559204 0.0 0.0 -0.0 0.0 0.0 -0.0 1 False False
423.47299999999996 3.7120697498321533 -0.8254997295192261 0.8429191748248499 -1.5882569752135218 -1.570813004170553 2.1413004398345947 0.0 0.0 -0.0 0.0 0.0 -0.0 1 False False
423.493 3.7120697498321533 -0.8254997295192261 0.8429630438434046 -1.5883370838561 -1.5707929770099085 2.1412723064422607 0.0 0.0 -0.0 0.0 0.0 -0.0 1 False False
423.513 3.7120697498321533 -0.8254951399615784 0.8429892698871058 -1.5882250271239222 -1.5707691351519983 2.1413004398345947 0.0 0.0 -0.0 0.0 0.0 -0.0 1 False False
423.53299999999996 3.7120816707611084 -0.8254459661296387 0.8429678122149866 -1.5882846317686976 -1.5707886854754847 2.141258955001831 0.0 0.0 -0.0 0.0 0.0 -0.0 1 False False
423.553 3.7121071815490723 -0.8255123060992737 0.8429892698871058 -1.5882731876769007 -1.570784870778219 2.141282558441162 0.0 0.0 -0.0 0.0 0.0 -0.0 1 False False
423.573 3.7120578289031982 -0.8254954379848023 0.8429339567767542 -1.5882774792113246 -1.5708373228656214 2.141284227371216 0.0 0.0 -0.0 0.0 0.0 -0.0 1 False False
423.59299999999996 3.712078809738159 -0.8254546684077759 0.8429964224444788 -1.5882774792113246 -1.5707405249225062 2.141296148300171 0.0 0.0 -0.0 0.0 0.0 -0.0 1 False False
423.613 3.7120742797851562 -0.8255037826350708 0.8429802099810999 -1.5883051357665003 -1.570829216633932 2.141296148300171 0.0 0.0 -0.0 0.0 0.0 -0.0 1 False False
423.633 3.7120518684387207 -0.8254673045924683 0.8430264631854456 -1.5883127651610316 -1.5708335081683558 2.141221523284912 0.0 0.0 -0.0 0.0 0.0 -0.0 1 False False
423.65299999999996 3.7121071815490723 -0.8254783314517518 0.8429964224444788 -1.588285585443014 -1.5707929770099085 2.1412394046783447 0.0 0.0 -0.0 0.0 0.0 -0.0 1 False False
423.673 3.7120862007141113 -0.8254912060550232 0.8429845015155237 -1.588252683679098 -1.5707805792437952 2.1412930488586426 0.0 0.0 -0.0 0.0 0.0 -0.0 1 False False
423.693 3.712116241455078 -0.8254825633815308 0.842992130910055 -1.5882650814452113 -1.570801083241598 2.141317367553711 0.0 0.0 -0.0 0.0 0.0 -0.0 1 False False
423.71299999999997 3.712083339691162 -0.8255080741694947 0.8430336157428187 -1.588268896142477 -1.5708254019366663 2.141279697418213 0.0 0.0 -0.0 0.0 0.0 -0.0 1 False False
423.733 3.712045669555664 -0.8254546088031312 0.8430216948138636 -1.588313718835348 -1.5708091894732874 2.141235113143921 0.0 0.0 -0.0 0.0 0.0 -0.0 1 False False
423.753 3.712062358856201 -0.8254502576640625 0.8429892698871058 -1.5882731876769007 -1.5708087126361292 2.141279697418213 0.0 0.0 -0.0 0.0 0.0 -0.0 1 False False
423.77299999999997 3.7120578289031982 -0.8254825633815308 0.8429306189166468 -1.588252683679098 -1.5708492437945765 2.141267776489258 0.0 0.0 -0.0 0.0 0.0 -0.0 1 False False
423.793 3.712033748626709 -0.8254578870585938 0.8430216948138636 -1.5882817707457484 -1.5707805792437952 2.141279697418213 0.0 0.0 -0.0 0.0 0.0 -0.0 1 False False
423.813 3.712078809738159 -0.8255080741694947 0.8429845015155237 -1.588292738000387 -1.5708168188678187 2.141279697418213 0.0 0.0 -0.0 0.0 0.0 -0.0 1 False False
423.83299999999997 3.7120652198791504 -0.825512246494629 0.8429563681231897 -1.5883251629271449 -1.570829216633932 2.141296148300171 0.0 0.0 -0.0 0.0 0.0 -0.0 1 False False
423.853 3.712062358856201 -0.8255037826350708 0.8429473082171839 -1.5882774792113246 -1.5707767645465296 2.141267776489258 0.0 0.0 -0.0 0.0 0.0 -0.0 1 False False
423.873 3.7120816707611084 -0.8254997295192261 0.8429802099810999 -1.5882650814452113 -1.5707767645465296 2.141270637512207 0.0 0.0 -0.0 0.0 0.0 -0.0 1 False False
423.893 3.7121026515960693 -0.82550402105365 0.8429673353778284 -1.588252683679098 -1.5707648436175745 2.141279697418213 0.0 0.0 -0.0 0.0 0.0 -0.0 1 False False
423.91299999999995 3.712128162384033 -0.825483576660492 0.8429845015155237 -1.588285585443014 -1.5707805792437952 2.1413261890411377 0.0 0.0 -0.0 0.0 0.0 -0.0 1 False False
423.933 3.7120697498321533 -0.825487808590271 0.8429721037494105 -1.5882817707457484 -1.5707767645465296 2.141263246536255 0.0 0.0 -0.0 0.0 0.0 -0.0 1 False False
423.953 3.712078809738159 -0.8254869741252442 0.8430054823504847 -1.5882288418211878 -1.5707686583148401 2.1412601470947266 0.0 0.0 -0.0 0.0 0.0 -0.0 1 False False
423.97299999999996 3.7120249271392822 -0.8255199950984498 0.8429964224444788 -1.5882536373534144 -1.5707648436175745 2.1412558555603027 0.0 0.0 -0.0 0.0 0.0 -0.0 1 False False
423.993 3.712045669555664 -0.8255079549602051 0.8429763952838343 -1.5882412395873011 -1.570784870778219 2.141313076019287 0.0 0.0 -0.0 0.0 0.0 -0.0 1 False False
424.013 3.7121071815490723 -0.825478271847107 0.8429587523089808 -1.5882607899107875 -1.570784870778219 2.141266345977783 0.0 0.0 -0.0 0.0 0.0 -0.0 1 False False
424.03299999999996 3.712078809738159 -0.8255080741694947 0.8429892698871058 -1.5882612667479457 -1.5707967917071741 2.141263484954834 0.0 0.0 -0.0 0.0 0.0 -0.0 1 False False
424.053 3.712095260620117 -0.8254265350154419 0.8430259863482874 -1.5882650814452113 -1.570829216633932 2.141254425048828 0.0 0.0 -0.0 0.0 0.0 -0.0 1 False False
424.073 3.712045669555664 -0.8254835170558472 0.8429892698871058 -1.588313718835348 -1.5707843939410608 2.141295909881592 0.0 0.0 -0.0 0.0 0.0 -0.0 1 False False
424.09299999999996 3.712095260620117 -0.8254912060550232 0.8429754416095179 -1.5882817707457484 -1.5707967917071741 2.141295909881592 0.0 0.0 -0.0 0.0 0.0 -0.0 1 False False
424.113 3.712050199508667 -0.8254951399615784 0.8429845015155237 -1.5882932148375453 -1.5708211104022425 2.141275405883789 0.0 0.0 -0.0 0.0 0.0 -0.0 1 False False
424.133 3.712017059326172 -0.8254298132709046 0.8430007139789026 -1.5883175335326136 -1.5707925001727503 2.141279697418213 0.0 0.0 -0.0 0.0 0.0 -0.0 1 False False
424.15299999999996 3.71205472946167 -0.825512246494629 0.8429845015155237 -1.588268896142477 -1.570784870778219 2.1413497924804688 0.0 0.0 -0.0 0.0 0.0 -0.0 1 False False
424.173 3.712087869644165 -0.8254825633815308 0.8430007139789026 -1.5882374248900355 -1.5707805792437952 2.141267776489258 0.0 0.0 -0.0 0.0 0.0 -0.0 1 False False
424.193 3.712045669555664 -0.8254708212665101 0.8430498282061976 -1.5882774792113246 -1.5707925001727503 2.1412546634674072 0.0 0.0 -0.0 0.0 0.0 -0.0 1 False False
424.21299999999997 3.712095260620117 -0.8255208295634766 0.8429673353778284 -1.5882650814452113 -1.5708048979388636 2.141317129135132 0.0 0.0 -0.0 0.0 0.0 -0.0 1 False False
424.233 3.7119991779327393 -0.8255165380290528 0.8429845015155237 -1.588269372979635 -1.570784870778219 2.14132022857666 0.0 0.0 -0.0 0.0 0.0 -0.0 1 False False
424.253 3.712033748626709 -0.8255123060992737 0.8429721037494105 -1.5882932148375453 -1.570784870778219 2.141308546066284 0.0 0.0 -0.0 0.0 0.0 -0.0 1 False False
424.27299999999997 3.712083339691162 -0.8255446714213868 0.8429802099810999 -1.5882898769774378 -1.570801083241598 2.141270875930786 0.0 0.0 -0.0 0.0 0.0 -0.0 1 False False
424.293 3.712099552154541 -0.825487033729889 0.8429845015155237 -1.5882498226561488 -1.570813004170553 2.141242742538452 0.0 0.0 -0.0 0.0 0.0 -0.0 1 False False
424.313 3.712050199508667 -0.8254470390132447 0.8429430166827601 -1.5882774792113246 -1.570824925099508 2.141317129135132 0.0 0.0 -0.0 0.0 0.0 -0.0 1 False False
424.33299999999997 3.7120742797851562 -0.825524703865387 0.8429802099810999 -1.5883218250670375 -1.5707648436175745 2.1412839889526367 0.0 0.0 -0.0 0.0 0.0 -0.0 1 False False
424.353 3.712036609649658 -0.8255039614490052 0.8429515997516077 -1.5882650814452113 -1.5707686583148401 2.141270875930786 0.0 0.0 -0.0 0.0 0.0 -0.0 1 False False
424.373 3.7121145725250244 -0.8254497808269043 0.8429802099810999 -1.5883370838561 -1.5708044211017054 2.141287088394165 0.0 0.0 -0.0 0.0 0.0 -0.0 1 False False
424.393 3.712078809738159 -0.8254289788058777 0.8429515997516077 -1.5883094273009242 -1.5707529226886194 2.141247272491455 0.0 0.0 -0.0 0.0 0.0 -0.0 1 False False
424.41299999999995 3.712095260620117 -0.825463132267334 0.8430174032794397 -1.5882817707457484 -1.570801083241598 2.141267776489258 0.0 0.0 -0.0 0.0 0.0 -0.0 1 False False
424.433 3.712071418762207 -0.8254823845675965 0.8430007139789026 -1.5882207355894984 -1.5707767645465296 2.1412429809570312 0.0 0.0 -0.0 0.0 0.0 -0.0 1 False False
424.453 3.7120862007141113 -0.8254823845675965 0.8430174032794397 -1.5883175335326136 -1.5708168188678187 2.141270875930786 0.0 0.0 -0.0 0.0 0.0 -0.0 1 False False
424.47299999999996 3.7120862007141113 -0.8255171936801453 0.8429763952838343 -1.5883175335326136 -1.5707967917071741 2.141317129135132 0.0 0.0 -0.0 0.0 0.0 -0.0 1 False False
424.493 3.712095022201538 -0.825451211338379 0.8429763952838343 -1.5882607899107875 -1.5707767645465296 2.141291618347168 0.0 0.0 -0.0 0.0 0.0 -0.0 1 False False
424.513 3.712066888809204 -0.8254497808269043 0.8430259863482874 -1.5883013210692347 -1.5707405249225062 2.1412839889526367 0.0 0.0 -0.0 0.0 0.0 -0.0 1 False False
424.53299999999996 3.712095260620117 -0.8255039614490052 0.8429630438434046 -1.588252683679098 -1.5707891623126429 2.1412882804870605 0.0 0.0 -0.0 0.0 0.0 -0.0 1 False False
424.553 3.712045669555664 -0.8254794639400025 0.8429845015155237 -1.588252683679098 -1.5707967917071741 2.141317129135132 0.0 0.0 -0.0 0.0 0.0 -0.0 1 False False
424.573 3.7120816707611084 -0.8254869741252442 0.8430097738849085 -1.5882774792113246 -1.570768181477682 2.1413002014160156 0.0 0.0 -0.0 0.0 0.0 -0.0 1 False False
424.59299999999996 3.712132453918457 -0.8255039018443604 0.8429544607745569 -1.5882607899107875 -1.570772949849264 2.1413002014160156 0.0 0.0 -0.0 0.0 0.0 -0.0 1 False False
424.613 3.7120742797851562 -0.8254380387118836 0.8429887930499476 -1.5882374248900355 -1.5707686583148401 2.141275405883789 0.0 0.0 -0.0 0.0 0.0 -0.0 1 False False
424.633 3.7120444774627686 -0.8254380387118836 0.8430054823504847 -1.588269372979635 -1.570772949849264 2.141295909881592 0.0 0.0 -0.0 0.0 0.0 -0.0 1 False False
424.65299999999996 3.7120742797851562 -0.8254452508739014 0.8430097738849085 -1.588280817071432 -1.570829216633932 2.141251564025879 0.0 0.0 -0.0 0.0 0.0 -0.0 1 False False
424.673 3.7121145725250244 -0.8254380387118836 0.8429845015155237 -1.5882498226561488 -1.5707686583148401 2.1412546634674072 0.0 0.0 -0.0 0.0 0.0 -0.0 1 False False
424.693 3.7120535373687744 -0.8254661124995728 0.8429678122149866 -1.5882898769774378 -1.5707605520831507 2.141295909881592 0.0 0.0 -0.0 0.0 0.0 -0.0 1 False False
424.71299999999997 3.712066888809204 -0.8254823845675965 0.8429630438434046 -1.5882731876769007 -1.5707891623126429 2.1413002014160156 0.0 0.0 -0.0 0.0 0.0 -0.0 1 False False
424.733 3.712083101272583 -0.8254468005946656 0.8429845015155237 -1.5882579288878382 -1.5707805792437952 2.141267776489258 0.0 0.0 -0.0 0.0 0.0 -0.0 1 False False
424.753 3.712083101272583 -0.825495795612671 0.8429721037494105 -1.5882569752135218 -1.5708091894732874 2.141275405883789 0.0 0.0 -0.0 0.0 0.0 -0.0 1 False False
424.77299999999997 3.7120907306671143 -0.8254735630801697 0.842992130910055 -1.5882774792113246 -1.5707967917071741 2.141247272491455 0.0 0.0 -0.0 0.0 0.0 -0.0 1 False False
424.793 3.712083101272583 -0.825495795612671 0.8430054823504847 -1.5883175335326136 -1.5707686583148401 2.1413002014160156 0.0 0.0 -0.0 0.0 0.0 -0.0 1 False False
424.813 3.7120697498321533 -0.8255039614490052 0.8429964224444788 -1.588297029534811 -1.5707891623126429 2.1413333415985107 0.0 0.0 -0.0 0.0 0.0 -0.0 1 False False
424.83299999999997 3.7120323181152344 -0.8254468601993104 0.8429630438434046 -1.588245531121725 -1.570784870778219 2.14125919342041 0.0 0.0 -0.0 0.0 0.0 -0.0 1 False False
424.853 3.712050199508667 -0.8254794639400025 0.8430007139789026 -1.5882498226561488 -1.5708211104022425 2.1412429809570312 0.0 0.0 -0.0 0.0 0.0 -0.0 1 False False
424.873 3.7121026515960693 -0.8255320948413392 0.8429759184466761 -1.588245531121725 -1.5707967917071741 2.141275405883789 0.0 0.0 -0.0 0.0 0.0 -0.0 1 False False
424.893 3.7120742797851562 -0.8255128425410767 0.8429678122149866 -1.5882412395873011 -1.5707767645465296 2.141270875930786 0.0 0.0 -0.0 0.0 0.0 -0.0 1 False False
424.91299999999995 3.7120580673217773 -0.8255202931216736 0.8430216948138636 -1.5882250271239222 -1.5708048979388636 2.1413002014160156 0.0 0.0 -0.0 0.0 0.0 -0.0 1 False False
424.933 3.7120413780212402 -0.8254423898509522 0.8429935614215296 -1.5882774792113246 -1.570813004170553 2.1412503719329834 0.0 0.0 -0.0 0.0 0.0 -0.0 1 False False
424.953 3.7120368480682373 -0.8254304689219971 0.843050781880514 -1.5883013210692347 -1.5707529226886194 2.1412546634674072 0.0 0.0 -0.0 0.0 0.0 -0.0 1 False False
424.97299999999996 3.7121026515960693 -0.8255083125880738 0.8429802099810999 -1.5883289776244105 -1.5707724730121058 2.1413044929504395 0.0 0.0 -0.0 0.0 0.0 -0.0 1 False False
424.993 3.71207857131958 -0.825389103298523 0.8429759184466761 -1.588292738000387 -1.5708211104022425 2.141317129135132 0.0 0.0 -0.0 0.0 0.0 -0.0 1 False False
425.013 3.712066888809204 -0.8254958552173157 0.8429802099810999 -1.5882731876769007 -1.5707610289203089 2.1413419246673584 0.0 0.0 -0.0 0.0 0.0 -0.0 1 False False
425.03299999999996 3.712095022201538 -0.8255083721927186 0.8429964224444788 -1.5882894001402796 -1.570784870778219 2.1412839889526367 0.0 0.0 -0.0 0.0 0.0 -0.0 1 False False
425.053 3.7120580673217773 -0.8255083721927186 0.8429978529559534 -1.5882607899107875 -1.5707686583148401 2.141291618347168 0.0 0.0 -0.0 0.0 0.0 -0.0 1 False False
425.073 3.7120819091796875 -0.8254882854274292 0.8430007139789026 -1.5882607899107875 -1.5707529226886194 2.14125919342041 0.0 0.0 -0.0 0.0 0.0 -0.0 1 False False
425.09299999999996 3.7120611667633057 -0.8255366247943421 0.8429520765887659 -1.588273664514059 -1.5707929770099085 2.1413257122039795 0.0 0.0 -0.0 0.0 0.0 -0.0 1 False False
425.113 3.7120237350463867 -0.8254823845675965 0.8430331389056605 -1.5882250271239222 -1.570813004170553 2.1412882804870605 0.0 0.0 -0.0 0.0 0.0 -0.0 1 False False
425.133 3.712160587310791 -0.8254913848689576 0.8429973761187952 -1.5882417164244593 -1.5707929770099085 2.1413300037384033 0.0 0.0 -0.0 0.0 0.0 -0.0 1 False False
425.15299999999996 3.7120907306671143 -0.8254869741252442 0.8430092970477503 -1.5883051357665003 -1.5707967917071741 2.1412148475646973 0.0 0.0 -0.0 0.0 0.0 -0.0 1 False False
425.173 3.7120535373687744 -0.825445370083191 0.8429845015155237 -1.5882498226561488 -1.5707648436175745 2.141295909881592 0.0 0.0 -0.0 0.0 0.0 -0.0 1 False False
425.193 3.7120697498321533 -0.8255039614490052 0.8429887930499476 -1.5883008442320765 -1.5707529226886194 2.1412763595581055 0.0 0.0 -0.0 0.0 0.0 -0.0 1 False False
425.21299999999997 3.7121024131774902 -0.8255112928203125 0.8430169264422815 -1.588297029534811 -1.5707686583148401 2.1412839889526367 0.0 0.0 -0.0 0.0 0.0 -0.0 1 False False
425.253 3.7120535373687744 -0.8254468005946656 0.8430331389056605 -1.588273664514059 -1.5708087126361292 2.1412763595581055 0.0 0.0 -0.0 0.0 0.0 -0.0 1 False False
425.27299999999997 3.7120819091796875 -0.8254587215236207 0.8429721037494105 -1.588285585443014 -1.5707972685443323 2.1412482261657715 0.0 0.0 -0.0 0.0 0.0 -0.0 1 False False
425.293 3.7120907306671143 -0.8255171340755005 0.8430126349078577 -1.588205953637594 -1.5707648436175745 2.1413002014160156 0.0 0.0 -0.0 0.0 0.0 -0.0 1 False False
425.313 3.712127685546875 -0.8255453270724793 0.8429878393756312 -1.5883013210692347 -1.5708211104022425 2.141312837600708 0.0 0.0 -0.0 0.0 0.0 -0.0 1 False False
425.33299999999997 3.7120413780212402 -0.8254869741252442 0.8430169264422815 -1.5882379017271937 -1.5707767645465296 2.1412763595581055 0.0 0.0 -0.0 0.0 0.0 -0.0 1 False False
425.353 3.7120907306671143 -0.8254468601993104 0.8429930845843714 -1.5883165798582972 -1.570784870778219 2.1412429809570312 0.0 0.0 -0.0 0.0 0.0 -0.0 1 False False
425.373 3.712095022201538 -0.8255083125880738 0.8429845015155237 -1.5882812939085902 -1.5707362333880823 2.14125919342041 0.0 0.0 -0.0 0.0 0.0 -0.0 1 False False
425.393 3.712090492248535 -0.8254763644984742 0.8429802099810999 -1.588222166100973 -1.570756737385885 2.141291618347168 0.0 0.0 -0.0 0.0 0.0 -0.0 1 False False
425.41299999999995 3.7120699882507324 -0.8254913848689576 0.8429759184466761 -1.5882774792113246 -1.5707891623126429 2.1412763595581055 0.0 0.0 -0.0 0.0 0.0 -0.0 1 False False
425.433 3.712085008621216 -0.8254913848689576 0.8429887930499476 -1.588269372979635 -1.570801083241598 2.141231060028076 0.0 0.0 -0.0 0.0 0.0 -0.0 1 False False
425.453 3.7120742797851562 -0.8254423898509522 0.8429606596576136 -1.588285585443014 -1.5707324186908167 2.141312837600708 0.0 0.0 -0.0 0.0 0.0 -0.0 1 False False
425.47299999999996 3.7120862007141113 -0.8254334491542359 0.8429887930499476 -1.5882774792113246 -1.5707529226886194 2.141342878341675 0.0 0.0 -0.0 0.0 0.0 -0.0 1 False False
425.493 3.7121188640594482 -0.8254794639400025 0.8429964224444788 -1.5883251629271449 -1.5707967917071741 2.14132022857666 0.0 0.0 -0.0 0.0 0.0 -0.0 1 False False
425.513 3.7120862007141113 -0.8254216474345704 0.8429802099810999 -1.588297029534811 -1.570801083241598 2.141263246536255 0.0 0.0 -0.0 0.0 0.0 -0.0 1 False False
425.53299999999996 3.7120742797851562 -0.8254468005946656 0.8429721037494105 -1.5882607899107875 -1.5708168188678187 2.141216993331909 0.0 0.0 -0.0 0.0 0.0 -0.0 1 False False
425.553 3.7120654582977295 -0.8254365485957642 0.8429678122149866 -1.5882288418211878 -1.5708168188678187 2.141221523284912 0.0 0.0 -0.0 0.0 0.0 -0.0 1 False False
425.573 3.712099313735962 -0.825495795612671 0.8429721037494105 -1.588313718835348 -1.5708006064044397 2.141284227371216 0.0 0.0 -0.0 0.0 0.0 -0.0 1 False False
425.59299999999996 3.712111234664917 -0.825463132267334 0.8429887930499476 -1.5882817707457484 -1.5708335081683558 2.141263246536255 0.0 0.0 -0.0 0.0 0.0 -0.0 1 False False
425.613 3.7120773792266846 -0.825463132267334 0.8429845015155237 -1.588313718835348 -1.5707686583148401 2.1413004398345947 0.0 0.0 -0.0 0.0 0.0 -0.0 1 False False
425.633 3.712111234664917 -0.8254556220820923 0.8429678122149866 -1.5882932148375453 -1.570801083241598 2.141279697418213 0.0 0.0 -0.0 0.0 0.0 -0.0 1 False False
425.65299999999996 3.712106943130493 -0.8255002659610291 0.8430374304400843 -1.5882731876769007 -1.5707767645465296 2.141254186630249 0.0 0.0 -0.0 0.0 0.0 -0.0 1 False False
425.673 3.712099313735962 -0.825524703865387 0.8429845015155237 -1.5882169208922328 -1.5708091894732874 2.141313076019287 0.0 0.0 -0.0 0.0 0.0 -0.0 1 False False
425.693 3.712094783782959 -0.825466052894928 0.8429845015155237 -1.588269372979635 -1.5708087126361292 2.141326427459717 0.0 0.0 -0.0 0.0 0.0 -0.0 1 False False
425.71299999999997 3.7120981216430664 -0.8255380553058167 0.8430126349078577 -1.5882889233031214 -1.5708211104022425 2.1412513256073 0.0 0.0 -0.0 0.0 0.0 -0.0 1 False False
425.733 3.712094783782959 -0.8254794639400025 0.8429520765887659 -1.5882569752135218 -1.5708091894732874 2.141226053237915 0.0 0.0 -0.0 0.0 0.0 -0.0 1 False False
425.753 3.71207857131958 -0.8254914444736023 0.8430083433734339 -1.5882936916747035 -1.5707967917071741 2.141247034072876 0.0 0.0 -0.0 0.0 0.0 -0.0 1 False False
425.77299999999997 3.712127447128296 -0.8254497212222596 0.8429887930499476 -1.5882932148375453 -1.5707686583148401 2.1412570476531982 0.0 0.0 -0.0 0.0 0.0 -0.0 1 False False
425.793 3.712062358856201 -0.8254794639400025 0.8429635206805628 -1.5882817707457484 -1.570801083241598 2.141291618347168 0.0 0.0 -0.0 0.0 0.0 -0.0 1 False False
425.813 3.7121024131774902 -0.8254794639400025 0.8429763952838343 -1.5882650814452113 -1.570801083241598 2.1413004398345947 0.0 0.0 -0.0 0.0 0.0 -0.0 1 False False
425.83299999999997 3.712033987045288 -0.8254468005946656 0.8429635206805628 -1.5882288418211878 -1.5708168188678187 2.141333818435669 0.0 0.0 -0.0 0.0 0.0 -0.0 1 False False
425.853 3.7120580673217773 -0.8254869741252442 0.8429520765887659 -1.5882889233031214 -1.5707686583148401 2.1413040161132812 0.0 0.0 -0.0 0.0 0.0 -0.0 1 False False
425.873 3.7120742797851562 -0.8254706424525757 0.8429845015155237 -1.5882412395873011 -1.5707929770099085 2.141308546066284 0.0 0.0 -0.0 0.0 0.0 -0.0 1 False False
425.893 3.7120535373687744 -0.825495795612671 0.8430450598346155 -1.5882650814452113 -1.5707767645465296 2.141279697418213 0.0 0.0 -0.0 0.0 0.0 -0.0 1 False False
425.91299999999995 3.712094783782959 -0.8254571718028565 0.8430092970477503 -1.5882774792113246 -1.5707967917071741 2.141308546066284 0.0 0.0 -0.0 0.0 0.0 -0.0 1 False False
425.933 3.712090492248535 -0.8254913848689576 0.8429635206805628 -1.5882774792113246 -1.5707929770099085 2.1413040161132812 0.0 0.0 -0.0 0.0 0.0 -0.0 1 False False
425.953 3.7120580673217773 -0.8254452508739014 0.8429635206805628 -1.5882774792113246 -1.5708125273333948 2.141267776489258 0.0 0.0 -0.0 0.0 0.0 -0.0 1 False False
425.97299999999996 3.7120537757873535 -0.8254245084575196 0.8429520765887659 -1.5882288418211878 -1.5707886854754847 2.141279697418213 0.0 0.0 -0.0 0.0 0.0 -0.0 1 False False
425.993 3.7120211124420166 -0.8255410951427002 0.8429964224444788 -1.5882774792113246 -1.5708330313311976 2.1412994861602783 0.0 0.0 -0.0 0.0 0.0 -0.0 1 False False
426.013 3.7120208740234375 -0.8254556220820923 0.8430092970477503 -1.5882650814452113 -1.5707929770099085 2.1412856578826904 0.0 0.0 -0.0 0.0 0.0 -0.0 1 False False
426.03299999999996 3.712038278579712 -0.8255039614490052 0.8429878393756312 -1.5883051357665003 -1.5707810560809534 2.141230583190918 0.0 0.0 -0.0 0.0 0.0 -0.0 1 False False
426.053 3.7120742797851562 -0.8254958552173157 0.8429678122149866 -1.588292738000387 -1.570784870778219 2.1412765979766846 0.0 0.0 -0.0 0.0 0.0 -0.0 1 False False
426.073 3.7120370864868164 -0.8254838746837159 0.842992130910055 -1.5882932148375453 -1.5708125273333948 2.1412723064422607 0.0 0.0 -0.0 0.0 0.0 -0.0 1 False False
426.09299999999996 3.712033987045288 -0.8254260581782837 0.8429845015155237 -1.5882774792113246 -1.5707648436175745 2.141329526901245 0.0 0.0 -0.0 0.0 0.0 -0.0 1 False False
426.113 3.7120862007141113 -0.8254823845675965 0.8429759184466761 -1.588252683679098 -1.570829216633932 2.141270637512207 0.0 0.0 -0.0 0.0 0.0 -0.0 1 True False
426.133 3.712090492248535 -0.8254706424525757 0.8430255095111292 -1.588280817071432 -1.570756737385885 2.1413094997406006 0.0 0.0 -0.0 0.0 0.0 -0.0 1 True False
426.15299999999996 3.712094783782959 -0.8254706424525757 0.8429802099810999 -1.5882817707457484 -1.5707572142230433 2.1412513256073 0.0 0.0 -0.0 0.0 0.0 -0.0 1 True False
426.173 3.712106704711914 -0.8255090874484559 0.8429477850543421 -1.5882250271239222 -1.5707810560809534 2.141329526901245 0.0 0.0 -0.0 0.0 0.0 -0.0 1 True False
426.193 3.7120296955108643 -0.8254423302463074 0.843020264302389 -1.5882898769774378 -1.570829216633932 2.14131760597229 0.0 0.0 -0.0 0.0 0.0 -0.0 1 True False
426.21299999999997 3.712111234664917 -0.8255292338183899 0.8429845015155237 -1.5883175335326136 -1.57074481645693 2.1413040161132812 0.0 0.0 -0.0 0.0 0.0 -0.0 1 True False
426.233 3.712099313735962 -0.8254720729640503 0.8430169264422815 -1.5882817707457484 -1.570772949849264 2.141279697418213 0.0 0.0 -0.0 0.0 0.0 -0.0 1 True False
426.253 3.712106704711914 -0.8255127829364319 0.8429845015155237 -1.5882846317686976 -1.5707929770099085 2.141286849975586 0.007224741391837597 -0.004877986386418343 -0.0 0.0 0.0 -0.0 1 True False
426.27299999999997 3.7121896743774414 -0.8255708974650879 0.8431084791766565 -1.5883170566954554 -1.5707767645465296 2.1412975788116455 0.0195040050894022 -0.010118847712874413 0.01582695171236992 -0.002575821243226528 0.0 -0.008185137994587421 1 True False
426.293 3.7126047611236572 -0.8258271378329773 0.8435242811786097 -1.5884410343565882 -1.5707767645465296 2.14096736907959 0.024817096069455147 -0.016116859391331673 0.024842411279678345 -0.010574474930763245 0.0 -0.013757605105638504 1 True False
426.313 3.7132818698883057 -0.8261628311923523 0.8441327253924769 -1.5887042484679164 -1.5707967917071741 2.1406171321868896 0.034684959799051285 -0.02609788067638874 0.0386824756860733 -0.014170411042869091 0.0 -0.02159772999584675 1 True False
426.33299999999997 3.714003801345825 -0.8268419069102784 0.8450863997088831 -1.5888987980284632 -1.5708649794207972 2.1401383876800537 0.04560272395610809 -0.038649577647447586 0.05722249299287796 -0.011367112398147583 0.0 -0.030363257974386215 1 True False
426.353 3.7151429653167725 -0.8278109592250367 0.8464654127704065 -1.5892216167845667 -1.5707967917071741 2.1393868923187256 0.066716767847538 -0.054554156959056854 0.07685761153697968 -0.01992422342300415 0.0 -0.041354019194841385 1 True False
426.373 3.7167210578918457 -0.8290192645839234 0.8483231703387659 -1.5897447071471156 -1.570824925099508 2.138448715209961 0.08931125700473785 -0.07321211695671082 0.09915707260370255 -0.02403772622346878 0.0 -0.05592542514204979 1 True False
426.393 3.7187259197235107 -0.8306995791247864 0.8506892363177698 -1.5904346905150355 -1.5707929770099085 2.1371307373046875 0.11242449283599854 -0.09606735408306122 0.1279672533273697 -0.03397096320986748 0.0 -0.0724601149559021 1 True False
426.41299999999995 3.7212393283843994 -0.8328245443156739 0.853426758443014 -1.5912524662413539 -1.5708006064044397 2.135559558868408 0.138581782579422 -0.115554079413414 0.15490172803401947 -0.04845419526100159 0.0 -0.08790112286806107 1 True False
426.433 3.7242417335510254 -0.8355305951884766 0.8569119612323206 -1.5923572979369105 -1.570813004170553 2.1336231231689453 0.1690790206193924 -0.14123892784118652 0.1921987384557724 -0.05135078728199005 0.0 -0.1117502748966217 1 True False
426.453 3.727895736694336 -0.838572697048523 0.8611066977130335 -1.5933410129942835 -1.5708048979388636 2.1312475204467773 0.19494953751564026 -0.1588689237833023 0.22547835111618042 -0.056208930909633636 0.0 -0.12064231187105179 1 True False
426.47299999999996 3.7321786880493164 -0.8420005601695557 0.8660085836993616 -1.5946971378722132 -1.570824925099508 2.128606081008911 0.22313065826892853 -0.17822080850601196 0.25058987736701965 -0.06904157996177673 0.0 -0.1371980756521225 1 True False
426.493 3.7368314266204834 -0.8457421225360413 0.8712976614581507 -1.5961204967894496 -1.5708006064044397 2.125614643096924 0.24140851199626923 -0.19640909135341644 0.28233447670936584 -0.07764887064695358 0.0001459526683902368 -0.15447326004505157 1 True False
426.513 3.7420034408569336 -0.8500617903522034 0.877167050038473 -1.5977231464781703 -1.5707925001727503 2.1223788261413574 0.2655351161956787 -0.222514808177948 0.30865007638931274 -0.0884605273604393 0.0001102014648495242 -0.16468273103237152 1 True False
426.53299999999996 3.7476940155029297 -0.8546717923930665 0.8836544195758265 -1.5997053585448207 -1.5707891623126429 2.1188533306121826 0.29184868931770325 -0.2436693161725998 0.3319835066795349 -0.09326066821813583 0.00016942259389907122 -0.18437562882900238 1 True False
426.553 3.7536864280700684 -0.8597134512713929 0.8905528227435511 -1.6015478573241175 -1.5707925001727503 2.1149635314941406 0.3160203695297241 -0.2628241181373596 0.3655848503112793 -0.10124991834163666 0.00012309520388953388 -0.19823971390724182 1 True False
426.573 3.7602884769439697 -0.8652562660029908 0.8981278578387659 -1.603692194024557 -1.570813004170553 2.110795497894287 0.34206727147102356 -0.2866840362548828 0.39246052503585815 -0.10749601572751999 9.66516527114436e-05 -0.21993893384933472 1 True False
426.59299999999996 3.7674334049224854 -0.8711263102344056 0.9063280264483851 -1.6059338055052699 -1.5708325544940394 2.106325149536133 0.3688323497772217 -0.3020099103450775 0.4200652539730072 -0.13013911247253418 7.956130866659805e-05 -0.22983233630657196 1 True False
426.613 3.7751240730285645 -0.8773890298656006 0.9151094595538538 -1.6084100208678187 -1.5708492437945765 2.1015357971191406 0.39097166061401367 -0.3181328773498535 0.4422052204608917 -0.11983267217874527 8.112281648209319e-05 -0.2511632740497589 1 True False
426.633 3.7831826210021973 -0.8840404909900208 0.9242060820208948 -1.6108938656248988 -1.5708091894732874 2.096302032470703 0.4166758358478546 -0.3427700996398926 0.4728834629058838 -0.13782189786434174 8.228665683418512e-05 -0.26284149289131165 1 True False
426.65299999999996 3.791633129119873 -0.8910370630076905 0.9340031782733362 -1.6137010059752406 -1.5708449522601526 2.090864419937134 0.43769678473472595 -0.3615048825740814 0.5076208114624023 -0.14338383078575134 4.051076030009426e-05 -0.2707037925720215 1 True False
426.673 3.8007664680480957 -0.8985666793635865 0.9444316069232386 -1.616575380364889 -1.5708325544940394 2.0852277278900146 0.46358606219291687 -0.3817121386528015 0.5279437303543091 -0.14215496182441711 3.661746814032085e-05 -0.2921164631843567 1 True False
426.693 3.810455322265625 -0.9064246577075501 0.9553149382220667 -1.6196047268309535 -1.5708487669574183 2.079240560531616 0.48962175846099854 -0.39678922295570374 0.5601807832717896 -0.17139436304569244 -6.300985427865058e-11 -0.30835285782814026 1 True False
426.71299999999997 3.8204784393310547 -0.9147399228862305 0.9666603247271937 -1.6228848896422328 -1.570813004170553 2.0729105472564697 0.5141005516052246 -0.4262455999851227 0.5879484415054321 -0.1574624925851822 -1.8708190885698505e-18 -0.32658031582832336 1 True False
426.733 3.8308093547821045 -0.9233838480762024 0.9787958304034632 -1.6263352833189906 -1.5708168188678187 2.066206455230713 0.5357569456100464 -0.44398587942123413 0.6132936477661133 -0.1806957870721817 -0.0001963561080629006 -0.34353455901145935 1 True False
426.753 3.8418993949890137 -0.9322909277728577 0.9913738409625452 -1.6298119030394496 -1.5707810560809534 2.059133768081665 0.5648145079612732 -0.4584522843360901 0.6448923349380493 -0.17281262576580048 -6.691716407658532e-05 -0.3504183888435364 1 True False
426.77299999999997 3.8535714149475098 -0.9419218462756653 1.0046923796283167 -1.6333733997740687 -1.570756737385885 2.0518674850463867 0.5919048190116882 -0.48397305607795715 0.6685657501220703 -0.20424439013004303 -1.986830188219213e-12 -0.36888226866722107 1 True False
426.793 3.865372657775879 -0.9518578809550782 1.0181425253497522 -1.6373287640013636 -1.5708044211017054 2.044419288635254 0.6046931743621826 -0.5054903030395508 0.6936662197113037 -0.1944829374551773 -5.899077958747984e-20 -0.3873996138572693 1 True False
426.813 3.877969264984131 -0.9621495765498658 1.0325201193438929 -1.641216894189352 -1.5707891623126429 2.036465883255005 0.6359991431236267 -0.5224654078483582 0.731555700302124 -0.20144245028495789 -1.751489224860351e-27 -0.4070855677127838 1 True False
426.83299999999997 3.890899181365967 -0.9727315467647095 1.0475247542010706 -1.6452156505980433 -1.5707648436175745 2.028201103210449 0.6638413071632385 -0.5374311804771423 0.756290853023529 -0.19782929122447968 -3.400925925234333e-05 -0.40710246562957764 1 True False
426.853 3.9043118953704834 -0.9837412399104615 1.062718693410055 -1.6497827968993128 -1.5707805792437952 2.0197582244873047 0.6809143424034119 -0.5675839185714722 0.7762318253517151 -0.21677370369434357 -0.00010130357259185985 -0.43043267726898193 1 True False
426.873 3.9183361530303955 -0.9954378765872498 1.0787742773639124 -1.6540500126280726 -1.5707929770099085 2.011030673980713 0.711529016494751 -0.5824605226516724 0.8137200474739075 -0.22134222090244293 -8.20304558146745e-05 -0.45111915469169617 1 True False
426.893 3.93283748626709 -1.0072270792773743 1.0951417128192347 -1.658806940118307 -1.5708449522601526 2.0017473697662354 0.7273133993148804 -0.5990402102470398 0.837385892868042 -0.22965063154697418 -0.00011048845772165805 -0.464163601398468 1 True False
426.91299999999995 3.9476802349090576 -1.0194664162448426 1.1121919790851038 -1.6634532413878382 -1.570813004170553 1.9922420978546143 0.7621942162513733 -0.6283215284347534 0.8687925934791565 -0.23333577811717987 -6.436238618334755e-05 -0.47548970580101013 1 True False
426.933 3.9630823135375977 -1.0321695369533082 1.130019489918844 -1.668394228021139 -1.5708368460284632 1.9825387001037598 0.7795817852020264 -0.6392240524291992 0.8954337239265442 -0.25552403926849365 -6.151817797217518e-05 -0.4946751296520233 1 True False
426.953 3.9790499210357666 -1.045244113808014 1.1480534712420862 -1.6733752689757289 -1.5707405249225062 1.972533106803894 0.8129798769950867 -0.6699955463409424 0.9193353056907654 -0.25863006711006165 -2.348517682548845e-06 -0.5109952688217163 1 True False
426.97299999999996 3.9955649375915527 -1.058808521633484 1.1668461004840296 -1.6788460216917933 -1.5708087126361292 1.962158203125 0.825045645236969 -0.684898853302002 0.9463475346565247 -0.2642408609390259 -6.972962924298512e-14 -0.5196356177330017 1 True False
426.993 4.012365341186523 -1.0727441173842927 1.1860926787005823 -1.6841427288451136 -1.5708211104022425 1.9515310525894165 0.8576447367668152 -0.7011740803718567 0.9758847951889038 -0.28262859582901 -2.0703357340954112e-21 -0.5415551662445068 1 True False
427.013 4.029710292816162 -1.0869836074164887 1.2059991995440882 -1.689829011956686 -1.5707724730121058 1.9405179023742676 0.8768519163131714 -0.7284618616104126 1.008258581161499 -0.2745545208454132 -6.147014677625046e-29 -0.5596238970756531 1 True False
427.03299999999996 4.047567844390869 -1.1016536814025422 1.2264059225665491 -1.695409437219137 -1.5708087126361292 1.9291256666183472 0.9078680276870728 -0.7421884536743164 1.0323039293289185 -0.29419198632240295 -0.00021535342966672033 -0.5669315457344055 1 True False
427.053 4.065843105316162 -1.116764323120453 1.247162167225973 -1.7013141117491664 -1.5707529226886194 1.9177409410476685 0.9087427258491516 -0.7530181407928467 1.0432473421096802 -0.2865903079509735 4.2145707993768156e-05 -0.5792050957679749 1 True False
427.073 4.084155559539795 -1.1319226783565064 1.2683127562152308 -1.7069250545897425 -1.5707972685443323 1.9059767723083496 0.9164453148841858 -0.7486383318901062 1.0490907430648804 -0.2743417024612427 8.039194653974846e-06 -0.5795584321022034 1 True False
427.09299999999996 4.102424621582031 -1.1469823581031342 1.2890632788287562 -1.7129808864989222 -1.5707610289203089 1.8944765329360962 0.9219464659690857 -0.7564920783042908 1.0422539710998535 -0.30989664793014526 -0.00018454914970789105 -0.5768120884895325 1 True False
427.113 4.120905876159668 -1.1620764595321198 1.3101194540606897 -1.7186929188170375 -1.5708449522601526 1.8830375671386719 0.913923978805542 -0.7489445805549622 1.0520045757293701 -0.2910681366920471 -0.0001626795856282115 -0.5835723876953125 1 True False
427.133 4.139153957366943 -1.1770761472037812 1.33087665239443 -1.724748273889059 -1.5707972685443323 1.871248722076416 0.9205044507980347 -0.7574032545089722 1.042016625404358 -0.2978651225566864 0.00022134804748930037 -0.5764569640159607 1 True False
427.15299999999996 4.157472610473633 -1.1921782058528443 1.3519094626056116 -1.7305003605284632 -1.5707405249225062 1.8597692251205444 0.911549985408783 -0.7491294741630554 1.049518346786499 -0.29601404070854187 -0.0005447392468340695 -0.5804647207260132 1 True False
427.173 4.1759033203125 -1.207295612697937 1.3727482000934046 -1.7362438640990199 -1.5707362333880823 1.848100185394287 0.9166144728660583 -0.7527974247932434 1.0426934957504272 -0.2978212833404541 -4.056777669347866e-08 -0.5825554132461548 1 True False
427.193 4.19409704208374 -1.2223767799190064 1.3938878218280237 -1.7421232662596644 -1.5707405249225062 1.8365105390548706 0.9196428060531616 -0.7521220445632935 1.0491302013397217 -0.2686985433101654 -1.2044935564898239e-15 -0.5755792856216431 1 True False
427.21299999999997 4.212490081787109 -1.2373776000789185 1.414715592061178 -1.7482077083983363 -1.5707891623126429 1.8250690698623657 0.9141791462898254 -0.7581313252449036 1.0375139713287354 -0.3027189373970032 -0.00040959115722216666 -0.5810347199440002 1 True False
427.233 4.230828285217285 -1.2525686484626313 1.4357379118548792 -1.7539540729918421 -1.5707529226886194 1.8133676052093506 0.9221256971359253 -0.7507559657096863 1.051485300064087 -0.2806737422943115 1.198158100512714e-10 -0.5852630734443665 1 True False
427.253 4.249253273010254 -1.2676735085299988 1.4567139784442347 -1.759839197198385 -1.5708325544940394 1.8018032312393188 0.9138997793197632 -0.7569466829299927 1.0413271188735962 -0.29733511805534363 -0.0005424426635727286 -0.5753400921821594 1 True False
427.27299999999997 4.267471790313721 -1.2827545267394562 1.4775660673724573 -1.7657114468016566 -1.5707967917071741 1.790213704109192 0.9163644909858704 -0.7491068243980408 1.0448774099349976 -0.30024588108062744 1.7253429177799262e-05 -0.5806803703308105 1 True False
427.293 4.285821437835693 -1.2978216868690033 1.4985235373126429 -1.7713247738280238 -1.5708611647235315 1.778591275215149 0.920482873916626 -0.7576386332511902 1.0416131019592285 -0.30103233456611633 0.0001808274391805753 -0.574967086315155 1 True False
427.313 4.304178714752197 -1.3128960591605683 1.5194037596331995 -1.777292867700094 -1.570801083241598 1.7670835256576538 0.9152427315711975 -0.7505656480789185 1.0460193157196045 -0.27597397565841675 0.00020140584092587233 -0.5784322619438171 1 True False
427.33299999999997 4.322469711303711 -1.3280590337565918 1.5404284636126917 -1.7832542858519496 -1.570784870778219 1.7555731534957886 0.9160822033882141 -0.7558065056800842 1.034375548362732 -0.2992692291736603 -0.0001208245157613419 -0.5881814360618591 1 True False
427.353 4.340770244598389 -1.3430740249207993 1.5611613432513636 -1.788994928399557 -1.570813004170553 1.7439022064208984 0.894881010055542 -0.7387688755989075 1.033989667892456 -0.28218400478363037 -0.0004768819489981979 -0.5668745636940002 1 True False
427.373 4.358628749847412 -1.3577977877906342 1.5816739241229456 -1.7946325741209925 -1.5708048979388636 1.73261559009552 0.8832706212997437 -0.7217628359794617 1.0005652904510498 -0.28552886843681335 0.0004666616441681981 -0.5552175045013428 1 True False
427.393 4.3757781982421875 -1.3718823057464142 1.6013129393206995 -1.8003059826292933 -1.5707886854754847 1.7216262817382812 0.8507862091064453 -0.7047830820083618 0.9750550389289856 -0.2846493721008301 -0.0006656174082309008 -0.5426750779151917 1 True False
427.41299999999995 4.392701625823975 -1.3858807545951386 1.6206830183612269 -1.8054248295226039 -1.5707925001727503 1.710968255996704 0.8352599740028381 -0.6841495633125305 0.9527834057807922 -0.2548384964466095 -6.767310323230191e-11 -0.5198663473129272 1 True False
427.433 4.409115791320801 -1.3993818324855347 1.639200512562887 -1.8110267124571742 -1.5707691351519983 1.7007472515106201 0.8041556477546692 -0.665073573589325 0.9181227087974548 -0.2643524408340454 0.0012533263070508838 -0.5111637115478516 1 True False
427.453 4.424867630004883 -1.4124137622169037 1.6574600378619593 -1.815890451470846 -1.570829216633932 1.690720558166504 0.7811872363090515 -0.6363885998725891 0.8964852690696716 -0.2518010139465332 -0.0004785414203070104 -0.49937787652015686 1 True False
427.47299999999996 4.440296649932861 -1.4250734162381669 1.6749585310565394 -1.8208309612669886 -1.5707891623126429 1.6809539794921875 0.7591431140899658 -0.6293598413467407 0.8658850789070129 -0.24395982921123505 0.0002465029829181731 -0.47569695115089417 1 True False
427.493 4.455251693725586 -1.4372214686921616 1.6920445601092737 -1.825486799279684 -1.5707648436175745 1.6715441942214966 0.7311559319496155 -0.5972437262535095 0.8395431637763977 -0.22832968831062317 9.698980284156278e-05 -0.466688334941864 1 True False
427.513 4.469529151916504 -1.4492220741561432 1.7085226217852991 -1.8300229511656703 -1.5708406607257288 1.6624764204025269 0.7106229662895203 -0.5806440114974976 0.811696469783783 -0.21165700256824493 -0.0011034563649445772 -0.44932085275650024 1 True False
427.53299999999996 4.4835896492004395 -1.4605459955385705 1.7241175810443323 -1.8346697292723597 -1.5707929770099085 1.6536240577697754 0.6837776899337769 -0.5654453039169312 0.7840886116027832 -0.22989405691623688 0.0006152819842100143 -0.4276696741580963 1 True False
427.553 4.496837615966797 -1.4716602352312584 1.7398374716388147 -1.838689466516012 -1.5708649794207972 1.645189642906189 0.6561453938484192 -0.5414264798164368 0.7562711238861084 -0.19062185287475586 -0.0007853195420466363 -0.41858333349227905 1 True False
427.573 4.509819030761719 -1.48232255995784 1.7543652693377894 -1.8430782757201136 -1.5707529226886194 1.6370564699172974 0.6390601992607117 -0.5223552584648132 0.7242315411567688 -0.20436543226242065 -3.2191920240620675e-09 -0.40218406915664673 1 True False
427.59299999999996 4.522242546081543 -1.4926332396319886 1.768625561391012 -1.8469659290709437 -1.5708168188678187 1.6291918754577637 0.6106271743774414 -0.5029955506324768 0.7012580037117004 -0.17867761850357056 3.3054891446226975e-07 -0.38730913400650024 1 True False
427.613 4.534332275390625 -1.5023320776275177 1.7823217550860804 -1.8507386646666468 -1.5708087126361292 1.6215875148773193 0.5908170938491821 -0.4795627295970917 0.6728843450546265 -0.18087857961654663 0.0010367636568844318 -0.3673243522644043 1 True False
427.633 4.545721530914307 -1.5119342741421242 1.7954719702350062 -1.8543759785094203 -1.5708006064044397 1.6143715381622314 0.5598864555358887 -0.46449509263038635 0.6380345821380615 -0.1923680454492569 -0.00012272507592570037 -0.35343411564826965 1 True False
427.65299999999996 4.556761741638184 -1.5207935881665726 1.8078177610980433 -1.8579703770079554 -1.5707886854754847 1.6074950695037842 0.5372921824455261 -0.4397326111793518 0.6079694628715515 -0.17580759525299072 0.0006119742756709456 -0.33942127227783203 1 True False
427.673 4.56725549697876 -1.5295597364059468 1.8200371901141565 -1.8611308536925257 -1.5707724730121058 1.600819706916809 0.511662483215332 -0.4229261875152588 0.5906363725662231 -0.17458385229110718 0.00015852543583605438 -0.32857558131217957 1 True False
427.693 4.57702112197876 -1.5377877478352566 1.8314545790301722 -1.864542146722311 -1.5708087126361292 1.5944712162017822 0.49252253770828247 -0.3961711823940277 0.5555981993675232 -0.15110470354557037 -0.0003219199716113508 -0.3084287643432617 1 True False
427.71299999999997 4.5868000984191895 -1.5456416022828598 1.8421099821673792 -1.8675157032408656 -1.5708487669574183 1.58849036693573 0.46499454975128174 -0.3802773356437683 0.5289263725280762 -0.14909663796424866 -2.8093607440382584e-08 -0.29367324709892273 1 True False
427.733 4.595757007598877 -1.5528526224992056 1.8525002638446253 -1.870448728600973 -1.5707891623126429 1.5827018022537231 0.4354937970638275 -0.36404743790626526 0.508846640586853 -0.14192767441272736 -8.341243239568224e-16 -0.2771958112716675 1 True False
427.753 4.604193210601807 -1.559905632664897 1.862570587788717 -1.8729616604247035 -1.5708325544940394 1.5774296522140503 0.4182944595813751 -0.34362006187438965 0.4749106168746948 -0.12155324220657349 -0.00012857807450927794 -0.2619280219078064 1 True False
427.77299999999997 4.612311840057373 -1.56671559883792 1.8714078108416956 -1.875868936578268 -1.570829216633932 1.5723545551300049 0.3946690261363983 -0.3228580057621002 0.44239866733551025 -0.14487376809120178 0.001632198691368103 -0.24887840449810028 1 True False
427.793 4.619887828826904 -1.572979589501852 1.8799060026751917 -1.8782373867430628 -1.5707724730121058 1.567504644393921 0.36108624935150146 -0.30100029706954956 0.421949177980423 -0.11425936967134476 1.69284604112363e-07 -0.23600731790065765 1 True False
427.813 4.626934051513672 -1.5786973438658656 1.888336483632223 -1.8802362881102503 -1.5707925001727503 1.563028335571289 0.3417394161224365 -0.2784459590911865 0.3976922333240509 -0.10027755796909332 5.026213040877029e-15 -0.2169944792985916 1 True False
427.83299999999997 4.633418083190918 -1.583904882470602 1.89581805864443 -1.8824368915953578 -1.5708048979388636 1.5588438510894775 0.3172941207885742 -0.26091867685317993 0.3602204918861389 -0.12006491422653198 0.0001086111951735802 -0.19890232384204865 1 True False
427.853 4.639565467834473 -1.5891462765135707 1.9024255911456507 -1.8845511875548304 -1.570801083241598 1.5549894571304321 0.29607707262039185 -0.24721753597259521 0.3268420398235321 -0.0950230211019516 3.224765289869258e-12 -0.18261386454105377 1 True False
427.873 4.645235538482666 -1.5938464603819789 1.9088032881366175 -1.8862563572325648 -1.5707324186908167 1.5514618158340454 0.2674366533756256 -0.215708389878273 0.31229186058044434 -0.07384200394153595 9.574618821475563e-20 -0.17072485387325287 1 True False
427.893 4.650289058685303 -1.5979534588255824 1.9150775114642542 -1.8876687488951625 -1.5708087126361292 1.5482745170593262 0.23917806148529053 -0.19380338490009308 0.28808820247650146 -0.07822719216346741 -2.473437099581588e-08 -0.15445859730243683 1 True False
427.91299999999995 4.654956817626953 -1.6016479931273402 1.9203899542437952 -1.8893209896483363 -1.5707805792437952 1.5453325510025024 0.2185160517692566 -0.1799289435148239 0.24429108202457428 -0.08103476464748383 -2.3579839307785733e-06 -0.13726714253425598 1 True False
427.933 4.659066677093506 -1.6051250896849574 1.924793545399801 -1.890681882897848 -1.570716683064596 1.5427026748657227 0.19386816024780273 -0.16014662384986877 0.21804147958755493 -0.05764680728316307 -7.001064766982978e-14 -0.12809626758098602 1 True False
427.953 4.662655830383301 -1.608044763604635 1.9289558569537562 -1.8918396435179652 -1.5707767645465296 1.5404330492019653 0.1721162647008896 -0.14037157595157623 0.2010711431503296 -0.053767625242471695 -2.078678424106441e-21 -0.11028314381837845 1 True False
427.97299999999996 4.665807723999023 -1.6106111011900843 1.9327300230609339 -1.8927017650999964 -1.5707686583148401 1.5384098291397095 0.14734330773353577 -0.12275621294975281 0.16948121786117554 -0.04746880754828453 -6.171784544122296e-29 -0.09169632196426392 1 True False
427.993 4.668500900268555 -1.6128174267210902 1.9357183615313929 -1.893623491326803 -1.570784870778219 1.5366895198822021 0.12150531262159348 -0.10665304958820343 0.1401004195213318 -0.04471246153116226 -1.832458406039838e-36 -0.07684076577425003 1 True False
428.013 4.670694351196289 -1.6147767506041468 1.9381526152240198 -1.8942934475340785 -1.570813004170553 1.5353782176971436 0.10138892382383347 -0.08353088796138763 0.11315197497606277 -0.030386386439204216 -5.465064010866787e-44 -0.06379900127649307 1 True False
428.03299999999996 4.672408103942871 -1.6161228619017542 1.9400251547442835 -1.8949810467162074 -1.570784870778219 1.5343210697174072 0.0746077448129654 -0.059814441949129105 0.08590307086706161 -0.026392757892608643 -0.0 -0.04498972371220589 1 True False
428.053 4.673600673675537 -1.617101331750387 1.941528622304098 -1.8953243694701136 -1.5708373228656214 1.533538579940796 0.0479435957968235 -0.04045219346880913 0.05981799215078354 -0.016024259850382805 -0.0 -0.03126412257552147 1 True False
428.073 4.6742963790893555 -1.6176744900145472 1.942324463521139 -1.895510812798971 -1.5708087126361292 1.5330758094787598 0.025338899344205856 -0.02113257721066475 0.02835879847407341 -0.006049929652363062 -0.0 -0.0153734739869833 1 True False
428.09299999999996 4.674474716186523 -1.6178466282286585 1.9426239172564905 -1.8954788647093714 -1.5708044211017054 1.532983422279358 -0.008632495068013668 0.007759352680295706 -0.005552254617214203 0.0037993427831679583 -0.0 0.005923690274357796 1 True False
428.113 4.674423694610596 -1.617654939691061 1.9428008238421839 -1.8960305653014125 -1.570881191884176 1.5330368280410767 -0.0029252367094159126 0.014633648097515106 0.01692323200404644 -0.03818296641111374 -0.0 0.00047220467240549624 1 True False
428.133 4.674501419067383 -1.617314954797262 1.94330341020693 -1.8968340359129847 -1.570784870778219 1.5329759120941162 -9.300013203983326e-09 0.0196409672498703 0.03515582159161568 -0.045588504523038864 -0.0 -0.00026829648413695395 1 True False
428.15299999999996 4.6744160652160645 -1.6168014011778773 1.9442461172686976 -1.8981067142882289 -1.570780102406637 1.5329593420028687 0.0004500165523495525 0.02883627451956272 0.05086632817983627 -0.07736402004957199 -0.0 -0.0007297336705960333 1 True False
428.173 4.674439907073975 -1.6161700687804164 1.945388142262594 -1.900102277795309 -1.570813004170553 1.5330138206481934 0.00023067287111189216 0.04136583209037781 0.06764941662549973 -0.10714772343635559 -0.0 -0.0012713148025795817 1 True False
428.193 4.674418926239014 -1.615307947198385 1.9470537344561976 -1.9026538334288539 -1.5708254019366663 1.5329114198684692 0.0005982451839372516 0.05441909655928612 0.08732464164495468 -0.1484851837158203 -0.0 -0.0011865744600072503 1 True False
428.21299999999997 4.6744890213012695 -1.614026208917135 1.949019734059469 -1.905806680718893 -1.5707967917071741 1.5329680442810059 0.0008893396006897092 0.06600336730480194 0.10229922086000443 -0.16430184245109558 -0.0 -0.0004302144516259432 1 True False
428.233 4.674529552459717 -1.6125866375365199 1.9512761274920862 -1.9093357525267542 -1.5707486311541956 1.5329680442810059 0.0008523148717358708 0.07485491037368774 0.1172223836183548 -0.19443312287330627 -0.0 -0.0006061658496037126 1 True False
428.253 4.674488067626953 -1.6110168896117152 1.9537666479693812 -1.9136468372740687 -1.570801083241598 1.5328667163848877 0.0007380831521004438 0.09127539396286011 0.1344984471797943 -0.21999435126781464 -0.0 -0.00029073900077492 1 True False
428.27299999999997 4.674516201019287 -1.6091867885985316 1.9567087332354944 -1.9184214077391566 -1.5708044211017054 1.5329276323318481 0.0008067904855124652 0.09942931681871414 0.15950967371463776 -0.2544843852519989 -0.0 -0.0002118151605827734 1 True False
428.293 4.674519062042236 -1.6070591411986292 1.9599898497210901 -1.9236499271788539 -1.5707967917071741 1.5329288244247437 0.0006345718284137547 0.10914863646030426 0.17391525208950043 -0.2872317135334015 -0.0 -0.00018627454119268805 1 True False
428.313 4.674525260925293 -1.6047960720457972 1.963576618825094 -1.929589410821432 -1.570784870778219 1.5329723358154297 0.00029169826302677393 0.11855333298444748 0.1904643028974533 -0.3006671369075775 -0.0 -0.00013956699694972485 1 True False
428.33299999999997 4.674511909484863 -1.6023169956602992 1.9675691763507288 -1.9360324345030726 -1.5707967917071741 1.5328668355941772 0.00020087073789909482 0.13048100471496582 0.20674997568130493 -0.33076712489128113 -0.0 -0.00010421660408610478 1 True False
428.353 4.674530982971191 -1.5995179615416468 1.9718502203570765 -1.9431640110411585 -1.570813004170553 1.5329320430755615 0.0001522652164567262 0.13770321011543274 0.22289587557315826 -0.3487960398197174 -0.0 -8.461727702524513e-05 1 True False
428.373 4.6745076179504395 -1.5966679058470667 1.976682488118307 -1.9506298504271449 -1.5707805792437952 1.5329320430755615 0.0001187740417663008 0.1489788144826889 0.24339532852172852 -0.37393370270729065 -0.0 -7.122341776266694e-05 1 True False
428.393 4.674502849578857 -1.593522687951559 1.9818504492389124 -1.958621164361471 -1.570829216633932 1.5329201221466064 0.0001135862767114304 0.16050107777118683 0.25616568326950073 -0.41706350445747375 -0.0 -5.7193334214389324e-05 1 True False
428.41299999999995 4.6745476722717285 -1.590140005151266 1.9870122114764612 -1.9674345455565394 -1.5708406607257288 1.5329201221466064 9.623555524740368e-05 0.16693265736103058 0.2695300281047821 -0.45632654428482056 -0.0 -4.3278385419398546e-05 1 True False
428.433 4.67452335357666 -1.5867015324034632 1.9924810568438929 -1.976865907708639 -1.5707767645465296 1.5328919887542725 8.34832462714985e-05 0.1799018532037735 0.28940683603286743 -0.4715206027030945 -0.0 -3.388034599538514e-07 1 True False
428.453 4.674544811248779 -1.58288635830068 1.998533074055807 -1.9863892994322718 -1.5708282629596155 1.5329039096832275 7.371514948317781e-05 0.19492267072200775 0.3161480724811554 -0.4959579408168793 -0.0 -1.0059380222251016e-14 1 True False
428.47299999999996 4.6744704246521 -1.5789247951903285 2.00509483018984 -1.996801038781637 -1.5708168188678187 1.5329320430755615 2.2323143360940614e-14 0.20375089347362518 0.33225536346435547 -0.5284349322319031 -0.0 -2.986719021249501e-22 1 True False
428.493 4.6745686531066895 -1.5748516521849574 2.011883560811178 -2.0078045330443324 -1.5707805792437952 1.5329244136810303 1.744790167934108e-34 0.2126961201429367 0.33905264735221863 -0.5719618201255798 3.161734275636263e-05 -8.86783684768804e-30 1 True False
428.513 4.674530982971191 -1.5703252634014753 2.018845860158102 -2.0193125210204066 -1.5708168188678187 1.5329442024230957 0.0 0.22784550487995148 0.3621324896812439 -0.5712941884994507 3.517775621730834e-05 -2.6329402662234256e-37 1 True False
428.53299999999996 4.674540042877197 -1.5656742609902103 2.0261901060687464 -2.03121342281484 -1.5708335081683558 1.5328876972198486 0.0 0.22054246068000793 0.36080920696258545 -0.6061055660247803 3.11227013298776e-05 -8.407790785948902e-45 1 True False
428.553 4.674540042877197 -1.561277382341661 2.033233944569723 -2.042748113671774 -1.5707767645465296 1.5329691171646118 0.0 0.21648317575454712 0.3485507071018219 -0.5729329586029053 3.8291741999429973e-10 -1.6981023791967642e-12 1 True False
428.573 4.674516201019287 -1.5571200738525768 2.0400407950030726 -2.0538159809508265 -1.5708406607257288 1.5329114198684692 0.0 0.20191079378128052 0.33505257964134216 -0.5320011377334595 1.1369163249719775e-17 -5.0418180218187164e-20 1 True False
428.59299999999996 4.67452335357666 -1.5531348039260884 2.046603504811422 -2.0641848049559535 -1.5708168188678187 1.5329082012176514 0.0 0.19681507349014282 0.3167734146118164 -0.5173494219779968 3.3756068109221794e-25 -1.4969612123050503e-27 1 True False
428.613 4.6744704246521 -1.5492956724813958 2.052594010029928 -2.074093004266256 -1.5707967917071741 1.5329604148864746 0.0 0.18480023741722107 0.2967750132083893 -0.48775777220726013 -1.4265592653828207e-05 -4.4446124431093366e-35 1 True False
428.633 4.674553394317627 -1.5458266858807583 2.058175865803854 -2.0835186443724574 -1.5707925001727503 1.5329244136810303 0.0 0.17684489488601685 0.2782590091228485 -0.4641576409339905 -6.512251675416802e-13 -1.3200231533939777e-42 1 True False
428.65299999999996 4.674540042877197 -1.5423207965544243 2.0635250250445765 -2.092318197289938 -1.570801083241598 1.5329244136810303 0.0 0.17142830789089203 0.26666581630706787 -0.4295712113380432 -1.933546637187493e-20 -0.0 1 True False
428.673 4.674505233764648 -1.5391039338758965 2.0688298384295862 -2.100515981713766 -1.5707610289203089 1.532952904701233 0.0 0.15374580025672913 0.24771639704704285 -0.3980737328529358 -5.740874089470179e-28 -0.0 1 True False
428.693 4.6745524406433105 -1.5362283822945138 2.0736354033099573 -2.1081773243346156 -1.570784870778219 1.5329158306121826 0.0 0.139274463057518 0.2281256765127182 -0.36350715160369873 -1.704517174722241e-35 -0.0 1 True False
428.71299999999997 4.674544811248779 -1.5334193904748936 2.078027073537008 -2.1151987514891566 -1.5708449522601526 1.532948613166809 0.0 0.12956739962100983 0.20905902981758118 -0.33847054839134216 -5.05868745621259e-43 -0.0 1 True False
428.733 4.674540042877197 -1.5308985908380528 2.082015339528219 -2.1217709980406703 -1.570801083241598 1.5329114198684692 0.0 0.11740617454051971 0.18896673619747162 -0.3147878050804138 -0.0 -0.0 1 True False
428.753 4.6744866371154785 -1.5286094670048733 2.085581127797262 -2.1278282604613246 -1.5708168188678187 1.5328834056854248 0.0 0.10736563056707382 0.17526362836360931 -0.2899075150489807 -0.0 -0.0 1 True False
428.77299999999997 4.674544811248779 -1.5265395280769845 2.0889437834369105 -2.1333309612669886 -1.5708006064044397 1.5329039096832275 5.368411937212159e-09 0.09799209237098694 0.1627732515335083 -0.26079681515693665 -0.0 -0.0 1 True False
428.793 4.674572944641113 -1.5246519681862374 2.0919302145587366 -2.1381169758238734 -1.5707967917071741 1.5329124927520752 4.1959823428985987e-29 0.08925960212945938 0.14323215186595917 -0.2390405684709549 -0.0 -0.0 1 True False
428.813 4.674519062042236 -1.5230763231268902 2.094541374837057 -2.1425119839110316 -1.5707572142230433 1.532957911491394 -4.141171302762814e-05 0.07693766802549362 0.12807093560695648 -0.19404342770576477 -0.0 -0.0 1 True False
428.83299999999997 4.674514293670654 -1.5215617802790184 2.096915070210592 -2.1462651691832484 -1.5707810560809534 1.5329604148864746 -2.836140447470825e-05 0.067191943526268 0.11212422698736191 -0.1785980612039566 -0.0 -0.0 1 True False
428.853 4.674514293670654 -1.5203607839396973 2.0989349524127405 -2.1494351826109828 -1.5707967917071741 1.532952904701233 -2.1565512724919245e-05 0.05711311846971512 0.0904959887266159 -0.14093804359436035 -0.0 -0.0 1 True False
428.873 4.674540042877197 -1.5192934063128014 2.100640122090475 -2.1520658932127894 -1.5707724730121058 1.5329124927520752 -1.739694198477082e-05 0.04328370839357376 0.07574743777513504 -0.13149237632751465 -0.0 -0.0 1 True False
428.893 4.674458026885986 -1.5185450848988076 2.1019886175738733 -2.1541329822936 -1.570784870778219 1.532948613166809 -1.4578891750716139e-05 0.03389394283294678 0.05394463613629341 -0.08925700187683105 -0.0 -0.0 1 True False
428.91299999999995 4.674551963806152 -1.5179554012468834 2.1028526465045374 -2.155661245385641 -1.5707891623126429 1.532948613166809 -2.113607115461491e-05 0.024984516203403473 0.035179026424884796 -0.062017884105443954 -0.0 -0.0 1 True False
428.933 4.67453670501709 -1.5175610569170495 2.1034277121173304 -2.156562467614645 -1.5707767645465296 1.5328834056854248 -2.2023008568794467e-05 0.014712763018906116 0.02118423581123352 -0.035723257809877396 -0.0 -0.0 1 True False
428.953 4.674493789672852 -1.5173904945007344 2.1037357489215296 -2.1569863758482875 -1.5707843939410608 1.5329233407974243 -1.9355678659849218e-07 0.0007001032354310155 0.0019287726609036326 -0.008092531934380531 -0.0 -0.0 1 True False
428.97299999999996 4.674556732177734 -1.517450326388218 2.1036136786090296 -2.1569582424559535 -1.570801083241598 1.5329691171646118 -1.5128512899042117e-27 -0.00044212775537744164 -5.4624593737173655e-09 0.0006688282010145485 -0.0 -0.0 1 True False
428.993 4.674551963806152 -1.5174622659436245 2.103671375905172 -2.156910558740133 -1.5708335081683558 1.5329276323318481 -0.0 -0.00022633213666267693 -8.068611236922152e-07 0.00017474612104706466 -0.0 -0.0 1 True False
429.013 4.674535751342773 -1.5174546477249642 2.1036503950702112 -2.156914850274557 -1.570853058491842 1.5329724550247192 0.0 0.00014520697004627436 0.00017507266602478921 0.00010604764247545972 -0.0 1.7214281389232866e-10 1 True False
429.03299999999996 4.674549102783203 -1.5174221631935616 2.1036503950702112 -2.156926771203512 -1.5707767645465296 1.532944917678833 0.0 6.294885679380968e-05 9.985001815948635e-05 -7.791652024025097e-05 -0.0 5.1110749723003345e-18 1 True False
429.053 4.674556732177734 -1.517455918048956 2.1036327520953577 -2.156950613061422 -1.570784870778219 1.5329409837722778 0.0 0.0001506774133304134 0.00012859617709182203 -6.052629396435805e-05 -0.0 1.517524081283641e-25 1 True False
429.073 4.674551963806152 -1.5174503040364762 2.103631321583883 -2.1569863758482875 -1.5708406607257288 1.5329246520996094 0.0 0.00011501750122988597 2.998980380652938e-05 -0.0002468010352458805 -0.0 4.505666173281982e-33 1 True False
429.09299999999996 4.6744914054870605 -1.5174189370921631 2.1036623159991663 -2.1569744549193324 -1.5707805792437952 1.532936453819275 -1.3802535547895813e-16 0.00014663081674370915 8.959491242421791e-05 -0.0004637162492144853 -0.0 1.3377776049369731e-40 1 True False
429.113 4.674495697021484 -1.5173654456487675 2.103654686604635 -2.156966348687643 -1.5707648436175745 1.5329022407531738 -1.0788145322419623e-36 0.00017694433336146176 9.394243534188718e-05 -0.0003518897283356637 -0.0 0.0 1 True False
429.133 4.6745100021362305 -1.517434024517872 2.1036341826068323 -2.156982561151022 -1.5708254019366663 1.5329408645629883 0.0 0.00015546375652775168 6.969192327233031e-05 -0.0014175701653584838 -0.0 0.0 1 True False
429.15299999999996 4.674531936645508 -1.5174558584443112 2.1036580244647425 -2.1570264301695765 -1.5707648436175745 1.532936453819275 0.0 0.00014252326218411326 7.385757635347545e-05 -0.0007013172726146877 -0.0 0.0 1 True False
429.173 4.6745686531066895 -1.5174603064409276 2.1036046187030237 -2.1570383510985316 -1.5707810560809534 1.5329487323760986 0.0 0.00011271899711573496 0.00010184284474235028 -0.0018770089372992516 -0.0 0.0 1 True False
429.193 4.674502849578857 -1.5174634021571656 2.10366660753359 -2.157057901422018 -1.5708335081683558 1.5329320430755615 0.0 0.00012562387564685196 8.3047358202748e-05 -0.0006840855348855257 -0.0 0.0 1 True False
429.21299999999997 4.674551963806152 -1.517369770710804 2.1036418120013636 -2.1570221386351527 -1.5708044211017054 1.5329605340957642 0.0 0.00020940668764524162 9.815202793106437e-05 -0.0003744586429093033 -0.0 0.0 1 True False
429.233 4.674519062042236 -1.5174634021571656 2.1036461035357874 -2.157002111474508 -1.5707805792437952 1.5329352617263794 0.0 0.00017148457118310034 8.492158667650074e-05 -0.00016630318714305758 -0.0 0.0 1 True False
429.253 4.674511909484863 -1.517332849358656 2.1036747137652796 -2.157042165795797 -1.5708091894732874 1.53296959400177 0.0 0.0001733198296278715 9.898756252368912e-05 -0.00014569892664439976 -0.0 0.0 1 True False
429.27299999999997 4.674502849578857 -1.5173698303154488 2.1036503950702112 -2.1570941410460414 -1.5708330313311976 1.5329859256744385 0.0 0.00012844028242398053 8.113969670375809e-05 -0.00011473587801447138 -0.0 0.0 1 True False
429.293 4.67453145980835 -1.517436211263277 2.1036327520953577 -2.1570340595641078 -1.5707810560809534 1.5329859256744385 0.0 0.00013968958228360862 8.24931266834028e-05 -9.462759044254199e-05 -0.0 0.0 1 True False
429.313 4.67452335357666 -1.5174233627370377 2.1036623159991663 -2.1570545635619105 -1.5708125273333948 1.5329082012176514 0.0 0.00011447127326391637 8.348795381607488e-05 -8.05169838713482e-05 -0.0 0.0 1 True False
429.33299999999997 4.674540042877197 -1.5174264584532757 2.1036461035357874 -2.1570264301695765 -1.5707691351519983 1.5329320430755615 0.0 9.687025158200413e-05 7.371876563411206e-05 -8.174680988304317e-05 -0.0 0.0 1 True False
429.353 4.674551963806152 -1.5174023371985932 2.1036952177630823 -2.1570426426329554 -1.5707686583148401 1.5329651832580566 0.0 8.396059274673462e-05 9.434909797878532e-11 -7.235749944811687e-05 -0.0 3.0983271699369652e-06 1 True False
429.373 4.674540042877197 -1.5173948568156739 2.103616539631979 -2.157029768029684 -1.5707491079913538 1.5329275131225586 0.0 8.466769941151142e-05 1.3286000414442074e-22 -5.788784451787876e-10 -0.0 9.199212165677054e-14 1 True False
429.393 4.674526691436768 -1.5174102459898968 2.103657070790426 -2.1570259533324183 -1.570772949849264 1.5329561233520508 0.0 7.11805153664688e-14 6.13633674220182e-05 -1.71874151936167e-17 -0.0 2.7313289761205733e-21 1 True False
429.41299999999995 4.674516201019287 -1.5174362000874062 2.1036704222308558 -2.1570784054198207 -1.5708373228656214 1.5329768657684326 0.0 5.56351190668619e-34 5.400162990554236e-05 -5.10309879460107e-25 -0.0 8.109562568786159e-29 1 True False
429.433 4.674556732177734 -1.5174189296415825 2.1036461035357874 -2.157045980493063 -1.570772949849264 1.5328528881072998 0.0 0.0 2.7356222176422307e-08 -1.515155941417883e-32 -0.0 2.4078016910187364e-36 1 True False
429.453 4.6745076179504395 -1.517378595923521 2.1037281195269983 -2.157074590722555 -1.5707767645465296 1.5329453945159912 0.0 0.0 3.852235042622002e-20 -4.49863049897589e-40 -0.0 7.146622168056567e-44 1 True False
429.47299999999996 4.67452335357666 -1.5174034771374245 2.1036623159991663 -2.1570822201170863 -1.5707491079913538 1.532915711402893 0.0 0.0 5.424620783917607e-32 -0.0 -0.0 0.0 1 True False
429.493 4.67452335357666 -1.5173688617399712 2.103666130696432 -2.157042165795797 -1.570824925099508 1.5329082012176514 0.0 0.0 7.707141553786494e-44 -0.0 -0.0 0.0 1 True False
429.513 4.674511909484863 -1.5174439263394852 2.1036952177630823 -2.157070299188131 -1.5707967917071741 1.5329201221466064 0.0 0.0 0.0 6.0525919252540916e-05 -0.0 0.0 1 True False
429.53299999999996 4.674531936645508 -1.5174666208079834 2.1035588423358362 -2.157114168206686 -1.5707967917071741 1.5329757928848267 -3.661596537085643e-08 2.4991941849350496e-10 -0.00040316529339179397 -0.004049018025398254 -0.0 0.0004968600114807487 1 True False
429.553 4.6745076179504395 -1.5174936440638085 2.1035130659686487 -2.157234331170553 -1.570829216633932 1.532965064048767 -2.8619258788283563e-28 0.0002356556651648134 -0.00014857652422506362 -0.0007353933760896325 -0.0 1.1715262644429458e-06 1 True False
429.573 4.674557685852051 -1.5174286489239712 2.1035950819598597 -2.1572143040099085 -1.5707767645465296 1.5329487323760986 1.4355021338285923e-10 0.00044994824565947056 -1.2166413709824297e-10 -0.0002783185918815434 -0.0 -0.00013819578452967107 1 True False
429.59299999999996 4.67449426651001 -1.5174503710917016 2.103562657033102 -2.157198568383688 -1.5707810560809534 1.532920241355896 1.1219971327186249e-30 0.00047301247832365334 -1.7132434439024345e-22 -0.00017190646030940115 -0.0 -5.447535295388661e-05 1 True False
429.613 4.674561023712158 -1.5174427454224606 2.1035831610309046 -2.157194276849264 -1.5708487669574183 1.532965064048767 0.0 0.0008362399530597031 0.0003543861967045814 -9.950102685252205e-05 -0.0 -3.391657810425386e-05 1 True False
429.633 4.674511909484863 -1.517393746679165 2.103590790425436 -2.1571866474547328 -1.5707810560809534 1.5329397916793823 0.0 0.0005881666438654065 0.0008612945093773305 -5.8466412156121805e-05 -0.0 -2.463112832629122e-05 1 True False
429.65299999999996 4.674531936645508 -1.5174558211914082 2.103574577962057 -2.157138010064596 -1.5707810560809534 1.53296959400177 0.0 0.0008264713687822223 0.001094653271138668 3.25084401993081e-05 -0.0 -1.9337772755534388e-05 1 True True
429.673 4.674535751342773 -1.5174427975765248 2.1035831610309046 -2.1570617161192835 -1.5708330313311976 1.5329275131225586 0.0 -0.004669668152928352 -0.009233316406607628 0.02948976680636406 -0.0 -2.1468871636898257e-05 1 True True
429.693 4.674593448638916 -1.5176069264164944 2.103306595479147 -2.1562510929503382 -1.570784870778219 1.5329517126083374 0.0 -0.012969384901225567 -0.02045382559299469 0.04386046528816223 -0.0 -2.7050184144172817e-05 1 True True
429.71299999999997 4.67453145980835 -1.5178445403328915 2.1028979460345667 -2.155025144616598 -1.5707810560809534 1.5329275131225586 0.0 -0.02345946803689003 -0.03596583381295204 0.06787879765033722 -0.0 -2.3516049623140134e-05 1 True True
429.733 4.674544334411621 -1.518511601989605 2.1019275824176233 -2.1535126171507777 -1.570824925099508 1.5329453945159912 0.0 -0.041286855936050415 -0.06156710535287857 0.09404908865690231 -0.0 -3.1198062060866505e-05 1 True True
429.753 4.674514293670654 -1.5194660362652321 2.10024863878359 -2.151299615899557 -1.5708206335650843 1.5329532623291016 0.0 -0.0525602288544178 -0.08712083101272583 0.12951751053333282 -0.0 -5.903197930479109e-10 1 True True
429.77299999999997 4.674556732177734 -1.520579272215702 2.098396603261129 -2.148264547387594 -1.5708330313311976 1.5329680442810059 0.0 -0.059449125081300735 -0.09817148745059967 0.15951071679592133 -0.0 -1.7527123381941203e-17 1 True True
429.793 4.67453145980835 -1.5218770515969773 2.0962680021869105 -2.1450425587096156 -1.5708168188678187 1.5329651832580566 0.0 -0.07281219959259033 -0.11384992301464081 0.17569290101528168 -0.0 -5.2039600847522995e-25 1 True True
429.813 4.674543380737305 -1.5234658506563683 2.0937846342669886 -2.141001363793844 -1.5708087126361292 1.532915711402893 0.0 -0.08387096226215363 -0.1308394968509674 0.20703963935375214 -0.0 -1.54510239468905e-32 1 True True
429.83299999999997 4.674556732177734 -1.525177651350834 2.0910642782794397 -2.136501451531881 -1.5707967917071741 1.5329110622406006 0.0 -0.0894985944032669 -0.14673420786857605 0.23583051562309265 -0.0 -2.5608972407942243e-12 1 True True
429.853 4.674565315246582 -1.5272150833955784 2.0879066626178187 -2.13149418453359 -1.5708168188678187 1.5329725742340088 0.0 -0.1028175801038742 -0.15815190970897675 0.25211143493652344 -0.0 -7.603535955936635e-20 1 True True
429.873 4.674531936645508 -1.5293638457408925 2.0843828360186976 -2.125848432580465 -1.5708048979388636 1.5329229831695557 0.0 -0.11005472391843796 -0.19104966521263123 0.29367807507514954 -0.0 -2.2575583252202017e-27 1 True True
429.893 4.674531936645508 -1.5317908723703404 2.080602471028463 -2.119676252404684 -1.570784870778219 1.5329275131225586 0.0 -0.12155114859342575 -0.19264255464076996 0.3229322135448456 -0.0 -6.702892063438717e-35 1 True True
429.91299999999995 4.674536228179932 -1.5344248202494164 2.076515022908346 -2.112857004205221 -1.5708048979388636 1.5329245328903198 0.0 -0.13194294273853302 -0.21503078937530518 0.3561795949935913 -0.0 -1.9898438193412402e-42 1 True True
429.933 4.674511909484863 -1.537183017735817 2.0719268957721155 -2.1055766544737757 -1.570824925099508 1.5329487323760986 0.0 -0.14276982843875885 -0.2323634773492813 0.37973031401634216 -0.0 -0.0 1 True True
429.953 4.6745100021362305 -1.5401492372951289 2.0669706503497522 -2.0978390179076136 -1.5707452932940882 1.5329246520996094 0.0 -0.15581566095352173 -0.24943529069423676 0.40303561091423035 -0.0 -0.0 1 True True
429.97299999999996 4.6745147705078125 -1.5434520591846486 2.061798874531881 -2.089292665521139 -1.570836369191305 1.5329605340957642 0.0 -0.16886116564273834 -0.2675829529762268 0.425368994474411 -0.0 -0.0 1 True True
429.993 4.6744794845581055 -1.5469013315490265 2.056371037160055 -2.080381055871481 -1.570784870778219 1.5329352617263794 0.0 -0.17771391570568085 -0.2811071276664734 0.45896202325820923 -0.0 -0.0 1 True True
430.013 4.674535751342773 -1.5504689899137993 2.050568405781881 -2.070871969262594 -1.5707691351519983 1.5329110622406006 0.0 -0.19006983935832977 -0.30432310700416565 0.4870724678039551 -0.0 -0.0 1 True True
430.03299999999996 4.674540042877197 -1.5544170972755929 2.044410530720846 -2.0607382259764613 -1.570824925099508 1.5328829288482666 0.0 -0.2006898820400238 -0.32122793793678284 0.5076079964637756 -0.0 -0.0 1 True True
430.053 4.67452335357666 -1.558486279366054 2.0377686659442347 -2.0501395664610804 -1.5707929770099085 1.5329561233520508 0.0 -0.20921149849891663 -0.33112409710884094 0.5465649962425232 -0.0 -0.0 1 True True
430.073 4.6744914054870605 -1.5628478781184931 2.030734364186422 -2.0388323269286097 -1.570784870778219 1.5329409837722778 0.0 -0.22364318370819092 -0.348044753074646 0.5685108304023743 -0.0 -0.0 1 True True
430.09299999999996 4.67453145980835 -1.5673916503186156 2.023574177418844 -2.0271483860411585 -1.5707967917071741 1.5329110622406006 0.0 -0.2276228368282318 -0.3670666515827179 0.5935742855072021 -0.0 -0.0 1 True True
430.113 4.674531936645508 -1.571925779382223 2.0164154211627405 -2.015306612054342 -1.5708168188678187 1.5329320430755615 0.0 -0.2241201549768448 -0.3581142723560333 0.5757725834846497 -0.0 -0.0 1 True True
430.133 4.67449426651001 -1.5761429272093714 2.0094783941852015 -2.0040561161436976 -1.5707805792437952 1.5329066514968872 0.0 -0.21003398299217224 -0.33489254117012024 0.5555874109268188 -0.0 -0.0 1 True True
430.15299999999996 4.674499988555908 -1.5802675686278285 2.002756420766012 -1.993317266503805 -1.5707686583148401 1.5329532623291016 0.0 -0.2020445317029953 -0.31820398569107056 0.5184214115142822 -0.0 -0.0 1 True True
430.173 4.674519062042236 -1.5842071972289027 1.9965422789203089 -1.983135839501852 -1.5707925001727503 1.5329352617263794 0.0 -0.19153647124767303 -0.30295124650001526 0.5032552480697632 -0.0 -0.0 1 True True
430.193 4.674564838409424 -1.587851186791891 1.9906976858722132 -1.9735266170897425 -1.5708168188678187 1.5329487323760986 0.0 -0.17942556738853455 -0.2817364037036896 0.4708023965358734 -0.0 -0.0 1 True True
430.21299999999997 4.6745476722717285 -1.591382165948385 1.9852173964129847 -1.9643951855101527 -1.5707925001727503 1.5329229831695557 0.0 -0.1683502346277237 -0.27244627475738525 0.4355059564113617 -0.0 -0.0 1 True True
430.233 4.674519062042236 -1.5947162113585414 1.9800141493426722 -1.956057687798971 -1.5707805792437952 1.5329397916793823 0.0 -0.15690702199935913 -0.2550745904445648 0.41543763875961304 -0.0 -0.0 1 True True
430.253 4.67452335357666 -1.5977074108519496 1.9749234358416956 -1.948141714135641 -1.5708048979388636 1.5329532623291016 0.0 -0.14410355687141418 -0.2395860254764557 0.3865240514278412 -0.0 -0.0 1 True True
430.27299999999997 4.67452335357666 -1.6005832157530726 1.9703343550311487 -1.9406215153136195 -1.5707767645465296 1.5329036712646484 0.0 -0.1350501924753189 -0.21802617609500885 0.3660491704940796 -0.0 -0.0 1 True True
430.293 4.674540042877197 -1.6031438312926234 1.9662216345416468 -1.9337779484190882 -1.5708044211017054 1.5329904556274414 0.0 -0.12465812265872955 -0.20329728722572327 0.3361891806125641 -0.0 -0.0 1 True True
430.313 4.674516201019287 -1.6055346928038539 1.9624312559710901 -1.9275881252684535 -1.5707972685443323 1.5329066514968872 0.0 -0.11479565501213074 -0.18156935274600983 0.3094913065433502 -0.0 -0.0 1 True True
430.33299999999997 4.674499988555908 -1.60766663173818 1.9589675108539026 -1.921885152856344 -1.5708168188678187 1.532981514930725 0.0 -0.10454703867435455 -0.16871877014636993 0.2802375555038452 -0.0 -0.0 1 True True
430.353 4.674531936645508 -1.609657426873678 1.9557717482196253 -1.916868349114889 -1.570857350026266 1.5329021215438843 0.0 -0.09609800577163696 -0.14814956486225128 0.23265857994556427 -0.0 -0.0 1 True True
430.373 4.67452335357666 -1.61134733776235 1.9529746214496058 -1.912121435204977 -1.5707805792437952 1.532957673072815 0.0 -0.0827467069029808 -0.13525106012821198 0.21902509033679962 -0.0 -0.0 1 True True
430.393 4.674535751342773 -1.6129356823363246 1.950489346181051 -1.908187051812643 -1.5708087126361292 1.5329724550247192 0.0 -0.07293355464935303 -0.11559553444385529 0.19648805260658264 -0.0 -0.0 1 True True
430.41299999999995 4.674499988555908 -1.6143495045103968 1.9483431021319788 -1.9047137699522914 -1.5708254019366663 1.5329021215438843 0.0 -0.06398122757673264 -0.0967535674571991 0.16034381091594696 -0.0 -0.0 1 True True
430.433 4.674568176269531 -1.6153842411436976 1.9465068022357386 -1.901764532128805 -1.570853058491842 1.5329409837722778 0.0 -0.0491056814789772 -0.08215207606554031 0.13785812258720398 -0.0 -0.0 1 True True
430.453 4.674522876739502 -1.6163646183409632 1.945017162953512 -1.899285455743307 -1.5707405249225062 1.5329201221466064 0.0 -0.0438116081058979 -0.06402372568845749 0.10233212262392044 -0.0 -0.0 1 True True
430.47299999999996 4.674540042877197 -1.61710848430776 1.9438994566546839 -1.8976179562010707 -1.570801083241598 1.5329066514968872 0.0 -0.03040752373635769 -0.048978086560964584 0.07576916366815567 -0.0 -0.0 1 True True
430.493 4.67452335357666 -1.6175586185851039 1.9431975523578089 -1.8963762722411097 -1.5707805792437952 1.5329201221466064 0.0 -0.019465254619717598 -0.028627485036849976 0.05286223441362381 -0.0 -0.0 1 True True
430.513 4.674506187438965 -1.617803236047262 1.9427788893329065 -1.8957306347289027 -1.570772949849264 1.5329155921936035 0.0 -0.00685498071834445 -0.011801970191299915 0.02377682365477085 -0.0 -0.0 1 True True
430.53299999999996 4.674544334411621 -1.617742200891012 1.942770783101217 -1.8956033192076625 -1.5707724730121058 1.5329275131225586 -0.015699926763772964 0.005106952507048845 -0.0004277897533029318 -0.008491294458508492 -0.0 -0.0 1 True True
430.553 4.674050331115723 -1.6176029644408167 1.9426401297198694 -1.8956157169737757 -1.570784870778219 1.5329667329788208 -0.037477780133485794 0.014237322844564915 -0.016373291611671448 0.0012152427807450294 -0.0 -0.0 1 True True
430.573 4.673130989074707 -1.6173669300475062 1.9421237150775355 -1.8955432377257289 -1.5707686583148401 1.5329487323760986 -0.062459539622068405 0.01618587225675583 -0.028701290488243103 0.005098100285977125 -0.0 -0.0 1 True True
430.59299999999996 4.671605110168457 -1.6169020138182582 1.9415019194232386 -1.8953434429564417 -1.5707967917071741 1.5329487323760986 -0.08970139920711517 0.025988051667809486 -0.03549011051654816 0.012724904343485832 -0.0 -3.763210898455327e-08 1 True True
430.613 4.669462203979492 -1.6163107357420863 1.9407032171832483 -1.8950993023314417 -1.5707972685443323 1.5329275131225586 -0.12080705165863037 0.03666488826274872 -0.04546000808477402 0.010968171991407871 -0.0 0.0005152598023414612 1 True True
430.633 4.666684627532959 -1.6155015430846156 1.9396498839007776 -1.8949533901610316 -1.570772949849264 1.532942533493042 -0.14666131138801575 0.04685699939727783 -0.05741843953728676 0.008846965618431568 -0.0 0.0010485686361789703 1 True True
430.65299999999996 4.663516044616699 -1.614575525323385 1.9382990042315882 -1.894724031487936 -1.5708254019366663 1.532963514328003 -0.17293964326381683 0.05382638797163963 -0.06901346147060394 0.010459689423441887 -0.0 0.0019066283712163568 1 True True
430.673 4.659692764282227 -1.61332430462026 1.9369466940509241 -1.8944851360716761 -1.5707925001727503 1.5329996347427368 -0.20674529671669006 0.06501603126525879 -0.07280842959880829 0.01363744679838419 -0.0 0.0022838274016976357 1 True True
430.693 4.655303955078125 -1.6119677029051722 1.9354217688189905 -1.8941418133177699 -1.5707967917071741 1.5330445766448975 -0.23142936825752258 0.073796845972538 -0.08413629978895187 0.013410842977464199 -0.0 0.002282459056004882 1 True True
430.71299999999997 4.650412559509277 -1.6104699573912562 1.9335559050189417 -1.89384188274526 -1.570801083241598 1.5331130027770996 -0.2586827874183655 0.08304715156555176 -0.10373939573764801 0.014296810142695904 -0.0 0.00235726241953671 1 True True
430.733 4.644837379455566 -1.6087738476195277 1.9313915411578577 -1.89349426845693 -1.570801083241598 1.5331565141677856 -0.2849849760532379 0.09344054013490677 -0.11260057240724564 0.018401222303509712 -0.0 0.0023879234213382006 1 True True
430.753 4.6387834548950195 -1.606875558892721 1.9290240446673792 -1.8931037388243617 -1.5707605520831507 1.533225655555725 -0.3115290105342865 0.1010533794760704 -0.11578129231929779 0.022930726408958435 -0.00037212876486591995 0.0023336908780038357 1 True True
430.77299999999997 4.632316589355469 -1.6047922573485316 1.9266861120807093 -1.892569204370016 -1.5707886854754847 1.5332016944885254 -0.3406185805797577 0.10605183243751526 -0.1277129054069519 0.02528371475636959 3.599983028834686e-05 0.003184183966368437 1 True True
430.793 4.625223159790039 -1.6025287113585414 1.9238794485675257 -1.8921338520445765 -1.570756737385885 1.5333362817764282 -0.37227365374565125 0.11369059234857559 -0.14550460875034332 0.02091393433511257 -5.403153863881016e-06 0.002495551249012351 1 True True
430.813 4.617491722106934 -1.6002217731871546 1.9209402243243616 -1.8916627369322718 -1.5707925001727503 1.533334493637085 -0.39977404475212097 0.12037774920463562 -0.14968138933181763 0.029810074716806412 -1.604245165529039e-13 0.0027551334351301193 1 True True
430.83299999999997 4.609158515930176 -1.5975352726378382 1.9178507963763636 -1.8909317455687464 -1.5708006064044397 1.5334396362304688 -0.42645859718322754 0.13462397456169128 -0.16033929586410522 0.02980704791843891 -4.763149516840768e-21 0.0036813204642385244 1 True True
430.853 4.600396156311035 -1.5948158703246058 1.9145076910602015 -1.8904181919493617 -1.5708168188678187 1.5335068702697754 -0.45050573348999023 0.1363823413848877 -0.16571739315986633 0.027300437912344933 -1.4142221544844567e-28 0.0035416767932474613 1 True True
430.873 4.5910725593566895 -1.5920411549010218 1.91079026857485 -1.889759202996725 -1.5707324186908167 1.5336205959320068 -0.4856499433517456 0.14866875112056732 -0.18449349701404572 0.034198157489299774 -4.1989531366050424e-36 0.0036554383113980293 1 True True
430.893 4.581010818481445 -1.5888978443541468 1.907015625630514 -1.8890606365599574 -1.5707805792437952 1.5337086915969849 -0.5113306045532227 0.1535152643918991 -0.18943794071674347 0.03312588855624199 -1.2471556332490872e-43 0.0038852838333696127 1 True True
430.91299999999995 4.57053279876709 -1.5857130489745082 1.9031265417682093 -1.8882338009276332 -1.570813004170553 1.5337673425674438 -0.5335325598716736 0.16448263823986053 -0.2053970843553543 0.04047834873199463 -0.00042131225927732885 0.004496335983276367 1 True True
430.933 4.559732913970947 -1.5823117695250453 1.8990419546710413 -1.8874713383116664 -1.5707929770099085 1.5337822437286377 -0.5706852674484253 0.1727401614189148 -0.2104458212852478 0.04069044068455696 0.00040177724440582097 0.003539524506777525 1 True True
430.953 4.547792434692383 -1.5787002048888148 1.8946602980243128 -1.886641641656393 -1.570801083241598 1.5338692665100098 -0.5949211716651917 0.1849873960018158 -0.2254635989665985 0.037040598690509796 0.00017820981156546623 0.0048998878337442875 1 True True
430.97299999999996 4.535666465759277 -1.5749598942198695 1.8900459448443812 -1.8858996830382289 -1.5707925001727503 1.5340021848678589 -0.6181255578994751 0.1925297975540161 -0.23972883820533752 0.045121945440769196 -0.0001676680549280718 0.005536750890314579 1 True True
430.993 4.523101806640625 -1.5710164509215296 1.88525897661318 -1.8850537739195765 -1.5707772413836878 1.534089207649231 -0.6500161290168762 0.20211783051490784 -0.24520009756088257 0.04160400852560997 -1.9136775497585745e-10 0.004861933179199696 1 True True
431.013 4.509613513946533 -1.5668413031711061 1.8800810019122522 -1.8840676746764125 -1.5708325544940394 1.5341565608978271 -0.6790968179702759 0.21229873597621918 -0.2523726522922516 0.04488653317093849 -0.0018188755493611097 0.004927007481455803 1 True True
431.03299999999996 4.495962142944336 -1.5625922663933416 1.8747466246234339 -1.8830725155272425 -1.5708048979388636 1.534298300743103 -0.7018284797668457 0.2128506898880005 -0.26807427406311035 0.052860721945762634 0.0002303308283444494 0.006054712925106287 1 True True
431.053 4.481487274169922 -1.5581092194518824 1.8694284597979944 -1.8820673427977503 -1.570801083241598 1.5343767404556274 -0.7338523268699646 0.22601979970932007 -0.28023967146873474 0.05537833273410797 0.00046319406828843057 0.005746110342442989 1 True True
431.073 4.466419696807861 -1.5535032239607354 1.863730255757467 -1.880984445611471 -1.5708730856524866 1.5344828367233276 -0.7620991468429565 0.23559874296188354 -0.2916557490825653 0.053159672766923904 -0.0012098263250663877 0.0051888045854866505 1 True True
431.09299999999996 4.4510674476623535 -1.548855322679021 1.8578923384295862 -1.879864355126852 -1.570756737385885 1.5346324443817139 -0.7854651212692261 0.24204546213150024 -0.2993510663509369 0.054804619401693344 0.001077373861335218 0.0070981779135763645 1 True True
431.113 4.434869766235352 -1.5438206245056172 1.8516853491412562 -1.8787461719908656 -1.570881191884176 1.534731388092041 -0.8252459764480591 0.25721415877342224 -0.30265146493911743 0.05150703340768814 -0.0016454745782539248 0.005641362629830837 1 True True
431.133 4.4181904792785645 -1.5386594471386452 1.8453477064715784 -1.8776599369444789 -1.5708211104022425 1.5348421335220337 -0.8382436633110046 0.2632162272930145 -0.31392133235931396 0.061695218086242676 -1.567122875911764e-09 0.00665758503600955 1 True True
431.15299999999996 4.401134014129639 -1.5332448084703465 1.8389180342303675 -1.8764473400511683 -1.5707648436175745 1.5350289344787598 -0.8751503229141235 0.2685506343841553 -0.32812872529029846 0.05958988517522812 2.5636214218138775e-07 0.005821609869599342 1 True True
431.173 4.3832478523254395 -1.5276488003185769 1.8322880903827112 -1.8752266369261683 -1.570813004170553 1.5351158380508423 -0.8973109722137451 0.2753375470638275 -0.3415214717388153 0.06590297073125839 -0.0005572620430029929 0.007707771845161915 1 True True
431.193 4.365007400512695 -1.522056707446911 1.8253639380084437 -1.8738509617247523 -1.5707686583148401 1.53524911403656 -0.930871844291687 0.27937301993370056 -0.35331159830093384 0.07715310156345367 -0.00027263720403425395 0.007705414667725563 1 True True
431.21299999999997 4.346192359924316 -1.5163297739676018 1.8180397192584437 -1.8724872074522914 -1.5707443396197718 1.5354479551315308 -0.9572859406471252 0.2967543601989746 -0.3579089343547821 0.06359498202800751 4.217871264700079e-06 0.008169597014784813 1 True True
431.233 4.326683521270752 -1.5103988175145169 1.8106425444232386 -1.871282239953512 -1.5707724730121058 1.5356111526489258 -0.9829012155532837 0.3060891628265381 -0.36941567063331604 0.06775932759046555 1.252323711311426e-13 0.008682634681463242 1 True True
431.253 4.306735038757324 -1.5041344326785584 1.8029540220843714 -1.8699313602843226 -1.5708048979388636 1.535722017288208 -1.0150700807571411 0.31556978821754456 -0.3751165270805359 0.07396259903907776 -0.00015347878797911108 0.00708446279168129 1 True True
431.27299999999997 4.286099433898926 -1.4976747420481225 1.7954495588885706 -1.8684078655638636 -1.570784870778219 1.5359269380569458 -1.0404621362686157 0.32153618335723877 -0.3896176218986511 0.0708935484290123 1.8268494841322536e-06 0.007810844108462334 1 True True
431.293 4.265169620513916 -1.4912695449641724 1.7875216642962855 -1.8668810329832972 -1.5707686583148401 1.5360691547393799 -1.0439025163650513 0.3234955370426178 -0.396994411945343 0.0755821019411087 -5.5505201999039855e-06 0.008228737860918045 1 True True
431.313 4.244313716888428 -1.484922894542553 1.7794016043292444 -1.8655063114561976 -1.5708168188678187 1.5361759662628174 -1.0475627183914185 0.32071661949157715 -0.40739116072654724 0.06363317370414734 -1.647998957351321e-13 0.007562869228422642 1 True True
431.33299999999997 4.223332405090332 -1.4784665045193215 1.771463696156637 -1.8640710316100062 -1.5708044211017054 1.5363476276397705 -1.0457241535186768 0.327165424823761 -0.39919930696487427 0.0710761770606041 6.093595402489882e-06 0.0071579464711248875 1 True True
431.353 4.202362537384033 -1.4718574819019814 1.763669792805807 -1.86248840908193 -1.570813004170553 1.5365735292434692 -1.0440950393676758 0.3247630298137665 -0.3963669538497925 0.07658983767032623 -3.590305595935206e-06 0.008169674314558506 1 True True
431.373 4.181545734405518 -1.4652060058764 1.7558286825763147 -1.861009260217184 -1.5708044211017054 1.5367214679718018 -1.05095636844635 0.32371193170547485 -0.3932315707206726 0.07477615028619766 -0.00010017777822213247 0.0077474541030824184 1 True True
431.393 4.160534381866455 -1.4588998717120667 1.747723404561178 -1.8596021137633265 -1.5708254019366663 1.5368475914001465 -1.0471471548080444 0.31810247898101807 -0.4003574550151825 0.07802427560091019 0.00024346834106836468 0.0075346180237829685 1 True True
431.41299999999995 4.139547348022461 -1.4526092943600197 1.7397635618792933 -1.8580590687193812 -1.5707967917071741 1.5370076894760132 -1.0411771535873413 0.32390284538269043 -0.3936634659767151 0.07191164791584015 2.6267481523234437e-09 0.009205742739140987 1 True True
431.433 4.118677139282227 -1.4459751856378098 1.7319696585284632 -1.8566833935179652 -1.5708449522601526 1.5371750593185425 -1.0517770051956177 0.328470915555954 -0.39909136295318604 0.07460805028676987 7.79904924439907e-17 0.00770213920623064 1 True True
431.453 4.097550392150879 -1.4394843888333817 1.7238839308368128 -1.8552962742247523 -1.5707805792437952 1.5373353958129883 -1.0479896068572998 0.3265412449836731 -0.40102750062942505 0.06641116738319397 2.3156069183981062e-24 0.008402311243116856 1 True True
431.47299999999996 4.07668924331665 -1.4330029052546998 1.7159245649920862 -1.8537851772704066 -1.570784870778219 1.5374987125396729 -1.0434616804122925 0.31816932559013367 -0.4013567864894867 0.08012152463197708 6.87524605276878e-32 0.00919393077492714 1 True True
431.493 4.05588960647583 -1.4265826654485245 1.7080877462970179 -1.8521672687926234 -1.5707686583148401 1.5376172065734863 -1.050514578819275 0.3215962052345276 -0.39867597818374634 0.07996676117181778 -7.039656338747591e-05 0.008564405143260956 1 True True
431.513 4.034787654876709 -1.4201423090747376 1.7002852598773401 -1.8507963619627894 -1.570756737385885 1.5378143787384033 -1.0463800430297852 0.3255065381526947 -0.3912143111228943 0.07124140858650208 0.00028004165505990386 0.007999399676918983 1 True True
431.53299999999996 4.0138258934021 -1.4136819255403061 1.6921704451190394 -1.8493372402586878 -1.5707925001727503 1.5379359722137451 -1.0440858602523804 0.3229162395000458 -0.3945517838001251 0.0742703229188919 0.000505166535731405 0.00798969715833664 1 True True
431.553 3.9930014610290527 -1.4071117800525208 1.6840255896197718 -1.8480774364867152 -1.570813004170553 1.538104772567749 -1.0507450103759766 0.3233824670314789 -0.39950132369995117 0.07220692932605743 8.284676732728258e-05 0.008386503905057907 1 True True
431.573 3.971958637237549 -1.400563271050789 1.6762502829181116 -1.8463713131346644 -1.5708487669574183 1.5382766723632812 -1.0429104566574097 0.324506938457489 -0.39645883440971375 0.07694606482982635 6.696041236864403e-05 0.008604932576417923 1 True True
431.59299999999996 3.9510953426361084 -1.3942100566676636 1.6685288588153284 -1.8447605572142542 -1.5707686583148401 1.5384652614593506 -1.0438109636306763 0.3213365375995636 -0.39797574281692505 0.06982475519180298 1.014885883665606e-10 0.007800189778208733 1 True True
431.613 3.930222988128662 -1.387737513785698 1.6604045073138636 -1.8435646496214808 -1.5708254019366663 1.5385596752166748 -1.0536370277404785 0.3255671262741089 -0.40081846714019775 0.06549827009439468 3.013287656608437e-18 0.008064022287726402 1 True True
431.633 3.9090938568115234 -1.3813607853702088 1.6522424856769007 -1.8420850239195765 -1.5708416144000452 1.538759708404541 -1.0481550693511963 0.32227087020874023 -0.40219515562057495 0.07693705707788467 4.4060976506443694e-05 0.00736846262589097 1 True True
431.65299999999996 3.888223171234131 -1.3747146290591736 1.6445077101336878 -1.840527673760885 -1.5707686583148401 1.5389811992645264 -1.0426795482635498 0.3253774344921112 -0.38505101203918457 0.07957432419061661 5.439550546104677e-11 0.007937825284898281 1 True True
431.673 3.867332935333252 -1.3681150686791916 1.6367695967303675 -1.8389321766295375 -1.570768181477682 1.5391072034835815 -1.0535460710525513 0.32046157121658325 -0.38754376769065857 0.0773729532957077 6.918678991496563e-05 0.007029665634036064 1 True True
431.693 3.846280813217163 -1.3618835669806977 1.6285527388202112 -1.8375703297057093 -1.5707891623126429 1.5392184257507324 -1.0461540222167969 0.3194848895072937 -0.4025075137615204 0.06002753973007202 7.742171874269843e-05 0.007056753616780043 1 True True
431.71299999999997 3.8254146575927734 -1.3555534195951005 1.620547119771139 -1.8363248310484828 -1.5707686583148401 1.5394055843353271 -1.0431201457977295 0.3240661323070526 -0.40133026242256165 0.07628586888313293 9.837368270382285e-05 0.008322940208017826 1 True True
431.733 3.804454803466797 -1.3489205998233338 1.6127732435809534 -1.8347307644286097 -1.570813004170553 1.539546012878418 -1.0504742860794067 0.32985585927963257 -0.3975778818130493 0.06813029199838638 -2.115779170708265e-05 0.006677301600575447 1 True True
431.753 3.7835047245025635 -1.3421949607184906 1.604964558278219 -1.8331958256163539 -1.5707686583148401 1.539787769317627 -1.0448060035705566 0.32284975051879883 -0.3961096405982971 0.07939598709344864 -3.836651482624909e-11 0.009629876352846622 1 True True
