Andreas691667/Digital_Twin_UR/data_analysis/busters_stuff/old/case1_noblocks.csv
timestamp actual_q_0 actual_q_1 actual_q_2 actual_q_3 actual_q_4 actual_q_5 actual_qd_0 actual_qd_1 actual_qd_2 actual_qd_3 actual_qd_4 actual_qd_5 safety_status output_bit_register_65 output_bit_register_66
8365.258 3.712078809738159 -0.8255403202823182 0.8429563681231897 -1.5882889233031214 -1.5707967917071741 2.1412997245788574 0.0 0.0 0.0 -0.0 -0.0 0.0 1 False False
8365.278 3.712078809738159 -0.8255037826350708 0.8430083433734339 -1.5883013210692347 -1.570829216633932 2.141279697418213 0.0 0.0 0.0 -0.0 -0.0 0.0 1 False False
8365.297999999999 3.7120862007141113 -0.8254698079875489 0.8429964224444788 -1.5882932148375453 -1.5707686583148401 2.1413214206695557 0.0 0.0 0.0 -0.0 -0.0 0.0 1 False False
8365.318 3.712045669555664 -0.8254459065249939 0.842992130910055 -1.5882536373534144 -1.5707686583148401 2.141295909881592 0.0 0.0 0.0 -0.0 -0.0 0.0 1 False False
8365.338 3.7120697498321533 -0.8254546088031312 0.8430259863482874 -1.5882607899107875 -1.5707967917071741 2.14125919342041 0.0 0.0 0.0 -0.0 -0.0 0.0 1 False False
8365.358 3.712078809738159 -0.8254715961268921 0.8430083433734339 -1.5882650814452113 -1.5708368460284632 2.141317129135132 0.0 0.0 0.0 -0.0 -0.0 0.0 1 False False
8365.377999999999 3.712078809738159 -0.825512246494629 0.8429306189166468 -1.588313718835348 -1.570784870778219 2.1413044929504395 0.0 0.0 0.0 -0.0 -0.0 0.0 1 False False
8365.398 3.712095022201538 -0.8254912060550232 0.8430259863482874 -1.5883175335326136 -1.5708487669574183 2.141231060028076 0.0 0.0 0.0 -0.0 -0.0 0.0 1 False False
8365.418 3.7120742797851562 -0.8254993718913575 0.8429678122149866 -1.5882851086058558 -1.5707719961749476 2.1412298679351807 0.0 0.0 0.0 -0.0 -0.0 0.0 1 False False
8365.438 3.7120862007141113 -0.8254912060550232 0.8429759184466761 -1.5882288418211878 -1.570756737385885 2.1413002014160156 0.0 0.0 0.0 -0.0 -0.0 0.0 1 False False
8365.457999999999 3.7120578289031982 -0.825524167423584 0.8430169264422815 -1.588292738000387 -1.5707362333880823 2.1413002014160156 0.0 0.0 0.0 -0.0 -0.0 0.0 1 False False
8365.478 3.7120532989501953 -0.8255403798869629 0.8429845015155237 -1.5882851086058558 -1.5707810560809534 2.141279697418213 0.0 0.0 0.0 -0.0 -0.0 0.0 1 False False
8365.498 3.7120368480682373 -0.8254997295192261 0.8430169264422815 -1.5883013210692347 -1.5707934538470667 2.141295909881592 0.0 0.0 0.0 -0.0 -0.0 0.0 1 False False
8365.518 3.712062358856201 -0.825491265659668 0.8430169264422815 -1.588252683679098 -1.570801083241598 2.1412839889526367 0.0 0.0 0.0 -0.0 -0.0 0.0 1 False False
8365.538 3.712062358856201 -0.8254716557315369 0.8430050055133265 -1.5883094273009242 -1.5708168188678187 2.141279697418213 0.0 0.0 0.0 -0.0 -0.0 0.0 1 False False
8365.557999999999 3.7120532989501953 -0.8255165380290528 0.8429802099810999 -1.5882774792113246 -1.570756737385885 2.141275405883789 0.0 0.0 0.0 -0.0 -0.0 0.0 1 False False
8365.578 3.712095260620117 -0.8254993122867127 0.8430126349078577 -1.588320871392721 -1.5707810560809534 2.1412763595581055 0.0 0.0 0.0 -0.0 -0.0 0.0 1 False False
8365.598 3.712062358856201 -0.8255165976336976 0.8430007139789026 -1.588229318658346 -1.5707762877093714 2.141287088394165 0.0 0.0 0.0 -0.0 -0.0 0.0 1 False False
8365.618 3.712078809738159 -0.8254459661296387 0.8430169264422815 -1.588245531121725 -1.5707891623126429 2.141263484954834 0.0 0.0 0.0 -0.0 -0.0 0.0 1 False False
8365.637999999999 3.7120654582977295 -0.8254211705974122 0.8430092970477503 -1.588268896142477 -1.570801083241598 2.1413002014160156 0.0 0.0 0.0 -0.0 -0.0 0.0 1 False False
8365.658 3.7120862007141113 -0.8254708212665101 0.8430169264422815 -1.5883094273009242 -1.570857350026266 2.141251564025879 0.0 0.0 0.0 -0.0 -0.0 0.0 1 False False
8365.678 3.7120368480682373 -0.825458900337555 0.843029801045553 -1.5882612667479457 -1.5708335081683558 2.141287088394165 0.0 0.0 0.0 -0.0 -0.0 0.0 1 False False
8365.698 3.712066888809204 -0.8254501980594178 0.8430288473712366 -1.5882731876769007 -1.5708211104022425 2.1412839889526367 0.0 0.0 0.0 -0.0 -0.0 0.0 1 False False
8365.717999999999 3.7120742797851562 -0.8254740399173279 0.8430007139789026 -1.5882774792113246 -1.5707805792437952 2.141296863555908 0.0 0.0 0.0 -0.0 -0.0 0.0 1 False False
8365.738 3.7120535373687744 -0.825458900337555 0.8429845015155237 -1.588285585443014 -1.5707929770099085 2.141291618347168 0.0 0.0 0.0 -0.0 -0.0 0.0 1 False False
8365.758 3.7120578289031982 -0.8255123060992737 0.8429802099810999 -1.588297029534811 -1.5708335081683558 2.1412720680236816 0.0 0.0 0.0 -0.0 -0.0 0.0 1 False False
8365.778 3.712083339691162 -0.8254339855960389 0.8429563681231897 -1.5882817707457484 -1.5707886854754847 2.141279697418213 0.0 0.0 0.0 -0.0 -0.0 0.0 1 False False
8365.797999999999 3.712062358856201 -0.8254630726626893 0.8429845015155237 -1.5882774792113246 -1.5708296934710901 2.1413211822509766 0.0 0.0 0.0 -0.0 -0.0 0.0 1 False False
8365.818 3.712062358856201 -0.8254264754107972 0.8429477850543421 -1.588273664514059 -1.5708048979388636 2.141270875930786 0.0 0.0 0.0 -0.0 -0.0 0.0 1 False False
8365.838 3.7121236324310303 -0.8254146140864869 0.842992130910055 -1.5883013210692347 -1.570801083241598 2.1412580013275146 0.0 0.0 0.0 -0.0 -0.0 0.0 1 False False
8365.858 3.712041139602661 -0.8254708212665101 0.8429845015155237 -1.5883013210692347 -1.570801083241598 2.1412882804870605 0.0 0.0 0.0 -0.0 -0.0 0.0 1 False False
8365.877999999999 3.7120444774627686 -0.8254792851260682 0.8429434935199183 -1.588269372979635 -1.5708368460284632 2.1412665843963623 0.0 0.0 0.0 -0.0 -0.0 0.0 1 False False
8365.898 3.712062358856201 -0.8254663509181519 0.8430007139789026 -1.588273664514059 -1.5708168188678187 2.141284227371216 0.0 0.0 0.0 -0.0 -0.0 0.0 1 False False
8365.918 3.7120532989501953 -0.825512246494629 0.8429759184466761 -1.5882774792113246 -1.5708211104022425 2.141275405883789 0.0 0.0 0.0 -0.0 -0.0 0.0 1 False False
8365.938 3.712078809738159 -0.8254416149905701 0.8429887930499476 -1.588297029534811 -1.5708487669574183 2.1413300037384033 0.0 0.0 0.0 -0.0 -0.0 0.0 1 False False
8365.957999999999 3.7120277881622314 -0.8254869145205994 0.842992130910055 -1.5882774792113246 -1.5708087126361292 2.1412765979766846 0.0 0.0 0.0 -0.0 -0.0 0.0 1 False False
8365.978 3.712050199508667 -0.8254792851260682 0.8429802099810999 -1.5883051357665003 -1.5707605520831507 2.1413049697875977 0.0 0.0 0.0 -0.0 -0.0 0.0 1 False False
8365.998 3.712045669555664 -0.8254869741252442 0.8430169264422815 -1.588320871392721 -1.5708087126361292 2.141308546066284 0.0 0.0 0.0 -0.0 -0.0 0.0 1 False False
8366.018 3.712078809738159 -0.8255037826350708 0.8429759184466761 -1.5883132419981898 -1.5707929770099085 2.141270637512207 0.0 0.0 0.0 -0.0 -0.0 0.0 1 False False
8366.038 3.7120532989501953 -0.8254993718913575 0.8429549376117151 -1.5883008442320765 -1.5707324186908167 2.1412885189056396 0.0 0.0 0.0 -0.0 -0.0 0.0 1 False False
8366.057999999999 3.7120742797851562 -0.825487808590271 0.8429845015155237 -1.5882932148375453 -1.5708211104022425 2.1412513256073 0.0 0.0 0.0 -0.0 -0.0 0.0 1 False False
8366.078 3.7120532989501953 -0.8254546088031312 0.8429802099810999 -1.5882569752135218 -1.5708487669574183 2.141279697418213 0.0 0.0 0.0 -0.0 -0.0 0.0 1 False False
8366.098 3.712062358856201 -0.825512246494629 0.8430126349078577 -1.5883013210692347 -1.5708168188678187 2.141296148300171 0.0 0.0 0.0 -0.0 -0.0 0.0 1 False False
8366.118 3.712111473083496 -0.8254503172687073 0.8429353872882288 -1.5883246860899867 -1.5708254019366663 2.1412289142608643 0.0 0.0 0.0 -0.0 -0.0 0.0 1 False False
8366.137999999999 3.7120532989501953 -0.825487033729889 0.8430007139789026 -1.5883051357665003 -1.5708254019366663 2.141278028488159 0.0 0.0 0.0 -0.0 -0.0 0.0 1 False False
8366.158 3.712123394012451 -0.825478271847107 0.8429845015155237 -1.5882846317686976 -1.5708168188678187 2.141221523284912 0.0 0.0 0.0 -0.0 -0.0 0.0 1 False False
8366.178 3.7120578289031982 -0.8254912060550232 0.8429964224444788 -1.5882889233031214 -1.5707767645465296 2.14123797416687 0.0 0.0 0.0 -0.0 -0.0 0.0 1 False False
8366.198 3.7120907306671143 -0.8254502576640625 0.8429520765887659 -1.588269372979635 -1.5708001295672815 2.141267776489258 0.0 0.0 0.0 -0.0 -0.0 0.0 1 False False
8366.217999999999 3.712078809738159 -0.8254546088031312 0.8429434935199183 -1.5882617435851039 -1.5707972685443323 2.1412975788116455 0.0 0.0 0.0 -0.0 -0.0 0.0 1 False False
8366.238 3.712050199508667 -0.8254469794085999 0.8429563681231897 -1.588245531121725 -1.570784870778219 2.14131760597229 0.0 0.0 0.0 -0.0 -0.0 0.0 1 False False
8366.258 3.7120862007141113 -0.8254912060550232 0.8430050055133265 -1.588292738000387 -1.5708406607257288 2.141221523284912 0.0 0.0 0.0 -0.0 -0.0 0.0 1 False False
8366.278 3.7121071815490723 -0.8254546088031312 0.8429964224444788 -1.5882817707457484 -1.5707767645465296 2.141247034072876 0.0 0.0 0.0 -0.0 -0.0 0.0 1 False False
8366.297999999999 3.712095260620117 -0.8254546088031312 0.8429392019854944 -1.588332315484518 -1.5707805792437952 2.14135479927063 0.0 0.0 0.0 -0.0 -0.0 0.0 1 False False
8366.318 3.7120652198791504 -0.8255274456790467 0.8430212179767054 -1.5883094273009242 -1.570784870778219 2.1412723064422607 0.0 0.0 0.0 -0.0 -0.0 0.0 1 False False
8366.338 3.7120532989501953 -0.8254674238017579 0.8429759184466761 -1.5882889233031214 -1.570824925099508 2.141291618347168 0.0 0.0 0.0 -0.0 -0.0 0.0 1 False False
8366.358 3.7121357917785645 -0.8254993718913575 0.8430050055133265 -1.5882493458189906 -1.5707491079913538 2.141284227371216 0.0 0.0 0.0 -0.0 -0.0 0.0 1 False False
8366.377999999999 3.7120742797851562 -0.8254546088031312 0.8429964224444788 -1.5882655582823695 -1.5707767645465296 2.141291618347168 0.0 0.0 0.0 -0.0 -0.0 0.0 1 False False
8366.398 3.7121145725250244 -0.8254708212665101 0.8429887930499476 -1.588269372979635 -1.5708006064044397 2.141254186630249 0.0 0.0 0.0 -0.0 -0.0 0.0 1 False False
8366.418 3.7120249271392822 -0.8254223626903077 0.8429520765887659 -1.5882412395873011 -1.5707929770099085 2.14131760597229 0.0 0.0 0.0 -0.0 -0.0 0.0 1 False False
8366.438 3.7120742797851562 -0.8254707616618653 0.842959229146139 -1.5882774792113246 -1.5707529226886194 2.141282558441162 0.0 0.0 0.0 -0.0 -0.0 0.0 1 False False
8366.457999999999 3.712083339691162 -0.8254501980594178 0.8430212179767054 -1.5882569752135218 -1.570772949849264 2.141284227371216 0.0 0.0 0.0 -0.0 -0.0 0.0 1 False False
8366.478 3.7120532989501953 -0.8255081933787842 0.8429678122149866 -1.5882889233031214 -1.5707929770099085 2.141270637512207 0.0 0.0 0.0 -0.0 -0.0 0.0 1 False False
8366.498 3.712083339691162 -0.8254825633815308 0.8429759184466761 -1.5882607899107875 -1.5708206335650843 2.141291618347168 0.0 0.0 0.0 -0.0 -0.0 0.0 1 False False
8366.518 3.7120862007141113 -0.8254954379848023 0.8429806868182581 -1.5883251629271449 -1.570784870778219 2.141313076019287 0.0 0.0 0.0 -0.0 -0.0 0.0 1 False False
8366.538 3.712036609649658 -0.825438455944397 0.8430536429034632 -1.5882092914977015 -1.570784870778219 2.141329526901245 0.0 0.0 0.0 -0.0 -0.0 0.0 1 False False
8366.557999999999 3.712111473083496 -0.825438455944397 0.8429392019854944 -1.5882774792113246 -1.570784870778219 2.1413590908050537 0.0 0.0 0.0 -0.0 -0.0 0.0 1 False False
8366.578 3.712095260620117 -0.8254546684077759 0.8430050055133265 -1.5883170566954554 -1.5707767645465296 2.141247034072876 0.0 0.0 0.0 -0.0 -0.0 0.0 1 False False
8366.598 3.712036609649658 -0.8254708212665101 0.8429678122149866 -1.5882731876769007 -1.5707648436175745 2.141296148300171 0.0 0.0 0.0 -0.0 -0.0 0.0 1 False False
8366.618 3.712078809738159 -0.825458900337555 0.8430245558368128 -1.588297029534811 -1.5708211104022425 2.141230583190918 0.0 0.0 0.0 -0.0 -0.0 0.0 1 False False
8366.637999999999 3.7120742797851562 -0.8254469794085999 0.8430083433734339 -1.5882846317686976 -1.5707886854754847 2.141308546066284 0.0 0.0 0.0 -0.0 -0.0 0.0 1 False False
8366.658 3.7120862007141113 -0.8254740399173279 0.8429845015155237 -1.5882731876769007 -1.570813004170553 2.141321897506714 0.0 0.0 0.0 -0.0 -0.0 0.0 1 False False
8366.678 3.712066888809204 -0.8254546088031312 0.8430216948138636 -1.5882650814452113 -1.5707929770099085 2.1413092613220215 0.0 0.0 0.0 -0.0 -0.0 0.0 1 False False
8366.698 3.712092161178589 -0.8255112928203125 0.8429515997516077 -1.5882774792113246 -1.5707529226886194 2.141247034072876 0.0 0.0 0.0 -0.0 -0.0 0.0 1 False False
8366.717999999999 3.712144613265991 -0.825482503776886 0.8429649511920374 -1.5883165798582972 -1.5708006064044397 2.141263246536255 0.0 0.0 0.0 -0.0 -0.0 0.0 1 False False
8366.738 3.7120652198791504 -0.8254750531962891 0.8429964224444788 -1.5882650814452113 -1.5707648436175745 2.1412513256073 0.0 0.0 0.0 -0.0 -0.0 0.0 1 False False
8366.758 3.7120249271392822 -0.8254546684077759 0.8429978529559534 -1.588245531121725 -1.5707648436175745 2.1413004398345947 0.0 0.0 0.0 -0.0 -0.0 0.0 1 False False
8366.778 3.7120490074157715 -0.8255360883525391 0.8429892698871058 -1.5883375606932582 -1.570784870778219 2.141291618347168 0.0 0.0 0.0 -0.0 -0.0 0.0 1 False False
8366.797999999999 3.7120742797851562 -0.8254501980594178 0.8430545965777796 -1.5882650814452113 -1.5707691351519983 2.141287088394165 0.0 0.0 0.0 -0.0 -0.0 0.0 1 False False
8366.818 3.71209979057312 -0.8254825633815308 0.8429473082171839 -1.5882898769774378 -1.5707529226886194 2.141267776489258 0.0 0.0 0.0 -0.0 -0.0 0.0 1 False False
8366.838 3.712066888809204 -0.8254825633815308 0.8430216948138636 -1.5883094273009242 -1.5707886854754847 2.1413204669952393 0.0 0.0 0.0 -0.0 -0.0 0.0 1 False False
8366.858 3.712083339691162 -0.825458900337555 0.8429563681231897 -1.588313718835348 -1.5708048979388636 2.1413414478302 0.0 0.0 0.0 -0.0 -0.0 0.0 1 False False
8366.877999999999 3.7121026515960693 -0.8254912060550232 0.8429964224444788 -1.588297029534811 -1.570801083241598 2.141254186630249 0.0 0.0 0.0 -0.0 -0.0 0.0 1 False False
8366.898 3.7120532989501953 -0.825524167423584 0.8430007139789026 -1.5882607899107875 -1.5707810560809534 2.141267776489258 0.0 0.0 0.0 -0.0 -0.0 0.0 1 False False
8366.918 3.7120862007141113 -0.8255326908877869 0.8429763952838343 -1.5882569752135218 -1.5707691351519983 2.141267776489258 0.0 0.0 0.0 -0.0 -0.0 0.0 1 False False
8366.938 3.712062358856201 -0.8255039614490052 0.8429349104510706 -1.588297029534811 -1.570813004170553 2.141233444213867 0.0 0.0 0.0 -0.0 -0.0 0.0 1 False False
8366.957999999999 3.71209979057312 -0.8255284589580079 0.8430293242083948 -1.5882774792113246 -1.5708125273333948 2.14131760597229 0.0 0.0 0.0 -0.0 -0.0 0.0 1 False False
8366.978 3.7121026515960693 -0.8254913848689576 0.8430126349078577 -1.5882731876769007 -1.570836369191305 2.141233444213867 0.0 0.0 0.0 -0.0 -0.0 0.0 1 False False
8366.998 3.7120652198791504 -0.8255202931216736 0.8430174032794397 -1.5882932148375453 -1.5708125273333948 2.1413004398345947 0.0 0.0 0.0 -0.0 -0.0 0.0 1 False False
8367.018 3.7121100425720215 -0.8255157035640259 0.8429678122149866 -1.588280817071432 -1.5707691351519983 2.141308546066284 0.0 0.0 0.0 -0.0 -0.0 0.0 1 False False
8367.038 3.7120742797851562 -0.825466052894928 0.8430174032794397 -1.5883294544615687 -1.570784870778219 2.141286849975586 0.0 0.0 0.0 -0.0 -0.0 0.0 1 False False
8367.057999999999 3.7120697498321533 -0.8254779738238831 0.8429845015155237 -1.5882731876769007 -1.570784870778219 2.141313076019287 0.0 0.0 0.0 -0.0 -0.0 0.0 1 False False
8367.078 3.7120697498321533 -0.8255290550044556 0.8429587523089808 -1.5882731876769007 -1.5708006064044397 2.141296148300171 0.0 0.0 0.0 -0.0 -0.0 0.0 1 False False
8367.098 3.712050199508667 -0.8254869145205994 0.8429678122149866 -1.5883375606932582 -1.5708087126361292 2.141258955001831 0.0 0.0 0.0 -0.0 -0.0 0.0 1 False False
8367.118 3.7120742797851562 -0.825437919502594 0.8429630438434046 -1.5883251629271449 -1.5707767645465296 2.1413071155548096 0.0 0.0 0.0 -0.0 -0.0 0.0 1 False False
8367.137999999999 3.7120816707611084 -0.825533465748169 0.8429964224444788 -1.5882569752135218 -1.5708087126361292 2.141270637512207 0.0 0.0 0.0 -0.0 -0.0 0.0 1 False False
8367.158 3.7120652198791504 -0.825470582847931 0.8430336157428187 -1.5883375606932582 -1.5707686583148401 2.141258955001831 0.0 0.0 0.0 -0.0 -0.0 0.0 1 False False
8367.178 3.7121026515960693 -0.8254869741252442 0.8429802099810999 -1.5882731876769007 -1.570784870778219 2.141270637512207 0.0 0.0 0.0 -0.0 -0.0 0.0 1 False False
8367.198 3.7120728492736816 -0.8255171340755005 0.8430126349078577 -1.5882650814452113 -1.5708254019366663 2.141279697418213 0.0 0.0 0.0 -0.0 -0.0 0.0 1 False False
8367.217999999999 3.7120907306671143 -0.8255127233317872 0.8429673353778284 -1.5883013210692347 -1.5707767645465296 2.141242504119873 0.0 0.0 0.0 -0.0 -0.0 0.0 1 False False
8367.238 3.712078809738159 -0.8254587215236207 0.8429306189166468 -1.5882932148375453 -1.5707967917071741 2.141284227371216 0.0 0.0 0.0 -0.0 -0.0 0.0 1 False False
8367.258 3.7120532989501953 -0.8255039614490052 0.8429802099810999 -1.5882331333556117 -1.5707767645465296 2.1413204669952393 0.0 0.0 0.0 -0.0 -0.0 0.0 1 False False
8367.278 3.7120771408081055 -0.8254750531962891 0.8429892698871058 -1.5882851086058558 -1.5708044211017054 2.141282558441162 0.0 0.0 0.0 -0.0 -0.0 0.0 1 False False
8367.297999999999 3.712127923965454 -0.8254497212222596 0.8429845015155237 -1.5882579288878382 -1.570829216633932 2.141329526901245 0.0 0.0 0.0 -0.0 -0.0 0.0 1 False False
8367.318 3.7120697498321533 -0.8254706424525757 0.8429673353778284 -1.5882650814452113 -1.5707805792437952 2.1413004398345947 0.0 0.0 0.0 -0.0 -0.0 0.0 1 False False
8367.338 3.7120907306671143 -0.8254617017558594 0.8429539839373987 -1.5882536373534144 -1.5707686583148401 2.141258955001831 0.0 0.0 0.0 -0.0 -0.0 0.0 1 False False
8367.358 3.7120907306671143 -0.8254587215236207 0.8429845015155237 -1.5882607899107875 -1.5707648436175745 2.141193389892578 0.0 0.0 0.0 -0.0 -0.0 0.0 1 False False
8367.377999999999 3.712132453918457 -0.8255112928203125 0.8430216948138636 -1.5882569752135218 -1.570801083241598 2.1413049697875977 0.0 0.0 0.0 -0.0 -0.0 0.0 1 False False
8367.398 3.7120981216430664 -0.8254750531962891 0.8429721037494105 -1.5882774792113246 -1.5708211104022425 2.14127516746521 0.0 0.0 0.0 -0.0 -0.0 0.0 1 False False
8367.418 3.7121024131774902 -0.8255573672107239 0.8429845015155237 -1.588297029534811 -1.5708087126361292 2.141333818435669 0.0 0.0 0.0 -0.0 -0.0 0.0 1 False False
8367.438 3.7120907306671143 -0.8254497212222596 0.8430245558368128 -1.5882650814452113 -1.5707648436175745 2.1412839889526367 0.0 0.0 0.0 -0.0 -0.0 0.0 1 False False
8367.457999999999 3.7120742797851562 -0.8255453866771241 0.8430054823504847 -1.5882932148375453 -1.5708168188678187 2.1412558555603027 0.0 0.0 0.0 -0.0 -0.0 0.0 1 False False
8367.478 3.7121026515960693 -0.8254453104785462 0.8429630438434046 -1.5882817707457484 -1.5707767645465296 2.141279697418213 0.0 0.0 0.0 -0.0 -0.0 0.0 1 False False
8367.498 3.7120654582977295 -0.8254497212222596 0.8429892698871058 -1.5883013210692347 -1.5707405249225062 2.141242504119873 0.0 0.0 0.0 -0.0 -0.0 0.0 1 False False
8367.518 3.712045669555664 -0.8254957360080262 0.8430007139789026 -1.5882650814452113 -1.5708087126361292 2.141308546066284 0.0 0.0 0.0 -0.0 -0.0 0.0 1 False False
8367.538 3.712045669555664 -0.8255438369563599 0.8429630438434046 -1.5882774792113246 -1.570801083241598 2.1412885189056396 0.0 0.0 0.0 -0.0 -0.0 0.0 1 False False
8367.557999999999 3.7120535373687744 -0.8254587215236207 0.8429186979876917 -1.5883289776244105 -1.5708087126361292 2.141342878341675 0.0 0.0 0.0 -0.0 -0.0 0.0 1 False False
8367.578 3.7121026515960693 -0.8254497212222596 0.8429845015155237 -1.5882288418211878 -1.5707925001727503 2.141270637512207 0.0 0.0 0.0 -0.0 -0.0 0.0 1 False False
8367.598 3.7120578289031982 -0.8254869741252442 0.8429935614215296 -1.588297029534811 -1.5708087126361292 2.141313076019287 0.0 0.0 0.0 -0.0 -0.0 0.0 1 False False
8367.618 3.7120742797851562 -0.8254869741252442 0.8430097738849085 -1.588313718835348 -1.570824925099508 2.141291618347168 0.0 0.0 0.0 -0.0 -0.0 0.0 1 False False
8367.637999999999 3.712120294570923 -0.8254543107799073 0.8430383841144007 -1.5883094273009242 -1.5708091894732874 2.141226053237915 0.0 0.0 0.0 -0.0 -0.0 0.0 1 False False
8367.658 3.7120609283447266 -0.825527624492981 0.8429673353778284 -1.5882412395873011 -1.5707486311541956 2.141282558441162 0.0 0.0 0.0 -0.0 -0.0 0.0 1 False False
8367.678 3.7120535373687744 -0.8254838746837159 0.8429754416095179 -1.5883094273009242 -1.570784870778219 2.1413004398345947 0.0 0.0 0.0 -0.0 -0.0 0.0 1 False False
8367.698 3.712078809738159 -0.8254453104785462 0.8430174032794397 -1.5883056126036585 -1.5707486311541956 2.1412930488586426 0.0 0.0 0.0 -0.0 -0.0 0.0 1 False False
8367.717999999999 3.7120938301086426 -0.8254543107799073 0.8429802099810999 -1.5883013210692347 -1.5707967917071741 2.141295909881592 0.0 0.0 0.0 -0.0 -0.0 0.0 1 False False
8367.738 3.7120742797851562 -0.8255215448192139 0.8429845015155237 -1.5882331333556117 -1.5707724730121058 2.141321897506714 0.0 0.0 0.0 -0.0 -0.0 0.0 1 False False
8367.758 3.7120907306671143 -0.8254572314075013 0.8429763952838343 -1.5883013210692347 -1.570784870778219 2.141267776489258 0.0 0.0 0.0 -0.0 -0.0 0.0 1 False False
8367.778 3.712148904800415 -0.8255498570254822 0.8429630438434046 -1.5882612667479457 -1.5708373228656214 2.1412885189056396 0.0 0.0 0.0 -0.0 -0.0 0.0 1 False False
8367.797999999999 3.7120590209960938 -0.8254217070392151 0.8429892698871058 -1.5882374248900355 -1.5708168188678187 2.1413087844848633 0.0 0.0 0.0 -0.0 -0.0 0.0 1 False False
8367.818 3.7121145725250244 -0.8254794043353577 0.8429630438434046 -1.5882731876769007 -1.5707805792437952 2.141226053237915 0.0 0.0 0.0 -0.0 -0.0 0.0 1 False False
8367.838 3.7120535373687744 -0.8255202335170289 0.8430126349078577 -1.588297029534811 -1.5707486311541956 2.141270637512207 0.0 0.0 0.0 -0.0 -0.0 0.0 1 False False
8367.858 3.71207857131958 -0.8254468601993104 0.8429673353778284 -1.5883094273009242 -1.5708168188678187 2.1412975788116455 0.0 0.0 0.0 -0.0 -0.0 0.0 1 False False
8367.877999999999 3.712050199508667 -0.8255156439593812 0.8429630438434046 -1.5882569752135218 -1.570784870778219 2.14131760597229 0.0 0.0 0.0 -0.0 -0.0 0.0 1 False False
8367.898 3.7120535373687744 -0.8254823845675965 0.8430054823504847 -1.5882650814452113 -1.5707767645465296 2.141266107559204 0.0 0.0 0.0 -0.0 -0.0 0.0 1 False False
8367.918 3.712062358856201 -0.8255045574954529 0.8430007139789026 -1.588320871392721 -1.5707805792437952 2.141258955001831 0.0 0.0 0.0 -0.0 -0.0 0.0 1 False False
8367.938 3.7120699882507324 -0.8254261177829285 0.8429587523089808 -1.5882288418211878 -1.5708211104022425 2.141230583190918 0.0 0.0 0.0 -0.0 -0.0 0.0 1 False False
8367.957999999999 3.7120447158813477 -0.8254334491542359 0.8429630438434046 -1.5882765255370082 -1.570784870778219 2.141270637512207 0.0 0.0 0.0 -0.0 -0.0 0.0 1 False False
8367.978 3.7120862007141113 -0.8255202931216736 0.8429673353778284 -1.5882932148375453 -1.5707967917071741 2.141313076019287 0.0 0.0 0.0 -0.0 -0.0 0.0 1 False False
8367.998 3.712062358856201 -0.8254993718913575 0.8430007139789026 -1.588269372979635 -1.570801083241598 2.1413004398345947 0.0 0.0 0.0 -0.0 -0.0 0.0 1 False False
8368.038 3.712139844894409 -0.8255202931216736 0.8429721037494105 -1.5883013210692347 -1.5708487669574183 2.141270637512207 0.0 0.0 0.0 -0.0 -0.0 0.0 1 False False
8368.078 3.7120535373687744 -0.825463132267334 0.8429811636554163 -1.5883294544615687 -1.570784870778219 2.1413004398345947 0.0 0.0 0.0 -0.0 -0.0 0.0 1 False False
8368.098 3.7119998931884766 -0.8254869741252442 0.8429935614215296 -1.588320871392721 -1.5708254019366663 2.141263246536255 0.0 0.0 0.0 -0.0 -0.0 0.0 1 False False
8368.118 3.7120492458343506 -0.8254572314075013 0.8429802099810999 -1.5882722340025843 -1.570801083241598 2.141291618347168 0.0 0.0 0.0 -0.0 -0.0 0.0 1 False False
8368.137999999999 3.7120742797851562 -0.8254707020572205 0.8429802099810999 -1.5882932148375453 -1.5707486311541956 2.141324996948242 0.0 0.0 0.0 -0.0 -0.0 0.0 1 False False
8368.158 3.7120492458343506 -0.825473503475525 0.8429892698871058 -1.5883056126036585 -1.570813004170553 2.141235113143921 0.0 0.0 0.0 -0.0 -0.0 0.0 1 False False
8368.178 3.712099313735962 -0.8254823845675965 0.8429964224444788 -1.5883094273009242 -1.570801083241598 2.141242504119873 0.0 0.0 0.0 -0.0 -0.0 0.0 1 False False
8368.198 3.712062358856201 -0.8254750531962891 0.8428929487811487 -1.5883127651610316 -1.5708168188678187 2.141279697418213 0.0 0.0 0.0 -0.0 -0.0 0.0 1 False False
8368.217999999999 3.712062358856201 -0.825533465748169 0.8429892698871058 -1.5882607899107875 -1.5708091894732874 2.1412994861602783 0.0 0.0 0.0 -0.0 -0.0 0.0 1 False False
8368.238 3.7120535373687744 -0.8255127233317872 0.8429845015155237 -1.5882817707457484 -1.5707925001727503 2.141296148300171 0.0 0.0 0.0 -0.0 -0.0 0.0 1 False False
8368.258 3.7120165824890137 -0.8254675430110474 0.8430007139789026 -1.5882774792113246 -1.5707891623126429 2.141267776489258 0.0 0.0 0.0 -0.0 -0.0 0.0 1 False False
8368.278 3.712095022201538 -0.8254719537547608 0.8429892698871058 -1.5882412395873011 -1.5707686583148401 2.141263246536255 0.0 0.0 0.0 -0.0 -0.0 0.0 1 False False
8368.297999999999 3.7120580673217773 -0.8254913848689576 0.8429673353778284 -1.588252683679098 -1.5707929770099085 2.141321897506714 0.0 0.0 0.0 -0.0 -0.0 0.0 1 False False
8368.318 3.7120742797851562 -0.8254423898509522 0.8429830710040491 -1.5882898769774378 -1.5708048979388636 2.141254186630249 0.0 0.0 0.0 -0.0 -0.0 0.0 1 False False
8368.338 3.7120580673217773 -0.8254913848689576 0.8430097738849085 -1.5882488689818324 -1.5708091894732874 2.1412513256073 0.0 0.0 0.0 -0.0 -0.0 0.0 1 False False
8368.358 3.712087392807007 -0.8254869741252442 0.8429630438434046 -1.588245531121725 -1.5708087126361292 2.141205072402954 0.0 0.0 0.0 -0.0 -0.0 0.0 1 False False
8368.377999999999 3.7120327949523926 -0.8254380387118836 0.8430412451373499 -1.5883056126036585 -1.5708335081683558 2.141205072402954 0.0 0.0 0.0 -0.0 -0.0 0.0 1 False False
8368.398 3.7121024131774902 -0.8254949611476441 0.8429144064532679 -1.5882889233031214 -1.5708087126361292 2.1413004398345947 0.0 0.0 0.0 -0.0 -0.0 0.0 1 False False
8368.418 3.7120862007141113 -0.8255039614490052 0.8429845015155237 -1.5882569752135218 -1.5708087126361292 2.141270637512207 0.0 0.0 0.0 -0.0 -0.0 0.0 1 False False
8368.438 3.712029457092285 -0.8254913252643128 0.8429678122149866 -1.588297029534811 -1.5708406607257288 2.1412885189056396 0.0 0.0 0.0 -0.0 -0.0 0.0 1 False False
8368.457999999999 3.712071180343628 -0.8254543107799073 0.8429678122149866 -1.5882250271239222 -1.5707929770099085 2.1412172317504883 0.0 0.0 0.0 -0.0 -0.0 0.0 1 False False
8368.478 3.7120981216430664 -0.8255083125880738 0.8429845015155237 -1.5882607899107875 -1.570801083241598 2.1413040161132812 0.0 0.0 0.0 -0.0 -0.0 0.0 1 False False
8368.498 3.712094783782959 -0.8254869741252442 0.8430174032794397 -1.5883332691588343 -1.5708211104022425 2.141308546066284 0.0 0.0 0.0 -0.0 -0.0 0.0 1 False False
8368.518 3.712062358856201 -0.8254646819880982 0.8429845015155237 -1.588269372979635 -1.5708373228656214 2.1412513256073 0.0 0.0 0.0 -0.0 -0.0 0.0 1 False False
8368.538 3.7120611667633057 -0.8254289788058777 0.842992130910055 -1.5882250271239222 -1.570813004170553 2.141230583190918 0.0 0.0 0.0 -0.0 -0.0 0.0 1 False False
8368.557999999999 3.7120492458343506 -0.8254333895495911 0.8429845015155237 -1.5882607899107875 -1.570784870778219 2.141258955001831 0.0 0.0 0.0 -0.0 -0.0 0.0 1 False False
8368.578 3.7120494842529297 -0.8254587811282654 0.8429678122149866 -1.588268896142477 -1.570756737385885 2.141296148300171 0.0 0.0 0.0 -0.0 -0.0 0.0 1 False False
8368.598 3.7120494842529297 -0.8254795235446473 0.8429763952838343 -1.5882774792113246 -1.5707724730121058 2.141291618347168 0.0 0.0 0.0 -0.0 -0.0 0.0 1 False False
8368.618 3.7120537757873535 -0.825463132267334 0.8430126349078577 -1.5882889233031214 -1.5707767645465296 2.141249895095825 0.0 0.0 0.0 -0.0 -0.0 0.0 1 False False
8368.637999999999 3.7120087146759033 -0.825442449455597 0.8430622259723108 -1.5883094273009242 -1.5707843939410608 2.141249895095825 0.0 0.0 0.0 -0.0 -0.0 0.0 1 False False
8368.658 3.7121036052703857 -0.8254869145205994 0.842971150075094 -1.5882932148375453 -1.5708168188678187 2.141230583190918 0.0 0.0 0.0 -0.0 -0.0 0.0 1 False False
8368.678 3.7120208740234375 -0.8254616421512146 0.8430169264422815 -1.5883175335326136 -1.570813004170553 2.1412765979766846 0.0 0.0 0.0 -0.0 -0.0 0.0 1 False False
8368.698 3.7120537757873535 -0.825463132267334 0.8429935614215296 -1.588297029534811 -1.5708254019366663 2.141267776489258 0.0 0.0 0.0 -0.0 -0.0 0.0 1 False False
8368.717999999999 3.7120580673217773 -0.8255246442607422 0.8430097738849085 -1.5882932148375453 -1.5708335081683558 2.141333818435669 0.0 0.0 0.0 -0.0 -0.0 0.0 1 False False
8368.738 3.712038278579712 -0.8254379791072388 0.8429964224444788 -1.588320871392721 -1.570756737385885 2.141284227371216 0.0 0.0 0.0 -0.0 -0.0 0.0 1 False False
8368.758 3.7120251655578613 -0.8255039614490052 0.8429630438434046 -1.588280817071432 -1.570801083241598 2.141326427459717 0.0 0.0 0.0 -0.0 -0.0 0.0 1 False False
8368.778 3.7120370864868164 -0.8254993718913575 0.8430216948138636 -1.5883056126036585 -1.5708492437945765 2.141329526901245 0.0 0.0 0.0 -0.0 -0.0 0.0 1 False False
8368.797999999999 3.712082862854004 -0.8254617017558594 0.8430054823504847 -1.5882774792113246 -1.5707805792437952 2.141247034072876 0.0 0.0 0.0 -0.0 -0.0 0.0 1 False False
8368.818 3.7120296955108643 -0.8254869741252442 0.8430498282061976 -1.5882889233031214 -1.5707686583148401 2.141254186630249 0.0 0.0 0.0 -0.0 -0.0 0.0 1 False False
8368.838 3.7120416164398193 -0.8254719537547608 0.8429845015155237 -1.5883094273009242 -1.5708168188678187 2.141284227371216 0.0 0.0 0.0 -0.0 -0.0 0.0 1 False False
8368.858 3.7120537757873535 -0.8255039614490052 0.8430169264422815 -1.5882765255370082 -1.5707648436175745 2.141279697418213 0.0 0.0 0.0 -0.0 -0.0 0.0 1 False False
8368.877999999999 3.7120862007141113 -0.8254957360080262 0.8429878393756312 -1.588297029534811 -1.5707767645465296 2.1412930488586426 0.0 0.0 0.0 -0.0 -0.0 0.0 1 True False
8368.898 3.712094783782959 -0.8254245084575196 0.8429845015155237 -1.588269372979635 -1.5708373228656214 2.141287088394165 0.0 0.0 0.0 -0.0 -0.0 0.0 1 True False
8368.918 3.712050199508667 -0.8255083721927186 0.8430126349078577 -1.5883094273009242 -1.5707767645465296 2.1412861347198486 0.0 0.0 0.0 -0.0 -0.0 0.0 1 True False
8368.938 3.712062358856201 -0.825466052894928 0.8429716269122522 -1.5882846317686976 -1.5707805792437952 2.141324996948242 0.0 0.0 0.0 -0.0 -0.0 0.0 1 True False
8368.957999999999 3.7121024131774902 -0.8254949611476441 0.842992130910055 -1.5882932148375453 -1.5708211104022425 2.1413159370422363 0.0 0.0 0.0 -0.0 -0.0 0.0 1 True False
8368.978 3.7120492458343506 -0.8254587811282654 0.8429802099810999 -1.588285585443014 -1.5707648436175745 2.14127516746521 0.0 0.0 0.0 -0.0 -0.0 0.0 1 True False
8368.998 3.7121024131774902 -0.8255290550044556 0.8429845015155237 -1.5883370838561 -1.5707925001727503 2.141282558441162 0.0 0.0 0.0 -0.0 -0.0 0.0 1 True False
8369.018 3.712094783782959 -0.8254543107799073 0.8429759184466761 -1.5882932148375453 -1.5708168188678187 2.14131760597229 0.0 0.0 0.0 -0.0 -0.0 0.0 1 True False
8369.038 3.7120656967163086 -0.8254543107799073 0.8429678122149866 -1.5883094273009242 -1.5708044211017054 2.141296148300171 0.0 0.0 0.0 -0.0 -0.0 0.0 1 True False
8369.057999999999 3.712045907974243 -0.8254913848689576 0.8429716269122522 -1.5883056126036585 -1.5708087126361292 2.141270637512207 0.0 0.0 0.0 -0.0 -0.0 0.0 1 True False
8369.078 3.7120699882507324 -0.8254913848689576 0.8429635206805628 -1.5882612667479457 -1.570784870778219 2.14127516746521 0.0 0.0 0.0 -0.0 -0.0 0.0 1 True False
8369.098 3.7120862007141113 -0.825466052894928 0.8429964224444788 -1.5882851086058558 -1.5707362333880823 2.141258716583252 0.0 0.0 0.0 -0.0 -0.0 0.0 1 True False
8369.118 3.712052583694458 -0.8255039614490052 0.8429964224444788 -1.5882817707457484 -1.5707929770099085 2.141254186630249 0.0 0.0 0.0 -0.0 -0.0 0.0 1 True False
8369.137999999999 3.7120492458343506 -0.8254779738238831 0.8429678122149866 -1.5883094273009242 -1.5708087126361292 2.141329526901245 0.0 0.0 0.0 -0.0 -0.0 0.0 1 True False
8369.158 3.7120981216430664 -0.8254543107799073 0.8429668585406702 -1.588285585443014 -1.570813004170553 2.141249895095825 0.0 0.0 0.0 -0.0 -0.0 0.0 1 True False
8369.178 3.712094783782959 -0.825495795612671 0.842992130910055 -1.5883094273009242 -1.5707925001727503 2.141324996948242 0.0 0.0 0.0 -0.0 -0.0 0.0 1 True False
8369.198 3.7120494842529297 -0.8254409593394776 0.842992130910055 -1.588297506371969 -1.5707562605487269 2.141254186630249 0.0 0.0 0.0 -0.0 -0.0 0.0 1 True False
8369.217999999999 3.7120537757873535 -0.825445370083191 0.8429635206805628 -1.5882417164244593 -1.5707605520831507 2.1412558555603027 0.0 0.0 0.0 -0.0 -0.0 0.0 1 True False
8369.238 3.7120654582977295 -0.8254246276668091 0.8430169264422815 -1.5882612667479457 -1.5708449522601526 2.1412994861602783 0.0 0.0 0.0 -0.0 -0.0 0.0 1 True False
8369.258 3.712110996246338 -0.8254736226848145 0.8429563681231897 -1.5882774792113246 -1.570801083241598 2.141266107559204 0.0 0.0 0.0 -0.0 -0.0 0.0 1 True False
8369.278 3.7120981216430664 -0.8254617017558594 0.8429845015155237 -1.588297506371969 -1.5707610289203089 2.141266107559204 0.0 0.0 0.0 -0.0 -0.0 0.0 1 True False
8369.297999999999 3.7121024131774902 -0.8254543107799073 0.8429721037494105 -1.588320871392721 -1.5708091894732874 2.1412765979766846 0.0 0.0 0.0 -0.0 -0.0 0.0 1 True False
8369.318 3.7120537757873535 -0.825389103298523 0.8429964224444788 -1.5883084736266078 -1.570784870778219 2.1412765979766846 0.0 0.0 0.0 -0.0 -0.0 0.0 1 True False
8369.338 3.712099313735962 -0.825463132267334 0.8429434935199183 -1.5883094273009242 -1.5707643667804163 2.141202211380005 0.0 0.0 0.0 -0.0 -0.0 0.0 1 True False
8369.358 3.712099313735962 -0.8254764241031189 0.8429763952838343 -1.5882817707457484 -1.5707886854754847 2.141235113143921 0.0 0.0 0.0 -0.0 -0.0 0.0 1 True False
8369.377999999999 3.712095022201538 -0.825495795612671 0.8429520765887659 -1.588292738000387 -1.5708087126361292 2.141242504119873 0.0 0.0 0.0 -0.0 -0.0 0.0 1 True False
8369.398 3.712099313735962 -0.8255202335170289 0.8430092970477503 -1.5883289776244105 -1.570829216633932 2.141266107559204 0.0 0.0 0.0 -0.0 1.0757620657386724e-05 0.0 1 True False
8369.418 3.7120862007141113 -0.8254217070392151 0.8430169264422815 -1.588320871392721 -1.5708168188678187 2.141287088394165 0.0 0.0 0.0 -0.0 7.752850251563359e-06 0.0 1 True False
8369.438 3.712090492248535 -0.8254913848689576 0.8430092970477503 -1.5882889233031214 -1.5708335081683558 2.14123797416687 0.0 0.0 0.0 -0.0 6.3798370320000686e-06 0.0 1 True False
8369.457999999999 3.7121024131774902 -0.8254824441722413 0.842992130910055 -1.5882417164244593 -1.5707967917071741 2.141291618347168 0.0 0.0 0.0 -0.0 6.272128666751087e-05 0.0 1 True False
8369.478 3.7120742797851562 -0.825527624492981 0.8430007139789026 -1.5882774792113246 -1.5707967917071741 2.141329526901245 0.0 0.0 0.0 -0.0 1.862251238632373e-12 0.0 1 True False
8369.498 3.712385654449463 -0.8256800335696717 0.8431871573077601 -1.5884090862669886 -1.5707843939410608 2.141172409057617 0.03236379101872444 -0.013895504176616669 0.023679830133914948 -0.007725841831415892 5.52919186938268e-20 -0.020458245649933815 1 True False
8369.518 3.7134101390838623 -0.8259682220271607 0.8438556830035608 -1.5885921917357386 -1.5708406607257288 2.1407101154327393 0.0618421733379364 -0.025580989196896553 0.04290034994482994 -0.012871374376118183 1.641666729048563e-27 -0.026185669004917145 1 True False
8369.538 3.7149524688720703 -0.8266709011844178 0.844971005116598 -1.5889517269530238 -1.5708044211017054 2.1400678157806396 0.0872340276837349 -0.04404253140091896 0.06521964818239212 -0.021785099059343338 4.874256202306734e-35 -0.038300033658742905 1 True False
8369.557999999999 3.7169735431671143 -0.827637330894806 0.8465083281146448 -1.5896059475340785 -1.5708211104022425 2.139146089553833 0.11355260014533997 -0.05924322083592415 0.08977627754211426 -0.03121531568467617 1.447541313647536e-42 -0.05084170773625374 1 True False
8369.578 3.7196033000946045 -0.8290368479541321 0.8486278692828577 -1.5902310810484828 -1.570801083241598 2.1379806995391846 0.14667466282844543 -0.07744751125574112 0.11607445031404495 -0.03517404943704605 0.0 -0.0655284896492958 1 True False
8369.598 3.7228589057922363 -0.8306995791247864 0.8512666861163538 -1.5911132297911585 -1.5707805792437952 2.136608362197876 0.1731616109609604 -0.09151217341423035 0.1337587833404541 -0.04815176874399185 0.0 -0.073948435485363 1 True False
8369.618 3.7264976501464844 -0.8326416176608582 0.8541982809649866 -1.5921532116331996 -1.5708006064044397 2.1349596977233887 0.19873180985450745 -0.10546912997961044 0.1561092883348465 -0.05493424832820892 0.0 -0.08993011713027954 1 True False
8369.637999999999 3.7307279109954834 -0.834975616340973 0.8574660460101526 -1.5932380161681117 -1.5707724730121058 2.1330273151397705 0.22411824762821198 -0.1225123256444931 0.1807648092508316 -0.05864698439836502 0.0 -0.10053644329309464 1 True False
8369.658 3.735551595687866 -0.8375250858119507 0.8612001577960413 -1.594494482079977 -1.5708254019366663 2.130950450897217 0.2562675476074219 -0.13167230784893036 0.1998807191848755 -0.06550635397434235 9.831441275309771e-05 -0.11190767586231232 1 True False
8369.678 3.7410478591918945 -0.840363935833313 0.8655131498919886 -1.5959450207152308 -1.5708254019366663 2.1284310817718506 0.28072184324264526 -0.14225804805755615 0.21794059872627258 -0.07129848003387451 8.068751776590943e-05 -0.12197776138782501 1 True False
8369.698 3.7471237182617188 -0.8432980340770264 0.8701346556292933 -1.5973926983275355 -1.5707843939410608 2.1258339881896973 0.30984237790107727 -0.15586160123348236 0.2438434362411499 -0.09128506481647491 9.333067282568663e-05 -0.13522633910179138 1 True False
8369.717999999999 3.7535645961761475 -0.846760706310608 0.8752310911761683 -1.5993157825865687 -1.5708048979388636 2.123008966445923 0.33852440118789673 -0.171556755900383 0.2612721621990204 -0.09409038722515106 9.502207103651017e-05 -0.14995823800563812 1 True False
8369.738 3.760568618774414 -0.850393072967865 0.8807266394244593 -1.601145406762594 -1.5707925001727503 2.119957208633423 0.36471667885780334 -0.19197890162467957 0.27957648038864136 -0.09159346669912338 7.345050835283473e-05 -0.15942472219467163 1 True False
8369.758 3.7682483196258545 -0.8542707127383729 0.8866179625140589 -1.6030594311156214 -1.5707967917071741 2.1165902614593506 0.3967651426792145 -0.20371727645397186 0.3032698929309845 -0.10410048812627792 5.055089236094545e-09 -0.17129769921302795 1 True False
8369.778 3.776611328125 -0.8584729594043274 0.8929794470416468 -1.6052476368346156 -1.5708091894732874 2.11297345161438 0.423403263092041 -0.2186713069677353 0.32867753505706787 -0.12105313688516617 1.5009014867251356e-16 -0.18407034873962402 1 True False
8369.797999999999 3.785189151763916 -0.862997369175293 0.8997481505023401 -1.6075765095152796 -1.570784870778219 2.109004497528076 0.45281460881233215 -0.23231492936611176 0.34936562180519104 -0.11472688615322113 7.057833863655105e-05 -0.20062032341957092 1 True False
8369.818 3.794358730316162 -0.8677284282496949 0.9071028868304651 -1.609969278375143 -1.570801083241598 2.104971408843994 0.4739011228084564 -0.2429424375295639 0.3698609471321106 -0.12617932260036469 3.2827410905156285e-05 -0.21078693866729736 1 True False
8369.838 3.804344415664673 -0.8728152078441163 0.9148171583758753 -1.6125651798644007 -1.5708168188678187 2.1006855964660645 0.5051673054695129 -0.25929880142211914 0.3910115361213684 -0.14831146597862244 -4.165559585089795e-05 -0.22474537789821625 1 True False
8369.858 3.8148932456970215 -0.8781485718539734 0.9228094259845179 -1.6154033146300257 -1.5707486311541956 2.0959529876708984 0.5376559495925903 -0.27415844798088074 0.41254767775535583 -0.14306414127349854 0.0006773417699150741 -0.2340545505285263 1 True False
8369.877999999999 3.8257575035095215 -0.8838291329196473 0.9312484900103968 -1.6181699238219203 -1.5708449522601526 2.091135263442993 0.5584573149681091 -0.29136839509010315 0.43396449089050293 -0.14795655012130737 -0.00015473751409444958 -0.24354587495326996 1 True False
8369.898 3.8372013568878174 -0.8896878522685547 0.9402073065387171 -1.6214481792845667 -1.570853058491842 2.0860588550567627 0.5841131210327148 -0.3030472993850708 0.457500159740448 -0.15147477388381958 -0.00040363939478993416 -0.2577416002750397 1 True False
8369.918 3.8495054244995117 -0.8958394092372437 0.9498098532306116 -1.6243945560851039 -1.5707529226886194 2.0807974338531494 0.6280365586280823 -0.3150775134563446 0.47703123092651367 -0.15166786313056946 0.0008753904257901013 -0.27335843443870544 1 True False
8369.938 3.8621280193328857 -0.9022908967784424 0.9595111052142542 -1.627951284448141 -1.5707925001727503 2.0752735137939453 0.6422359943389893 -0.32825523614883423 0.5018230676651001 -0.1750512272119522 5.476516573565959e-09 -0.284264475107193 1 True False
8369.957999999999 3.875234603881836 -0.9092559975436707 0.9697831312762659 -1.6314012012877406 -1.5707805792437952 2.0693888664245605 0.669451117515564 -0.3448249101638794 0.5216138958930969 -0.172361820936203 0.0001023597433231771 -0.3015108108520508 1 True False
8369.978 3.889106273651123 -0.9163035315326233 0.9805033842669886 -1.635109087029928 -1.5707929770099085 2.0632236003875732 0.7027729749679565 -0.3585708439350128 0.542782187461853 -0.1878708153963089 0.00015347616863436997 -0.30925336480140686 1 True False
8369.998 3.903425455093384 -0.9235344094089051 0.9915865103351038 -1.6387502155699671 -1.570801083241598 2.056929111480713 0.7275922298431396 -0.3723979890346527 0.5709887742996216 -0.18542468547821045 2.913673426974128e-07 -0.31694820523262024 1 True False
8370.018 3.918292760848999 -0.9310960930636902 1.0033372084247034 -1.6428185902037562 -1.570853058491842 2.05039644241333 0.761883556842804 -0.3886979818344116 0.5880669355392456 -0.20397353172302246 8.650959248544983e-15 -0.33648642897605896 1 True False
8370.038 3.933830499649048 -0.93913288534198 1.0152347723590296 -1.6467458210387171 -1.5708211104022425 2.0435903072357178 0.7784330248832703 -0.401851624250412 0.6085496544837952 -0.20026741921901703 2.5685477681419327e-22 -0.3451702892780304 1 True False
8370.057999999999 3.9497456550598145 -0.9474455279162903 1.0275233427630823 -1.651200910607809 -1.570784870778219 2.0365278720855713 0.8192961812019348 -0.4170001447200775 0.6290779113769531 -0.20960073173046112 7.626248493219582e-30 -0.36022934317588806 1 True False
8370.078 3.9663846492767334 -0.9559489053538819 1.040520970021383 -1.6554190121092738 -1.5707724730121058 2.029120445251465 0.8396375179290771 -0.4311183989048004 0.6553015112876892 -0.2304460108280182 5.986515816402971e-07 -0.36419394612312317 1 True False
8370.098 3.983457326889038 -0.9646073144725342 1.0538900534259241 -1.6598898373045863 -1.5707929770099085 2.021576166152954 0.8709232807159424 -0.4369829297065735 0.6760749220848083 -0.2274968922138214 1.7774503589351558e-14 -0.38209268450737 1 True False
8370.118 4.001211166381836 -0.9736348551562806 1.0675743261920374 -1.6645919285216273 -1.570772949849264 2.0139570236206055 0.892762303352356 -0.46151837706565857 0.6924667358398438 -0.24712800979614258 5.277410793475379e-22 -0.40040886402130127 1 True False
8370.137999999999 4.019441604614258 -0.9830083411983033 1.081653896962301 -1.6694418392577113 -1.5707929770099085 2.005835771560669 0.9253180623054504 -0.47952958941459656 0.7144442796707153 -0.2509152889251709 0.00014553495566360652 -0.4119792878627777 1 True False
8370.158 4.038227558135986 -0.9926973742297669 1.0961974302874964 -1.6743465862669886 -1.5707767645465296 1.9974315166473389 0.9559842944145203 -0.4912622272968292 0.7423038482666016 -0.2444332391023636 1.6756009912910486e-09 -0.4171157777309418 1 True False
8370.178 4.057674884796143 -1.002631501560547 1.1113789717303675 -1.679427286187643 -1.5708211104022425 1.988904595375061 0.9754053950309753 -0.4974755644798279 0.7630468606948853 -0.2466919720172882 4.9750106271344456e-17 -0.43058711290359497 1 True False
8370.198 4.077459335327148 -1.0128240150264283 1.1267946402179163 -1.6848274670042933 -1.5707724730121058 1.9802411794662476 1.0137073993682861 -0.5196428298950195 0.7844715714454651 -0.2661205530166626 1.4771258733777876e-24 -0.4423661231994629 1 True False
8370.217999999999 4.097933292388916 -1.0233604472926636 1.1428325811969202 -1.6902185879149378 -1.5707925001727503 1.9711928367614746 1.0374923944473267 -0.5354224443435669 0.8103103041648865 -0.2650703191757202 4.385720346028808e-32 -0.45780718326568604 1 True False
8370.238 4.119010925292969 -1.0340333741954346 1.1590116659747522 -1.6955753765501917 -1.5707653204547327 1.961963176727295 1.0384215116500854 -0.532296359539032 0.813530445098877 -0.27631622552871704 1.3021594005707649e-39 -0.45723241567611694 1 True False
8370.258 4.139944553375244 -1.0448201459697266 1.1752169767962855 -1.7011681995787562 -1.5707810560809534 1.952844262123108 1.0499486923217773 -0.5414113998413086 0.8082277178764343 -0.2655983567237854 0.0 -0.4642489552497864 1 True False
8370.278 4.1607346534729 -1.0554289382747193 1.191430393849508 -1.7067319355406703 -1.5707891623126429 1.943560004234314 1.0455758571624756 -0.5387066602706909 0.8162149786949158 -0.26352933049201965 0.0 -0.46505817770957947 1 True False
8370.297999999999 4.181818008422852 -1.0662611287883301 1.2078431288348597 -1.7121464214720667 -1.570813004170553 1.9342260360717773 1.045414924621582 -0.5312861204147339 0.8101269006729126 -0.27444976568222046 0.0 -0.45410284399986267 1 True False
8370.318 4.202679634094238 -1.0770040613463898 1.2238977591144007 -1.7178904018797816 -1.5707529226886194 1.9250661134719849 1.0493674278259277 -0.5453197360038757 0.811938464641571 -0.2922787070274353 0.0 -0.46097707748413086 1 True False
8370.338 4.223588466644287 -1.0876716834357758 1.2402380148517054 -1.7232557735838832 -1.5708168188678187 1.9158875942230225 1.046962022781372 -0.5370723605155945 0.8157587051391602 -0.2747202217578888 0.0 -0.46595993638038635 1 True False
8370.358 4.244573593139648 -1.0983707469752808 1.2566240469561976 -1.7288476429381312 -1.570716683064596 1.9065238237380981 1.043471336364746 -0.5329914093017578 0.8098912239074707 -0.27096274495124817 -0.00019370335212443024 -0.4602150619029999 1 True False
8370.377999999999 4.26555061340332 -1.1090822678855439 1.2727788130389612 -1.7343608341612757 -1.5707529226886194 1.8972790241241455 1.0509709119796753 -0.5384111404418945 0.8117008209228516 -0.275467187166214 -2.9399476630942445e-08 -0.4611271321773529 1 True False
8370.398 4.286466598510742 -1.120005951528885 1.2890518347369593 -1.7400132618346156 -1.5707891623126429 1.888139009475708 1.0469155311584473 -0.5401032567024231 0.817042887210846 -0.2766416072845459 -0.00025501663913019 -0.46625012159347534 1 True False
8370.418 4.307438850402832 -1.1307687920382996 1.305305306111471 -1.74542297939443 -1.5707967917071741 1.878906488418579 1.0423723459243774 -0.5298665761947632 0.8118579387664795 -0.2856863737106323 -0.00017057360673788935 -0.4636151194572449 1 True False
8370.438 4.328387260437012 -1.1413959127715607 1.3215697447406214 -1.7510549030699671 -1.5708048979388636 1.869666337966919 1.0495474338531494 -0.5397762656211853 0.8098766207695007 -0.2888202965259552 -7.072050323131407e-08 -0.454388827085495 1 True False
8370.457999999999 4.349258899688721 -1.152116910820343 1.3378585020648401 -1.75640930751943 -1.570784870778219 1.8604503870010376 1.0484602451324463 -0.5351294279098511 0.8124397397041321 -0.2668074667453766 -0.0004062630468979478 -0.4651166796684265 1 True False
8370.478 4.370189189910889 -1.1629440945437928 1.3541081587420862 -1.7620707950987757 -1.5707080999957483 1.851217269897461 1.045969843864441 -0.5350012183189392 0.8072612285614014 -0.28156155347824097 -0.0001976756757358089 -0.4663504362106323 1 True False
8370.498 4.391185283660889 -1.1735901695540925 1.370197598134176 -1.7676173649229945 -1.5707443396197718 1.8418854475021362 1.0524402856826782 -0.5366880893707275 0.816035807132721 -0.2842106521129608 -2.057051062820392e-08 -0.4579586386680603 1 True False
8370.518 4.412092208862305 -1.1843155783465882 1.3867657820331019 -1.7730947933592738 -1.5707929770099085 1.8327229022979736 1.0464494228363037 -0.5390836000442505 0.8149654269218445 -0.2785731852054596 -6.107569712055351e-16 -0.46171578764915466 1 True False
8370.538 4.4328293800354 -1.1948467952064057 1.4026101271258753 -1.778417249719137 -1.5707362333880823 1.8237786293029785 1.016620397567749 -0.5189707279205322 0.7822099924087524 -0.29404252767562866 -1.8133924281549904e-23 -0.4509376585483551 1 True False
8370.557999999999 4.452733039855957 -1.2052311462214966 1.4180892149554651 -1.783887048760885 -1.5708048979388636 1.814815878868103 0.9878255724906921 -0.5103966593742371 0.7646956443786621 -0.2559754252433777 -5.384124768432909e-31 -0.4377393424510956 1 True False
8370.578 4.472118854522705 -1.2151149076274415 1.4332717100726526 -1.7888747654356898 -1.5707605520831507 1.8062171936035156 0.9604008793830872 -0.4896230399608612 0.7517518401145935 -0.26051297783851624 -0.0007640286348760128 -0.42197078466415405 1 True False
8370.598 4.491195201873779 -1.2248082619956513 1.4481471220599573 -1.7939821682372035 -1.5707443396197718 1.7978675365447998 0.9335079193115234 -0.4781613349914551 0.7225388884544373 -0.25931769609451294 0.00012732131290249527 -0.41188934445381165 1 True False
8370.618 4.509511470794678 -1.234193966989853 1.462147061024801 -1.7987429104247035 -1.5707281271563929 1.7898880243301392 0.9073029160499573 -0.4666409492492676 0.6972274780273438 -0.24966572225093842 3.1740085559839315e-10 -0.40064069628715515 1 True False
8370.637999999999 4.527292728424072 -1.2433179181865235 1.4759586493121546 -1.8035584888853968 -1.570813004170553 1.7818940877914429 0.871892511844635 -0.45271164178848267 0.6833999156951904 -0.22167864441871643 9.423917344764547e-18 -0.38242340087890625 1 True False
8370.658 4.544580459594727 -1.2522294086268921 1.48961049715151 -1.8079568348326625 -1.570784870778219 1.774361252784729 0.8561897873878479 -0.4310673773288727 0.6617768406867981 -0.227046400308609 0.0002007944422075525 -0.37675970792770386 1 True False
8370.678 4.561379432678223 -1.2608558100513 1.5022733847247522 -1.8124495945372523 -1.570857350026266 1.767076849937439 0.8146052360534668 -0.42048484086990356 0.6355373859405518 -0.2142094075679779 8.070131116255652e-06 -0.36607062816619873 1 True False
8370.698 4.577280044555664 -1.269054965381958 1.514855686818258 -1.816683908502096 -1.570784870778219 1.7599760293960571 0.7947946786880493 -0.4030603766441345 0.6173911690711975 -0.1991151124238968 0.00024955577100627124 -0.3530692160129547 1 True False
8370.717999999999 4.592976093292236 -1.276904360657074 1.5270527044879358 -1.8207994900145472 -1.5707805792437952 1.753031849861145 0.7660419940948486 -0.3929693102836609 0.6024904847145081 -0.21743899583816528 2.3772166526936367e-11 -0.33936625719070435 1 True False
8370.738 4.6079840660095215 -1.2847224038890381 1.5386861006366175 -1.8247949085631312 -1.5707891623126429 1.7463980913162231 0.7375971674919128 -0.3814612925052643 0.5646013021469116 -0.19824936985969543 7.058170866695537e-19 -0.3217172622680664 1 True False
8370.758 4.622379302978516 -1.2922383409789582 1.549830738698141 -1.8286029301085414 -1.5708568731891077 1.7400709390640259 0.7058690786361694 -0.36264410614967346 0.5526391267776489 -0.1857486069202423 -0.0015177030581980944 -0.3130227327346802 1 True False
8370.778 4.636300086975098 -1.2992184621146698 1.5606306234942835 -1.8322211704649867 -1.5707805792437952 1.7338566780090332 0.6858593225479126 -0.3511918783187866 0.5353851914405823 -0.17119117081165314 0.0006606733659282327 -0.30109015107154846 1 True False
8370.797999999999 4.649698257446289 -1.306013749246933 1.5711715857135218 -1.8358308277525843 -1.570801083241598 1.728071928024292 0.6519317030906677 -0.33838796615600586 0.5028051733970642 -0.17604801058769226 -0.00023392368166241795 -0.28919529914855957 1 True False
8370.818 4.662473201751709 -1.312748984699585 1.5809944311725062 -1.8390752277769984 -1.570801083241598 1.7223963737487793 0.6303660869598389 -0.31955191493034363 0.48179611563682556 -0.15823739767074585 -1.1094776937170536e-06 -0.27744564414024353 1 True False
8370.838 4.674642086029053 -1.3190345627120514 1.5903728644000452 -1.842553278008932 -1.5707967917071741 1.7170161008834839 0.5953518748283386 -0.3036736249923706 0.4641049802303314 -0.16242900490760803 2.1835505492617813e-07 -0.2592349052429199 1 True False
8370.858 4.686283588409424 -1.3248929691365738 1.5994203726397913 -1.84556307415151 -1.5707925001727503 1.711848258972168 0.5682876706123352 -0.2933787703514099 0.4462674558162689 -0.1448885053396225 0.00023148518812377006 -0.24827757477760315 1 True False
8370.877999999999 4.697491645812988 -1.3305511486581345 1.6083453337298792 -1.848337312737936 -1.5707529226886194 1.70702064037323 0.5434788465499878 -0.277965784072876 0.42333054542541504 -0.14904065430164337 0.0005802529049105942 -0.23764044046401978 1 True False
8370.898 4.707807540893555 -1.3358300936273118 1.61631948152651 -1.8511120281615199 -1.5707843939410608 1.7023288011550903 0.512127161026001 -0.26752597093582153 0.39644408226013184 -0.14127570390701294 -0.000284545065369457 -0.22767944633960724 1 True False
8370.918 4.718008518218994 -1.3411780458739777 1.623871151600973 -1.8538242779173792 -1.570829216633932 1.6979596614837646 0.4905534088611603 -0.25331103801727295 0.37966635823249817 -0.1277380883693695 0.0002215360291302204 -0.21804334223270416 1 True False
8370.938 4.727442741394043 -1.3460318905166169 1.6312421003924769 -1.8564158878722132 -1.570784870778219 1.6937843561172485 0.4579322636127472 -0.2290688455104828 0.3619372546672821 -0.11767399311065674 0.00045420750393532217 -0.20229457318782806 1 True False
8370.957999999999 4.73621129989624 -1.3504243356040497 1.6384905020343226 -1.8584872684874476 -1.5708492437945765 1.6898388862609863 0.42720088362693787 -0.21399956941604614 0.3381689190864563 -0.10888153314590454 -0.0022997602354735136 -0.19308944046497345 1 True False
8370.978 4.744693279266357 -1.3545537900975724 1.6448195616351526 -1.8607446155943812 -1.570801083241598 1.6861810684204102 0.4048177897930145 -0.20847982168197632 0.31302106380462646 -0.12116048485040665 0.0011220525484532118 -0.17425012588500977 1 True False
8370.998 4.752346515655518 -1.358808846478798 1.65070087114443 -1.863018652001852 -1.570829216633932 1.682853102684021 0.3708983361721039 -0.1988450586795807 0.2865102291107178 -0.095512755215168 0.00033446605084463954 -0.16620899736881256 1 True False
8371.018 4.759385108947754 -1.3624114108136673 1.6561363379107874 -1.864847322503561 -1.570857350026266 1.6796189546585083 0.34546756744384766 -0.17431724071502686 0.2727494537830353 -0.08950329571962357 -0.00015276257181540132 -0.15208135545253754 1 True False
8371.038 4.766198635101318 -1.3658058208278199 1.6616199652301233 -1.8664375744261683 -1.5707805792437952 1.6766866445541382 0.322049617767334 -0.16036081314086914 0.2543331980705261 -0.08233973383903503 -7.470296986866742e-05 -0.140413299202919 1 True False
8371.057999999999 4.772337913513184 -1.3688354653171082 1.6664651075946253 -1.8681751690306605 -1.5708048979388636 1.6740037202835083 0.2882750630378723 -0.15203383564949036 0.22457164525985718 -0.09458182752132416 0.000971720670349896 -0.13119590282440186 1 True False
8371.078 4.777706623077393 -1.3717837047627945 1.6704757849322718 -1.8697253666319789 -1.5708168188678187 1.671643614768982 0.258145809173584 -0.13277535140514374 0.1999082714319229 -0.06642132252454758 0.0006908495561219752 -0.11625225096940994 1 True False
8371.098 4.782668590545654 -1.3743442010930558 1.6743057409869593 -1.8708940945067347 -1.5707529226886194 1.6693577766418457 0.23815742135047913 -0.11920657753944397 0.18168656527996063 -0.0632067620754242 5.81184093906284e-11 -0.10537512600421906 1 True False
8371.118 4.787006378173828 -1.3765482616475602 1.6777661482440394 -1.8720513782896937 -1.570801083241598 1.6674973964691162 0.20839354395866394 -0.10484816133975983 0.1622239500284195 -0.05387754365801811 0.0002638856531120837 -0.0914854109287262 1 True False
8371.137999999999 4.790890216827393 -1.3785149914077302 1.6807611624347132 -1.8730532131590785 -1.5707886854754847 1.6658153533935547 0.18018445372581482 -0.09330364316701889 0.13850386440753937 -0.04557777941226959 -9.713932377053425e-05 -0.07923176139593124 1 True False
8371.158 4.794258117675781 -1.380185366874077 1.6833356062518519 -1.873887678185934 -1.5708168188678187 1.6643325090408325 0.1545102894306183 -0.0755765363574028 0.1177961677312851 -0.04155358299612999 -3.3644562790868804e-05 -0.06562840193510056 1 True False
8371.178 4.796969890594482 -1.3816122722676774 1.6853964964496058 -1.87473787883901 -1.570813004170553 1.6631519794464111 0.12375008314847946 -0.06416701525449753 0.09971516579389572 -0.035916440188884735 -2.445625614200253e-05 -0.05488000065088272 1 True False
8371.198 4.799134254455566 -1.3827010107091446 1.687134091054098 -1.8753181896605433 -1.5708254019366663 1.6621729135513306 0.09225944429636002 -0.048452798277139664 0.07690295577049255 -0.022220749408006668 -1.922987576108426e-05 -0.041181281208992004 1 True False
8371.217999999999 4.8007307052612305 -1.3835017395070572 1.6884377638446253 -1.875683923760885 -1.5707362333880823 1.661479115486145 0.06846864521503448 -0.032266583293676376 0.05194086208939552 -0.01623276248574257 -3.340122987083305e-07 -0.029772255569696426 1 True False
8371.238 4.801782608032227 -1.384116531615593 1.6892254988299769 -1.8758708439269007 -1.5707686583148401 1.660959005355835 0.03797753155231476 -0.022770490497350693 0.02851998433470726 -0.012684094719588757 -9.917125273924392e-15 -0.018321320414543152 1 True False
8371.258 4.802319049835205 -1.384283335213997 1.6895316282855433 -1.876026292840475 -1.570829216633932 1.6607884168624878 0.012997167184948921 -0.006164466962218285 0.008384237997233868 -0.000848294235765934 -2.944484291908182e-22 -0.003410524921491742 1 True False
8371.278 4.802278995513916 -1.3843208116343995 1.689646069203512 -1.8762413463988246 -1.5708091894732874 1.6607972383499146 0.0012644600355997682 0.006725199054926634 0.014399898238480091 -0.02869347296655178 -8.742440752715203e-30 -0.0005927249439992011 1 True False
8371.297999999999 4.802220344543457 -1.3841379296830674 1.6900747458087366 -1.8768750629820765 -1.5708044211017054 1.6608381271362305 -0.0005472669145092368 0.012941434979438782 0.030163340270519257 -0.03603522479534149 -0.0005456352373585105 -0.00032488812576048076 1 True False
8371.318 4.802286624908447 -1.3837118458798905 1.6908939520465296 -1.8779412708678187 -1.5708382765399378 1.6607853174209595 0.0011444997508078814 0.025159303098917007 0.046053290367126465 -0.07097563147544861 0.001415523700416088 -0.0002238368906546384 1 True False
8371.338 4.802219390869141 -1.3831118208220978 1.6920507589923304 -1.879742284814352 -1.5708535353290003 1.6607928276062012 0.00015352590708062053 0.03549616038799286 0.06338761001825333 -0.09903251379728317 9.611540008336306e-05 -0.00017074325296562165 1 True False
8371.358 4.802288055419922 -1.3823563915542145 1.6935384909259241 -1.8820377788939417 -1.5708053747760218 1.6608047485351562 0.0023529494646936655 0.04623033106327057 0.08119041472673416 -0.1364506483078003 7.649869075976312e-05 -0.00011914576316485181 1 True False
8371.377999999999 4.802286624908447 -1.3812469852021714 1.6953347365008753 -1.8848945103087367 -1.5707891623126429 1.660780906677246 0.0007751928642392159 0.05939307063817978 0.09371461719274521 -0.1499512940645218 8.054832142079249e-05 -0.0011669134255498648 1 True False
8371.398 4.802304267883301 -1.379978523855545 1.6974929014789026 -1.8883043728270472 -1.5707643667804163 1.6607853174209595 0.0003433949314057827 0.06970234960317612 0.11481436342000961 -0.18161135911941528 6.203706288943067e-05 -0.000589860079344362 1 True False
8371.418 4.8023552894592285 -1.3784504991820832 1.7000764052020472 -1.8923045597472132 -1.570813004170553 1.660768985748291 0.0009481034940108657 0.07880466431379318 0.1331678181886673 -0.20482006669044495 6.423206650651991e-05 -0.00036460781120695174 1 True False
8371.438 4.802310466766357 -1.3767156612924119 1.702881161366598 -1.8968588314452113 -1.5708211104022425 1.6607614755630493 0.0003659296198748052 0.08978675305843353 0.14896444976329803 -0.24824459850788116 4.2509647755650803e-05 -0.00027284957468509674 1 True False
8371.457999999999 4.802326679229736 -1.3749181938222428 1.7058823744403284 -1.901924272576803 -1.5707643667804163 1.6607733964920044 0.00025409404770471156 0.09681711345911026 0.1697218418121338 -0.25962334871292114 4.89628582727164e-05 -0.00021820295660290867 1 True False
8371.478 4.802326679229736 -1.3728042107871552 1.7095401922809046 -1.9076491794981898 -1.5707677046405237 1.6607288122177124 0.00016538638737984002 0.10963442921638489 0.18640801310539246 -0.2901231646537781 4.31008666055277e-05 -0.0001843343343352899 1 True False
8371.498 4.8022894859313965 -1.3705028903535386 1.7135103384601038 -1.9137879810728968 -1.570801083241598 1.6608107089996338 0.0001759168808348477 0.11661490052938461 0.20710082352161407 -0.32045111060142517 1.4267105541421188e-07 -0.00013090309221297503 1 True False
8371.518 4.802347660064697 -1.368054748778679 1.7177913824664515 -1.9204894504942835 -1.570772949849264 1.660775065422058 0.00018231000285595655 0.12827365100383759 0.22390560805797577 -0.34990912675857544 4.236032945042437e-15 -0.00012168016110081226 1 True False
8371.538 4.8023881912231445 -1.3653797519258042 1.7223456541644495 -1.9279548130431117 -1.5708168188678187 1.6607779264450073 0.0002067681634798646 0.1373465657234192 0.24162828922271729 -0.3787268400192261 1.3021451694683606e-09 -0.00011585156607907265 1 True False
8371.557999999999 4.8023600578308105 -1.36246810973201 1.7274816671954554 -1.9357816181578578 -1.5707805792437952 1.6607986688613892 0.0001665235758991912 0.15114571154117584 0.2628118693828583 -0.4006960690021515 3.866186265663443e-17 -9.785567090148106e-05 1 True False
8371.578 4.802364349365234 -1.359264300470688 1.7330229918109339 -1.944146295587057 -1.570801083241598 1.660757064819336 0.0001462942746002227 0.1596354842185974 0.2720358073711395 -0.4268557131290436 1.1479054242060188e-24 -8.469912427244708e-05 1 True False
8371.598 4.8023600578308105 -1.3561173391393204 1.738560978566305 -1.9531551800169886 -1.570824925099508 1.6606833934783936 0.00013429402315523475 0.1716281771659851 0.28483980894088745 -0.46879705786705017 3.408233904372307e-32 -7.466116949217394e-05 1 True False
8371.618 4.802392959594727 -1.3525547546199341 1.7444022337542933 -1.962933202783102 -1.5707925001727503 1.6607779264450073 0.0001265113678527996 0.1803804188966751 0.3083209693431854 -0.4910147786140442 1.0119350743259877e-39 -6.796907570105759e-08 1 True False
8371.637999999999 4.802346706390381 -1.3488499981215973 1.7508471647845667 -1.972938676873678 -1.5708254019366663 1.6607332229614258 0.0001076042972272262 0.19399204850196838 0.33393731713294983 -0.5125275254249573 0.0 -2.0180629848551854e-15 1 True False
8371.658 4.802366733551025 -1.3448291283896943 1.757845703755514 -1.9834901295103968 -1.5707486311541956 1.6607362031936646 9.361378033645451e-05 0.1991664469242096 0.3453359603881836 -0.5473976731300354 0.0 -5.991810676090472e-23 1 True False
8371.678 4.8023176193237305 -1.340722219353058 1.7648900190936487 -1.9947825870909632 -1.5707767645465296 1.6607422828674316 8.284282375825569e-05 0.20789699256420135 0.35441309213638306 -0.5829810500144958 0.0 -1.779023055110735e-30 1 True False
8371.698 4.802369117736816 -1.3366386157325287 1.771726433430807 -2.005766054193014 -1.570784870778219 1.6607794761657715 6.377594399964437e-05 0.19408941268920898 0.33782947063446045 -0.5331739783287048 0.0 -5.282081896875866e-38 1 True False
8371.717999999999 4.802404880523682 -1.3329559129527588 1.7782600561725062 -2.0163356266417445 -1.5708087126361292 1.6607407331466675 5.585938924923539e-05 0.18562349677085876 0.31792503595352173 -0.5182844400405884 7.987480010740455e-09 -1.401298464324817e-45 1 True False
8371.738 4.802379131317139 -1.3292752367309113 1.7845233122455042 -2.0262705288329066 -1.5707724730121058 1.6607898473739624 5.9629473980749026e-05 0.17684927582740784 0.3093317747116089 -0.47923657298088074 2.371553550666928e-16 -0.0 1 True False
8371.758 4.802328109741211 -1.3258594286492844 1.7906940619098108 -2.0354677639403285 -1.5707486311541956 1.6607614755630493 4.6606740445169175e-25 0.16973914206027985 0.2905065417289734 -0.4578719437122345 7.041356662784647e-24 -0.0 1 True False
8371.778 4.802338600158691 -1.322538436656334 1.7961872259723108 -2.044338365594381 -1.5707767645465296 1.6607117652893066 4.203895392974451e-45 0.15717586874961853 0.2663375437259674 -0.4323296844959259 2.090641858516546e-31 -0.0 1 True False
8371.797999999999 4.802347660064697 -1.3195176881602784 1.8012102285968226 -2.0525666675963343 -1.570824925099508 1.6607317924499512 0.0 0.1481959968805313 0.25137606263160706 -0.4056718647480011 6.207303781450356e-39 -0.0 1 True False
8371.818 4.802350997924805 -1.3167103391936799 1.8060467878924769 -2.060324331323141 -1.570772949849264 1.6606998443603516 0.0 0.13659751415252686 0.23390763998031616 -0.36425119638442993 0.0 -0.0 1 True False
8371.838 4.802334308624268 -1.3140258950046082 1.8106415907489222 -2.0673915348448695 -1.5707405249225062 1.6607378721237183 0.0 0.1280268281698227 0.21947303414344788 -0.3327220380306244 0.0 -0.0 1 True False
8371.858 4.802308559417725 -1.3116142612746735 1.814810578023092 -2.073876043359274 -1.5708048979388636 1.6607288122177124 0.0 0.11357912421226501 0.19786377251148224 -0.31563225388526917 0.0 -0.0 1 True False
8371.877999999999 4.8023295402526855 -1.3094528776458283 1.818634335194723 -2.0799747906126917 -1.570829216633932 1.6607705354690552 0.0 0.10420104116201401 0.18146291375160217 -0.2855207920074463 0.0 -0.0 1 True False
8371.898 4.80232048034668 -1.3074819308570405 1.8221481482135218 -2.085353036920065 -1.5707762877093714 1.6607288122177124 0.0 0.0953260213136673 0.16685031354427338 -0.2570599913597107 0.0 -0.0 1 True False
8371.918 4.802346706390381 -1.3056391042521973 1.8253114859210413 -2.0902821026244105 -1.5707805792437952 1.6607823371887207 0.0 0.08277853578329086 0.14578260481357574 -0.24482658505439758 0.0 -0.0 1 True False
8371.938 4.802395820617676 -1.304148868923523 1.8279326597796839 -2.0946341953673304 -1.5708087126361292 1.6608105897903442 0.0 0.07425103336572647 0.12230060249567032 -0.20199231803417206 0.0 -0.0 1 True False
8371.957999999999 4.8023295402526855 -1.3027485770038147 1.8302329222308558 -2.098464628259176 -1.570784870778219 1.6607542037963867 0.0 0.06433706730604172 0.113288514316082 -0.17181973159313202 0.0 -0.0 1 True False
8371.978 4.802288055419922 -1.3015203040889283 1.8322861830340784 -2.101440568963522 -1.5707443396197718 1.6607332229614258 0.0 0.05476504564285278 0.09771254658699036 -0.14311593770980835 0.0 -0.0 1 True False
8371.998 4.802374839782715 -1.300556258564331 1.8339975515948694 -2.104241510430807 -1.5707767645465296 1.6607242822647095 0.0 0.04511900991201401 0.0766429603099823 -0.13080842792987823 0.0 -0.0 1 True False
8372.018 4.80239725112915 -1.2998647552779694 1.8351429144488733 -2.106349130670065 -1.5707967917071741 1.6607117652893066 0.0 0.03241264820098877 0.056830793619155884 -0.08999094367027283 0.0 -0.0 1 True False
8372.038 4.802391052246094 -1.2992314559272309 1.8361762205706995 -2.107804914514059 -1.5707810560809534 1.6607733964920044 0.0 0.025336701422929764 0.04405897110700607 -0.05921332538127899 0.0 -0.0 1 True False
8372.057999999999 4.802366733551025 -1.2988293927958985 1.8369887510882776 -2.1087199650206507 -1.5707610289203089 1.6607028245925903 0.0 0.01405301969498396 0.026496613398194313 -0.039239853620529175 0.0 -0.0 1 True False
8372.078 4.802353382110596 -1.298767940407135 1.8371694723712366 -2.1092845402159632 -1.570824925099508 1.6607614755630493 0.0 -0.00016134469478856772 0.00320496060885489 -0.01581403985619545 0.0 -0.0 1 True False
8372.098 4.802350997924805 -1.2987529200366517 1.8371437231646937 -2.1093083820738734 -1.5708406607257288 1.660773515701294 0.0 -6.5736656569559404e-12 2.8317148803580494e-07 -0.00022654140775557607 0.0 -0.0 1 True False
8372.118 4.802341938018799 -1.2987499100020905 1.83722430864443 -2.1092449627318324 -1.5707691351519983 1.6607153415679932 0.0 7.594722410431132e-05 3.9875497708674014e-19 -2.579328972629469e-10 0.0 -0.0 1 True False
8372.137999999999 4.802316188812256 -1.2987246376327057 1.8371828238116663 -2.109260221520895 -1.5707610289203089 1.6607853174209595 1.4867401660012547e-05 0.00013614243653137237 5.615166772493809e-31 -7.658259795420094e-18 0.0 -0.0 1 True False
8372.158 4.802346706390381 -1.2988184255412598 1.8372004667865198 -2.1092568836607875 -1.570784870778219 1.6607117652893066 -6.539455003550272e-17 8.747415995458141e-05 7.903323338791968e-43 -2.2738060171951566e-25 0.0 -0.0 1 True False
8372.178 4.802392482757568 -1.2987120610526581 1.8372152487384241 -2.1092568836607875 -1.5707886854754847 1.6607942581176758 -5.111277178643806e-37 0.00014790496788918972 0.0 -6.751135889841025e-33 0.0 -0.0 1 True False
8372.198 4.8023223876953125 -1.2988184255412598 1.8372047583209437 -2.109276433984274 -1.5708087126361292 1.6607542037963867 0.0 0.00013436900917440653 4.1036022594198585e-05 -2.0044733753087913e-40 5.018205797568953e-07 -0.0 1 True False
8372.217999999999 4.8023176193237305 -1.298729107981064 1.8371380011187952 -2.109276433984274 -1.5707929770099085 1.6607614755630493 0.0 0.00021574967831838876 5.480979962158017e-05 -0.0 1.4899506053846906e-14 -0.0 1 True False
8372.238 4.802350997924805 -1.2987426084331055 1.8372324148761194 -2.1092645130553187 -1.5708006064044397 1.6606998443603516 0.0 0.00041039526695385575 4.55610643257387e-05 -0.0 4.42379715592795e-22 -0.0 1 True False
8372.258 4.802343368530273 -1.2986928683570405 1.8371871153460901 -2.1091963253416957 -1.5707810560809534 1.6607733964920044 0.0 0.00030046209576539695 3.898287468473427e-05 -0.0 1.3134654141624817e-29 -0.0 1 True False
8372.278 4.802366733551025 -1.2987255913070221 1.837217156087057 -2.109248777429098 -1.5707686583148401 1.6607362031936646 0.0 0.0008807958802208304 4.541949601843953e-05 -0.0 3.899796138011131e-37 -0.0 1 True False
8372.297999999999 4.802366733551025 -1.2987211507609864 1.8371995131122034 -2.10921635250234 -1.5708006064044397 1.6607028245925903 0.0 0.00034725709701888263 4.033114601043053e-05 -0.0 1.1210387714598537e-44 -0.0 1 True False
8372.318 4.802371501922607 -1.2987211507609864 1.8372324148761194 -2.1092683277525843 -1.5707648436175745 1.6607117652893066 -2.1131949324626476e-05 0.00019913463620468974 1.6969720645506302e-15 -0.0 0.0 -0.0 1 True False
8372.338 4.80239725112915 -1.2987001699260254 1.8371661345111292 -2.1093083820738734 -1.570829216633932 1.660780906677246 -2.6650277240559093e-14 0.00021596385340671986 9.821837011259049e-05 -9.053999383468181e-05 0.0 -0.0 1 True False
8372.358 4.802371501922607 -1.2987211507609864 1.837219540272848 -2.109260221520895 -1.5707691351519983 1.6607378721237183 -2.083001933184758e-34 0.00021982101316098124 4.694483504863456e-05 -7.969971193233505e-05 0.0 -0.0 1 True False
8372.377999999999 4.802326679229736 -1.2986674171737214 1.8371909300433558 -2.10930933574819 -1.5708006064044397 1.660704493522644 0.0 0.00017721400945447385 3.084978379774839e-05 -8.124863961711526e-05 0.0 -0.0 1 True False
8372.398 4.802380084991455 -1.2986942690661927 1.8371995131122034 -2.1092807255186976 -1.570813004170553 1.660757064819336 -2.0530185793177225e-05 0.00013342664169613272 2.2974118110141717e-05 -8.237403380917385e-05 0.0 -0.0 1 True False
8372.418 4.802292346954346 -1.2987061005881806 1.8372038046466272 -2.1092807255186976 -1.5708330313311976 1.6607288122177124 -1.6674035578034818e-05 0.00012482258898671716 1.8301992895430885e-05 -7.286315667442977e-05 0.0 -0.0 1 True False
8372.438 4.802366733551025 -1.2987648111632843 1.8372038046466272 -2.1092683277525843 -1.5707886854754847 1.6608315706253052 -3.170368290739134e-05 0.0001041813738993369 1.5209092453005724e-05 -1.3786425334672003e-09 0.0 -0.0 1 True False
8372.457999999999 4.802343368530273 -1.2986897987178345 1.837191406880514 -2.109260221520895 -1.570772949849264 1.6607288122177124 -2.3897319365061894e-16 0.00010216930240858346 2.6020908990176395e-05 -4.093313849130498e-17 0.0 -0.0 1 True False
8372.478 4.802276134490967 -1.2987061899951478 1.8371871153460901 -2.109260221520895 -1.5708444754229944 1.6607542037963867 -1.8678287038921257e-36 8.947312744567171e-05 2.2734413505531847e-05 -6.31976654403843e-05 0.0 -0.0 1 True False
8372.498 4.802334308624268 -1.298757092361786 1.8371737639056605 -2.1092683277525843 -1.5707967917071741 1.6607942581176758 0.0 7.958367496030405e-05 2.0185019820928574e-05 -5.542412691283971e-05 0.0 -0.0 1 True False
8372.518 4.80233097076416 -1.2986557346633454 1.8371952215777796 -2.1092807255186976 -1.5707967917071741 1.6607242822647095 0.0 1.973725646127993e-24 8.492921429433052e-16 -8.816683475743048e-06 0.0 -0.0 1 True False
8372.538 4.8023223876953125 -1.2987426084331055 1.8371871153460901 -2.109293123284811 -1.5707810560809534 1.6607823371887207 0.0 2.3452118719236026e-11 1.195951843506936e-27 -2.6177524774587124e-13 0.0 -0.0 1 True False
8372.557999999999 4.802383899688721 -1.298715041284897 1.837219540272848 -2.1093045673766078 -1.5708006064044397 1.6607288122177124 0.0 1.833031331138361e-31 -0.0002112677611876279 -7.772342516325968e-21 0.0 -0.0 1 True False
8372.578 4.8023223876953125 -1.2987300616553803 1.8372152487384241 -2.109260221520895 -1.5707810560809534 1.660698413848877 0.0 0.0 -6.949819362489507e-05 -2.307678389055195e-28 0.0 -0.0 1 True False
8372.598 4.802334308624268 -1.2987603408149262 1.8371618429767054 -2.1092807255186976 -1.5707967917071741 1.6607317924499512 0.0 0.0 -2.1104157917756217e-12 -6.851704310314605e-36 0.0 -0.0 1 True False
8372.618 4.802297115325928 -1.298701749449112 1.83722430864443 -2.109316965142721 -1.570784870778219 1.6607526540756226 0.0 0.0 -2.971833878611141e-24 -2.0318827732709848e-43 0.0 -0.0 1 True False
8372.637999999999 4.802338600158691 -1.298689828520157 1.8372023741351526 -2.1092521152892054 -1.570801083241598 1.6607706546783447 0.0 0.0 -4.184860692733673e-36 -0.0 0.0 -0.0 1 True False
8372.658 4.802334308624268 -1.2986645859530945 1.8371871153460901 -2.1092688045897425 -1.5707805792437952 1.6607288122177124 0.0 0.0 -0.0 -0.0 0.0 -0.0 1 True False
8372.678 4.802375793457031 -1.298729107981064 1.8371666113482874 -2.1093207798399867 -1.5708006064044397 1.6607072353363037 0.0 0.0 -0.0 -0.0 0.0 -0.0 1 True False
8372.698 4.802392482757568 -1.2987211507609864 1.8372038046466272 -2.1093012295165003 -1.570784870778219 1.6607660055160522 0.0 0.0 -0.0 -0.0 0.0 -0.0 1 True False
8372.717999999999 4.802334308624268 -1.298730031853058 1.837264362965719 -2.1092645130553187 -1.5707967917071741 1.6607332229614258 0.0 0.0 -0.0 -0.0 0.0 -0.0 1 True False
8372.738 4.802346706390381 -1.2986511153033753 1.8371694723712366 -2.1093331776061 -1.5708006064044397 1.6607332229614258 0.0 0.0 -0.0 -0.0 0.0 -0.0 1 True False
8372.758 4.8023176193237305 -1.298730031853058 1.8372066656695765 -2.109260221520895 -1.5707810560809534 1.6607451438903809 0.0 0.0 -0.0 -0.0 0.0 -0.0 1 True False
8372.778 4.8023176193237305 -1.298673467045166 1.8372152487384241 -2.1093083820738734 -1.570784870778219 1.6607117652893066 0.0 0.0 -0.0 -0.0 0.0 -0.0 1 True False
8372.797999999999 4.802301406860352 -1.2987212401679535 1.8372438589679163 -2.109260221520895 -1.5707767645465296 1.6607823371887207 0.0 0.0 -0.0 -0.0 0.0 -0.0 1 True False
8372.818 4.802368640899658 -1.2986808878234406 1.8371871153460901 -2.109293123284811 -1.5707648436175745 1.6607614755630493 0.0 0.0 -0.0 -0.0 0.0 -0.0 1 True False
8372.838 4.802302837371826 -1.298689828520157 1.8372395674334925 -2.10927214244985 -1.5707967917071741 1.660757064819336 0.0 0.0 -0.0 -0.0 0.0 -0.0 1 True False
8372.858 4.802350997924805 -1.298680917625763 1.8372319380389612 -2.1092640362181605 -1.5707886854754847 1.6607288122177124 0.0 0.0 -0.0 -0.0 0.0 -0.0 1 True False
8372.877999999999 4.802334308624268 -1.2986853581717988 1.8371880690204065 -2.109300275842184 -1.570813004170553 1.6607073545455933 0.0 0.0 -0.0 -0.0 0.0 -0.0 1 True False
8372.898 4.802379131317139 -1.2986066800406952 1.8372109572040003 -2.1092845402159632 -1.5707767645465296 1.6607362031936646 0.0 0.0 -0.0 -0.0 0.0 -0.0 1 True False
8372.918 4.8023176193237305 -1.298689828520157 1.8371999899493616 -2.1093083820738734 -1.5707805792437952 1.6607288122177124 0.0 0.0 -0.0 -0.0 0.0 -0.0 1 True False
8372.938 4.802350997924805 -1.2986928981593628 1.8372600714312952 -2.109248777429098 -1.570784870778219 1.6608033180236816 0.0 0.0 -0.0 -0.0 0.0 -0.0 1 True False
8372.957999999999 4.802379131317139 -1.2986557644656678 1.8371384779559534 -2.1093250713744105 -1.5707925001727503 1.6607526540756226 0.0 0.0 -0.0 -0.0 0.0 -1.280644482903881e-06 1 True False
8372.978 4.802301406860352 -1.2986838680556794 1.8372438589679163 -2.1092635593810023 -1.5708168188678187 1.6608389616012573 0.0 0.0 0.0006117124576121569 0.00019205147691536695 0.0 0.0010530345607548952 1 True False
8372.998 4.802380084991455 -1.2986452144435425 1.8372319380389612 -2.10929598430776 -1.570784870778219 1.6607526540756226 0.0 0.0 -8.798548515187576e-05 0.0001542724930914119 0.00012127791706006974 0.0003948509693145752 1 True False
8373.018 4.802342891693115 -1.2987017196467896 1.837191406880514 -2.109300275842184 -1.570772949849264 1.660785436630249 0.0 0.0 -8.889584569260478e-05 4.580490067102039e-12 0.00010142002429347485 0.00021015685342717916 1 True False
8373.038 4.802346706390381 -1.2986482840827485 1.837226692830221 -2.109312673608297 -1.570829216633932 1.6607824563980103 0.0 0.0 -3.943480351153994e-06 8.427983993897215e-05 3.279365773778409e-05 0.00014323148934636265 1 True False
8373.057999999999 4.8023552894592285 -1.2986973089030762 1.8372395674334925 -2.1092874012389125 -1.5707925001727503 1.6607660055160522 0.0 0.0 -5.553106643168565e-18 5.258073360892013e-05 2.4033539375523105e-05 0.0001086428455892019 1 True False
8373.078 4.802326679229736 -1.2987105709365387 1.8371699492083948 -2.109340807000631 -1.5708211104022425 1.660764455795288 0.0 0.0 -7.819745771952506e-30 3.7028399674454704e-05 1.8967592041008174e-05 8.751209679758176e-05 1 True False
8373.098 4.802334308624268 -1.2986571353724976 1.8372352758990687 -2.1093489132323207 -1.5707886854754847 1.6607942581176758 0.0 0.0 -1.1011403332664413e-41 5.5849890486570075e-05 1.5665678802179173e-05 7.326331251533702e-05 1 True False
8373.118 4.802330017089844 -1.2987150114825745 1.8371871153460901 -2.109340807000631 -1.570801083241598 1.6607733964920044 0.0 0.0 -0.0 4.629747127182782e-05 1.3343005775823258e-05 6.300510722212493e-05 1 True False
8373.137999999999 4.802318096160889 -1.2987017196467896 1.8372190634356897 -2.1092807255186976 -1.570756737385885 1.6607407331466675 0.0 0.0 -0.0 5.2690127631649375e-05 1.1620169061643537e-05 5.526682434719987e-05 1 True False
8373.158 4.802380084991455 -1.2987300020507355 1.8372395674334925 -2.1093279323973597 -1.5707967917071741 1.6607853174209595 0.0 0.0 -0.0 4.596559301717207e-05 1.0291381840943359e-05 8.794162567937747e-06 1 True False
8373.178 4.802334308624268 -1.2987017196467896 1.837264362965719 -2.1093598804869593 -1.5707686583148401 1.6607526540756226 0.0 0.0 -0.0 4.076103869010694e-05 3.4807937782099785e-11 1.703140753428478e-11 1 True False
8373.198 4.802358150482178 -1.2987092298320313 1.8372190634356897 -2.109364172021383 -1.5708087126361292 1.6607645750045776 0.0 0.0 -0.0 8.573299419367686e-05 1.0334792505285996e-18 5.05677894028993e-19 1 True False
8373.217999999999 4.802309036254883 -1.2987061005881806 1.8372023741351526 -2.109328409234518 -1.5708044211017054 1.6607526540756226 0.0 0.0 -1.9925597371184267e-05 0.0002721084747463465 3.0684917357548523e-26 1.5014033697217795e-26 1 True False
8373.238 4.802364349365234 -1.2987470489791413 1.8372309843646448 -2.1093083820738734 -1.5708373228656214 1.6607942581176758 0.0 0.0 -1.6778354726897874e-15 0.00018364432617090642 9.110627640074868e-34 4.457801512684437e-34 1 True False
8373.258 4.802326679229736 -1.298623726969101 1.8372038046466272 -2.1092645130553187 -1.570784870778219 1.6607733964920044 0.0 0.0 -2.3626859816065567e-27 0.00013703011791221797 2.705066555532627e-41 1.3235263995547897e-41 1 True False
8373.278 4.802342891693115 -1.2986734074405213 1.837186638508932 -2.109364172021383 -1.5707925001727503 1.660757064819336 0.0 0.0 -3.327074917877127e-39 0.00010929205018328503 0.0 0.0 1 True False
8373.297999999999 4.8023834228515625 -1.2987343829921265 1.8372319380389612 -2.109300275842184 -1.570784870778219 1.6607317924499512 0.0 0.0 -0.0 9.089414379559457e-05 0.0 0.0 1 True False
8373.318 4.8023834228515625 -1.2986690264991303 1.8372438589679163 -2.10927214244985 -1.5707805792437952 1.6607615947723389 0.0 0.0 -0.0 7.779824227327481e-05 0.0 0.0 1 True False
8373.338 4.8023552894592285 -1.298731343155243 1.8371785322772425 -2.109288831750387 -1.5707686583148401 1.6607615947723389 0.0 0.0 -0.0 7.933429878903553e-05 0.0 0.0 1 True False
8373.358 4.802342891693115 -1.2986973089030762 1.8372190634356897 -2.109272619287008 -1.5708168188678187 1.6608033180236816 0.0 0.0 -0.0 7.046126847853884e-05 0.0 0.0 1 True False
8373.377999999999 4.802330017089844 -1.2986675661853333 1.8372233549701136 -2.109336038629049 -1.570829216633932 1.660764455795288 0.0 0.0 -0.0 1.1707958387507933e-11 0.0 0.0 1 True False
8373.398 4.80233097076416 -1.298694209461548 1.8372233549701136 -2.1092964611449183 -1.570813004170553 1.6607869863510132 0.0 0.0 -0.0 3.476197314438718e-19 0.0 0.0 1 True False
8373.418 4.802380084991455 -1.298718051319458 1.8371785322772425 -2.109324117700094 -1.570772949849264 1.6607526540756226 0.0 0.0 -0.0 1.8432923809541535e-07 0.0 0.0 1 True False
8373.438 4.802335262298584 -1.2986690563014527 1.8371995131122034 -2.109244485894674 -1.570801083241598 1.6608017683029175 0.0 0.0 -0.0 5.472900100776321e-15 0.0 0.0 1 True False
8373.498 4.8023552894592285 -1.2987224620631714 1.8372109572040003 -2.1092645130553187 -1.5707724730121058 1.6607645750045776 0.0 0.0 -0.0 1.4324770188444128e-37 0.0 0.0 1 True False
8373.518 4.802330017089844 -1.2986809772304078 1.8372762838946741 -2.1092363796629847 -1.5707805792437952 1.6608017683029175 0.0 0.0 -5.916289051548229e-13 4.203895392974451e-45 0.0 0.0 1 True False
8373.538 4.802318096160889 -1.2986765664866944 1.8372276465045374 -2.1092807255186976 -1.570784870778219 1.6607898473739624 0.0 0.0 -8.331167908648158e-25 0.0 0.0 0.0 1 True False
8373.557999999999 4.802372455596924 -1.2987104815295716 1.8372066656695765 -2.109260698358053 -1.570801083241598 1.6607437133789062 0.0 0.0 -1.1731742489808742e-36 0.0 0.0 0.0 1 True False
8373.578 4.802334308624268 -1.298660234814026 1.8371933142291468 -2.109276433984274 -1.5707686583148401 1.660768985748291 0.0 0.0 -0.0 0.0 0.0 0.0 1 True False
8373.598 4.802313804626465 -1.2986395520022889 1.837191406880514 -2.1093207798399867 -1.5708254019366663 1.6607898473739624 0.0 0.0 -0.0 0.0 0.0 0.0 1 True False
8373.618 4.802334308624268 -1.2986646753600617 1.837186638508932 -2.1092168293394984 -1.5707967917071741 1.6607898473739624 0.0 0.0 -0.0 0.0 0.0 0.0 1 True False
8373.637999999999 4.802334308624268 -1.2986897689155121 1.8372066656695765 -2.1092802486815394 -1.5708254019366663 1.6608017683029175 0.0 0.0 -0.0 0.0 0.0 0.0 1 True False
8373.658 4.802338600158691 -1.2986690264991303 1.8371995131122034 -2.109312196771139 -1.570813004170553 1.660752534866333 0.0 0.0 -0.0 3.589482275856426e-07 0.0 0.0 1 True False
8373.678 4.802306175231934 -1.2986690563014527 1.837236229573385 -2.109288831750387 -1.5707767645465296 1.660757064819336 0.0 0.0 -0.0 1.065749729136159e-14 0.0 0.0 1 True False
8373.698 4.802391052246094 -1.2987017196467896 1.8371828238116663 -2.109288831750387 -1.570784870778219 1.6607407331466675 0.0 -1.2472284538489475e-08 -0.0 3.1643066309263863e-22 0.0 0.0 1 True False
8373.717999999999 4.802351474761963 -1.2986646753600617 1.8372319380389612 -2.109272619287008 -1.5707891623126429 1.6607733964920044 0.0 -9.748414599369249e-29 -1.5850158288544279e-16 9.395111327478194e-30 0.0 0.0 1 True False
8373.738 4.802374839782715 -1.2986809772304078 1.8372319380389612 -2.109276433984274 -1.5707805792437952 1.6608270406723022 0.0 0.0 -2.2319789903673254e-28 2.789492433826777e-37 0.0 0.0 1 True False
8373.758 4.802350997924805 -1.298755721454956 1.8371909300433558 -2.109248777429098 -1.5707886854754847 1.6607288122177124 0.0 9.918544429937e-23 -3.143014364588062e-40 8.407790785948902e-45 0.0 0.0 1 True False
8373.778 4.802334308624268 -1.2987092298320313 1.8371785322772425 -2.1093245945372523 -1.5707767645465296 1.6607437133789062 0.0 7.749180507716238e-43 -0.0 0.0 0.0 0.0 1 True False
8373.797999999999 4.802371025085449 -1.2986483436873932 1.8372038046466272 -2.1093083820738734 -1.5708044211017054 1.660780906677246 0.0 0.0 -0.0 2.5112443836405873e-05 0.0 0.0 1 True False
8373.818 4.8024115562438965 -1.298704819088318 1.8371828238116663 -2.1092802486815394 -1.5707805792437952 1.6607108116149902 0.0 0.0 -0.0 -2.885318206580223e-09 1.4655626046078396e-07 0.00029455823823809624 1 True False
8373.838 4.802326679229736 -1.2987299424460907 1.8371828238116663 -2.109312673608297 -1.5707486311541956 1.6607153415679932 0.0 0.0 -0.0 -8.566770791032806e-17 4.351388244546632e-15 1.2488396428089743e-10 1 True False
8373.858 4.802342891693115 -1.2986973089030762 1.8372152487384241 -2.1092802486815394 -1.570772949849264 1.6607208251953125 0.0 0.0 -0.0 -2.543551826835791e-24 1.2919664769654472e-22 3.707918573059283e-18 1 True False
8373.877999999999 4.802318096160889 -1.2986973089030762 1.8372066656695765 -2.109276910821432 -1.5708487669574183 1.6607072353363037 0.0 0.0 -0.0 -7.552035749760362e-32 -5.861140461860259e-10 1.1009145578038136e-25 1 True False
8373.898 4.802363872528076 -1.2987514001182099 1.8372324148761194 -2.1092564068236292 -1.5707767645465296 1.6607451438903809 0.0 0.0 -0.0 -2.2422667182123912e-39 -2.8523009731884486e-08 3.2687144064048126e-33 1 True False
8373.918 4.8023834228515625 -1.2987381976893921 1.8371952215777796 -2.109336038629049 -1.5707925001727503 1.6607823371887207 0.0 0.0 -0.0 -0.0 3.343141725054011e-05 9.705112904220818e-41 1 True False
8373.938 4.802379131317139 -1.298701749449112 1.8372109572040003 -2.1092969379820765 -1.5707686583148401 1.660768985748291 0.0 0.0 -0.0 -0.0 9.92608772953929e-13 0.0 1 True False
8373.957999999999 4.802353858947754 -1.298700289135315 1.8372109572040003 -2.1093083820738734 -1.570784870778219 1.660780906677246 0.0 0.0 -0.0 -0.0 2.9471440330067095e-20 0.0 1 True False
8373.978 4.802334308624268 -1.2986973387053986 1.8372324148761194 -2.1092850170531214 -1.5708335081683558 1.660773515701294 0.0 0.0 -0.0 -0.0 8.750335590947077e-28 0.0 1 True False
8373.998 4.8023552894592285 -1.2987060707858582 1.8372038046466272 -2.1092645130553187 -1.5708487669574183 1.6607153415679932 0.0 0.0 -0.0 -0.0 2.598053736958419e-35 0.0 1 True False
8374.018 4.802359580993652 -1.2987016898444672 1.8372696081744593 -2.1092730961241664 -1.570813004170553 1.6607495546340942 0.0 0.0 -0.0 -0.0 7.707141553786494e-43 0.0 1 True False
8374.038 4.802326679229736 -1.2986559134772797 1.8371828238116663 -2.1092525921263636 -1.5707886854754847 1.6606863737106323 0.0 0.0 -0.0 -0.0 0.0 0.0 1 True False
8374.057999999999 4.802387714385986 -1.2986853879741211 1.8372200171100062 -2.1092564068236292 -1.5708087126361292 1.6607495546340942 0.0 0.0 -0.0 -0.0 0.0 0.0 1 True False
8374.078 4.802346706390381 -1.2987299126437684 1.8372562567340296 -2.109312196771139 -1.5707686583148401 1.6607496738433838 0.0 0.0 -0.0 -0.0 0.0 0.0 1 True False
8374.098 4.802334308624268 -1.2986676555923005 1.8371780554400843 -2.1093083820738734 -1.570784870778219 1.660785436630249 0.0 0.0 -0.0 -0.0 0.0 0.0 1 True False
8374.118 4.802326679229736 -1.298673467045166 1.8371780554400843 -2.1093012295165003 -1.5707767645465296 1.6607378721237183 0.0 0.0 -9.985330484419677e-16 -0.0 0.0 0.0 1 True False
8374.137999999999 4.80232572555542 -1.2986973089030762 1.8371737639056605 -2.1092845402159632 -1.5707843939410608 1.6607495546340942 0.0 0.0 -1.4061089338524824e-27 -0.0 0.0 0.0 1 True False
8374.158 4.80233097076416 -1.298664705162384 1.8372200171100062 -2.10929598430776 -1.570801083241598 1.6607660055160522 0.0 0.0 -1.9800473417771454e-39 -0.0 0.0 0.0 1 True False
8374.178 4.802289962768555 -1.2987092298320313 1.8371995131122034 -2.1093207798399867 -1.570801083241598 1.6607242822647095 0.0 0.0 -0.0 -0.0 0.0 0.0 1 True False
8374.198 4.802350997924805 -1.2987179917148133 1.8371828238116663 -2.10927214244985 -1.5707605520831507 1.660757064819336 0.0 0.0 -0.0 -0.0 0.0 0.0 1 True False
8374.217999999999 4.802383899688721 -1.2986722153476258 1.8372200171100062 -2.1092845402159632 -1.570768181477682 1.6607407331466675 0.0 0.0 -0.0 -0.0 0.0 0.0 1 True False
8374.238 4.8023834228515625 -1.2987223130515595 1.8372109572040003 -2.1093250713744105 -1.570853058491842 1.6608034372329712 0.0 0.0 -0.0 -0.0 0.0 0.0 1 True False
8374.258 4.802300453186035 -1.2987048786929627 1.8371904532061976 -2.1093207798399867 -1.5707891623126429 1.660757064819336 0.0 0.0 -0.0 -0.0 0.0 0.0 1 True False
8374.278 4.802387714385986 -1.2986526948264618 1.8371861616717737 -2.1093083820738734 -1.5708168188678187 1.6607071161270142 0.0 0.0 -0.0 -0.0 0.0 0.0 1 True False
8374.297999999999 4.802298545837402 -1.2987211507609864 1.8371952215777796 -2.109276433984274 -1.5707443396197718 1.6607422828674316 0.0 0.0 -0.0 -0.0 0.0 0.0 1 True False
8374.318 4.80228853225708 -1.2987267237952729 1.8372152487384241 -2.109312673608297 -1.5707805792437952 1.6607495546340942 0.0 0.0 -0.0 -0.0 0.0 0.0 1 True False
8374.338 4.8023223876953125 -1.2987299126437684 1.8372324148761194 -2.109276433984274 -1.5707805792437952 1.6607987880706787 -1.9223522031097673e-05 -0.0013494034064933658 -0.0 0.0016583327669650316 0.0 0.0 1 True False
8374.358 4.802257061004639 -1.2987825137427826 1.8371871153460901 -2.1090570888915003 -1.5707843939410608 1.6607424020767212 -0.006881539709866047 -0.005319789983332157 -0.0008913974743336439 0.010891865938901901 0.0 -7.096511581039522e-06 1 True False
8374.377999999999 4.802097797393799 -1.2988444727710267 1.8371661345111292 -2.1088229618468226 -1.5707891623126429 1.6605384349822998 -0.011147643439471722 -0.011919621378183365 -0.004759594332426786 0.015681089833378792 0.0 -0.011998488567769527 1 True False
8374.398 4.80194091796875 -1.2991324824145813 1.8370268980609339 -2.1084519825377406 -1.5707605520831507 1.6603270769119263 -0.014124913141131401 -0.01601991429924965 -0.00936926156282425 0.018899301066994667 0.0 -0.015725191682577133 1 True False
8374.418 4.801572322845459 -1.2996046108058472 1.8367989698993128 -2.1079312763609828 -1.5708044211017054 1.6599619388580322 -0.018994875252246857 -0.023938564583659172 -0.013634230941534042 0.030852124094963074 0.0 -0.01677987538278103 1 True False
8374.438 4.801198482513428 -1.3000745934299012 1.8365591208087366 -2.1071678600706996 -1.5707648436175745 1.659542202949524 -0.024438954889774323 -0.03367968648672104 -0.014188620261847973 0.046327393501996994 0.0 -0.024620849639177322 1 True False
8374.457999999999 4.800568103790283 -1.3008999091437836 1.8362377325641077 -2.1060453854002894 -1.570824925099508 1.6589314937591553 -0.03649870678782463 -0.04723557457327843 -0.018667297437787056 0.06216498464345932 0.0 -0.034168779850006104 1 True False
8374.478 4.799777507781982 -1.301907168035843 1.8358171621905726 -2.1045614681639613 -1.5707529226886194 1.6580816507339478 -0.04760731756687164 -0.05862290784716606 -0.025769682601094246 0.08050183951854706 0.0 -0.04452266916632652 1 True False
8374.498 4.798675060272217 -1.3032820683768769 1.8352201620685022 -2.1027475796141566 -1.570813004170553 1.6570109128952026 -0.06039697304368019 -0.07304202020168304 -0.03255085274577141 0.10565472394227982 0.0 -0.058127209544181824 1 True False
8374.518 4.797333717346191 -1.3048984569362183 1.8345454374896448 -2.100236555139059 -1.570784870778219 1.6557786464691162 -0.0726403072476387 -0.0928669199347496 -0.0385780930519104 0.12760289013385773 0.0 -0.07036787271499634 1 True False
8374.538 4.795751094818115 -1.3069555324367066 1.83368426958193 -2.097459455529684 -1.5707967917071741 1.6541352272033691 -0.08772222697734833 -0.11010631918907166 -0.04990734905004501 0.15600308775901794 0.0 -0.08614925295114517 1 True False
8374.557999999999 4.793734550476074 -1.309420869951584 1.832616154347555 -2.093910356561178 -1.5707767645465296 1.652192234992981 -0.10517603158950806 -0.13216084241867065 -0.057379335165023804 0.19535799324512482 0.0 -0.10431890189647675 1 True False
8374.578 4.791399955749512 -1.3123634320548554 1.831456486378805 -2.0898128948607386 -1.5708087126361292 1.649848222732544 -0.12545177340507507 -0.15174517035484314 -0.06876341998577118 0.21931582689285278 -2.3344340661424212e-05 -0.12219058722257614 1 True False
8374.598 4.78878116607666 -1.315778301363327 1.8299320379840296 -2.0847226581969203 -1.5707562605487269 1.6471118927001953 -0.143884539604187 -0.17778164148330688 -0.08250042051076889 0.2518659830093384 -4.1703904571477324e-05 -0.14484933018684387 1 True False
8374.618 4.785673141479492 -1.3196312350085755 1.8281710783587855 -2.0793878040709437 -1.5707925001727503 1.6440531015396118 -0.1639445424079895 -0.2014884203672409 -0.09067151695489883 0.28936299681663513 -1.2134162563626205e-09 -0.16057586669921875 1 True False
8374.637999999999 4.7823052406311035 -1.3238919538310547 1.8262985388385218 -2.0734435520567835 -1.570756737385885 1.6407338380813599 -0.17592526972293854 -0.2202431708574295 -0.09273713082075119 0.32219094038009644 -3.602741813710614e-17 -0.1742861270904541 1 True False
8374.658 4.778644561767578 -1.3284362715533753 1.8244145552264612 -2.066775461236471 -1.5708449522601526 1.637045979499817 -0.1958545595407486 -0.2413313090801239 -0.09767398238182068 0.35401421785354614 -1.0696861183640557e-24 -0.19066327810287476 1 True False
8374.678 4.774594783782959 -1.3334099364331742 1.8222664038287562 -2.0594269237914027 -1.5707967917071741 1.6330348253250122 -0.20732422173023224 -0.26160499453544617 -0.11432940512895584 0.37159064412117004 -2.8921739669840463e-08 -0.20809853076934814 1 True False
8374.698 4.7701640129089355 -1.3388717484525223 1.8196633497821253 -2.0517646274962367 -1.570784870778219 1.6286888122558594 -0.2218107432126999 -0.28213512897491455 -0.12161418050527573 0.40170228481292725 -8.587125257453123e-16 -0.22252464294433594 1 True False
8374.717999999999 4.765575408935547 -1.3447563511184235 1.8171642462359827 -2.0434638462462367 -1.570784870778219 1.623936414718628 -0.23410749435424805 -0.2939864695072174 -0.12678039073944092 0.43353623151779175 -6.402577128028497e-05 -0.23388247191905975 1 True False
8374.738 4.760655403137207 -1.3508907121470948 1.8145178000079554 -2.0345293484129847 -1.570801083241598 1.6190814971923828 -0.25060364603996277 -0.3132137656211853 -0.13379505276679993 0.4589448571205139 -1.9009828433613762e-12 -0.253239244222641 1 True False
8374.758 4.75547981262207 -1.3573979896358033 1.8116853872882288 -2.025224348107809 -1.5707767645465296 1.6138676404953003 -0.26883766055107117 -0.3378300070762634 -0.14394217729568481 0.47771966457366943 -5.59597865503747e-05 -0.2688170373439789 1 True False
8374.778 4.7499847412109375 -1.3643247348121186 1.8087123076068323 -2.0151597462096156 -1.5707891623126429 1.608312964439392 -0.28097447752952576 -0.3602347671985626 -0.1535889059305191 0.5104970932006836 -1.1788453235794805e-07 -0.2806047797203064 1 True False
8374.797999999999 4.7440505027771 -1.3716997665217896 1.8056214491473597 -2.0047370396056117 -1.570772949849264 1.602543830871582 -0.30131277441978455 -0.3735608160495758 -0.16142570972442627 0.5370566248893738 -3.500097897941195e-15 -0.3019462823867798 1 True False
8374.818 4.737837791442871 -1.379447029238083 1.802279297505514 -1.9938060245909632 -1.5708773771869105 1.5963441133499146 -0.29522064328193665 -0.37088271975517273 -0.15591531991958618 0.5411350131034851 -1.0392106466583312e-22 -0.30247846245765686 1 True False
8374.838 4.732030868530273 -1.3867587459138413 1.7990253607379358 -1.9832703075804652 -1.5708006064044397 1.5904146432876587 -0.2840515971183777 -0.35536956787109375 -0.15780040621757507 0.5176915526390076 0.0018355675274506211 -0.28301337361335754 1 True False
8374.858 4.726440906524658 -1.393630937939026 1.7962301413165491 -1.9732099972166957 -1.5707805792437952 1.584899663925171 -0.2688198983669281 -0.33936333656311035 -0.14134405553340912 0.49511122703552246 6.30515660304809e-06 -0.26803550124168396 1 True False
8374.877999999999 4.721246242523193 -1.4001517605832596 1.7934721151935022 -1.963632722894186 -1.570813004170553 1.5796624422073364 -0.25767508149147034 -0.3203221559524536 -0.14240144193172455 0.45020121335983276 -0.00013594199845101684 -0.2571260333061218 1 True False
8374.898 4.716328144073486 -1.4065326017192383 1.7906444708453577 -1.9549318752684535 -1.5708087126361292 1.5747336149215698 -0.24251405894756317 -0.30415278673171997 -0.1297949105501175 0.43597695231437683 -4.4204907095890533e-11 -0.24040906131267548 1 True False
8374.918 4.711613178253174 -1.4123897415450593 1.7879932562457483 -1.946585317651266 -1.5707925001727503 1.5700900554656982 -0.22813118994235992 -0.2793005704879761 -0.1265210211277008 0.4066177308559418 8.968438487499952e-05 -0.22871243953704834 1 True False
8374.938 4.707230567932129 -1.4177241188338776 1.7857053915606897 -1.9386874637999476 -1.5707486311541956 1.56575345993042 -0.20931857824325562 -0.25788989663124084 -0.11360997706651688 0.3782310485839844 -7.251255738083273e-05 -0.210584357380867 1 True False
8374.957999999999 4.703292369842529 -1.422659696345665 1.78359300294985 -1.931479116479391 -1.5708044211017054 1.561643123626709 -0.19112832844257355 -0.24708279967308044 -0.09968274086713791 0.3395058512687683 -3.850243228953332e-05 -0.18988370895385742 1 True False
8374.978 4.699582576751709 -1.4273820978454133 1.7815988699542444 -1.9249221287169398 -1.570768181477682 1.5579777956008911 -0.1769353300333023 -0.2264215648174286 -0.09945236891508102 0.3166790008544922 -1.143171928646991e-12 -0.17942063510417938 1 True False
8374.998 4.696152687072754 -1.4316411030343552 1.7796319166766565 -1.918802400628561 -1.5707843939410608 1.5546272993087769 -0.16392731666564941 -0.2041175365447998 -0.09157511591911316 0.2928318381309509 -3.394179577894215e-20 -0.16250130534172058 1 True False
