Andreas691667/Digital_Twin_UR/data_analysis/busters_stuff/old/dt_traj_2_blocks.csv
actual_q_0 actual_q_1 actual_q_2 actual_q_3 actual_q_4 actual_q_5 actual_qd_0 actual_qd_1 actual_qd_2 actual_qd_3 actual_qd_4 actual_qd_5 actual_qdd_0 actual_qdd_1 actual_qdd_2 actual_qdd_3 actual_qdd_4 actual_qdd_5 timestamp
3.71207804710797 -0.8254843255005873 0.8429764792549035 -1.5882884806323445 -1.570796326807946 2.141281720311417 0.0 0.0 0.0 0.0 0.0 0.0 0.0 0.0 0.0 0.0 0.0 0.0 100.0
3.71229301392248 -0.8256613060197514 0.8432220918640794 -1.588357112723773 -1.5707963268076142 2.1414966871259415 0.02224249590420347 -0.018312075199171208 0.025413399114971206 -0.007101324062381582 3.431907263829419e-11 0.022242495905693483 1.5111813393738243 -1.2441439326495733 1.7266162339877495 -0.4824723112971016 2.3316781704252815e-09 1.5111813394750573 100.05
3.7137234567242414 -0.8268389785375653 0.8448564594273631 -1.5888138077786695 -1.570796326805407 2.1429271299277985 0.08381341882241378 -0.06900294080241332 0.09576190877579115 -0.0267589685257216 1.2931996575467947e-10 0.08381341882802838 2.75568361885815 -2.2687330536551045 3.148535485507073 -0.8798024500123618 4.251883722540219e-09 2.7556836190427516 100.10000262013064
3.7173863952221713 -0.8298546475305111 0.849041588577545 -1.589983267960045 -1.5707963267997553 2.1465900684259736 0.1773242580044457 -0.14598969293733727 0.20260370782316148 -0.05661401605441926 2.736025721751897e-10 0.17732425801632454 3.7496692057190075 -3.087073715237444 4.284224238343935 -1.1971505478174072 5.785554390787865e-09 3.7496692059701955 100.15000524026128
3.7240943457026363 -0.8353772513857457 0.8567058283974703 -1.5921249039689422 -1.5707963267894054 2.1532980189068884 0.29584828462200047 -0.24356960922357832 0.33802458892023984 -0.09445498164634879 4.564792914242313e-10 0.29584828464181917 4.5093004672224275 -3.7124722696174435 5.152148976284301 -1.4396767363838647 6.957627909611269e-09 4.509300467524502 100.20000786039192
3.734468514798651 -0.8439182247294448 0.8685589451006815 -1.5954370473968218 -1.5707963267733984 2.163672188003598 0.4329205517686662 -0.35642014877279604 0.49463795855264026 -0.1382178126328595 6.679750297245841e-10 0.43292055179766725 5.050739770634439 -4.158235069015953 5.770776183114137 -1.612541147383361 7.793042013453481e-09 5.050739770972785 100.25001048052256
3.748951993259073 -0.8558423607551461 0.8851071967120591 -1.6000611630779464 -1.5707963267510512 2.17815566646499 0.5825378944599173 -0.47959895218867443 0.6655848370284329 -0.18598588867877577 8.988271999974005e-10 0.5825378944989411 5.390149483221073 -4.437668465653826 6.158572342619406 -1.7209039124875227 8.316734436757556e-09 5.390149483582157 100.3000131006532
3.7678229497178006 -0.8713786735520925 0.9066684077484635 -1.606086061441767 -1.5707963267219343 2.197026622924982 0.7391589296331146 -0.6085438415669214 0.8445338584781434 -0.23599002178239692 1.1404857218622053e-09 0.7391589296826304 5.543691972248361 -4.564078811751911 6.334003938586076 -1.7699251633679771 8.553642913966541e-09 5.54369197261973 100.35001572078384
3.79120782446297 -0.8906312604335768 0.9333870438993767 -1.613552110865306 -1.5707963266858525 2.2204114976717175 0.8977040561475061 -0.7390728204952698 1.0256812708547547 -0.28660845627549747 1.3851130216368974e-09 0.8977040562076428 5.527529604982331 -4.55077245953106 6.315537454800112 -1.7647650316963506 8.528705179523491e-09 5.527529605352617 100.40001834091449
3.8190945232061497 -0.9135901642652837 0.965249286707544 -1.6224554500255441 -1.5707963266428249 2.2482981964167656 1.0535554547842259 -0.8673840740534764 1.2037509359337053 -0.33636686882332684 1.625584032337748e-09 1.053555454854803 5.357824748689015 -4.411055761212124 6.121639375047477 -1.7105836491442696 8.266858967871453e-09 5.357824749047931 100.45002096104513
3.8513456108515407 -0.9401422357936349 1.0020981082496152 -1.632752200251804 -1.570796326593063 2.280549284064317 1.2025570882462948 -0.9900559688133224 1.3739943293128898 -0.38393836842460977 1.8554861936794004e-09 1.2025570883268535 5.05073977063444 -4.158235069015953 5.770776183114136 -1.6125411473833613 7.793042013453481e-09 5.050739770972786 100.50002358117575
3.8877115052651714 -0.9700819959741311 1.043648345816787 -1.6443626778781364 -1.5707963265369522 2.316915178480384 1.3410147011586202 -1.1040470528386128 1.5321905404126583 -0.42814349641154553 2.0691194520748715e-09 1.341014701248454 4.622437038084642 -3.805616735163401 5.281414362786059 -1.4757976580852525 7.132192050712628e-09 4.622437038394296 100.5500262013064
3.927843671044094 -1.0031224982996974 1.0895017765954431 -1.657175606595704 -1.5707963264750302 2.3570473442619946 1.4656958200679966 -1.2066960556851785 1.6746462724758193 -0.4679502264498092 2.2614962606355526e-09 1.4656958201661827 4.089078918305642 -3.3665071118753147 4.672020397849202 -1.3055133129215688 6.309246814091937e-09 4.089078918579569 100.60002882143704
3.9713078132855806 -1.0389061911290245 1.139162192347798 -1.6710523298051672 -1.5707963264079672 2.4005114865063932 1.5738297534431034 -1.2957218884008725 1.7981958425676343 -0.5024739645385501 2.4283415791712046e-09 1.5738297535485333 3.4668277785634785 -2.854212551372548 3.9610607720895428 -1.1068482435639388 5.3491440380344685e-09 3.4668277787957202 100.65003144156768
4.017597071356324 -1.0770157800149147 1.192050474092536 -1.6858310229690685 -1.5707963263365452 2.4468007445802376 1.663107591674508 -1.3692236435255731 1.9002011815758224 -0.5309775490103931 2.5660928741899617e-09 1.6631075917859184 2.7718459861241835 -2.282039405875954 3.16700196929304 -0.8849625816839894 4.27682145698327e-09 2.7718459863098683 100.70003406169832
4.066145212661629 -1.1169850900326241 1.2475196667854556 -1.701330905964219 -1.5707963262616378 2.4953488858887947 1.7316822070746647 -1.425680595091184 1.9785518342105606 -0.5528712505314378 2.671900118898336e-09 1.7316822071906688 2.0202959082537792 -1.6632940276063812 2.3083104732456556 -0.6450164589533454 3.117216805381393e-09 2.0202959083891163 100.75003668182896
4.116339826414613 -1.1583099281082057 1.3048700540001088 -1.7173564554340808 -1.57079632618419 2.5455434996451416 1.7781682538779136 -1.463952198621632 2.0316649590044804 -0.5677127721012596 2.743625793201207e-09 1.7781682539970323 1.228339912218301 -1.0112827687846762 1.4034527677333606 -0.392170007043635 1.8952678176718907e-09 1.228339912300587 100.8000393019596
4.167535517405401 -1.2004589453468544 1.3633642326084436 -1.7337016171411548 -1.5707963261051976 2.596739190639359 1.8016421682404813 -1.4832780911328678 2.058485328312668 -0.575207249052908 2.779844883701828e-09 1.8016421683611714 0.41214036528377507 -0.3393119816317007 0.4708953365421154 -0.13158335762648396 6.359122282978074e-10 0.4121403653113825 100.85004192209024
4.2190670997703235 -1.2428844993612491 1.4222421874614457 -1.7501540183193636 -1.5707963260256868 2.648270773007733 1.801642168240481 -1.4832780911328673 2.058485328312668 -0.5752072490529082 2.779844883701829e-09 1.801642168361172 -0.412140365283764 0.3393119816317033 -0.4708953365421084 0.13158335762648143 -6.359122282978057e-10 -0.41214036531137505 100.90004454222088
4.2702627907611115 -1.2850335165998978 1.4807363660697805 -1.7664991800264374 -1.5707963259466944 2.699466464001951 1.7781682538779144 -1.4639521986216324 2.031664959004481 -0.5677127721012599 2.7436257932012084e-09 1.7781682539970325 -1.2283399122182936 1.011282768784686 -1.4034527677333606 0.39217000704363425 -1.895267817671889e-09 -1.2283399123005758 100.95004716235152
4.320457404514095 -1.3263583546754794 1.5380867532844338 -1.7825247294962994 -1.5707963258692466 2.7496610777582973 1.7316822070746656 -1.4256805950911842 1.9785518342105615 -0.5528712505314382 2.6719001188983364e-09 1.7316822071906695 -2.0202959082537757 1.6632940276063874 -2.3083104732456556 0.6450164589533438 -3.1172168053813913e-09 -2.0202959083891128 101.00004978248217
4.3690055458194 -1.3663276646931883 1.5935559459773527 -1.7980246124914496 -1.5707963257943391 2.7982092190668544 1.66310759167451 -1.3692236435255736 1.9002011815758253 -0.5309775490103936 2.5660928741899646e-09 1.6631075917859195 -2.7718459861241795 2.2820394058759637 -3.167001969293044 0.8849625816839887 -4.276821456983275e-09 -2.7718459863098572 101.0500524026128
4.415294803890144 -1.404437253579079 1.6464442277220916 -1.8128033056553514 -1.5707963257229172 2.844498477140699 1.573829753443103 -1.2957218884008699 1.798195842567632 -0.5024739645385494 2.428341579171202e-09 1.5738297535485322 -3.4668277785634714 2.854212551372555 -3.961060772089539 1.1068482435639353 -5.349144038034459e-09 -3.4668277787957096 101.10005502274345
4.458758946131631 -1.4402209464084064 1.6961046434744462 -1.8266800288648144 -1.5707963256558541 2.887962619385098 1.4656958200679975 -1.206696055685179 1.6746462724758198 -0.46795022644980955 2.261496260635554e-09 1.465695820166183 -4.089078918305638 3.3665071118753254 -4.672020397849213 1.305513312921568 -6.309246814091944e-09 -4.08907891857957 101.15005764287409
4.498891111910552 -1.4732614487339721 1.7419580742531022 -1.8394929575823817 -1.5707963255939321 2.9280947851667083 1.3410147011586213 -1.1040470528386144 1.5321905404126608 -0.4281434964115457 2.069119452074876e-09 1.341014701248456 -4.622437038084633 3.8056167351634116 -5.281414362786066 1.4757976580852525 -7.132192050712635e-09 -4.622437038394289 101.20006026300473
4.5352570063241835 -1.5032012089144686 1.783508311820274 -1.8511034352087141 -1.5707963255378214 2.964460679582775 1.2025570882462937 -0.9900559688133198 1.3739943293128887 -0.38393836842460916 1.8554861936793986e-09 1.202557088326853 -5.0507397706344275 4.158235069015962 -5.770776183114132 1.6125411473833595 -7.793042013453468e-09 -5.050739770972774 101.25006288313537
4.5675080939695745 -1.5297532804428196 1.8203571333623452 -1.8614001854349742 -1.5707963254880595 2.9967117672303267 1.0535554547842274 -0.867384074053477 1.203750935933706 -0.3363668688233272 1.6255840323377508e-09 1.0535554548548043 -5.357824748689009 4.41105576121214 -6.121639375047486 1.710583649144271 -8.266858967871462e-09 -5.357824749047931 101.30006550326601
4.595394792712755 -1.5527121842745264 1.8522193761705124 -1.8703035245952122 -1.570796325445032 3.0245984659753744 0.8977040561475093 -0.7390728204952701 1.0256812708547578 -0.28660845627549836 1.3851130216369009e-09 0.8977040562076446 -5.527529604982329 4.550772459531076 -6.3155374548001175 1.7647650316963481 -8.528705179523496e-09 -5.527529605352611 101.35006812339665
4.618779667457924 -1.571964771156011 1.878938012321426 -1.8777695740187514 -1.57079632540895 3.0479833407221104 0.7391589296331124 -0.6085438415669198 0.8445338584781422 -0.2359900217823964 1.1404857218622011e-09 0.7391589296826283 -5.5436919722483475 4.564078811751924 -6.334003938586078 1.7699251633679762 -8.55364291396654e-09 -5.543691972619715 101.40007074352728
4.6376506239166515 -1.587501083952957 1.9004992233578293 -1.8837944723825715 -1.5707963253798332 3.0668542971821013 0.5825378944599199 -0.4795989521886748 0.6655848370284364 -0.18598588867877655 8.988271999974042e-10 0.5825378944989438 -5.390149483221066 4.437668465653844 -6.15857234261941 1.7209039124875258 -8.316734436757566e-09 -5.3901494835821575 101.45007336365792
4.652134102377073 -1.5994252199786583 1.9170474749692072 -1.8884185880636966 -1.570796325357486 3.0813377756434948 0.432920551768664 -0.3564201487727954 0.4946379585526411 -0.13821781263285848 6.679750297245812e-10 0.4329205517976643 -5.0507397706344355 4.158235069015963 -5.770776183114135 1.6125411473833577 -7.793042013453473e-09 -5.0507397709727675 101.50007598378856
4.6625082714730866 -1.6079661933223566 1.9289005916724171 -1.8917307314915757 -1.570796325341479 3.0917119447402026 0.29584828462200086 -0.24356960922358076 0.3380245889202451 -0.0944549816463501 4.5647929142423973e-10 0.29584828464182267 -4.509300467222421 3.712472269617465 -5.152148976284317 1.4396767363838665 -6.957627909611277e-09 -4.509300467524493 101.5500786039192
4.669216221953553 -1.6134887971775926 1.9365648314923445 -1.8938723675004736 -1.570796325331129 3.0984198952211193 0.17732425800444734 -0.14598969293733458 0.20260370782316112 -0.05661401605441896 2.736025721751862e-10 0.17732425801632304 -3.749669205718998 3.0870737152374628 -4.284224238343936 1.1971505478174012 -5.785554390787848e-09 -3.749669205970186 101.60008122404984
4.672879160451482 -1.6165044661705374 1.9407499606425254 -1.8950418276818486 -1.5707963253254773 3.1020828337192934 0.08381341882241494 -0.06900294080241269 0.09576190877579348 -0.026758968525721273 1.2931996575467823e-10 0.08381341882802801 -2.755683618858131 2.2687330536551262 -3.1485354855070757 0.8798024500123597 -4.25188372254023e-09 -2.75568361904274 101.65008384418049
4.674309603253245 -1.6176821386883522 1.9423843282058086 -1.8954985227367454 -1.5707963253232702 3.1035132765211513 0.02224249590420162 -0.018312075199165716 0.025413399114970092 -0.0071013240623814256 3.431907263828741e-11 0.02224249590569033 -1.5111813393738 1.2441439326495891 -1.7266162339877449 0.48247231129709794 -2.3316781704252795e-09 -1.5111813394750326 101.70008646431113
4.674524570067754 -1.6178591192075156 1.9426299408149843 -1.8955671548281736 -1.5707963253229384 3.1037282433356754 0.0 3.552713678800501e-15 0.0 0.0 0.0 0.0 1.4210854715202004e-14 2.1316282072803006e-14 0.0 -3.552713678800501e-15 0.0 1.4210854715202004e-14 101.75008908444177
4.674524570067755 -1.6178591192075162 1.942629940814986 -1.8955671548281738 -1.5707963253229384 3.1037282433356754 0.0 0.0 0.0 0.0 0.0 0.0 0.0 0.0 0.0 0.0 0.0 0.0 101.80009170457241
4.6745245691269055 -1.617636283155423 1.942987154031751 -1.896147204327628 -1.5707963253111776 3.1037282423954453 -4.3685187699926036e-08 0.010346643863316091 0.01658599630722126 -0.026932650877488293 5.46068835901312e-10 -4.3656427716029685e-08 -1.3047309393044576e-06 0.3090197633843739 0.4953684230423417 -0.8043885062076503 1.6309255898919184e-08 -1.3038719744520866e-06 101.8500917045724
4.674524563259337 -1.6162465756009667 1.9452148990542746 -1.8997646583427097 -1.5707963252378325 3.1037282365317402 -1.5221860958552005e-07 0.036052305728176956 0.057792982688273195 -0.09384532572422588 1.9027465215405714e-09 -1.521183970194101e-07 -2.087569502887132e-06 0.49443162141499825 0.7925894768677466 -1.2870216099322407 2.6094809438270694e-08 -2.0861951591233385e-06 101.90106131099576
4.674524549382818 -1.612959983338236 1.9504834100664554 -1.9083197650186645 -1.5707963250643748 3.103728222664357 -2.953118688515e-07 0.06994331251601678 0.11212133503681573 -0.18206471993182088 3.691425330692869e-09 -2.9511745136036067e-07 -2.423071744422564e-06 0.5738938462852657 0.9199699285072059 -1.4938643686713506 3.028861809799277e-08 -2.4214765239824465e-06 101.95203091741911
4.674524526162523 -1.6074603589158516 1.959299481399903 -1.9226354664656375 -1.570796324774119 3.103728199459349 -4.473363220472426e-07 0.10594963316035677 0.1698406021859457 -0.27579034498548016 5.5917448796294345e-09 -4.4704181981214397e-07 -2.385793717585294e-06 0.5650647101885693 0.9058165449917106 -1.4708818399225607 2.982263935802365e-08 -2.384223038998101e-06 102.00300052384246
4.674524493719799 -1.5997764430112116 1.9716170408426528 -1.9426369497645248 -1.570796324368582 3.1037281670379833 -5.873230790767834e-07 0.13910487860680523 0.22298950590819697 -0.36209452846400925 7.3415921271176385e-09 -5.869364170710658e-07 -2.050291476049862e-06 0.48560248531830175 0.7784360933522512 -1.2640390811834505 2.5628830698301575e-08 -2.048941674138993e-06 102.05397013026581
4.674524453340934 -1.5902128868047356 1.9869477229478814 -1.9675311979728225 -1.5707963238638425 3.1037281266857004 -6.989630031988166e-07 0.16554630181305746 0.2653759409155402 -0.4309224140398127 8.737101374420991e-09 -6.98502843456475e-07 -1.4911210734908087e-06 0.35316544386785576 0.5661353406198191 -0.9193011499516004 1.863914959876478e-08 -1.4901393993738132e-06 102.10493973668916
4.674524407185914 -1.5792812743541103 2.00447144234262 -1.9959865411304771 -1.5707963232869007 3.103728080561068 -7.706067110266953e-07 0.18251479774889587 0.29257697485938305 -0.47509196147889354 9.632654265299143e-09 -7.700993849107636e-07 -7.828385635826746e-07 0.185411858030624 0.29722105382540476 -0.48263310372459056 9.78555353935151e-09 -7.82323184671252e-07 102.15590934311251
4.674524357997202 -1.5676311449685323 2.0231469670364715 -2.0263122072657347 -1.5707963226720372 3.1037280314047386 -7.952645725284313e-07 0.18835490339618977 0.30193884833057016 -0.4902939466408536 9.940879786007883e-09 -7.947410129993671e-07 0.0 -4.440892098500626e-16 0.0 0.0 0.0 0.0 102.20687894953586
4.67452430880849 -1.5559810155829543 2.041822491730323 -2.0566378734009927 -1.5707963220571737 3.1037279822484094 -7.706067110266953e-07 0.1825147977488958 0.29257697485938294 -0.47509196147889377 9.632654265299143e-09 -7.700993849107636e-07 7.828385635826746e-07 -0.18541185803062488 -0.29722105382540476 0.48263310372459056 -9.78555353935151e-09 7.82323184671252e-07 102.25784855595921
4.67452426265347 -1.545049403132329 2.0593462111250616 -2.085093216558647 -1.5707963214802318 3.103727936123777 -6.989630031988166e-07 0.1655463018130574 0.2653759409155403 -0.4309224140398128 8.737101374420991e-09 -6.98502843456475e-07 1.4911210734908087e-06 -0.35316544386785664 -0.5661353406198191 0.9193011499516004 -1.863914959876478e-08 1.4901393993738132e-06 102.30881816238256
4.674524222274605 -1.535485846925853 2.07467689323029 -2.1099874647669448 -1.5707963209754923 3.103727895771494 -5.873230790767834e-07 0.13910487860680526 0.22298950590819705 -0.36209452846400914 7.3415921271176385e-09 -5.869364170710658e-07 2.050291476049862e-06 -0.48560248531830263 -0.7784360933522516 1.2640390811834505 -2.5628830698301575e-08 2.048941674138993e-06 102.35978776880592
4.674524189831881 -1.527801931021213 2.0869944526730397 -2.129988948065832 -1.5707963205699553 3.1037278633501284 -4.473363220472426e-07 0.10594963316035672 0.16984060218594588 -0.2757903449854804 5.5917448796294345e-09 -4.4704181981214397e-07 2.385793717585294e-06 -0.5650647101885711 -0.9058165449917093 1.470881839922562 -2.982263935802365e-08 2.384223038998101e-06 102.41075737522927
4.674524166611586 -1.5223023065988286 2.0958105240064877 -2.1443046495128053 -1.5707963202796995 3.1037278401451203 -2.953118688515e-07 0.06994331251601671 0.11212133503681593 -0.18206471993182058 3.691425330692869e-09 -2.9511745136036067e-07 2.423071744422564e-06 -0.5738938462852671 -0.919969928507206 1.4938643686713524 -3.028861809799277e-08 2.4214765239824465e-06 102.46172698165262
4.674524152735067 -1.5190157143360976 2.1010790350186683 -2.15285975618876 -1.5707963201062418 3.103727826277737 -1.5221860958552005e-07 0.03605230572817687 0.05779298268827307 -0.0938453257242261 1.9027465215405714e-09 -1.521183970194101e-07 2.087569502887132e-06 -0.4944316214150002 -0.7925894768677471 1.287021609932241 -2.6094809438270694e-08 2.0861951591233385e-06 102.51269658807597
4.6745241468674985 -1.5176260067816416 2.103306780041192 -2.156477210203842 -1.5707963200328967 3.103727820414032 -4.3685187699926036e-08 0.010346643863315717 0.016585996307221802 -0.026932650877488723 5.46068835901312e-10 -4.3656427716029685e-08 1.3047309393044576e-06 -0.3090197633843764 -0.49536842304234185 0.8043885062076486 -1.6309255898919184e-08 1.3038719744520866e-06 102.56366619449932
4.674524145926649 -1.5174031707295483 2.103663993257957 -2.157057259703296 -1.570796320021136 3.103727819473802 0.0 0.0 0.0 0.0 0.0 0.0 0.0 -1.7763568394002505e-15 0.0 0.0 0.0 0.0 102.61463580092267
4.674524145926649 -1.5174031707295483 2.103663993257957 -2.157057259703296 -1.570796320021136 3.103727819473802 0.0 0.0 0.0 0.0 0.0 0.0 0.0 -1.7763568394002505e-15 0.0 0.0 0.0 0.0 102.66560540734602
4.674524145926649 -1.5174031707295483 2.103663993257957 -2.157057259703296 -1.570796320021136 3.103727819473802 0.0 0.0 0.0 0.0 0.0 0.0 0.0 -1.7763568394002505e-15 0.0 0.0 0.0 0.0 102.71560540734602
4.674524145926649 -1.5174031707295483 2.103663993257957 -2.157057259703296 -1.570796320021136 3.103727819473802 0.0 0.0 0.0 0.0 0.0 0.0 0.0 -1.7763568394002505e-15 0.0 0.0 0.0 0.0 102.76977207401268
4.674524145926649 -1.5174031707295483 2.103663993257957 -2.157057259703296 -1.570796320021136 3.103727819473802 0.0 0.0 0.0 0.0 0.0 0.0 0.0 -1.7763568394002505e-15 0.0 0.0 0.0 0.0 102.82393874067935
4.674524145926649 -1.5174031707295483 2.103663993257957 -2.157057259703296 -1.570796320021136 3.103727819473802 0.0 0.0 0.0 0.0 0.0 0.0 0.0 -1.7763568394002505e-15 0.0 0.0 0.0 0.0 102.87810540734603
4.674524145926649 -1.5174031707295483 2.103663993257957 -2.157057259703296 -1.570796320021136 3.103727819473802 0.0 0.0 0.0 0.0 0.0 0.0 0.0 -1.7763568394002505e-15 0.0 0.0 0.0 0.0 102.93227207401269
4.674524145926649 -1.5174031707295483 2.103663993257957 -2.157057259703296 -1.570796320021136 3.103727819473802 0.0 0.0 0.0 0.0 0.0 0.0 0.0 -1.7763568394002505e-15 0.0 0.0 0.0 0.0 102.98643874067935
4.674524145926649 -1.5174031707295483 2.103663993257957 -2.157057259703296 -1.570796320021136 3.103727819473802 0.0 0.0 0.0 0.0 0.0 0.0 0.0 -1.7763568394002505e-15 0.0 0.0 0.0 0.0 103.04060540734602
4.674524145926649 -1.5174031707295483 2.103663993257957 -2.157057259703296 -1.570796320021136 3.103727819473802 0.0 0.0 0.0 0.0 0.0 0.0 0.0 -1.7763568394002505e-15 0.0 0.0 0.0 0.0 103.0947720740127
4.674524145926649 -1.5174031707295483 2.103663993257957 -2.157057259703296 -1.570796320021136 3.103727819473802 0.0 0.0 0.0 0.0 0.0 0.0 0.0 -1.7763568394002505e-15 0.0 0.0 0.0 0.0 103.14893874067936
4.674524145926649 -1.5174031707295483 2.103663993257957 -2.157057259703296 -1.570796320021136 3.103727819473802 0.0 0.0 0.0 0.0 0.0 0.0 0.0 -1.7763568394002505e-15 0.0 0.0 0.0 0.0 103.20310540734602
4.674524145926649 -1.5174031707295483 2.103663993257957 -2.157057259703296 -1.570796320021136 3.103727819473802 0.0 0.0 0.0 0.0 0.0 0.0 0.0 -1.7763568394002505e-15 0.0 0.0 0.0 0.0 103.25727207401269
4.674524145926649 -1.5174031707295483 2.103663993257957 -2.157057259703296 -1.570796320021136 3.103727819473802 0.0 0.0 0.0 0.0 0.0 0.0 0.0 -1.7763568394002505e-15 0.0 0.0 0.0 0.0 103.31143874067936
4.674524145926649 -1.5174031707295483 2.103663993257957 -2.1570572597032958 -1.570796320021136 3.103727819473802 0.0 0.0 0.0 0.0 0.0 0.0 0.0 0.0 0.0 0.0 0.0 0.0 103.36560540734602
4.6745241468674985 -1.5176260067816416 2.103306780041192 -2.1564772102038416 -1.5707963200328967 3.103727820414032 4.3685187699926036e-08 -0.010346643863316091 -0.01658599630722126 0.026932650877488293 -5.46068835901312e-10 4.3656427716029685e-08 1.3047309393044576e-06 -0.3090197633843739 -0.4953684230423417 0.8043885062076503 -1.6309255898919184e-08 1.3038719744520866e-06 103.41560540734602
4.674524152735067 -1.5190157143360978 2.1010790350186683 -2.15285975618876 -1.5707963201062418 3.103727826277737 1.5221860958552005e-07 -0.036052305728176956 -0.057792982688273195 0.09384532572422588 -1.9027465215405714e-09 1.521183970194101e-07 2.087569502887132e-06 -0.49443162141499825 -0.7925894768677466 1.2870216099322407 -2.6094809438270694e-08 2.0861951591233385e-06 103.46657501376937
4.674524166611586 -1.5223023065988286 2.0958105240064877 -2.144304649512805 -1.5707963202796995 3.1037278401451203 2.953118688515e-07 -0.06994331251601678 -0.11212133503681573 0.18206471993182088 -3.691425330692869e-09 2.9511745136036067e-07 2.423071744422564e-06 -0.5738938462852657 -0.9199699285072059 1.4938643686713506 -3.028861809799277e-08 2.4214765239824465e-06 103.51754462019272
4.674524189831881 -1.527801931021213 2.0869944526730397 -2.129988948065832 -1.5707963205699553 3.1037278633501284 4.473363220472426e-07 -0.10594963316035677 -0.1698406021859457 0.27579034498548016 -5.5917448796294345e-09 4.4704181981214397e-07 2.385793717585294e-06 -0.5650647101885693 -0.9058165449917106 1.4708818399225607 -2.982263935802365e-08 2.384223038998101e-06 103.56851422661607
4.674524222274605 -1.535485846925853 2.07467689323029 -2.1099874647669448 -1.5707963209754923 3.103727895771494 5.873230790767834e-07 -0.13910487860680523 -0.22298950590819697 0.36209452846400925 -7.3415921271176385e-09 5.869364170710658e-07 2.050291476049862e-06 -0.48560248531830175 -0.7784360933522512 1.2640390811834505 -2.5628830698301575e-08 2.048941674138993e-06 103.61948383303942
4.67452426265347 -1.545049403132329 2.0593462111250616 -2.085093216558647 -1.5707963214802318 3.103727936123777 6.989630031988166e-07 -0.16554630181305746 -0.2653759409155402 0.4309224140398127 -8.737101374420991e-09 6.98502843456475e-07 1.4911210734908087e-06 -0.35316544386785576 -0.5661353406198191 0.9193011499516004 -1.863914959876478e-08 1.4901393993738132e-06 103.67045343946278
4.67452430880849 -1.5559810155829543 2.041822491730323 -2.0566378734009927 -1.5707963220571737 3.1037279822484094 7.706067110266953e-07 -0.18251479774889587 -0.29257697485938305 0.47509196147889354 -9.632654265299143e-09 7.700993849107636e-07 7.828385635826746e-07 -0.185411858030624 -0.29722105382540476 0.48263310372459056 -9.78555353935151e-09 7.82323184671252e-07 103.72142304588613
4.674524357997202 -1.5676311449685323 2.0231469670364715 -2.0263122072657347 -1.5707963226720372 3.1037280314047386 7.952645725284313e-07 -0.18835490339618977 -0.30193884833057016 0.4902939466408536 -9.940879786007883e-09 7.947410129993671e-07 0.0 4.440892098500626e-16 0.0 0.0 0.0 0.0 103.77239265230948
4.674524407185914 -1.5792812743541103 2.00447144234262 -1.995986541130477 -1.5707963232869007 3.103728080561068 7.706067110266953e-07 -0.1825147977488958 -0.29257697485938294 0.47509196147889377 -9.632654265299143e-09 7.700993849107636e-07 -7.828385635826746e-07 0.18541185803062488 0.29722105382540476 -0.48263310372459056 9.78555353935151e-09 -7.82323184671252e-07 103.82336225873283
4.674524453340934 -1.5902128868047356 1.9869477229478814 -1.9675311979728225 -1.5707963238638425 3.1037281266857004 6.989630031988166e-07 -0.1655463018130574 -0.2653759409155403 0.4309224140398128 -8.737101374420991e-09 6.98502843456475e-07 -1.4911210734908087e-06 0.35316544386785664 0.5661353406198191 -0.9193011499516004 1.863914959876478e-08 -1.4901393993738132e-06 103.87433186515618
4.674524493719799 -1.5997764430112116 1.9716170408426528 -1.9426369497645248 -1.570796324368582 3.1037281670379833 5.873230790767834e-07 -0.13910487860680526 -0.22298950590819705 0.36209452846400914 -7.3415921271176385e-09 5.869364170710658e-07 -2.050291476049862e-06 0.48560248531830263 0.7784360933522516 -1.2640390811834505 2.5628830698301575e-08 -2.048941674138993e-06 103.92530147157953
4.674524526162523 -1.6074603589158516 1.959299481399903 -1.9226354664656375 -1.570796324774119 3.103728199459349 4.473363220472426e-07 -0.10594963316035672 -0.16984060218594588 0.2757903449854804 -5.5917448796294345e-09 4.4704181981214397e-07 -2.385793717585294e-06 0.5650647101885711 0.9058165449917093 -1.470881839922562 2.982263935802365e-08 -2.384223038998101e-06 103.97627107800288
4.674524549382818 -1.612959983338236 1.9504834100664554 -1.9083197650186643 -1.5707963250643748 3.103728222664357 2.953118688515e-07 -0.06994331251601671 -0.11212133503681593 0.18206471993182058 -3.691425330692869e-09 2.9511745136036067e-07 -2.423071744422564e-06 0.5738938462852671 0.919969928507206 -1.4938643686713524 3.028861809799277e-08 -2.4214765239824465e-06 104.02724068442623
4.674524563259337 -1.616246575600967 1.9452148990542746 -1.8997646583427097 -1.5707963252378325 3.1037282365317402 1.5221860958552005e-07 -0.03605230572817687 -0.05779298268827307 0.0938453257242261 -1.9027465215405714e-09 1.521183970194101e-07 -2.087569502887132e-06 0.4944316214150002 0.7925894768677471 -1.287021609932241 2.6094809438270694e-08 -2.0861951591233385e-06 104.07821029084958
4.6745245691269055 -1.617636283155423 1.9429871540317507 -1.8961472043276277 -1.5707963253111776 3.1037282423954453 4.3685187699926036e-08 -0.010346643863315717 -0.016585996307221802 0.026932650877488723 -5.46068835901312e-10 4.3656427716029685e-08 -1.3047309393044576e-06 0.3090197633843764 0.49536842304234185 -0.8043885062076486 1.6309255898919184e-08 -1.3038719744520866e-06 104.12917989727293
4.674524570067755 -1.6178591192075162 1.942629940814986 -1.8955671548281736 -1.5707963253229384 3.1037282433356754 0.0 0.0 0.0 0.0 0.0 0.0 0.0 1.7763568394002505e-15 0.0 0.0 0.0 0.0 104.18014950369628
4.674524570067755 -1.6178591192075162 1.942629940814986 -1.8955671548281738 -1.5707963253229384 3.1037282433356754 0.0 0.0 0.0 0.0 0.0 0.0 0.0 0.0 0.0 0.0 0.0 0.0 104.23111911011964
4.6743483207011565 -1.61781243150054 1.9425737776687892 -1.8955576793882685 -1.5707963253231014 3.1035519939690706 -0.023525118458793782 0.006231703741023103 -0.007496450584751094 0.001264746935122691 -2.176202032660887e-11 -0.023525118459672565 -2.069141100807544 0.5481066699490775 -0.659346903704244 0.11124024179374578 -1.9140686059994617e-09 -2.069141100884837 104.28111911011963
4.67316188460184 -1.6174981496281005 1.942195711152097 -1.8954938947394067 -1.570796325324199 3.1023655578697102 -0.0898717851865903 0.023806653341222558 -0.0286382998578611 0.004831646865788958 -8.313631318987561e-11 -0.08987178518994746 -3.856126596959514 1.0214715212687353 -1.2287828659942728 0.20731135970652623 -3.567127856635361e-09 -3.8561265971035597 104.33192101446879
4.6700822597339915 -1.61668237010956 1.9412143662257437 -1.8953283293196292 -1.5707963253270478 3.099285933001746 -0.1929156924854391 0.05110254576057995 -0.06147399250181217 0.01037144749070653 -1.7845755924857562e-10 -0.19291569249264545 -5.374080004951518 1.4235709176161557 -1.7124897911219106 0.2889188943839676 -4.9713177219246064e-09 -5.374080005152266 104.38272291881793
4.664359299413971 -1.6151663822815512 1.9393907031775568 -1.8950206540772176 -1.5707963253323418 3.0935629726815126 -0.3268241663572921 0.08657433048479204 -0.10414490440468255 0.017570575189597055 -3.023302162729711e-10 -0.3268241663695006 -6.636124841279164 1.7578812226485214 -2.114649583338981 0.3567683864716963 -6.138778171884109e-09 -6.636124841527056 104.43352482316709
4.6553692315614335 -1.6127849515751835 1.936525952484456 -1.8945373340555582 -1.5707963253406583 3.0845729048286388 -0.4860561665040038 0.12875420952527075 -0.15488534266014659 0.026131135023196098 -4.496285191448113e-10 -0.48605616652216044 -7.65538462243806 2.0278788000230143 -2.439444146897309 0.41156537661533854 -7.081649176530778e-09 -7.655384622724027 104.48432672751625
4.642608177950436 -1.609404602793249 1.9324595496745502 -1.8938512799780107 -1.5707963253524628 3.071811851217164 -0.6653622863273307 0.1762516374191431 -0.21202254556747466 0.035770910733253135 -6.154964798573323e-10 -0.6653622863521854 -8.444982864923812 2.237040013396816 -2.6910553860487165 0.45401540546052055 -7.812070705881524e-09 -8.444982865239275 104.5351286318654
4.625685673460553 -1.6049219033874287 1.9270670701892358 -1.8929414998327727 -1.5707963253681172 3.054889346726649 -0.8597847529289322 0.2277533212292514 -0.27397668263153324 0.046223364742531574 -7.953478875152567e-10 -0.8597847529610495 -9.018043085232033 2.3888412264271106 -2.8736652050450298 0.48482401365286876 -8.342182729953257e-09 -9.018043085568902 104.58593053621455
4.60431818532799 -1.5992617467355 1.9202581642452943 -1.8917927504577479 -1.5707963253878832 3.033521858593289 -1.0646574271103697 0.28202322054415296 -0.33926085456278504 0.05723763815480873 -9.848663083347947e-10 -1.0646574271501401 -9.38768879985833 2.486758802771079 -2.991455508138071 0.5046967418380094 -8.684125218762885e-09 -9.387688800209006 104.6367324405637
4.5783226323966995 -1.5923756354185412 1.9119744916969905 -1.8903951891254103 -1.5707963254119306 3.0075263056610266 -1.2756058033731077 0.33790254747812054 -0.4064810932772887 0.06857855075487584 -1.180005085643643e-09 -1.275605803420758 -9.567043525298304 2.5342691060859033 -3.048608199579665 0.5143391306615688 -8.85003814232732e-09 -9.56704352565568 104.68753434491286
4.547609904369487 -1.58423996449814 1.90218765689817 -1.8887440251276726 -1.5707963254403414 2.976813577632667 -1.4885470099185114 0.39430976667114165 -0.47433636189669887 0.08002660100853805 -1.3769873398809846e-09 -1.4885470099741163 -9.569230778047576 2.534848500028768 -3.0493051836216356 0.5144567207691731 -8.852061470663474e-09 -9.569230778405032 104.738336249262
4.512178381059131 -1.5748543047935974 1.8908971435643573 -1.8868391713607515 -1.5707963254731176 2.9413820543209876 -1.6996898086478511 0.4502405952889193 -0.5416185547482666 0.09137796606261445 -1.572305968597491e-09 -1.699689808711343 -9.40737407460174 2.491973348256852 -2.9977283645158064 0.5057550528064488 -8.70233517378825e-09 -9.407374074953152 104.78913815361116
4.472107451639495 -1.5642396861591363 1.8781282496348535 -1.884684895910034 -1.5707963255101853 2.9013111248998547 -1.9055345951622964 0.5047680030228714 -0.6072124973648387 0.10244450174493797 -1.7627236464553183e-09 -1.9055345952334777 -9.094596931456413 2.4091200144273404 -2.898059646514003 0.48893966741902206 -8.412999221718564e-09 -9.094596931796142 104.83994005796032
4.427551033896638 -1.552436880761106 1.863930022134834 -1.8822894736349438 -1.5707963255514024 2.856754707155333 -2.102873398762922 0.5570422120901314 -0.6700959464848582 0.11305374256435559 -1.945272825228112e-09 -2.102873398841475 -8.644022865107205 2.289764862197415 -2.7544809338680465 0.46471610525251933 -7.996193584471325e-09 -8.6440228654301 104.89074196230948
4.37873109347993 -1.53950468635519 1.8483731920374475 -1.8796648377538088 -1.5707963255965636 2.807934766736801 -2.288789882450703 0.6062906972335473 -0.7293395900523642 0.12304890171072809 -2.117255733801002e-09 -2.288789882536201 -8.068775392049716 2.137384255224257 -2.5711741308297635 0.4337899069525667 -7.464058232063438e-09 -8.068775392351123 104.94154386665862
4.3259311631531645 -1.525518209563611 1.8315481091259123 -1.8768262314287254 -1.5707963256454065 2.7551348364080637 -2.4606593429265193 0.651818185721683 -0.7841070472169921 0.13228887105493023 -2.2762443781706074e-09 -2.4606593430184374 -7.381978028779556 1.9554545571650495 -2.3523211416509766 0.39686661316479066 -6.828733134511822e-09 -7.38197802905531 104.99234577100778
4.269489862045673 -1.510567149152339 1.8135626768556146 -1.8737918593504266 -1.5707963256976176 2.6986935352984642 -2.6161487105911494 0.6930066573488171 -0.8336548683339727 0.14064822114885064 -2.4200805414450317e-09 -2.6161487106888757 -6.59675429179234 1.747452131676975 -2.10210387058351 0.3546517645348175 -6.102358261833383e-09 -6.596754292038762 105.04314767535693
4.209794414903438 -1.4947540793082947 1.7945402872162073 -1.8705825393231474 -1.5707963257528392 2.6389980881539987 -2.7532165495452787 0.7293153444349436 -0.8773325349641341 0.14801720122539194 -2.5468757838438694e-09 -2.7532165496481253 -5.726227697583669 1.5168533424172144 -1.8247042218791885 0.3078509017082731 -5.297073584045023e-09 -5.726227697797573 105.09394957970608
4.147274171340204 -1.4781927329165598 1.7746177555937068 -1.8672213538494917 -1.5707963258106739 2.576477844588429 -2.8701130575894918 0.7602807318257712 -0.9145824598738996 0.15430173919847062 -2.6550114426981963e-09 -2.870113057696705 -4.7835217626491495 1.26713455304295 -1.5243040997898312 0.25716956533078406 -4.425019071163658e-09 -4.783521762827837 105.14475148405523
4.082394125088593 -1.4610062848375795 1.7539432556325911 -1.8637333017152986 -1.5707963258706914 2.5115977983343942 -2.965380066224276 0.785516556892724 -0.9449399870352883 0.15942344166301706 -2.7431386324505792e-09 -2.965380066335048 -3.781760003484403 1.00177212721137 -1.2050854085672715 0.20331329604797702 -3.4983346932062086e-09 -3.781760003625671 105.19555338840439
4.015648433251216 -1.4433256351843715 1.7326742540978983 -1.860144949574508 -1.570796325932435 2.4448521064945243 -3.0378510406500223 0.8047138095329417 -0.9680333916259158 0.16331959389497555 -2.81017824465507e-09 -3.0378510407635018 -2.734065936585025 0.7242424285796483 -0.8712300524633253 0.14698763450547817 -2.529160420189563e-09 -2.7340659366871534 105.24635529275355
3.9475539355517917 -1.4252876925997309 1.7109754457373239 -1.8564840835340282 -1.570796325995426 2.3767576087925564 -3.0866510797670252 0.8176407321692793 -0.9835838800289949 0.16594315985130448 -2.85532094797721e-09 -3.0866510798823272 -1.6535630784466204 0.43802182080497076 -0.5269199357298187 0.08889812134891266 -1.5296362221306498e-09 -1.653563078508388 105.29715719710269
3.8786436735862515 -1.4070336575334368 1.689016688143318 -1.852779360738601 -1.5707963260591717 2.307847346824442 -3.1111969161754796 0.8241428197503056 -0.9914055898333325 0.16726278216997592 -2.878027188194023e-09 -3.1111969162916973 -0.5533749455648053 0.14658666754451857 -0.17633696261857607 0.029750297223908456 -5.119020690463642e-10 -0.5533749455854725 105.34795910145185
3.809460410073858 -1.3887073055194596 1.6669709366151846 -1.8490599609556688 -1.57079632612317 2.238664083309464 -3.1111969161754778 0.8241428197503052 -0.9914055898333319 0.1672627821699759 -2.8780271881940235e-09 -3.1111969162916964 0.5533749455648084 -0.14658666754451918 0.17633696261857432 -0.029750297223908748 5.119020690463672e-10 0.5533749455854757 105.398761005801
3.7405501481083174 -1.3704532704531658 1.6450121790211787 -1.8453552381602416 -1.5707963261869158 2.1697538213413496 -3.0866510797670257 0.8176407321692792 -0.9835838800289947 0.1659431598513045 -2.855320947977209e-09 -3.0866510798823277 1.6535630784466204 -0.43802182080497254 0.5269199357298187 -0.08889812134891355 1.5296362221306498e-09 1.653563078508388 105.44956291015015
3.6724556504088923 -1.352415327868525 1.623313370660604 -1.8416943721197616 -1.570796326249907 2.101659323639381 -3.037851040650023 0.8047138095329419 -0.9680333916259158 0.16331959389497558 -2.8101782446550692e-09 -3.037851040763501 2.7340659365850266 -0.7242424285796486 0.8712300524633219 -0.1469876345054783 2.5291604201895714e-09 2.734065936687155 105.5003648144993
3.6057099585715164 -1.3347346782153169 1.6020443691259114 -1.8381060199789712 -1.5707963263116504 2.0349136317995122 -2.965380066224276 0.7855165568927241 -0.9449399870352884 0.15942344166301706 -2.743138632450578e-09 -2.9653800663350465 3.781760003484398 -1.0017721272113687 1.2050854085672682 -0.2033132960479776 3.498334693206203e-09 3.781760003625666 105.55116671884846
3.5408299123199063 -1.3175482301363368 1.581369869164796 -1.834617967844778 -1.570796326371668 1.9700335855454778 -2.8701130575894944 0.7602807318257714 -0.9145824598739002 0.1543017391984708 -2.6550114426981975e-09 -2.8701130576967073 4.783521762649164 -1.2671345530429519 1.5243040997898312 -0.2571695653307847 4.425019071163664e-09 4.783521762827851 105.6019686231976
3.478309668756671 -1.3009868837446017 1.5614473375422953 -1.8312567823711223 -1.5707963264295026 1.907513341979907 -2.753216549545277 0.7293153444349434 -0.8773325349641339 0.14801720122539191 -2.5468757838438686e-09 -2.753216549648125 5.726227697583662 -1.5168533424172161 1.824704221879185 -0.30785090170827334 5.29707358404503e-09 5.726227697797573 105.65277052754676
3.418614221614436 -1.2851738139005577 1.5424249479028882 -1.8280474623438432 -1.5707963264847242 1.8478178948354425 -2.616148710591152 0.693006657348818 -0.8336548683339733 0.14064822114885075 -2.4200805414450346e-09 -2.6161487106888783 6.596754291792349 -1.7474521316769756 2.10210387058351 -0.3546517645348181 6.10235826183339e-09 6.59675429203877 105.70357243189592
3.3621729205069455 -1.2702227534892854 1.5244395156325905 -1.8250130902655444 -1.5707963265369354 1.7913765937258432 -2.4606593429265176 0.6518181857216827 -0.784107047216992 0.1322888710549303 -2.276244378170607e-09 -2.4606593430184382 7.381978028779558 -1.9554545571650483 2.3523211416509766 -0.39686661316479116 6.828733134511815e-09 7.381978029055306 105.75437433624508
3.3093729901801803 -1.2562362766977067 1.507614432721055 -1.822174483940461 -1.5707963265857783 1.7385766633971058 -2.2887898824507045 0.6062906972335473 -0.7293395900523635 0.1230489017107282 -2.117255733801002e-09 -2.288789882536199 8.06877539204972 -2.137384255224256 2.571174130829758 -0.4337899069525667 7.464058232063435e-09 8.068775392351112 105.80517624059422
3.2605530497634705 -1.2433040822917905 1.4920576026236683 -1.819549848059326 -1.5707963266309395 1.6897567229785735 -2.102873398762919 0.5570422120901303 -0.6700959464848572 0.11305374256435533 -1.9452728252281086e-09 -2.1028733988414707 8.644022865107196 -2.2897648621974103 2.754480933868043 -0.4647161052525193 7.996193584471312e-09 8.644022865430085 105.85597814494338
3.215996632020614 -1.23150127689376 1.477859375123649 -1.8171544257842358 -1.5707963266721565 1.6452003052340511 -1.9055345951622953 0.504768003022872 -0.6072124973648382 0.102444501744938 -1.7627236464553202e-09 -1.9055345952334795 9.094596931456419 -2.4091200144273435 2.898059646514005 -0.48893966741902306 8.412999221718579e-09 9.094596931796158 105.90678004929254
3.1759257026009777 -1.220886658259299 1.4650904811941454 -1.8150001503335182 -1.5707963267092242 1.605129375812919 -1.6996898086478498 0.45024059528891935 -0.5416185547482665 0.09137796606261427 -1.5723059685974919e-09 -1.699689808711341 9.407374074601744 -2.4919733482568516 2.997728364515803 -0.5057550528064492 8.702335173788258e-09 9.40737407495316 105.95758195364168
3.1404941792906227 -1.2115009985547565 1.4537999678603324 -1.8130952965665972 -1.5707963267420004 1.5696978525012393 -1.4885470099185125 0.39430976667114154 -0.4743363618966985 0.08002660100853798 -1.376987339880984e-09 -1.4885470099741134 9.569230778047569 -2.534848500028769 3.049305183621632 -0.5144567207691738 8.852061470663466e-09 9.569230778405034 106.00838385799084
3.1097814512634088 -1.203365327634355 1.4440131330615116 -1.8114441325688595 -1.5707963267704113 1.538985124472879 -1.275605803373105 0.3379025474781195 -0.40648109327728915 0.0685785507548757 -1.1800050856436403e-09 -1.275605803420757 9.56704352529832 -2.5342691060859055 3.0486081995796632 -0.514339130661569 8.850038142327322e-09 9.567043525655695 106.05918576234
3.083785898332119 -1.1964792163173965 1.4357294605132078 -1.810046571236522 -1.5707963267944587 1.5129895715406176 -1.064657427110368 0.28202322054415363 -0.3392608545627838 0.05723763815480871 -9.848663083347949e-10 -1.0646574271501361 9.387688799858331 -2.48675880277108 2.9914555081380656 -0.5046967418380105 8.684125218762879e-09 9.387688800208995 106.10998766668915
3.062418410199558 -1.1908190596654682 1.4289205545692667 -1.808897821861497 -1.5707963268142247 1.4916220834072582 -0.8597847529289325 0.22775332122925038 -0.2739766826315333 0.046223364742531484 -7.953478875152574e-10 -0.85978475296105 9.018043085232032 -2.3888412264271097 2.8736652050450244 -0.4848240136528685 8.342182729953255e-09 9.01804308556889 106.1607895710383
3.0454959057096715 -1.1863363602596473 1.4235280750839516 -1.807988041716259 -1.570796326829879 1.474699578916741 -0.665362286327325 0.17625163741914232 -0.21202254556747258 0.03577091073325285 -6.154964798573262e-10 -0.6653622863521802 8.444982864923814 -2.2370400133968142 2.6910553860487125 -0.45401540546052016 7.812070705881514e-09 8.44498286523928 106.21159147538745
3.0327348520986748 -1.182956011477713 1.4194616722740463 -1.8073019876387115 -1.5707963268416836 1.461938525305266 -0.4860561665039986 0.12875420952526856 -0.1548853426601457 0.02613113502319549 -4.4962851914480805e-10 -0.4860561665221511 7.655384622438051 -2.027878800023004 2.439444146897297 -0.4115653766153384 7.08164917653076e-09 7.655384622724012 106.26239337973661
3.0237447842461393 -1.1805745807713452 1.416596921580946 -1.8068186676170521 -1.57079632685 1.4529484574523945 -0.32682416635729694 0.08657433048479309 -0.10414490440468266 0.017570575189597107 -3.0233021627297177e-10 -0.32682416636950506 6.6361248412791864 -1.7578812226485254 2.114649583338984 -0.35676838647169684 6.138778171884111e-09 6.636124841527057 106.31319528408575
3.0180218239261185 -1.1790585929433368 1.4147732585327586 -1.8065109923746403 -1.570796326855294 1.447225497132161 -0.19291569248544138 0.051102545760578384 -0.06147399250181183 0.010371447490706613 -1.784575592485749e-10 -0.19291569249264107 5.374080004951529 -1.423570917616155 1.7124897911219032 -0.2889188943839684 4.9713177219246015e-09 5.374080005152272 106.36399718843491
3.0149421990582708 -1.1782428134247964 1.4137919136064052 -1.8063454269548633 -1.5707963268581429 1.4441458722641978 -0.08987178518658305 0.023806653341222825 -0.02863829985786001 0.004831646865788986 -8.313631318987342e-11 -0.08987178518994475 3.856126596959508 -1.0214715212687284 1.2287828659942652 -0.20731135970652664 3.567127856635351e-09 3.856126597103531 106.41479909278407
3.0137557629589553 -1.1779285315523573 1.4134138470897142 -1.8062816423060013 -1.5707963268592404 1.442959436164838 -0.023525118458804388 0.006231703741024436 -0.007496450584754118 0.0012647469351229955 -2.1762020326616107e-11 -0.023525118459676198 2.0691411008075415 -0.5481066699490815 0.6593469037042431 -0.11124024179374742 1.914068605999466e-09 2.069141100884839 106.46560099713322
3.013579513592356 -1.1778818438453806 1.4133576839435165 -1.806272166866096 -1.5707963268594034 1.4427831867982324 0.0 0.0 0.0 0.0 0.0 0.0 0.0 0.0 -3.552713678800501e-15 -8.881784197001252e-16 0.0 0.0 106.51640290148237
3.0135795135923544 -1.1778818438453802 1.4133576839435165 -1.806272166866096 -1.5707963268594034 1.4427831867982306 0.0 0.0 0.0 0.0 0.0 0.0 0.0 0.0 0.0 0.0 0.0 0.0 106.56720480583152
3.0135795136129113 -1.1776557011161803 1.413832186322794 -1.8069728119738422 -1.5707963268604985 1.4427831868189298 8.309399024746299e-10 0.009141008495788491 0.01918005631043771 -0.02832106477666948 -4.426403711149281e-11 8.366901715402022e-10 2.1476600556267357e-08 0.2362599118911487 0.495730686177467 -0.7319905973046881 -1.1440551130355064e-09 2.162522289519292e-08 106.61720480583152
3.0135795137388284 -1.1762705125083937 1.4167386485047477 -1.8112644627591037 -1.570796326867206 1.4427831869457182 2.8320791942330582e-09 0.03115515321641521 0.06537107949592971 -0.09652623261160721 -1.5086441051017665e-10 2.8516777444210443e-09 3.3040923932719015e-08 0.3634767875248442 0.76266259411918 -1.126139380468751 -1.7600847892853946e-09 3.3269573684912184e-08 106.66963816596348
3.0135795140298094 -1.1730694853574875 1.423455181044227 -1.8211820224391388 -1.5707963268827065 1.442783187238713 5.3543997265968754e-09 0.058902711549785006 0.12359219717199212 -0.1824949085313199 -2.8522802612080274e-10 5.391453235546037e-09 3.634501632599092e-08 0.39982446627732865 0.838928853531098 -1.2387533185156263 -1.936093268213934e-09 3.659653105340341e-08 106.72207152609543
3.013579514503415 -1.1678594453503641 1.4343871105750112 -1.8373239919602002 -1.5707963269079355 1.4427831877155957 7.866886650647384e-09 0.08654209226782004 0.1815863319331381 -0.2681284239211312 -4.19067806972713e-10 7.921327067836235e-09 3.3040923932719015e-08 0.36347678752484425 0.7626625941191799 -1.1261393804687512 -1.7600847892853943e-09 3.326957368491219e-08 106.77450488622739
3.013579515143489 -1.1608181128550734 1.4491615365940236 -1.8591397504517355 -1.5707963269420322 1.4427831883600994 9.956528417225596e-09 0.10952983552645974 0.22982020135287795 -0.33935003652518164 -5.303826931998399e-10 1.0025429570230235e-08 2.478069294953926e-08 0.2726075906436333 0.571996945589385 -0.8446045353515635 -1.3200635919640454e-09 2.495218026368414e-08 106.82693824635935
3.0135795159085905 -1.1524013792505263 1.4668218882455446 -1.885216835680589 -1.570796326982789 1.4427831891304956 1.1328316776932231e-08 0.12462061286566087 0.26148431798371885 -0.38610493044642885 -6.034576420407065e-10 1.1406710977684174e-08 1.3216369573087604e-08 0.14539071500993803 0.30506503764767223 -0.4504557521875013 -7.040339157141586e-10 1.3307829473964895e-08 106.8793716064913
3.0135795167404202 -1.1432505832562074 1.4860224811054272 -1.913568224505202 -1.5707963270271004 1.4427831899680816 1.1805246780127732e-08 0.12986722720939747 0.27249298935716537 -0.4023602161466475 -6.288636278384274e-10 1.1886941431171749e-08 0.0 4.440892098500626e-16 0.0 -8.881784197001252e-16 0.0 0.0 106.93180496662326
3.01357951757225 -1.1340997872618888 1.5052230739653099 -1.9419196133298149 -1.5707963270714118 1.4427831908056676 1.1328316776932233e-08 0.1246206128656609 0.2614843179837188 -0.386104930446429 -6.034576420407068e-10 1.1406710977684176e-08 -1.3216369573087599e-08 -0.14539071500993758 -0.30506503764767273 0.45045575218749934 7.040339157141581e-10 -1.3307829473964863e-08 106.98423832675522
3.0135795183373513 -1.1256830536573417 1.5228834256168309 -1.967996698558668 -1.5707963271121685 1.4427831915760638 9.956528417225594e-09 0.10952983552645976 0.22982020135287795 -0.3393500365251815 -5.3038269319984e-10 1.0025429570230236e-08 -2.4780692949539223e-08 -0.27260759064363244 -0.5719969455893846 0.844604535351561 1.3200635919640435e-09 -2.495218026368413e-08 107.03667168688717
3.0135795189774255 -1.118641721162051 1.5376578516358432 -1.9898124570502036 -1.5707963271462653 1.4427831922205676 7.866886650647388e-09 0.08654209226782013 0.18158633193313806 -0.26812842392113123 -4.1906780697271267e-10 7.92132706783623e-09 -3.304092393271903e-08 -0.3634767875248441 -0.762662594119181 1.1261393804687507 1.760084789285395e-09 -3.3269573684912203e-08 107.08910504701913
3.013579519451031 -1.1134316811549276 1.5485897811666274 -2.005954426571265 -1.5707963271714942 1.4427831926974504 5.354399726596868e-09 0.05890271154978504 0.12359219717199177 -0.18249490853131978 -2.852280261208027e-10 5.391453235546028e-09 -3.6345016325990924e-08 -0.39982446627732793 -0.8389288535310985 1.2387533185156234 1.9360932682139326e-09 -3.659653105340334e-08 107.14153840715109
3.013579519742012 -1.1102306540040214 1.5553063137061067 -2.0158719862513004 -1.5707963271869947 1.442783192990445 2.8320791942330504e-09 0.031155153216415248 0.06537107949592968 -0.09652623261160696 -1.5086441051017606e-10 2.8516777444210335e-09 -3.304092393271902e-08 -0.3634767875248431 -0.7626625941191798 1.126139380468747 1.760084789285395e-09 -3.3269573684912144e-08 107.19397176728305
3.013579519867929 -1.1088454653962347 1.5582127758880602 -2.020163637036562 -1.5707963271937022 1.4427831931172335 8.309399024746287e-10 0.009141008495788474 0.01918005631043783 -0.028321064776669784 -4.426403711149209e-11 8.366901715402065e-10 -2.1476600556267453e-08 -0.2362599118911482 -0.4957306861774675 0.7319905973046863 1.14405511303551e-09 -2.1625222895193012e-08 107.246405127415
3.013579519888486 -1.108619322667035 1.558687278267338 -2.020864282144308 -1.5707963271947973 1.4427831931379327 0.0 0.0 0.0 0.0 0.0 0.0 0.0 8.881784197001252e-16 0.0 -1.7763568394002505e-15 0.0 0.0 107.29883848754696
3.013579519888486 -1.108619322667035 1.558687278267338 -2.020864282144308 -1.5707963271947973 1.4427831931379327 0.0 0.0 0.0 0.0 0.0 0.0 0.0 8.881784197001252e-16 0.0 -1.7763568394002505e-15 0.0 0.0 107.35127184767892
3.013579519888486 -1.108619322667035 1.558687278267338 -2.020864282144308 -1.5707963271947973 1.4427831931379327 0.0 0.0 0.0 0.0 0.0 0.0 0.0 8.881784197001252e-16 0.0 -1.7763568394002505e-15 0.0 0.0 107.40127184767891
3.013579519888486 -1.108619322667035 1.558687278267338 -2.020864282144308 -1.5707963271947973 1.4427831931379327 0.0 0.0 0.0 0.0 0.0 0.0 0.0 8.881784197001252e-16 0.0 -1.7763568394002505e-15 0.0 0.0 107.46377184767891
3.013579519888486 -1.108619322667035 1.558687278267338 -2.020864282144308 -1.5707963271947973 1.4427831931379327 0.0 0.0 0.0 0.0 0.0 0.0 0.0 8.881784197001252e-16 0.0 -1.7763568394002505e-15 0.0 0.0 107.52627184767891
3.013579519888486 -1.108619322667035 1.558687278267338 -2.020864282144308 -1.5707963271947973 1.4427831931379327 0.0 0.0 0.0 0.0 0.0 0.0 0.0 8.881784197001252e-16 0.0 -1.7763568394002505e-15 0.0 0.0 107.58877184767891
3.013579519888486 -1.108619322667035 1.558687278267338 -2.020864282144308 -1.5707963271947973 1.4427831931379327 0.0 0.0 0.0 0.0 0.0 0.0 0.0 0.0 0.0 0.0 0.0 0.0 107.65127184767891
3.013579519867929 -1.1088454653962347 1.5582127758880604 -2.0201636370365614 -1.5707963271937022 1.4427831931172335 -8.309399024746299e-10 -0.009141008495788491 -0.01918005631043771 0.02832106477666948 4.426403711149281e-11 -8.366901715402022e-10 -2.1476600556267357e-08 -0.2362599118911487 -0.495730686177467 0.7319905973046881 1.1440551130355064e-09 -2.162522289519292e-08 107.70127184767891
3.013579519742012 -1.1102306540040214 1.5553063137061067 -2.0158719862513004 -1.5707963271869947 1.442783192990445 -2.8320791942330582e-09 -0.03115515321641521 -0.06537107949592971 0.09652623261160721 1.5086441051017665e-10 -2.8516777444210443e-09 -3.3040923932719015e-08 -0.3634767875248442 -0.76266259411918 1.126139380468751 1.7600847892853946e-09 -3.3269573684912184e-08 107.75370520781087
3.013579519451031 -1.1134316811549276 1.5485897811666274 -2.005954426571265 -1.5707963271714942 1.4427831926974504 -5.3543997265968754e-09 -0.058902711549785006 -0.12359219717199212 0.1824949085313199 2.8522802612080274e-10 -5.391453235546037e-09 -3.634501632599092e-08 -0.39982446627732865 -0.838928853531098 1.2387533185156263 1.936093268213934e-09 -3.659653105340341e-08 107.80613856794282
3.0135795189774255 -1.118641721162051 1.5376578516358432 -1.9898124570502036 -1.5707963271462653 1.4427831922205676 -7.866886650647384e-09 -0.08654209226782004 -0.1815863319331381 0.2681284239211312 4.19067806972713e-10 -7.921327067836235e-09 -3.3040923932719015e-08 -0.36347678752484425 -0.7626625941191799 1.1261393804687512 1.7600847892853943e-09 -3.326957368491219e-08 107.85857192807478
3.0135795183373513 -1.1256830536573417 1.5228834256168309 -1.9679966985586683 -1.5707963271121685 1.4427831915760638 -9.956528417225596e-09 -0.10952983552645974 -0.22982020135287795 0.33935003652518164 5.303826931998399e-10 -1.0025429570230235e-08 -2.478069294953926e-08 -0.2726075906436333 -0.571996945589385 0.8446045353515635 1.3200635919640454e-09 -2.495218026368414e-08 107.91100528820674
3.01357951757225 -1.1340997872618888 1.5052230739653099 -1.9419196133298149 -1.5707963270714118 1.4427831908056676 -1.1328316776932231e-08 -0.12462061286566087 -0.26148431798371885 0.38610493044642885 6.034576420407065e-10 -1.1406710977684174e-08 -1.3216369573087604e-08 -0.14539071500993803 -0.30506503764767223 0.4504557521875013 7.040339157141586e-10 -1.3307829473964895e-08 107.9634386483387
3.0135795167404202 -1.1432505832562074 1.4860224811054272 -1.913568224505202 -1.5707963270271004 1.4427831899680816 -1.1805246780127732e-08 -0.12986722720939747 -0.27249298935716537 0.4023602161466475 6.288636278384274e-10 -1.1886941431171749e-08 0.0 -4.440892098500626e-16 0.0 8.881784197001252e-16 0.0 0.0 108.01587200847065
3.0135795159085905 -1.1524013792505263 1.4668218882455446 -1.885216835680589 -1.570796326982789 1.4427831891304956 -1.1328316776932233e-08 -0.1246206128656609 -0.2614843179837188 0.386104930446429 6.034576420407068e-10 -1.1406710977684176e-08 1.3216369573087599e-08 0.14539071500993758 0.30506503764767273 -0.45045575218749934 -7.040339157141581e-10 1.3307829473964863e-08 108.06830536860261
3.013579515143489 -1.1608181128550734 1.4491615365940236 -1.8591397504517357 -1.5707963269420322 1.4427831883600994 -9.956528417225594e-09 -0.10952983552645976 -0.22982020135287795 0.3393500365251815 5.3038269319984e-10 -1.0025429570230236e-08 2.4780692949539223e-08 0.27260759064363244 0.5719969455893846 -0.844604535351561 -1.3200635919640435e-09 2.495218026368413e-08 108.12073872873457
3.013579514503415 -1.1678594453503641 1.4343871105750112 -1.8373239919602002 -1.5707963269079355 1.4427831877155957 -7.866886650647388e-09 -0.08654209226782013 -0.18158633193313806 0.26812842392113123 4.1906780697271267e-10 -7.92132706783623e-09 3.304092393271903e-08 0.3634767875248441 0.762662594119181 -1.1261393804687507 -1.760084789285395e-09 3.3269573684912203e-08 108.17317208886652
3.0135795140298094 -1.1730694853574875 1.423455181044227 -1.8211820224391388 -1.5707963268827065 1.442783187238713 -5.354399726596868e-09 -0.05890271154978504 -0.12359219717199177 0.18249490853131978 2.852280261208027e-10 -5.391453235546028e-09 3.6345016325990924e-08 0.39982446627732793 0.8389288535310985 -1.2387533185156234 -1.9360932682139326e-09 3.659653105340334e-08 108.22560544899848
3.0135795137388284 -1.1762705125083937 1.4167386485047477 -1.8112644627591035 -1.570796326867206 1.4427831869457182 -2.8320791942330504e-09 -0.031155153216415248 -0.06537107949592968 0.09652623261160696 1.5086441051017606e-10 -2.8516777444210335e-09 3.304092393271902e-08 0.3634767875248431 0.7626625941191798 -1.126139380468747 -1.760084789285395e-09 3.3269573684912144e-08 108.27803880913044
3.0135795136129113 -1.1776557011161803 1.4138321863227943 -1.8069728119738422 -1.5707963268604985 1.4427831868189298 -8.309399024746287e-10 -0.009141008495788474 -0.01918005631043783 0.028321064776669784 4.426403711149209e-11 -8.366901715402065e-10 2.1476600556267453e-08 0.2362599118911482 0.4957306861774675 -0.7319905973046863 -1.14405511303551e-09 2.1625222895193012e-08 108.33047216926239
3.0135795135923544 -1.1778818438453802 1.4133576839435165 -1.806272166866096 -1.5707963268594034 1.4427831867982306 0.0 0.0 0.0 0.0 0.0 0.0 0.0 -8.881784197001252e-16 0.0 1.7763568394002505e-15 0.0 0.0 108.38290552939435
3.0135795135923544 -1.1778818438453802 1.4133576839435165 -1.806272166866096 -1.5707963268594034 1.4427831867982306 0.0 0.0 0.0 0.0 0.0 0.0 0.0 -8.881784197001252e-16 0.0 1.7763568394002505e-15 0.0 0.0 108.4353388895263
3.0135795135923544 -1.1778818438453802 1.4133576839435165 -1.806272166866096 -1.5707963268594034 1.4427831867982306 0.0 0.0 0.0 0.0 0.0 0.0 0.0 -8.881784197001252e-16 0.0 1.7763568394002505e-15 0.0 0.0 108.4853388895263
3.0135795135923544 -1.1778818438453802 1.4133576839435165 -1.806272166866096 -1.5707963268594034 1.4427831867982306 0.0 0.0 0.0 0.0 0.0 0.0 0.0 -8.881784197001252e-16 0.0 1.7763568394002505e-15 0.0 0.0 108.5353388895263
3.0135795135923544 -1.1778818438453802 1.4133576839435165 -1.806272166866096 -1.5707963268594034 1.4427831867982306 0.0 0.0 0.0 0.0 0.0 0.0 0.0 -8.881784197001252e-16 0.0 1.7763568394002505e-15 0.0 0.0 108.5853388895263
3.0135795135923544 -1.1778818438453802 1.4133576839435165 -1.806272166866096 -1.5707963268594034 1.4427831867982306 0.0 0.0 0.0 0.0 0.0 0.0 0.0 -8.881784197001252e-16 0.0 1.7763568394002505e-15 0.0 0.0 108.63533888952631
3.0135795135923544 -1.1778818438453802 1.4133576839435165 -1.806272166866096 -1.5707963268594034 1.4427831867982306 0.0 0.0 0.0 0.0 0.0 0.0 0.0 -8.881784197001252e-16 0.0 1.7763568394002505e-15 0.0 0.0 108.6853388895263
3.0135795135923544 -1.1778818438453802 1.4133576839435165 -1.806272166866096 -1.5707963268594034 1.4427831867982306 0.0 0.0 0.0 0.0 0.0 0.0 0.0 -8.881784197001252e-16 0.0 1.7763568394002505e-15 0.0 0.0 108.7353388895263
3.0135795135923544 -1.1778818438453802 1.4133576839435165 -1.806272166866096 -1.5707963268594034 1.4427831867982306 0.0 0.0 0.0 0.0 0.0 0.0 0.0 -8.881784197001252e-16 0.0 1.7763568394002505e-15 0.0 0.0 108.7853388895263
3.0135795135923544 -1.1778818438453802 1.4133576839435165 -1.806272166866096 -1.5707963268594034 1.4427831867982306 0.0 0.0 0.0 0.0 0.0 0.0 0.0 -8.881784197001252e-16 0.0 1.7763568394002505e-15 0.0 0.0 108.8353388895263
3.0135795135923544 -1.1778818438453802 1.4133576839435165 -1.806272166866096 -1.5707963268594034 1.4427831867982306 0.0 0.0 0.0 0.0 0.0 0.0 0.0 -8.881784197001252e-16 0.0 1.7763568394002505e-15 0.0 0.0 108.88533888952631
3.0135795135923544 -1.1778818438453802 1.4133576839435165 -1.806272166866096 -1.5707963268594034 1.4427831867982306 0.0 0.0 0.0 0.0 0.0 0.0 0.0 -8.881784197001252e-16 0.0 1.7763568394002505e-15 0.0 0.0 108.9353388895263
3.0135795135923544 -1.1778818438453802 1.4133576839435165 -1.806272166866096 -1.5707963268594034 1.4427831867982306 0.0 0.0 0.0 0.0 0.0 0.0 0.0 -8.881784197001252e-16 0.0 1.7763568394002505e-15 0.0 0.0 108.9853388895263
3.0135795135923544 -1.1778818438453802 1.4133576839435165 -1.806272166866096 -1.5707963268594034 1.4427831867982306 0.0 0.0 0.0 0.0 0.0 0.0 0.0 -8.881784197001252e-16 0.0 1.7763568394002505e-15 0.0 0.0 109.0353388895263
3.0135795135923544 -1.1778818438453802 1.4133576839435165 -1.806272166866096 -1.5707963268594034 1.4427831867982306 0.0 0.0 0.0 0.0 0.0 0.0 0.0 -8.881784197001252e-16 0.0 1.7763568394002505e-15 0.0 0.0 109.0853388895263
3.0135795135923544 -1.1778818438453802 1.4133576839435165 -1.806272166866096 -1.5707963268594034 1.4427831867982306 0.0 0.0 0.0 0.0 0.0 0.0 0.0 -8.881784197001252e-16 0.0 1.7763568394002505e-15 0.0 0.0 109.13533888952631
3.0135795135923544 -1.1778818438453802 1.4133576839435165 -1.806272166866096 -1.5707963268594034 1.4427831867982306 0.0 0.0 0.0 0.0 0.0 0.0 0.0 -8.881784197001252e-16 0.0 1.7763568394002505e-15 0.0 0.0 109.1853388895263
3.0135795135923544 -1.1778818438453802 1.4133576839435165 -1.806272166866096 -1.5707963268594034 1.4427831867982306 0.0 0.0 0.0 0.0 0.0 0.0 0.0 -8.881784197001252e-16 0.0 1.7763568394002505e-15 0.0 0.0 109.2353388895263
3.0135795135923544 -1.1778818438453802 1.4133576839435165 -1.806272166866096 -1.5707963268594034 1.4427831867982306 0.0 0.0 0.0 0.0 0.0 0.0 0.0 -8.881784197001252e-16 0.0 1.7763568394002505e-15 0.0 0.0 109.2853388895263
3.0135795135923544 -1.1778818438453802 1.4133576839435165 -1.806272166866096 -1.5707963268594034 1.4427831867982306 0.0 0.0 0.0 0.0 0.0 0.0 0.0 -8.881784197001252e-16 0.0 1.7763568394002505e-15 0.0 0.0 109.3353388895263
3.0135795135923544 -1.1778818438453802 1.4133576839435165 -1.806272166866096 -1.5707963268594034 1.4427831867982306 0.0 0.0 0.0 0.0 0.0 0.0 0.0 -8.881784197001252e-16 0.0 1.7763568394002505e-15 0.0 0.0 109.3853388895263
3.0135795135923544 -1.1778818438453802 1.4133576839435165 -1.806272166866096 -1.5707963268594034 1.4427831867982306 0.0 0.0 0.0 0.0 0.0 0.0 0.0 -8.881784197001252e-16 0.0 1.7763568394002505e-15 0.0 0.0 109.4353388895263
3.0135795135923544 -1.1778818438453802 1.4133576839435165 -1.806272166866096 -1.5707963268594034 1.4427831867982306 0.0 0.0 0.0 0.0 0.0 0.0 0.0 -8.881784197001252e-16 0.0 1.7763568394002505e-15 0.0 0.0 109.4853388895263
3.0135795135923544 -1.1778818438453802 1.4133576839435165 -1.806272166866096 -1.5707963268594034 1.4427831867982306 0.0 0.0 0.0 0.0 0.0 0.0 0.0 -8.881784197001252e-16 0.0 1.7763568394002505e-15 0.0 0.0 109.5353388895263
3.0135795135923544 -1.1778818438453802 1.4133576839435165 -1.806272166866096 -1.5707963268594034 1.4427831867982306 0.0 0.0 0.0 0.0 0.0 0.0 0.0 -8.881784197001252e-16 0.0 1.7763568394002505e-15 0.0 0.0 109.5853388895263
3.0135795135923544 -1.1778818438453802 1.4133576839435165 -1.806272166866096 -1.5707963268594034 1.4427831867982306 0.0 0.0 0.0 0.0 0.0 0.0 0.0 -8.881784197001252e-16 0.0 1.7763568394002505e-15 0.0 0.0 109.6353388895263
3.0135795135923544 -1.1778818438453802 1.4133576839435165 -1.806272166866096 -1.5707963268594034 1.4427831867982306 0.0 0.0 0.0 0.0 0.0 0.0 0.0 -8.881784197001252e-16 0.0 1.7763568394002505e-15 0.0 0.0 109.6853388895263
3.0135795135923544 -1.1778818438453802 1.4133576839435165 -1.806272166866096 -1.5707963268594034 1.4427831867982306 0.0 0.0 0.0 0.0 0.0 0.0 0.0 -8.881784197001252e-16 0.0 1.7763568394002505e-15 0.0 0.0 109.7353388895263
3.0135795135923544 -1.1778818438453802 1.4133576839435165 -1.806272166866096 -1.5707963268594034 1.4427831867982306 0.0 0.0 0.0 0.0 0.0 0.0 0.0 -8.881784197001252e-16 0.0 1.7763568394002505e-15 0.0 0.0 109.7853388895263
3.0135795135923544 -1.1778818438453802 1.4133576839435165 -1.806272166866096 -1.5707963268594034 1.4427831867982306 0.0 0.0 0.0 0.0 0.0 0.0 0.0 -8.881784197001252e-16 0.0 1.7763568394002505e-15 0.0 0.0 109.8353388895263
3.0135795135923544 -1.1778818438453802 1.4133576839435165 -1.806272166866096 -1.5707963268594034 1.4427831867982306 0.0 0.0 0.0 0.0 0.0 0.0 0.0 -8.881784197001252e-16 0.0 1.7763568394002505e-15 0.0 0.0 109.8853388895263
3.0135795135923544 -1.1778818438453802 1.4133576839435165 -1.806272166866096 -1.5707963268594034 1.4427831867982306 0.0 0.0 0.0 0.0 0.0 0.0 0.0 -8.881784197001252e-16 0.0 1.7763568394002505e-15 0.0 0.0 109.9353388895263
3.0135795135923544 -1.1778818438453802 1.4133576839435165 -1.806272166866096 -1.5707963268594034 1.4427831867982306 0.0 0.0 0.0 0.0 0.0 0.0 0.0 -8.881784197001252e-16 0.0 1.7763568394002505e-15 0.0 0.0 109.9853388895263
3.0135795135923544 -1.1778818438453802 1.4133576839435165 -1.806272166866096 -1.5707963268594034 1.4427831867982306 0.0 0.0 0.0 0.0 0.0 0.0 0.0 0.0 0.0 0.0 0.0 0.0 110.0353388895263
3.013756664477533 -1.1778940633874322 1.413374652062012 -1.8062769154433402 -1.570796326860139 1.4429603376833853 0.023645449849484385 -0.0016310196163164803 0.002264842168443997 -0.0006338226589888491 -9.819817055340013e-11 0.023645449846285027 2.0797247935796492 -0.14345558898056315 0.19920316345177883 -0.05574758387015559 -8.636975455492239e-09 2.079724793298251 110.0853388895263
3.014949169218163 -1.1779763201698956 1.4134888742502065 -1.8063088808544605 -1.5707963268650915 1.4441528424238539 0.0903314809332575 -0.0062308993193577935 0.008652258614572212 -0.0024213597034512023 -3.751413581678447e-10 0.09033148092103516 3.875850751671165 -0.26734905219104954 0.37124225916013326 -0.10389322448528997 -1.609618153069008e-08 3.8758507511467415 110.13632107956215
3.0180445464208536 -1.1781898335929695 1.413785360079849 -1.806391853275018 -1.5707963268779463 1.4472482196261256 0.1939024596128172 -0.013375034828843203 0.018572641666434346 -0.005197607713898227 -8.05265576294308e-10 0.19390245958658114 5.401568517785622 -0.37259025594634637 0.5173807321363854 -0.14479050060145063 -2.243239819677001e-08 5.401568517054761 110.187303269598
3.023796779782596 -1.1785866120645299 1.4143363286917103 -1.8065460434413152 -1.570796326901835 1.45300045298709 0.3284958776610186 -0.022659041115933913 0.03146446020788726 -0.008805420576531036 -1.3642241710765752e-09 0.32849587761657134 6.670068735434098 -0.460089066561341 0.6388820273918573 -0.17879299097468507 -2.770040542490851e-08 6.670068734531601 110.23828545963384
3.032832831988794 -1.179209902316827 1.4152018327190443 -1.806788257257189 -1.5707963269393612 1.462036505192065 0.48854235226207415 -0.033698752403233063 0.046794259678594984 -0.013095509483240684 -2.0288878213512424e-09 0.4885423521959717 7.694542048127667 -0.5307553503509208 0.737009589937871 -0.2062542743610408 -3.195498318628207e-08 7.694542047086554 110.2892676496697
3.0456591586112913 -1.180094638723186 1.4164303822110518 -1.8071320704008034 -1.5707963269926284 1.474862831812827 0.6687656260115532 -0.04613022216478574 0.06405666207402867 -0.01792644293160817 -2.7773445386477154e-09 0.6687656259210656 8.488179099377406 -0.5854989736299728 0.8130268647857485 -0.22752792951656528 -3.525091145206716e-08 8.48817909822891 110.34024983970555
3.0626682220064056 -1.1812678926147042 1.4180595685563406 -1.8075880029314437 -1.5707963270632659 1.49187189520564 0.8641825669163828 -0.05960972312607896 0.08277436594546667 -0.023164646724904446 -3.5888996671882124e-09 0.8641825667994543 9.064170532694392 -0.6252298027133847 0.8681972969468119 -0.24296753519730604 -3.7642970193440275e-08 9.06417053146796 110.3912320297414
3.084145005212957 -1.1827493215969498 1.4201166884063903 -1.8081636938963082 -1.5707963271524579 1.5133486784092853 1.070103168394847 -0.0738137472640417 0.10249814639999444 -0.02868440397209039 -4.444075883887761e-09 1.0701031682500561 9.435706991589699 -0.6508577039160434 0.9037843314323836 -0.2529266701593106 -3.918593938157789e-08 9.435706990312998 110.44221421977724
3.110273525850297 -1.1845516188666616 1.4226193675990129 -1.808864075937302 -1.570796327260968 1.53947719904309 1.2821305492765875 -0.08843900580704486 0.12280685510050468 -0.034367855087816854 -5.3246131983542006e-09 1.2821305491031083 9.615979119574403 -0.6632925435528364 0.9210514132537849 -0.2577589131586264 -3.99345989876565e-08 9.61597911827331 110.4931964098131
3.1411433500163404 -1.1866809625284467 1.4255761850818163 -1.809691549897831 -1.5707963273891685 1.5703470232049566 1.496160953802602 -0.10320242923490125 0.14330742026569712 -0.04010499779242459 -6.2134689528881786e-09 1.4961609536001632 9.618177560159586 -0.663444187938651 0.9212619874223388 -0.257817842951301 -3.9943728982852585e-08 9.618177558858195 110.54417859984895
3.1767561061855947 -1.1891374649114799 1.428987296835666 -1.810646159429593 -1.5707963275370662 1.6059597793693923 1.7083837516252474 -0.11784116727886572 0.1636348466700788 -0.045793687111944356 -7.09481782248316e-09 1.7083837513940936 9.455492956856313 -0.6522225033883743 0.9056794989493666 -0.25345703829338184 -3.926810933834261e-08 9.455492955576933 110.5951607898848
3.2170319991071907 -1.1919156218862017 1.432845059798148 -1.8117257655993726 -1.5707963277043298 1.6462356722855387 1.9152814378082355 -0.13211258892163488 0.18345221564396377 -0.05133963537809677 -7.95405181482541e-09 1.9152814375490872 9.14111595317567 -0.6305373562168939 0.8755673928461907 -0.24503007794091647 -3.79625200253031e-08 9.141115951938826 110.64614297992065
3.2618163237029116 -1.1950047621810183 1.4371346557870306 -1.8129262214958333 -1.5707963278903163 1.6910199968752002 2.1136296328266377 -0.1457942823973475 0.20245068507347333 -0.05665641222829249 -8.777780270294014e-09 2.113629632540652 8.688237192628728 -0.5992986127390969 0.8321891141241331 -0.23289054064995243 -3.60817410149105e-08 8.688237191453162 110.6971251699565
3.3108859789652247 -1.1983894966989985 1.4418347154237272 -1.8142415468363111 -1.5707963280940997 1.740089652130874 2.300497082566881 -0.15868405519158416 0.2203494894005359 -0.06166544460563206 -9.553829861960863e-09 2.300497082255611 8.110047318726563 -0.5594161392698704 0.7768081077945159 -0.21739200517653706 -3.36805522783413e-08 8.110047317629231 110.74810735999235
3.3639559818553106 -1.2020501678345739 1.4469179420567588 -1.8156641025736076 -1.5707963283144963 1.7931596550137792 2.473245658326751 -0.17059993404136742 0.23689593962288713 -0.06629601675890597 -1.0271244595590666e-08 2.4732456579921065 7.41973697498025 -0.5117998021241019 0.7106878188686613 -0.19888805027671796 -3.081373378677198e-08 7.41973697397632 110.7990895500282
3.4206859812010935 -1.205963298790237 1.4523517356852158 -1.8171847655027826 -1.5707963285500928 1.8498896543518857 2.629530356815388 -0.1813801649351616 0.2518654232940696 -0.07048527024259464 -1.0920285809640922e-08 2.6295303564595973 6.630496804900872 -0.45735946761667934 0.6350916923578912 -0.17773225470654275 -2.7536065511379062e-08 6.630496804003733 110.85007174006405
3.4806867715952703 -1.2101020428932394 1.458098816882221 -1.818793102867948 -1.5707963287992726 1.9098904447379443 2.7672993001532933 -0.19088321311287335 0.26506140452343335 -0.07417820391686852 -1.1492432175261976e-08 2.767299299778862 5.755517451999499 -0.39700500206248884 0.5512831732735276 -0.1542781972220586 -2.3902327423338983e-08 5.755517451220749 110.90105393009989
3.543526807293344 -1.214436632912292 1.4641178507183918 -1.8204775469690602 -1.5707963290602436 1.9727304804275154 2.8847937358723224 -0.19898776306585092 0.2763154239761355 -0.07732767394758791 -1.1980379696296951e-08 2.8847937354819937 4.8079895597871944 -0.3316462717764181 0.46052570662689196 -0.12887945657931316 -1.996729949382822e-08 4.8079895591366535 110.95203612013574
3.6087387161116498 -1.2189348303742624 1.470364070685302 -1.8222255697687135 -1.5707963293310647 2.0379423892369974 2.9805480369156885 -0.2055927185368846 0.28548709887314005 -0.07989439380630309 -1.237804170928179e-08 2.980548036512403 3.8011037717750713 -0.26219314307335484 0.3640827374293085 -0.10188961153435423 -1.578576169402334e-08 3.8011037712607605 111.0030183101716
3.6758258133253885 -1.223562374880874 1.4767899026189453 -1.8240238574989334 -1.5707963296096736 2.105029486441659 3.0533897016379634 -0.21061720252020658 0.2924641229912186 -0.08184693427025425 -1.2680548883445262e-08 3.0533897012248215 2.748050731474171 -0.18955548226818597 0.2632177106920966 -0.07366224084322905 -1.1412493995100737e-08 2.748050731102344 111.05400050020745
3.744268615566654 -1.2282834334254042 1.4833455886231965 -1.8258584852679691 -1.5707963298939125 2.173472288673664 3.1024393538050767 -0.2140005572614912 0.2971622666629496 -0.08316172342237163 -1.288424922070893e-08 3.1024393533852983 1.662021082395578 -0.11464315567579858 0.15919407142657968 -0.044550923261984975 -6.902276368236923e-09 1.6620210821706969 111.1049826902433
3.8135313547224663 -1.2330610497093848 1.4899798109932751 -1.8277150916670877 -1.5707963301815566 2.2427350278201046 3.1271107425943123 -0.21570234425785462 0.29952537677671864 -0.08382304665127531 -1.2986708055687172e-08 3.1271107421711952 0.5562054680503694 -0.038366029611080425 0.05327526464408055 -0.014909237546669687 -2.309888784608372e-09 0.5562054679751129 111.15596488027914
3.883068491832799 -1.2378575934592986 1.4966403161392066 -1.8295790533773657 -1.5707963304703403 2.312272164921029 3.1271107425943123 -0.21570234425785453 0.29952537677671853 -0.08382304665127527 -1.2986708055687166e-08 3.1271107421711943 -0.5562054680503725 0.03836602961108055 -0.05327526464408037 0.014909237546669389 2.309888784608379e-09 -0.556205467975109 111.206947070315
3.9523312309886114 -1.2426352097432791 1.5032745385092852 -1.8314356597764843 -1.5707963307579844 2.381534904067469 3.102439353805078 -0.21400055726149125 0.29716226666294954 -0.08316172342237167 -1.2884249220708926e-08 3.102439353385298 -1.662021082395578 0.11464315567579902 -0.15919407142658057 0.04455092326198453 6.902276368236923e-09 -1.6620210821706898 111.25792926035085
4.020774033229878 -1.2473562682878094 1.5098302245135367 -1.83327028754552 -1.5707963310422233 2.4499777062994745 3.0533897016379647 -0.21061720252020652 0.2924641229912186 -0.08184693427025423 -1.2680548883445259e-08 3.053389701224821 -2.748050731474166 0.18955548226818558 -0.263217710692097 0.07366224084322867 1.1412493995100714e-08 -2.7480507311023388 111.3089114503867
4.087861130443616 -1.251983812794421 1.5162560564471796 -1.8350685752757399 -1.5707963313208322 2.5170648035041356 2.98054803691569 -0.20559271853688457 0.28548709887314 -0.07989439380630306 -1.2378041709281789e-08 2.980548036512402 -3.801103771775066 0.26219314307335445 -0.36408273742930797 0.10188961153435386 1.5785761694023344e-08 -3.801103771260748 111.35989364042254
4.153073039261921 -1.2564820102563914 1.5225022764140899 -1.8368165980753932 -1.5707963315916533 2.582276712313617 2.884793735872325 -0.19898776306585114 0.2763154239761357 -0.077327673947588 -1.1980379696296958e-08 2.8847937354819946 -4.8079895597872016 0.33164627177641853 -0.46052570662689285 0.12887945657931305 1.99672994938283e-08 -4.807989559136646 111.4108758304584
4.215913074959995 -1.260816600275444 1.5285213102502606 -1.8385010421765053 -1.5707963318526244 2.645116748003189 2.7672993001532933 -0.19088321311287337 0.2650614045234333 -0.07417820391686851 -1.149243217526197e-08 2.7672992997788617 -5.755517451999492 0.39700500206248884 -0.5512831732735267 0.15427819722205827 2.3902327423338983e-08 -5.755517451220735 111.46185802049425
4.275913865354172 -1.2649553443784465 1.534268391447266 -1.8401093795416708 -1.5707963321018041 2.7051175383892474 2.6295303568153936 -0.18138016493516168 0.25186542329406975 -0.07048527024259472 -1.0920285809640934e-08 2.6295303564595978 -6.630496804900881 0.4573594676166796 -0.6350916923578915 0.1777322547065425 2.7536065511379092e-08 -6.6304968040037275 111.5128402105301
4.332643864699955 -1.2688684753341095 1.5397021850757229 -1.8416300424708458 -1.5707963323374006 2.7618475377273537 2.4732456583267517 -0.1705999340413674 0.2368959396228871 -0.06629601675890592 -1.0271244595590664e-08 2.4732456579921074 -7.419736974980246 0.5117998021241025 -0.7106878188686612 0.19888805027671744 3.081373378677201e-08 -7.419736973976306 111.56382240056595
4.385713867590041 -1.2725291464696848 1.5447854117087545 -1.8430525982081423 -1.5707963325577972 2.814917540610259 2.3004970825668827 -0.15868405519158424 0.22034948940053586 -0.06166544460563206 -9.553829861960858e-09 2.300497082255611 -8.11004731872656 0.55941613926987 -0.7768081077945155 0.2173920051765365 3.3680552278341285e-08 -8.110047317629206 111.61480459060179
4.434783522852355 -1.2759138809876651 1.5494854713454511 -1.8443679235486201 -1.5707963327615806 2.863987195865933 2.1136296328266377 -0.14579428239734737 0.2024506850734729 -0.05665641222829235 -8.777780270293996e-09 2.113629632540647 -8.688237192628705 0.5992986127390958 -0.8321891141241318 0.23289054064995152 3.608174101491047e-08 -8.688237191453142 111.66578678063765
4.479567847448076 -1.2790030212824817 1.5537750673343338 -1.8455683794450808 -1.5707963329475672 2.908771520455595 1.9152814378082377 -0.1321125889216348 0.18345221564396363 -0.05133963537809681 -7.954051814825407e-09 1.9152814375490876 -9.141115953175682 0.6305373562168941 -0.8755673928461917 0.24503007794091652 3.7962520025303163e-08 -9.141115951938824 111.7167689706735
4.519843740369671 -1.2817811782572035 1.5576328302968157 -1.8466479856148603 -1.5707963331148307 2.9490474133717406 1.7083837516252502 -0.11784116727886586 0.16363484667007866 -0.04579368711194433 -7.094817822483162e-09 1.7083837513940925 -9.45549295685631 0.6522225033883738 -0.9056794989493648 0.2534570382933812 3.926810933834258e-08 -9.455492955576926 111.76775116070935
4.555456496538927 -1.2842376806402367 1.5610439420506654 -1.8476025951466224 -1.5707963332627284 2.984660169536177 1.496160953802601 -0.10320242923490112 0.14330742026569704 -0.04010499779242457 -6.213468952888167e-09 1.4961609536001612 -9.618177560159584 0.6634441879386513 -0.9212619874223388 0.25781784295130034 3.9943728982852605e-08 -9.618177558858182 111.81873335074519
4.58632632070497 -1.286367024302022 1.564000759533469 -1.8484300691071514 -1.570796333390929 3.015529993698044 1.2821305492765913 -0.08843900580704477 0.12280685510050417 -0.0343678550878168 -5.324613198354186e-09 1.2821305491031074 -9.61597911957442 0.6632925435528373 -0.9210514132537866 0.2577589131586263 3.993459898765656e-08 -9.61597911827331 111.86971554078104
4.612454841342309 -1.2881693215717336 1.5665034387260914 -1.8491304511481452 -1.570796333499439 3.041658514331848 1.0701031683948519 -0.07381374726404158 0.10249814639999423 -0.028684403972090315 -4.444075883887755e-09 1.0701031682500546 -9.43570699158971 0.6508577039160425 -0.9037843314323829 0.2529266701593102 3.918593938157789e-08 -9.435706990312982 111.9206977308169
4.63393162454886 -1.2896507505539792 1.568560558576141 -1.8497061421130097 -1.570796333588631 3.063135297535494 0.8641825669163892 -0.05960972312607882 0.08277436594546655 -0.023164646724904366 -3.5888996671882173e-09 0.8641825667994546 -9.064170532694398 0.6252298027133838 -0.8681972969468106 0.24296753519730516 3.764297019344029e-08 -9.064170531467942 111.97167992085275
4.650940687943978 -1.2908240044454973 1.5701897449214302 -1.85016207464365 -1.5707963336592685 3.0801443609283083 0.6687656260115544 -0.04613022216478523 0.06405666207402833 -0.017926442931608035 -2.777344538647701e-09 0.668765625921062 -8.48817909937741 0.5854989736299714 -0.8130268647857474 0.22752792951656434 3.525091145206716e-08 -8.488179098228908 112.0226621108886
4.663767014566474 -1.2917087408518564 1.5714182944134376 -1.8505058877872644 -1.5707963337125357 3.0929706875490703 0.48854235226207104 -0.033698752403232474 0.04679425967859439 -0.013095509483240342 -2.028887821351216e-09 0.48854235219596054 -7.694542048127662 0.5307553503509204 -0.7370095899378691 0.20625427436103913 3.195498318628204e-08 -7.694542047086532 112.07364430092444
4.672803066772671 -1.2923320311041535 1.5722837984407714 -1.8507481016031382 -1.570796333750062 3.102006739754043 0.3284958776610247 -0.022659041115934465 0.03146446020788766 -0.008805420576531052 -1.3642241710765926e-09 0.3284958776165753 -6.670068735434127 0.4600890665613414 -0.6388820273918584 0.17879299097468448 2.7700405424908582e-08 -6.670068734531589 112.1246264909603
4.678555300134413 -1.292728809575714 1.5728347670526328 -1.8509022917694353 -1.5707963337739506 3.1077589731150077 0.19390245961282343 -0.013375034828843037 0.01857264166643421 -0.005197607713898097 -8.052655762942991e-10 0.19390245958657515 -5.40156851778563 0.3725902559463464 -0.5173807321363845 0.14479050060144957 2.2432398196770075e-08 -5.401568517054754 112.17560868099615
4.681650677337103 -1.2929423229987878 1.5731312528822754 -1.8509852641899929 -1.5707963337868054 3.110854350317279 0.09033148093326306 -0.006230899319358059 0.008652258614571568 -0.002421359703451228 -3.7514135816783425e-10 0.09033148092103124 -3.8758507516711735 0.2673490521910479 -0.37124225916013165 0.10389322448528884 1.6096181530689953e-08 -3.8758507511467193 112.226590871032
4.6828431820777325 -1.2930245797812512 1.5732454750704694 -1.8510172296011131 -1.5707963337917579 3.112046855057746 0.023645449849500868 -0.0016310196163167381 0.002264842168444564 -0.0006338226589890995 -9.8198170553434e-11 0.02364544984629086 -2.079724793579677 0.14345558898056454 -0.19920316345177827 0.05574758387015519 8.63697545549224e-09 -2.0797247932982654 112.27757306106784
4.683020332962913 -1.2930367993233032 1.5732624431889652 -1.8510219781783575 -1.5707963337924935 3.1122240059429025 7.105427357601002e-15 0.0 0.0 0.0 0.0 0.0 -1.4210854715202004e-14 0.0 0.0 -8.881784197001252e-16 0.0 1.4210854715202004e-14 112.3285552511037
4.6830203329629105 -1.2930367993233032 1.5732624431889652 -1.8510219781783575 -1.5707963337924935 3.1122240059429025 0.0 0.0 0.0 0.0 0.0 0.0 0.0 0.0 0.0 0.0 0.0 0.0 112.37953744113955
4.683020327505428 -1.292826290769684 1.5736508461758685 -1.851620889986443 -1.57079633421281 3.112224000474477 -2.3700146614289596e-07 0.009141730393505756 0.01686713118900012 -0.02600887320194437 -1.8253037888863825e-08 -2.374766822194269e-07 -6.602183699694959e-06 0.25466248953337467 0.46987008312214623 -0.7245328963398789 -5.084774840469208e-07 -6.615421861826892e-06 112.42953744113954
4.683020293752872 -1.291524371546636 1.576052978090438 -1.8553249427788423 -1.570796336812316 3.112223966654243 -8.174132199622329e-07 0.03152964156127496 0.05817439124369429 -0.08970407288017548 -6.2954355167714e-08 -8.190522305119009e-07 -1.0374860099520649e-05 0.40018391212387444 0.7383672734776583 -1.138551694248381 -7.99036046359447e-07 -1.0395662925727972e-05 112.47960022567779
4.683020214776567 -1.288478060911766 1.5816736340176023 -1.8639919132128373 -1.5707963428947993 3.1122238875195816 -1.56711173531221e-06 0.06044736015297685 0.11152960214767428 -0.17197703913122403 -1.206935566528955e-07 -1.57025398038968e-06 -1.1753338014841574e-05 0.4533552011473263 0.836472016107557 -1.28982779348418 -9.052016748967162e-07 -1.1776904852922598e-05 112.52966301021601
4.683020084288719 -1.2834448231607567 1.590960309274621 -1.878311832618275 -1.5707963529445246 3.11222375677009 -2.3409940737379924e-06 0.09029790837666912 0.1666059488872665 -0.25690397203553217 -1.8029531302469573e-07 -2.345688044779645e-06 -1.117292626102224e-05 0.43096728997955713 0.7951647560528627 -1.2261325938059489 -8.60500357617866e-07 -1.1195329304630125e-05 112.57972579475425
4.68301990470771 -1.2765179412568068 1.6037408902779322 -1.8980193043298301 -1.5707963667752363 3.112223576829 -3.022977884475714e-06 0.11660370399879794 0.2151419794515322 -0.33174583165745375 -2.3281936082734475e-07 -3.0290393140233025e-06 -9.06893365342714e-06 0.3498111119963937 0.6454259383545965 -0.9952374949723612 -6.984580824820339e-07 -9.087117942069903e-06 112.62978857929248
4.683019685223393 -1.2680518904600728 1.619361345410004 -1.9221058210192634 -1.5707963836791636 3.1122233569045905 -3.5260014044524725e-06 0.1360065603441979 0.25094160483226713 -0.38694833804525397 -2.715605024690149e-07 -3.53307145587678e-06 -5.876669007420783e-06 0.22667760057366315 0.4182360080537781 -0.64491389674209 -4.526008374483577e-07 -5.888452426461296e-06 112.67985136383072
4.6830194398623854 -1.258587711957109 1.6368234158861807 -1.9490320820276845 -1.5707964025760246 3.112223111051605 -3.7920234582863353e-06 0.1462676862960921 0.26987409902400195 -0.41614197123110996 -2.9204860622182114e-07 -3.7996269155108294e-06 -2.031441138367679e-06 0.07835768908719225 0.14457541019142944 -0.22293319887380977 -1.5645461047597542e-07 -2.0355144190236586e-06 112.72991414836896
4.683019185553364 -1.2487783864903088 1.654922306621534 -1.9769403106978116 -1.570796422162031 3.112222856232663 -3.792023458286336e-06 0.14626768629609213 0.26987409902400195 -0.4161419712311101 -2.920486062218213e-07 -3.7996269155108302e-06 2.031441138367679e-06 -0.0783576890871918 -0.1445754101914299 0.22293319887380889 1.5645461047597542e-07 2.0355144190236586e-06 112.77997693290719
4.683018940192356 -1.239314207987345 1.6723843770977107 -2.0038665717062325 -1.570796441058892 3.1122226103796775 -3.526001404452474e-06 0.136006560344198 0.2509416048322673 -0.3869483380452541 -2.715605024690151e-07 -3.533071455876783e-06 5.87666900742079e-06 -0.22667760057366293 -0.41823600805377853 0.64491389674209 4.5260083744835856e-07 5.88845242646131e-06 112.83003971744543
4.683018720708039 -1.230848157190611 1.6880048322297823 -2.027953088395666 -1.5707964579628193 3.112222390455268 -3.0229778844757195e-06 0.11660370399879806 0.21514197945153246 -0.3317458316574541 -2.328193608273451e-07 -3.0290393140233068e-06 9.068933653427147e-06 -0.34981111199639353 -0.6454259383545974 0.9952374949723611 6.984580824820353e-07 9.08711794206991e-06 112.88010250198366
4.68301854112703 -1.223921275286661 1.7007854132330937 -2.0476605601072206 -1.570796471793531 3.112222210514178 -2.340994073737996e-06 0.09029790837666919 0.1666059488872668 -0.2569039720355325 -1.8029531302469587e-07 -2.3456880447796503e-06 1.1172926261022243e-05 -0.4309672899795569 -0.7951647560528632 1.2261325938059473 8.605003576178662e-07 1.1195329304630125e-05 112.9301652865219
4.683018410639182 -1.2188880375356514 1.7100720884901124 -2.061980479512659 -1.5707964818432563 3.1122220797646865 -1.5671117353122067e-06 0.06044736015297672 0.11152960214767439 -0.1719770391312237 -1.2069355665289542e-07 -1.5702539803896787e-06 1.1753338014841583e-05 -0.4533552011473263 -0.8364720161075582 1.289827793484179 9.052016748967163e-07 1.1776904852922596e-05 112.98022807106014
4.683018331662877 -1.2158417269007815 1.715692744417277 -2.070647449946654 -1.5707964879257397 3.112222000630025 -8.174132199622303e-07 0.03152964156127465 0.0581743912436938 -0.08970407288017455 -6.29543551677137e-08 -8.190522305118891e-07 1.0374860099520634e-05 -0.40018391212387333 -0.7383672734776583 1.138551694248379 7.990360463594449e-07 1.0395662925727965e-05 113.03029085559837
4.683018297910321 -1.2145398076777338 1.7180948763318464 -2.074351502739053 -1.5707964905252456 3.1122219668097912 -2.3700146614289143e-07 0.009141730393505555 0.01686713118899953 -0.026008873201944036 -1.825303788886337e-08 -2.374766822194258e-07 6.602183699694969e-06 -0.2546624895333744 -0.4698700831221475 0.7245328963398742 5.084774840469208e-07 6.6154218618269e-06 113.08035364013661
4.6830182924528385 -1.2143292991241146 1.7184832793187494 -2.0749504145471382 -1.570796490945562 3.1122219613413655 0.0 0.0 0.0 0.0 0.0 0.0 0.0 8.881784197001252e-16 0.0 -3.552713678800501e-15 0.0 0.0 113.13041642467483
4.6830182924528385 -1.2143292991241146 1.7184832793187494 -2.0749504145471382 -1.570796490945562 3.1122219613413655 0.0 0.0 0.0 0.0 0.0 0.0 0.0 8.881784197001252e-16 0.0 -3.552713678800501e-15 0.0 0.0 113.18047920921308
4.6830182924528385 -1.2143292991241146 1.7184832793187494 -2.0749504145471382 -1.570796490945562 3.1122219613413655 0.0 0.0 0.0 0.0 0.0 0.0 0.0 8.881784197001252e-16 0.0 -3.552713678800501e-15 0.0 0.0 113.23047920921307
4.6830182924528385 -1.2143292991241146 1.7184832793187494 -2.0749504145471382 -1.570796490945562 3.1122219613413655 0.0 0.0 0.0 0.0 0.0 0.0 0.0 8.881784197001252e-16 0.0 -3.552713678800501e-15 0.0 0.0 113.28464587587973
4.6830182924528385 -1.2143292991241146 1.7184832793187494 -2.0749504145471382 -1.570796490945562 3.1122219613413655 0.0 0.0 0.0 0.0 0.0 0.0 0.0 8.881784197001252e-16 0.0 -3.552713678800501e-15 0.0 0.0 113.3388125425464
4.6830182924528385 -1.2143292991241146 1.7184832793187494 -2.0749504145471382 -1.570796490945562 3.1122219613413655 0.0 0.0 0.0 0.0 0.0 0.0 0.0 8.881784197001252e-16 0.0 -3.552713678800501e-15 0.0 0.0 113.39297920921308
4.6830182924528385 -1.2143292991241146 1.7184832793187494 -2.0749504145471382 -1.570796490945562 3.1122219613413655 0.0 0.0 0.0 0.0 0.0 0.0 0.0 8.881784197001252e-16 0.0 -3.552713678800501e-15 0.0 0.0 113.44714587587974
4.6830182924528385 -1.2143292991241146 1.7184832793187494 -2.0749504145471382 -1.570796490945562 3.1122219613413655 0.0 0.0 0.0 0.0 0.0 0.0 0.0 8.881784197001252e-16 0.0 -3.552713678800501e-15 0.0 0.0 113.5013125425464
4.6830182924528385 -1.2143292991241146 1.7184832793187494 -2.0749504145471382 -1.570796490945562 3.1122219613413655 0.0 0.0 0.0 0.0 0.0 0.0 0.0 8.881784197001252e-16 0.0 -3.552713678800501e-15 0.0 0.0 113.55547920921308
4.6830182924528385 -1.2143292991241146 1.7184832793187494 -2.0749504145471382 -1.570796490945562 3.1122219613413655 0.0 0.0 0.0 0.0 0.0 0.0 0.0 8.881784197001252e-16 0.0 -3.552713678800501e-15 0.0 0.0 113.60964587587975
4.6830182924528385 -1.2143292991241146 1.7184832793187494 -2.0749504145471382 -1.570796490945562 3.1122219613413655 0.0 0.0 0.0 0.0 0.0 0.0 0.0 8.881784197001252e-16 0.0 -3.552713678800501e-15 0.0 0.0 113.66381254254641
4.6830182924528385 -1.2143292991241146 1.7184832793187494 -2.0749504145471382 -1.570796490945562 3.1122219613413655 0.0 0.0 0.0 0.0 0.0 0.0 0.0 8.881784197001252e-16 0.0 -3.552713678800501e-15 0.0 0.0 113.71797920921307
4.6830182924528385 -1.2143292991241146 1.7184832793187494 -2.0749504145471382 -1.570796490945562 3.1122219613413655 0.0 0.0 0.0 0.0 0.0 0.0 0.0 8.881784197001252e-16 0.0 -3.552713678800501e-15 0.0 0.0 113.77214587587974
4.6830182924528385 -1.2143292991241146 1.7184832793187494 -2.0749504145471382 -1.570796490945562 3.1122219613413655 0.0 0.0 0.0 0.0 0.0 0.0 0.0 8.881784197001252e-16 0.0 -3.552713678800501e-15 0.0 0.0 113.82631254254642
4.6830182924528385 -1.2143292991241146 1.7184832793187494 -2.0749504145471387 -1.570796490945562 3.1122219613413655 0.0 0.0 0.0 0.0 0.0 0.0 0.0 0.0 0.0 0.0 0.0 0.0 113.88047920921308
4.683018297910321 -1.2145398076777338 1.7180948763318462 -2.074351502739053 -1.5707964905252456 3.1122219668097912 2.3700146614289596e-07 -0.009141730393505756 -0.01686713118900012 0.02600887320194437 1.8253037888863825e-08 2.374766822194269e-07 6.602183699694959e-06 -0.25466248953337467 -0.46987008312214623 0.7245328963398789 5.084774840469208e-07 6.615421861826892e-06 113.93047920921308
4.683018331662877 -1.2158417269007817 1.7156927444172767 -2.070647449946654 -1.5707964879257397 3.112222000630025 8.174132199622329e-07 -0.03152964156127496 -0.05817439124369429 0.08970407288017548 6.2954355167714e-08 8.190522305119009e-07 1.0374860099520649e-05 -0.40018391212387444 -0.7383672734776583 1.138551694248381 7.99036046359447e-07 1.0395662925727972e-05 113.98054199375132
4.683018410639182 -1.2188880375356517 1.7100720884901124 -2.061980479512659 -1.5707964818432563 3.1122220797646865 1.56711173531221e-06 -0.06044736015297685 -0.11152960214767428 0.17197703913122403 1.206935566528955e-07 1.57025398038968e-06 1.1753338014841574e-05 -0.4533552011473263 -0.836472016107557 1.28982779348418 9.052016748967162e-07 1.1776904852922598e-05 114.03060477828954
4.68301854112703 -1.223921275286661 1.7007854132330937 -2.047660560107221 -1.570796471793531 3.112222210514178 2.3409940737379924e-06 -0.09029790837666912 -0.1666059488872665 0.25690397203553217 1.8029531302469573e-07 2.345688044779645e-06 1.117292626102224e-05 -0.43096728997955713 -0.7951647560528627 1.2261325938059489 8.60500357617866e-07 1.1195329304630125e-05 114.08066756282778
4.683018720708039 -1.230848157190611 1.6880048322297825 -2.027953088395666 -1.5707964579628193 3.112222390455268 3.022977884475714e-06 -0.11660370399879794 -0.2151419794515322 0.33174583165745375 2.3281936082734475e-07 3.0290393140233025e-06 9.06893365342714e-06 -0.3498111119963937 -0.6454259383545965 0.9952374949723612 6.984580824820339e-07 9.087117942069903e-06 114.13073034736601
4.683018940192356 -1.239314207987345 1.6723843770977107 -2.003866571706233 -1.570796441058892 3.1122226103796775 3.5260014044524725e-06 -0.1360065603441979 -0.25094160483226713 0.38694833804525397 2.715605024690149e-07 3.53307145587678e-06 5.876669007420783e-06 -0.22667760057366315 -0.4182360080537781 0.64491389674209 4.526008374483577e-07 5.888452426461296e-06 114.18079313190425
4.683019185553364 -1.2487783864903088 1.654922306621534 -1.9769403106978116 -1.570796422162031 3.112222856232663 3.7920234582863353e-06 -0.1462676862960921 -0.26987409902400195 0.41614197123110996 2.9204860622182114e-07 3.7996269155108294e-06 2.031441138367679e-06 -0.07835768908719225 -0.14457541019142944 0.22293319887380977 1.5645461047597542e-07 2.0355144190236586e-06 114.2308559164425
4.6830194398623854 -1.258587711957109 1.6368234158861807 -1.9490320820276845 -1.5707964025760246 3.112223111051605 3.792023458286336e-06 -0.14626768629609213 -0.26987409902400195 0.4161419712311101 2.920486062218213e-07 3.7996269155108302e-06 -2.031441138367679e-06 0.0783576890871918 0.1445754101914299 -0.22293319887380889 -1.5645461047597542e-07 -2.0355144190236586e-06 114.28091870098072
4.683019685223393 -1.2680518904600728 1.619361345410004 -1.9221058210192634 -1.5707963836791636 3.1122233569045905 3.526001404452474e-06 -0.136006560344198 -0.2509416048322673 0.3869483380452541 2.715605024690151e-07 3.533071455876783e-06 -5.87666900742079e-06 0.22667760057366293 0.41823600805377853 -0.64491389674209 -4.5260083744835856e-07 -5.88845242646131e-06 114.33098148551896
4.68301990470771 -1.2765179412568068 1.6037408902779324 -1.8980193043298301 -1.5707963667752363 3.112223576829 3.0229778844757195e-06 -0.11660370399879806 -0.21514197945153246 0.3317458316574541 2.328193608273451e-07 3.0290393140233068e-06 -9.068933653427147e-06 0.34981111199639353 0.6454259383545974 -0.9952374949723611 -6.984580824820353e-07 -9.08711794206991e-06 114.38104427005719
4.683020084288719 -1.2834448231607567 1.590960309274621 -1.8783118326182753 -1.5707963529445246 3.11222375677009 2.340994073737996e-06 -0.09029790837666919 -0.1666059488872668 0.2569039720355325 1.8029531302469587e-07 2.3456880447796503e-06 -1.1172926261022243e-05 0.4309672899795569 0.7951647560528632 -1.2261325938059473 -8.605003576178662e-07 -1.1195329304630125e-05 114.43110705459543
4.683020214776567 -1.2884780609117663 1.5816736340176023 -1.8639919132128373 -1.5707963428947993 3.1122238875195816 1.5671117353122067e-06 -0.06044736015297672 -0.11152960214767439 0.1719770391312237 1.2069355665289542e-07 1.5702539803896787e-06 -1.1753338014841583e-05 0.4533552011473263 0.8364720161075582 -1.289827793484179 -9.052016748967163e-07 -1.1776904852922596e-05 114.48116983913367
4.683020293752872 -1.2915243715466362 1.5760529780904378 -1.8553249427788423 -1.570796336812316 3.112223966654243 8.174132199622303e-07 -0.03152964156127465 -0.0581743912436938 0.08970407288017455 6.29543551677137e-08 8.190522305118891e-07 -1.0374860099520634e-05 0.40018391212387333 0.7383672734776583 -1.138551694248379 -7.990360463594449e-07 -1.0395662925727965e-05 114.5312326236719
4.683020327505428 -1.292826290769684 1.5736508461758683 -1.8516208899864433 -1.57079633421281 3.112224000474477 2.3700146614289143e-07 -0.009141730393505555 -0.01686713118899953 0.026008873201944036 1.825303788886337e-08 2.374766822194258e-07 -6.602183699694969e-06 0.2546624895333744 0.4698700831221475 -0.7245328963398742 -5.084774840469208e-07 -6.6154218618269e-06 114.58129540821014
4.6830203329629105 -1.2930367993233032 1.5732624431889652 -1.8510219781783577 -1.5707963337924935 3.1122240059429025 0.0 0.0 0.0 0.0 0.0 0.0 0.0 -8.881784197001252e-16 0.0 3.552713678800501e-15 0.0 0.0 114.63135819274837
4.6830203329629105 -1.2930367993233032 1.5732624431889652 -1.8510219781783575 -1.5707963337924935 3.1122240059429025 0.0 0.0 0.0 0.0 0.0 0.0 0.0 0.0 0.0 0.0 0.0 0.0 114.6814209772866
4.682852893728117 -1.2930417626242416 1.5732688852605015 -1.8510234569481137 -1.570796333791954 3.1120565667081537 -0.022851579489727863 -0.0006773756823870682 0.000879193636833206 -0.00020181783960778008 7.362958133603521e-11 -0.022851579483558666 -2.055626528320409 -0.06093370582895227 0.0790883520422404 -0.018154635882939862 6.623389894406013e-09 -2.055626527765455 114.7314209772866
4.6817247804699 -1.2930752026097987 1.5733122883871298 -1.8510334200835157 -1.570796333788319 3.110928453450242 -0.08738895386096424 -0.002590418412052077 0.0033622101351290603 -0.0007717912839124193 2.815740631438305e-10 -0.087388953837372 -3.8371695195314297 -0.11374291754737759 0.14763159047884875 -0.03388865364815441 1.2363661136224557e-08 -3.837169518495516 114.78160186195204
4.678793563516037 -1.2931620909181207 1.5734250642805936 -1.851059307653927 -1.5707963337788746 3.107997236497171 -0.1877892021178081 -0.005566522829927508 0.007225017931131546 -0.001658494157487935 6.050715372903516e-10 -0.187789202067111 -5.357087316228944 -0.15879693034211806 0.2061090386555356 -0.04731208139190388 1.7260955482391428e-08 -5.357087314782701 114.83178274661746
4.673340454590576 -1.293323734159507 1.5736348676629104 -1.8511074677674535 -1.5707963337613042 3.1025441275731813 -0.3185002367990515 -0.009441111733181538 0.012254005533817485 -0.002812892200044437 1.026232742532473e-09 -0.31850023671306654 -6.627838261008833 -0.1964650394000158 0.25500001991801147 -0.05853494721044853 2.1355414689842417e-08 -6.627838259219528 114.8819636312829
4.664764419128301 -1.293577948441546 1.5739648227896916 -1.851183208569098 -1.5707963337336714 3.093968092113221 -0.4742408039781795 -0.014057636075218047 0.018245981524896537 -0.0041883430664281275 1.528041064516978e-09 -0.47424080385014966 -7.6618806964669774 -0.22711653990791303 0.29478385761198694 -0.06766727920004857 2.468718051551332e-08 -7.661880694398515 114.93214451594834
4.652576288589195 -1.29393923389425 1.5744337499734644 -1.8512908502389163 -1.5707963336944004 3.0817799615774053 -0.6500004832633703 -0.01926757496567661 0.025008174558811193 -0.0057405963266213 2.0943525357805575e-09 -0.6500004830878909 -8.471672965199259 -0.2511207270526518 0.32593987508317257 -0.07481910545696428 2.729639471633993e-08 -8.47167296291218 114.98232540061376
4.6363928727729045 -1.2944189491951918 1.5750563921069898 -1.8514337769901714 -1.5707963336422561 3.0655965457654846 -0.8410396877974954 -0.024930435670432502 0.0323582333627368 -0.0074277934657423425 2.709895835749812e-09 -0.8410396875704416 -9.069673409801561 -0.2688468960210743 0.3489473956772789 -0.08010045407745588 2.9223199049258047e-08 -9.06967340735304 115.0325062852792
4.615931072133202 -1.2950254860946397 1.5758436411865846 -1.8516144890674897 -1.5707963335763266 3.045134745131306 -1.0428896642581187 -0.030913753611596692 0.04012422673658152 -0.00921046788404573 3.36027229074125e-09 -1.0428896639765717 -9.46834037286976 -0.2806643420000226 0.3642857427400164 -0.08362135315778361 3.0507735271203455e-08 -9.468340370313612 115.08268716994463
4.591001990092448 -1.2957644439406928 1.576802764835441 -1.8518346547450146 -1.5707963334960031 3.0202056630972822 -1.2513524928574977 -0.03709309236751585 0.04814464355298635 -0.011051544896922035 4.0319558739612875e-09 -1.2513524925196724 -9.680132196999741 -0.28694236017633895 0.3724342396170957 -0.08549183079420773 3.1190145139111946e-08 -9.680132194386418 115.13286805461007
4.561505045356055 -1.2966388042044168 1.5779376328269474 -1.8520951623245632 -1.5707963334009618 2.990708718368853 -1.4625010873425834 -0.04335204367277237 0.05626839275732519 -0.012916341734897927 4.7122932055062546e-09 -1.4625010869477548 -9.717507224787385 -0.2880502457368653 0.3738722096542273 -0.08582191508298843 3.131057040991933e-08 -9.71750722216397 115.1830489392755
4.527422084226953 -1.2976491050049797 1.579248943608008 -1.85239617213378 -1.5707963332911437 2.9566257572489514 -1.6726791949950186 -0.0495822274181843 0.06435480336770469 -0.01477256754363615 5.389503552362381e-09 -1.6726791945434487 -9.592923798828572 -0.28435729386844394 0.3690789761971219 -0.08472163412038602 3.090915284056139e-08 -9.592923796238793 115.23322982394093
