Andreas691667/Digital_Twin_UR/src/monitor/robot_data.csv
timestamp target_q_0 target_q_1 target_q_2 target_q_3 target_q_4 target_q_5 target_qd_0 target_qd_1 target_qd_2 target_qd_3 target_qd_4 target_qd_5 target_qdd_0 target_qdd_1 target_qdd_2 target_qdd_3 target_qdd_4 target_qdd_5 actual_q_0 actual_q_1 actual_q_2 actual_q_3 actual_q_4 actual_q_5 actual_qd_0 actual_qd_1 actual_qd_2 actual_qd_3 actual_qd_4 actual_qd_5 actual_TCP_pose_0 actual_TCP_pose_1 actual_TCP_pose_2 actual_TCP_pose_3 actual_TCP_pose_4 actual_TCP_pose_5 actual_TCP_speed_0 actual_TCP_speed_1 actual_TCP_speed_2 actual_TCP_speed_3 actual_TCP_speed_4 actual_TCP_speed_5 actual_TCP_force_0 actual_TCP_force_1 actual_TCP_force_2 actual_TCP_force_3 actual_TCP_force_4 actual_TCP_force_5 target_TCP_pose_0 target_TCP_pose_1 target_TCP_pose_2 target_TCP_pose_3 target_TCP_pose_4 target_TCP_pose_5 target_TCP_speed_0 target_TCP_speed_1 target_TCP_speed_2 target_TCP_speed_3 target_TCP_speed_4 target_TCP_speed_5 runtime_state
20399.552 0.4161461889743805 -1.5301833649030705 -0.8859370350837708 -2.3291670284666957 4.877832412719727 1.5248446464538574 0.0 0.0 0.0 0.0 0.0 0.0 0.0 0.0 0.0 0.0 0.0 0.0 0.4160194993019104 -1.5301124838045617 -0.8857673406600952 -2.328707834283346 4.878711700439453 1.524871587753296 0.00045172180398367345 5.0385879148961976e-05 0.0 7.684384273010359e-34 0.0413900688290596 1.8718158119223046e-25 0.14234250414108102 -0.10551207964997669 0.7253267557055645 2.007075495183946 0.5442856819702483 -2.149579236809105 0.0030964631146699756 -0.007004256706139837 -0.0009605383994323377 0.03787746154655066 0.016633360600723485 -0.0008801917347098274 -4.2801803147032444 -1.7404897845578264 3.435908176695978 0.09542252077678325 -0.6651441898762372 -0.12745804106880565 0.1424563559654699 -0.10526611187834882 0.725353439270174 2.006148727788962 0.5431505110813688 -2.1496606504736366 0.0 0.0 0.0 0.0 0.0 0.0 1
20399.559999999998 0.4161461889743805 -1.5301833649030705 -0.8859370350837708 -2.3291670284666957 4.877832412719727 1.5248446464538574 0.0 0.0 0.0 0.0 0.0 0.0 0.0 0.0 0.0 0.0 0.0 0.0 0.4160194993019104 -1.5301124838045617 -0.8857673406600952 -2.328707834283346 4.878711700439453 1.524871587753296 0.00045172180398367345 5.0385879148961976e-05 0.0 7.684384273010359e-34 0.0413900688290596 1.8718158119223046e-25 0.14234250414108102 -0.10551207964997669 0.7253267557055645 2.007075495183946 0.5442856819702483 -2.149579236809105 0.0030964631146699756 -0.007004256706139837 -0.0009605383994323377 0.03787746154655066 0.016633360600723485 -0.0008801917347098274 -4.2801803147032444 -1.7404897845578264 3.435908176695978 0.09542252077678325 -0.6651441898762372 -0.12745804106880565 0.1424563559654699 -0.10526611187834882 0.725353439270174 2.006148727788962 0.5431505110813688 -2.1496606504736366 0.0 0.0 0.0 0.0 0.0 0.0 1
20399.568 0.4161461889743805 -1.5301833649030705 -0.8859370350837708 -2.3291670284666957 4.877832412719727 1.5248446464538574 0.0 0.0 0.0 0.0 0.0 0.0 0.0 0.0 0.0 0.0 0.0 0.0 0.4160194993019104 -1.5301124838045617 -0.8857673406600952 -2.328707834283346 4.878711700439453 1.524871587753296 0.00045172180398367345 5.0385879148961976e-05 0.0 7.684384273010359e-34 0.0413900688290596 1.8718158119223046e-25 0.14234250414108102 -0.10551207964997669 0.7253267557055645 2.007075495183946 0.5442856819702483 -2.149579236809105 0.0030964631146699756 -0.007004256706139837 -0.0009605383994323377 0.03787746154655066 0.016633360600723485 -0.0008801917347098274 -4.2801803147032444 -1.7404897845578264 3.435908176695978 0.09542252077678325 -0.6651441898762372 -0.12745804106880565 0.1424563559654699 -0.10526611187834882 0.725353439270174 2.006148727788962 0.5431505110813688 -2.1496606504736366 0.0 0.0 0.0 0.0 0.0 0.0 1
20399.575999999997 0.4161461889743805 -1.5301833649030705 -0.8859370350837708 -2.3291670284666957 4.877832412719727 1.5248446464538574 0.0 0.0 0.0 0.0 0.0 0.0 0.0 0.0 0.0 0.0 0.0 0.0 0.4160194993019104 -1.5301124838045617 -0.8857673406600952 -2.328707834283346 4.878711700439453 1.524871587753296 0.00045172180398367345 5.0385879148961976e-05 0.0 7.684384273010359e-34 0.0413900688290596 1.8718158119223046e-25 0.14234250414108102 -0.10551207964997669 0.7253267557055645 2.007075495183946 0.5442856819702483 -2.149579236809105 0.0030964631146699756 -0.007004256706139837 -0.0009605383994323377 0.03787746154655066 0.016633360600723485 -0.0008801917347098274 -4.2801803147032444 -1.7404897845578264 3.435908176695978 0.09542252077678325 -0.6651441898762372 -0.12745804106880565 0.1424563559654699 -0.10526611187834882 0.725353439270174 2.006148727788962 0.5431505110813688 -2.1496606504736366 0.0 0.0 0.0 0.0 0.0 0.0 1
20399.584 0.4161461889743805 -1.5301833649030705 -0.8859370350837708 -2.3291670284666957 4.877832412719727 1.5248446464538574 0.0 0.0 0.0 0.0 0.0 0.0 0.0 0.0 0.0 0.0 0.0 0.0 0.4160194993019104 -1.5301124838045617 -0.8857673406600952 -2.328707834283346 4.878711700439453 1.524871587753296 0.00045172180398367345 5.0385879148961976e-05 0.0 7.684384273010359e-34 0.0413900688290596 1.8718158119223046e-25 0.14234250414108102 -0.10551207964997669 0.7253267557055645 2.007075495183946 0.5442856819702483 -2.149579236809105 0.0030964631146699756 -0.007004256706139837 -0.0009605383994323377 0.03787746154655066 0.016633360600723485 -0.0008801917347098274 -4.2801803147032444 -1.7404897845578264 3.435908176695978 0.09542252077678325 -0.6651441898762372 -0.12745804106880565 0.1424563559654699 -0.10526611187834882 0.725353439270174 2.006148727788962 0.5431505110813688 -2.1496606504736366 0.0 0.0 0.0 0.0 0.0 0.0 1
20399.592 0.4161461889743805 -1.5301833649030705 -0.8859370350837708 -2.3291670284666957 4.877832412719727 1.5248446464538574 0.0 0.0 0.0 0.0 0.0 0.0 0.0 0.0 0.0 0.0 0.0 0.0 0.4160194993019104 -1.5301124838045617 -0.8857673406600952 -2.328707834283346 4.878711700439453 1.524871587753296 0.00045172180398367345 5.0385879148961976e-05 0.0 7.684384273010359e-34 0.0413900688290596 1.8718158119223046e-25 0.14234250414108102 -0.10551207964997669 0.7253267557055645 2.007075495183946 0.5442856819702483 -2.149579236809105 0.0030964631146699756 -0.007004256706139837 -0.0009605383994323377 0.03787746154655066 0.016633360600723485 -0.0008801917347098274 -4.2801803147032444 -1.7404897845578264 3.435908176695978 0.09542252077678325 -0.6651441898762372 -0.12745804106880565 0.1424563559654699 -0.10526611187834882 0.725353439270174 2.006148727788962 0.5431505110813688 -2.1496606504736366 0.0 0.0 0.0 0.0 0.0 0.0 1
20399.6 0.4161461889743805 -1.5301833649030705 -0.8859370350837708 -2.3291670284666957 4.877832412719727 1.5248446464538574 0.0 0.0 0.0 0.0 0.0 0.0 0.0 0.0 0.0 0.0 0.0 0.0 0.4160194993019104 -1.5301124838045617 -0.8857673406600952 -2.328707834283346 4.878711700439453 1.524871587753296 0.00045172180398367345 5.0385879148961976e-05 0.0 7.684384273010359e-34 0.0413900688290596 1.8718158119223046e-25 0.14234250414108102 -0.10551207964997669 0.7253267557055645 2.007075495183946 0.5442856819702483 -2.149579236809105 0.0030964631146699756 -0.007004256706139837 -0.0009605383994323377 0.03787746154655066 0.016633360600723485 -0.0008801917347098274 -4.2801803147032444 -1.7404897845578264 3.435908176695978 0.09542252077678325 -0.6651441898762372 -0.12745804106880565 0.1424563559654699 -0.10526611187834882 0.725353439270174 2.006148727788962 0.5431505110813688 -2.1496606504736366 0.0 0.0 0.0 0.0 0.0 0.0 1
20399.608 0.4161461889743805 -1.5301833649030705 -0.8859370350837708 -2.3291670284666957 4.877832412719727 1.5248446464538574 0.0 0.0 0.0 0.0 0.0 0.0 0.0 0.0 0.0 0.0 0.0 0.0 0.4160194993019104 -1.5301124838045617 -0.8857673406600952 -2.328707834283346 4.878711700439453 1.524871587753296 0.00045172180398367345 5.0385879148961976e-05 0.0 7.684384273010359e-34 0.0413900688290596 1.8718158119223046e-25 0.14234250414108102 -0.10551207964997669 0.7253267557055645 2.007075495183946 0.5442856819702483 -2.149579236809105 0.0030964631146699756 -0.007004256706139837 -0.0009605383994323377 0.03787746154655066 0.016633360600723485 -0.0008801917347098274 -4.2801803147032444 -1.7404897845578264 3.435908176695978 0.09542252077678325 -0.6651441898762372 -0.12745804106880565 0.1424563559654699 -0.10526611187834882 0.725353439270174 2.006148727788962 0.5431505110813688 -2.1496606504736366 0.0 0.0 0.0 0.0 0.0 0.0 1
20399.615999999998 0.4161461889743805 -1.5301833649030705 -0.8859370350837708 -2.3291670284666957 4.877832412719727 1.5248446464538574 0.0 0.0 0.0 0.0 0.0 0.0 0.0 0.0 0.0 0.0 0.0 0.0 0.4160194993019104 -1.5301124838045617 -0.8857673406600952 -2.328707834283346 4.878711700439453 1.524871587753296 0.00045172180398367345 5.0385879148961976e-05 0.0 7.684384273010359e-34 0.0413900688290596 1.8718158119223046e-25 0.14234250414108102 -0.10551207964997669 0.7253267557055645 2.007075495183946 0.5442856819702483 -2.149579236809105 0.0030964631146699756 -0.007004256706139837 -0.0009605383994323377 0.03787746154655066 0.016633360600723485 -0.0008801917347098274 -4.2801803147032444 -1.7404897845578264 3.435908176695978 0.09542252077678325 -0.6651441898762372 -0.12745804106880565 0.1424563559654699 -0.10526611187834882 0.725353439270174 2.006148727788962 0.5431505110813688 -2.1496606504736366 0.0 0.0 0.0 0.0 0.0 0.0 1
20399.624 0.4161461889743805 -1.5301833649030705 -0.8859370350837708 -2.3291670284666957 4.877832412719727 1.5248446464538574 0.0 0.0 0.0 0.0 0.0 0.0 0.0 0.0 0.0 0.0 0.0 0.0 0.4160194993019104 -1.5301124838045617 -0.8857673406600952 -2.328707834283346 4.878711700439453 1.524871587753296 0.00045172180398367345 5.0385879148961976e-05 0.0 7.684384273010359e-34 0.0413900688290596 1.8718158119223046e-25 0.14234250414108102 -0.10551207964997669 0.7253267557055645 2.007075495183946 0.5442856819702483 -2.149579236809105 0.0030964631146699756 -0.007004256706139837 -0.0009605383994323377 0.03787746154655066 0.016633360600723485 -0.0008801917347098274 -4.2801803147032444 -1.7404897845578264 3.435908176695978 0.09542252077678325 -0.6651441898762372 -0.12745804106880565 0.1424563559654699 -0.10526611187834882 0.725353439270174 2.006148727788962 0.5431505110813688 -2.1496606504736366 0.0 0.0 0.0 0.0 0.0 0.0 1
20399.631999999998 0.4161461889743805 -1.5301833649030705 -0.8859370350837708 -2.3291670284666957 4.877832412719727 1.5248446464538574 0.0 0.0 0.0 0.0 0.0 0.0 0.0 0.0 0.0 0.0 0.0 0.0 0.4160194993019104 -1.5301124838045617 -0.8857673406600952 -2.328707834283346 4.878711700439453 1.524871587753296 0.00045172180398367345 5.0385879148961976e-05 0.0 7.684384273010359e-34 0.0413900688290596 1.8718158119223046e-25 0.14234250414108102 -0.10551207964997669 0.7253267557055645 2.007075495183946 0.5442856819702483 -2.149579236809105 0.0030964631146699756 -0.007004256706139837 -0.0009605383994323377 0.03787746154655066 0.016633360600723485 -0.0008801917347098274 -4.2801803147032444 -1.7404897845578264 3.435908176695978 0.09542252077678325 -0.6651441898762372 -0.12745804106880565 0.1424563559654699 -0.10526611187834882 0.725353439270174 2.006148727788962 0.5431505110813688 -2.1496606504736366 0.0 0.0 0.0 0.0 0.0 0.0 1
20399.64 0.4161461889743805 -1.5301833649030705 -0.8859370350837708 -2.3291670284666957 4.877832412719727 1.5248446464538574 0.0 0.0 0.0 0.0 0.0 0.0 0.0 0.0 0.0 0.0 0.0 0.0 0.4160194993019104 -1.5301124838045617 -0.8857673406600952 -2.328707834283346 4.878711700439453 1.524871587753296 0.00045172180398367345 5.0385879148961976e-05 0.0 7.684384273010359e-34 0.0413900688290596 1.8718158119223046e-25 0.14234250414108102 -0.10551207964997669 0.7253267557055645 2.007075495183946 0.5442856819702483 -2.149579236809105 0.0030964631146699756 -0.007004256706139837 -0.0009605383994323377 0.03787746154655066 0.016633360600723485 -0.0008801917347098274 -4.2801803147032444 -1.7404897845578264 3.435908176695978 0.09542252077678325 -0.6651441898762372 -0.12745804106880565 0.1424563559654699 -0.10526611187834882 0.725353439270174 2.006148727788962 0.5431505110813688 -2.1496606504736366 0.0 0.0 0.0 0.0 0.0 0.0 1
20399.647999999997 0.4161461889743805 -1.5301833649030705 -0.8859370350837708 -2.3291670284666957 4.877832412719727 1.5248446464538574 0.0 0.0 0.0 0.0 0.0 0.0 0.0 0.0 0.0 0.0 0.0 0.0 0.4160194993019104 -1.5301124838045617 -0.8857673406600952 -2.328707834283346 4.878711700439453 1.524871587753296 0.00045172180398367345 5.0385879148961976e-05 0.0 7.684384273010359e-34 0.0413900688290596 1.8718158119223046e-25 0.14234250414108102 -0.10551207964997669 0.7253267557055645 2.007075495183946 0.5442856819702483 -2.149579236809105 0.0030964631146699756 -0.007004256706139837 -0.0009605383994323377 0.03787746154655066 0.016633360600723485 -0.0008801917347098274 -4.2801803147032444 -1.7404897845578264 3.435908176695978 0.09542252077678325 -0.6651441898762372 -0.12745804106880565 0.1424563559654699 -0.10526611187834882 0.725353439270174 2.006148727788962 0.5431505110813688 -2.1496606504736366 0.0 0.0 0.0 0.0 0.0 0.0 1
20399.656 0.4161461889743805 -1.5301833649030705 -0.8859370350837708 -2.3291670284666957 4.877832412719727 1.5248446464538574 0.0 0.0 0.0 0.0 0.0 0.0 0.0 0.0 0.0 0.0 0.0 0.0 0.4160194993019104 -1.5301124838045617 -0.8857673406600952 -2.328707834283346 4.878711700439453 1.524871587753296 0.00045172180398367345 5.0385879148961976e-05 0.0 7.684384273010359e-34 0.0413900688290596 1.8718158119223046e-25 0.14234250414108102 -0.10551207964997669 0.7253267557055645 2.007075495183946 0.5442856819702483 -2.149579236809105 0.0030964631146699756 -0.007004256706139837 -0.0009605383994323377 0.03787746154655066 0.016633360600723485 -0.0008801917347098274 -4.2801803147032444 -1.7404897845578264 3.435908176695978 0.09542252077678325 -0.6651441898762372 -0.12745804106880565 0.1424563559654699 -0.10526611187834882 0.725353439270174 2.006148727788962 0.5431505110813688 -2.1496606504736366 0.0 0.0 0.0 0.0 0.0 0.0 1
20399.664 0.4161461889743805 -1.5301833649030705 -0.8859370350837708 -2.3291670284666957 4.877832412719727 1.5248446464538574 0.0 0.0 0.0 0.0 0.0 0.0 0.0 0.0 0.0 0.0 0.0 0.0 0.4160194993019104 -1.5301124838045617 -0.8857673406600952 -2.328707834283346 4.878711700439453 1.524871587753296 0.00045172180398367345 5.0385879148961976e-05 0.0 7.684384273010359e-34 0.0413900688290596 1.8718158119223046e-25 0.14234250414108102 -0.10551207964997669 0.7253267557055645 2.007075495183946 0.5442856819702483 -2.149579236809105 0.0030964631146699756 -0.007004256706139837 -0.0009605383994323377 0.03787746154655066 0.016633360600723485 -0.0008801917347098274 -4.2801803147032444 -1.7404897845578264 3.435908176695978 0.09542252077678325 -0.6651441898762372 -0.12745804106880565 0.1424563559654699 -0.10526611187834882 0.725353439270174 2.006148727788962 0.5431505110813688 -2.1496606504736366 0.0 0.0 0.0 0.0 0.0 0.0 1
20399.672 0.4161461889743805 -1.5301833649030705 -0.8859370350837708 -2.3291670284666957 4.877832412719727 1.5248446464538574 0.0 0.0 0.0 0.0 0.0 0.0 0.0 0.0 0.0 0.0 0.0 0.0 0.4160194993019104 -1.5301124838045617 -0.8857673406600952 -2.328707834283346 4.878711700439453 1.524871587753296 0.00045172180398367345 5.0385879148961976e-05 0.0 7.684384273010359e-34 0.0413900688290596 1.8718158119223046e-25 0.14234250414108102 -0.10551207964997669 0.7253267557055645 2.007075495183946 0.5442856819702483 -2.149579236809105 0.0030964631146699756 -0.007004256706139837 -0.0009605383994323377 0.03787746154655066 0.016633360600723485 -0.0008801917347098274 -4.2801803147032444 -1.7404897845578264 3.435908176695978 0.09542252077678325 -0.6651441898762372 -0.12745804106880565 0.1424563559654699 -0.10526611187834882 0.725353439270174 2.006148727788962 0.5431505110813688 -2.1496606504736366 0.0 0.0 0.0 0.0 0.0 0.0 1
20399.68 0.4161461889743805 -1.5301833649030705 -0.8859370350837708 -2.3291670284666957 4.877832412719727 1.5248446464538574 0.0 0.0 0.0 0.0 0.0 0.0 0.0 0.0 0.0 0.0 0.0 0.0 0.4160194993019104 -1.5301124838045617 -0.8857673406600952 -2.328707834283346 4.878711700439453 1.524871587753296 0.00045172180398367345 5.0385879148961976e-05 0.0 7.684384273010359e-34 0.0413900688290596 1.8718158119223046e-25 0.14234250414108102 -0.10551207964997669 0.7253267557055645 2.007075495183946 0.5442856819702483 -2.149579236809105 0.0030964631146699756 -0.007004256706139837 -0.0009605383994323377 0.03787746154655066 0.016633360600723485 -0.0008801917347098274 -4.2801803147032444 -1.7404897845578264 3.435908176695978 0.09542252077678325 -0.6651441898762372 -0.12745804106880565 0.1424563559654699 -0.10526611187834882 0.725353439270174 2.006148727788962 0.5431505110813688 -2.1496606504736366 0.0 0.0 0.0 0.0 0.0 0.0 1
20399.688 0.4161461889743805 -1.5301833649030705 -0.8859370350837708 -2.3291670284666957 4.877832412719727 1.5248446464538574 0.0 0.0 0.0 0.0 0.0 0.0 0.0 0.0 0.0 0.0 0.0 0.0 0.4160194993019104 -1.5301124838045617 -0.8857673406600952 -2.328707834283346 4.878711700439453 1.524871587753296 0.00045172180398367345 5.0385879148961976e-05 0.0 7.684384273010359e-34 0.0413900688290596 1.8718158119223046e-25 0.14234250414108102 -0.10551207964997669 0.7253267557055645 2.007075495183946 0.5442856819702483 -2.149579236809105 0.0030964631146699756 -0.007004256706139837 -0.0009605383994323377 0.03787746154655066 0.016633360600723485 -0.0008801917347098274 -4.2801803147032444 -1.7404897845578264 3.435908176695978 0.09542252077678325 -0.6651441898762372 -0.12745804106880565 0.1424563559654699 -0.10526611187834882 0.725353439270174 2.006148727788962 0.5431505110813688 -2.1496606504736366 0.0 0.0 0.0 0.0 0.0 0.0 1
20399.696 0.4161461889743805 -1.5301833649030705 -0.8859370350837708 -2.3291670284666957 4.877832412719727 1.5248446464538574 0.0 0.0 0.0 0.0 0.0 0.0 0.0 0.0 0.0 0.0 0.0 0.0 0.4160194993019104 -1.5301124838045617 -0.8857673406600952 -2.328707834283346 4.878711700439453 1.524871587753296 0.00045172180398367345 5.0385879148961976e-05 0.0 7.684384273010359e-34 0.0413900688290596 1.8718158119223046e-25 0.14234250414108102 -0.10551207964997669 0.7253267557055645 2.007075495183946 0.5442856819702483 -2.149579236809105 0.0030964631146699756 -0.007004256706139837 -0.0009605383994323377 0.03787746154655066 0.016633360600723485 -0.0008801917347098274 -4.2801803147032444 -1.7404897845578264 3.435908176695978 0.09542252077678325 -0.6651441898762372 -0.12745804106880565 0.1424563559654699 -0.10526611187834882 0.725353439270174 2.006148727788962 0.5431505110813688 -2.1496606504736366 0.0 0.0 0.0 0.0 0.0 0.0 1
20399.703999999998 0.4161461889743805 -1.5301833649030705 -0.8859370350837708 -2.3291670284666957 4.877832412719727 1.5248446464538574 0.0 0.0 0.0 0.0 0.0 0.0 0.0 0.0 0.0 0.0 0.0 0.0 0.4160194993019104 -1.5301124838045617 -0.8857673406600952 -2.328707834283346 4.878711700439453 1.524871587753296 0.00045172180398367345 5.0385879148961976e-05 0.0 7.684384273010359e-34 0.0413900688290596 1.8718158119223046e-25 0.14234250414108102 -0.10551207964997669 0.7253267557055645 2.007075495183946 0.5442856819702483 -2.149579236809105 0.0030964631146699756 -0.007004256706139837 -0.0009605383994323377 0.03787746154655066 0.016633360600723485 -0.0008801917347098274 -4.2801803147032444 -1.7404897845578264 3.435908176695978 0.09542252077678325 -0.6651441898762372 -0.12745804106880565 0.1424563559654699 -0.10526611187834882 0.725353439270174 2.006148727788962 0.5431505110813688 -2.1496606504736366 0.0 0.0 0.0 0.0 0.0 0.0 1
20399.712 0.4161461889743805 -1.5301833649030705 -0.8859370350837708 -2.3291670284666957 4.877832412719727 1.5248446464538574 0.0 0.0 0.0 0.0 0.0 0.0 0.0 0.0 0.0 0.0 0.0 0.0 0.4160194993019104 -1.5301124838045617 -0.8857673406600952 -2.328707834283346 4.878711700439453 1.524871587753296 0.00045172180398367345 5.0385879148961976e-05 0.0 7.684384273010359e-34 0.0413900688290596 1.8718158119223046e-25 0.14234250414108102 -0.10551207964997669 0.7253267557055645 2.007075495183946 0.5442856819702483 -2.149579236809105 0.0030964631146699756 -0.007004256706139837 -0.0009605383994323377 0.03787746154655066 0.016633360600723485 -0.0008801917347098274 -4.2801803147032444 -1.7404897845578264 3.435908176695978 0.09542252077678325 -0.6651441898762372 -0.12745804106880565 0.1424563559654699 -0.10526611187834882 0.725353439270174 2.006148727788962 0.5431505110813688 -2.1496606504736366 0.0 0.0 0.0 0.0 0.0 0.0 1
20399.719999999998 0.4161461889743805 -1.5301833649030705 -0.8859370350837708 -2.3291670284666957 4.877832412719727 1.5248446464538574 0.0 0.0 0.0 0.0 0.0 0.0 0.0 0.0 0.0 0.0 0.0 0.0 0.4160194993019104 -1.5301124838045617 -0.8857673406600952 -2.328707834283346 4.878711700439453 1.524871587753296 0.00045172180398367345 5.0385879148961976e-05 0.0 7.684384273010359e-34 0.0413900688290596 1.8718158119223046e-25 0.14234250414108102 -0.10551207964997669 0.7253267557055645 2.007075495183946 0.5442856819702483 -2.149579236809105 0.0030964631146699756 -0.007004256706139837 -0.0009605383994323377 0.03787746154655066 0.016633360600723485 -0.0008801917347098274 -4.2801803147032444 -1.7404897845578264 3.435908176695978 0.09542252077678325 -0.6651441898762372 -0.12745804106880565 0.1424563559654699 -0.10526611187834882 0.725353439270174 2.006148727788962 0.5431505110813688 -2.1496606504736366 0.0 0.0 0.0 0.0 0.0 0.0 1
20399.728 0.4161461889743805 -1.5301833649030705 -0.8859370350837708 -2.3291670284666957 4.877832412719727 1.5248446464538574 0.0 0.0 0.0 0.0 0.0 0.0 0.0 0.0 0.0 0.0 0.0 0.0 0.4160194993019104 -1.5301124838045617 -0.8857673406600952 -2.328707834283346 4.878711700439453 1.524871587753296 0.00045172180398367345 5.0385879148961976e-05 0.0 7.684384273010359e-34 0.0413900688290596 1.8718158119223046e-25 0.14234250414108102 -0.10551207964997669 0.7253267557055645 2.007075495183946 0.5442856819702483 -2.149579236809105 0.0030964631146699756 -0.007004256706139837 -0.0009605383994323377 0.03787746154655066 0.016633360600723485 -0.0008801917347098274 -4.2801803147032444 -1.7404897845578264 3.435908176695978 0.09542252077678325 -0.6651441898762372 -0.12745804106880565 0.1424563559654699 -0.10526611187834882 0.725353439270174 2.006148727788962 0.5431505110813688 -2.1496606504736366 0.0 0.0 0.0 0.0 0.0 0.0 1
20399.736 0.4161461889743805 -1.5301833649030705 -0.8859370350837708 -2.3291670284666957 4.877832412719727 1.5248446464538574 0.0 0.0 0.0 0.0 0.0 0.0 0.0 0.0 0.0 0.0 0.0 0.0 0.4160194993019104 -1.5301124838045617 -0.8857673406600952 -2.328707834283346 4.878711700439453 1.524871587753296 0.00045172180398367345 5.0385879148961976e-05 0.0 7.684384273010359e-34 0.0413900688290596 1.8718158119223046e-25 0.14234250414108102 -0.10551207964997669 0.7253267557055645 2.007075495183946 0.5442856819702483 -2.149579236809105 0.0030964631146699756 -0.007004256706139837 -0.0009605383994323377 0.03787746154655066 0.016633360600723485 -0.0008801917347098274 -4.2801803147032444 -1.7404897845578264 3.435908176695978 0.09542252077678325 -0.6651441898762372 -0.12745804106880565 0.1424563559654699 -0.10526611187834882 0.725353439270174 2.006148727788962 0.5431505110813688 -2.1496606504736366 0.0 0.0 0.0 0.0 0.0 0.0 1
20399.744 0.4161461889743805 -1.5301833649030705 -0.8859370350837708 -2.3291670284666957 4.877832412719727 1.5248446464538574 0.0 0.0 0.0 0.0 0.0 0.0 0.0 0.0 0.0 0.0 0.0 0.0 0.4160194993019104 -1.5301124838045617 -0.8857673406600952 -2.328707834283346 4.878711700439453 1.524871587753296 0.00045172180398367345 5.0385879148961976e-05 0.0 7.684384273010359e-34 0.0413900688290596 1.8718158119223046e-25 0.14234250414108102 -0.10551207964997669 0.7253267557055645 2.007075495183946 0.5442856819702483 -2.149579236809105 0.0030964631146699756 -0.007004256706139837 -0.0009605383994323377 0.03787746154655066 0.016633360600723485 -0.0008801917347098274 -4.2801803147032444 -1.7404897845578264 3.435908176695978 0.09542252077678325 -0.6651441898762372 -0.12745804106880565 0.1424563559654699 -0.10526611187834882 0.725353439270174 2.006148727788962 0.5431505110813688 -2.1496606504736366 0.0 0.0 0.0 0.0 0.0 0.0 1
20399.752 0.4161461889743805 -1.5301833649030705 -0.8859370350837708 -2.3291670284666957 4.877832412719727 1.5248446464538574 0.0 0.0 0.0 0.0 0.0 0.0 0.0 0.0 0.0 0.0 0.0 0.0 0.4160194993019104 -1.5301124838045617 -0.8857673406600952 -2.328707834283346 4.878711700439453 1.524871587753296 0.00045172180398367345 5.0385879148961976e-05 0.0 7.684384273010359e-34 0.0413900688290596 1.8718158119223046e-25 0.14234250414108102 -0.10551207964997669 0.7253267557055645 2.007075495183946 0.5442856819702483 -2.149579236809105 0.0030964631146699756 -0.007004256706139837 -0.0009605383994323377 0.03787746154655066 0.016633360600723485 -0.0008801917347098274 -4.2801803147032444 -1.7404897845578264 3.435908176695978 0.09542252077678325 -0.6651441898762372 -0.12745804106880565 0.1424563559654699 -0.10526611187834882 0.725353439270174 2.006148727788962 0.5431505110813688 -2.1496606504736366 0.0 0.0 0.0 0.0 0.0 0.0 1
20399.76 0.4161461889743805 -1.5301833649030705 -0.8859370350837708 -2.3291670284666957 4.877832412719727 1.5248446464538574 0.0 0.0 0.0 0.0 0.0 0.0 0.0 0.0 0.0 0.0 0.0 0.0 0.4160194993019104 -1.5301124838045617 -0.8857673406600952 -2.328707834283346 4.878711700439453 1.524871587753296 0.00045172180398367345 5.0385879148961976e-05 0.0 7.684384273010359e-34 0.0413900688290596 1.8718158119223046e-25 0.14234250414108102 -0.10551207964997669 0.7253267557055645 2.007075495183946 0.5442856819702483 -2.149579236809105 0.0030964631146699756 -0.007004256706139837 -0.0009605383994323377 0.03787746154655066 0.016633360600723485 -0.0008801917347098274 -4.2801803147032444 -1.7404897845578264 3.435908176695978 0.09542252077678325 -0.6651441898762372 -0.12745804106880565 0.1424563559654699 -0.10526611187834882 0.725353439270174 2.006148727788962 0.5431505110813688 -2.1496606504736366 0.0 0.0 0.0 0.0 0.0 0.0 1
20399.768 0.4161461889743805 -1.5301833649030705 -0.8859370350837708 -2.3291670284666957 4.877832412719727 1.5248446464538574 0.0 0.0 0.0 0.0 0.0 0.0 0.0 0.0 0.0 0.0 0.0 0.0 0.4160194993019104 -1.5301124838045617 -0.8857673406600952 -2.328707834283346 4.878711700439453 1.524871587753296 0.00045172180398367345 5.0385879148961976e-05 0.0 7.684384273010359e-34 0.0413900688290596 1.8718158119223046e-25 0.14234250414108102 -0.10551207964997669 0.7253267557055645 2.007075495183946 0.5442856819702483 -2.149579236809105 0.0030964631146699756 -0.007004256706139837 -0.0009605383994323377 0.03787746154655066 0.016633360600723485 -0.0008801917347098274 -4.2801803147032444 -1.7404897845578264 3.435908176695978 0.09542252077678325 -0.6651441898762372 -0.12745804106880565 0.1424563559654699 -0.10526611187834882 0.725353439270174 2.006148727788962 0.5431505110813688 -2.1496606504736366 0.0 0.0 0.0 0.0 0.0 0.0 1
20399.775999999998 0.4161461889743805 -1.5301833649030705 -0.8859370350837708 -2.3291670284666957 4.877832412719727 1.5248446464538574 0.0 0.0 0.0 0.0 0.0 0.0 0.0 0.0 0.0 0.0 0.0 0.0 0.4160194993019104 -1.5301124838045617 -0.8857673406600952 -2.328707834283346 4.878711700439453 1.524871587753296 0.00045172180398367345 5.0385879148961976e-05 0.0 7.684384273010359e-34 0.0413900688290596 1.8718158119223046e-25 0.14234250414108102 -0.10551207964997669 0.7253267557055645 2.007075495183946 0.5442856819702483 -2.149579236809105 0.0030964631146699756 -0.007004256706139837 -0.0009605383994323377 0.03787746154655066 0.016633360600723485 -0.0008801917347098274 -4.2801803147032444 -1.7404897845578264 3.435908176695978 0.09542252077678325 -0.6651441898762372 -0.12745804106880565 0.1424563559654699 -0.10526611187834882 0.725353439270174 2.006148727788962 0.5431505110813688 -2.1496606504736366 0.0 0.0 0.0 0.0 0.0 0.0 1
20399.784 0.4161461889743805 -1.5301833649030705 -0.8859370350837708 -2.3291670284666957 4.877832412719727 1.5248446464538574 0.0 0.0 0.0 0.0 0.0 0.0 0.0 0.0 0.0 0.0 0.0 0.0 0.4160194993019104 -1.5301124838045617 -0.8857673406600952 -2.328707834283346 4.878711700439453 1.524871587753296 0.00045172180398367345 5.0385879148961976e-05 0.0 7.684384273010359e-34 0.0413900688290596 1.8718158119223046e-25 0.14234250414108102 -0.10551207964997669 0.7253267557055645 2.007075495183946 0.5442856819702483 -2.149579236809105 0.0030964631146699756 -0.007004256706139837 -0.0009605383994323377 0.03787746154655066 0.016633360600723485 -0.0008801917347098274 -4.2801803147032444 -1.7404897845578264 3.435908176695978 0.09542252077678325 -0.6651441898762372 -0.12745804106880565 0.1424563559654699 -0.10526611187834882 0.725353439270174 2.006148727788962 0.5431505110813688 -2.1496606504736366 0.0 0.0 0.0 0.0 0.0 0.0 1
20399.791999999998 0.4161461889743805 -1.5301833649030705 -0.8859370350837708 -2.3291670284666957 4.877832412719727 1.5248446464538574 0.0 0.0 0.0 0.0 0.0 0.0 0.0 0.0 0.0 0.0 0.0 0.0 0.4160194993019104 -1.5301124838045617 -0.8857673406600952 -2.328707834283346 4.878711700439453 1.524871587753296 0.00045172180398367345 5.0385879148961976e-05 0.0 7.684384273010359e-34 0.0413900688290596 1.8718158119223046e-25 0.14234250414108102 -0.10551207964997669 0.7253267557055645 2.007075495183946 0.5442856819702483 -2.149579236809105 0.0030964631146699756 -0.007004256706139837 -0.0009605383994323377 0.03787746154655066 0.016633360600723485 -0.0008801917347098274 -4.2801803147032444 -1.7404897845578264 3.435908176695978 0.09542252077678325 -0.6651441898762372 -0.12745804106880565 0.1424563559654699 -0.10526611187834882 0.725353439270174 2.006148727788962 0.5431505110813688 -2.1496606504736366 0.0 0.0 0.0 0.0 0.0 0.0 1
20399.8 0.4161461889743805 -1.5301833649030705 -0.8859370350837708 -2.3291670284666957 4.877832412719727 1.5248446464538574 0.0 0.0 0.0 0.0 0.0 0.0 0.0 0.0 0.0 0.0 0.0 0.0 0.4160194993019104 -1.5301124838045617 -0.8857673406600952 -2.328707834283346 4.878711700439453 1.524871587753296 0.00045172180398367345 5.0385879148961976e-05 0.0 7.684384273010359e-34 0.0413900688290596 1.8718158119223046e-25 0.14234250414108102 -0.10551207964997669 0.7253267557055645 2.007075495183946 0.5442856819702483 -2.149579236809105 0.0030964631146699756 -0.007004256706139837 -0.0009605383994323377 0.03787746154655066 0.016633360600723485 -0.0008801917347098274 -4.2801803147032444 -1.7404897845578264 3.435908176695978 0.09542252077678325 -0.6651441898762372 -0.12745804106880565 0.1424563559654699 -0.10526611187834882 0.725353439270174 2.006148727788962 0.5431505110813688 -2.1496606504736366 0.0 0.0 0.0 0.0 0.0 0.0 1
20399.807999999997 0.4161461889743805 -1.5301833649030705 -0.8859370350837708 -2.3291670284666957 4.877832412719727 1.5248446464538574 0.0 0.0 0.0 0.0 0.0 0.0 0.0 0.0 0.0 0.0 0.0 0.0 0.4160194993019104 -1.5301124838045617 -0.8857673406600952 -2.328707834283346 4.878711700439453 1.524871587753296 0.00045172180398367345 5.0385879148961976e-05 0.0 7.684384273010359e-34 0.0413900688290596 1.8718158119223046e-25 0.14234250414108102 -0.10551207964997669 0.7253267557055645 2.007075495183946 0.5442856819702483 -2.149579236809105 0.0030964631146699756 -0.007004256706139837 -0.0009605383994323377 0.03787746154655066 0.016633360600723485 -0.0008801917347098274 -4.2801803147032444 -1.7404897845578264 3.435908176695978 0.09542252077678325 -0.6651441898762372 -0.12745804106880565 0.1424563559654699 -0.10526611187834882 0.725353439270174 2.006148727788962 0.5431505110813688 -2.1496606504736366 0.0 0.0 0.0 0.0 0.0 0.0 1
20399.816 0.4161461889743805 -1.5301833649030705 -0.8859370350837708 -2.3291670284666957 4.877832412719727 1.5248446464538574 0.0 0.0 0.0 0.0 0.0 0.0 0.0 0.0 0.0 0.0 0.0 0.0 0.4160194993019104 -1.5301124838045617 -0.8857673406600952 -2.328707834283346 4.878711700439453 1.524871587753296 0.00045172180398367345 5.0385879148961976e-05 0.0 7.684384273010359e-34 0.0413900688290596 1.8718158119223046e-25 0.14234250414108102 -0.10551207964997669 0.7253267557055645 2.007075495183946 0.5442856819702483 -2.149579236809105 0.0030964631146699756 -0.007004256706139837 -0.0009605383994323377 0.03787746154655066 0.016633360600723485 -0.0008801917347098274 -4.2801803147032444 -1.7404897845578264 3.435908176695978 0.09542252077678325 -0.6651441898762372 -0.12745804106880565 0.1424563559654699 -0.10526611187834882 0.725353439270174 2.006148727788962 0.5431505110813688 -2.1496606504736366 0.0 0.0 0.0 0.0 0.0 0.0 1
20399.824 0.4161461889743805 -1.5301833649030705 -0.8859370350837708 -2.3291670284666957 4.877832412719727 1.5248446464538574 0.0 0.0 0.0 0.0 0.0 0.0 0.0 0.0 0.0 0.0 0.0 0.0 0.4160194993019104 -1.5301124838045617 -0.8857673406600952 -2.328707834283346 4.878711700439453 1.524871587753296 0.00045172180398367345 5.0385879148961976e-05 0.0 7.684384273010359e-34 0.0413900688290596 1.8718158119223046e-25 0.14234250414108102 -0.10551207964997669 0.7253267557055645 2.007075495183946 0.5442856819702483 -2.149579236809105 0.0030964631146699756 -0.007004256706139837 -0.0009605383994323377 0.03787746154655066 0.016633360600723485 -0.0008801917347098274 -4.2801803147032444 -1.7404897845578264 3.435908176695978 0.09542252077678325 -0.6651441898762372 -0.12745804106880565 0.1424563559654699 -0.10526611187834882 0.725353439270174 2.006148727788962 0.5431505110813688 -2.1496606504736366 0.0 0.0 0.0 0.0 0.0 0.0 1
20399.832 0.4161461889743805 -1.5301833649030705 -0.8859370350837708 -2.3291670284666957 4.877832412719727 1.5248446464538574 0.0 0.0 0.0 0.0 0.0 0.0 0.0 0.0 0.0 0.0 0.0 0.0 0.4160194993019104 -1.5301124838045617 -0.8857673406600952 -2.328707834283346 4.878711700439453 1.524871587753296 0.00045172180398367345 5.0385879148961976e-05 0.0 7.684384273010359e-34 0.0413900688290596 1.8718158119223046e-25 0.14234250414108102 -0.10551207964997669 0.7253267557055645 2.007075495183946 0.5442856819702483 -2.149579236809105 0.0030964631146699756 -0.007004256706139837 -0.0009605383994323377 0.03787746154655066 0.016633360600723485 -0.0008801917347098274 -4.2801803147032444 -1.7404897845578264 3.435908176695978 0.09542252077678325 -0.6651441898762372 -0.12745804106880565 0.1424563559654699 -0.10526611187834882 0.725353439270174 2.006148727788962 0.5431505110813688 -2.1496606504736366 0.0 0.0 0.0 0.0 0.0 0.0 1
20399.84 0.4161461889743805 -1.5301833649030705 -0.8859370350837708 -2.3291670284666957 4.877832412719727 1.5248446464538574 0.0 0.0 0.0 0.0 0.0 0.0 0.0 0.0 0.0 0.0 0.0 0.0 0.4160194993019104 -1.5301124838045617 -0.8857673406600952 -2.328707834283346 4.878711700439453 1.524871587753296 0.00045172180398367345 5.0385879148961976e-05 0.0 7.684384273010359e-34 0.0413900688290596 1.8718158119223046e-25 0.14234250414108102 -0.10551207964997669 0.7253267557055645 2.007075495183946 0.5442856819702483 -2.149579236809105 0.0030964631146699756 -0.007004256706139837 -0.0009605383994323377 0.03787746154655066 0.016633360600723485 -0.0008801917347098274 -4.2801803147032444 -1.7404897845578264 3.435908176695978 0.09542252077678325 -0.6651441898762372 -0.12745804106880565 0.1424563559654699 -0.10526611187834882 0.725353439270174 2.006148727788962 0.5431505110813688 -2.1496606504736366 0.0 0.0 0.0 0.0 0.0 0.0 1
20399.847999999998 0.4161461889743805 -1.5301833649030705 -0.8859370350837708 -2.3291670284666957 4.877832412719727 1.5248446464538574 0.0 0.0 0.0 0.0 0.0 0.0 0.0 0.0 0.0 0.0 0.0 0.0 0.4160194993019104 -1.5301124838045617 -0.8857673406600952 -2.328707834283346 4.878711700439453 1.524871587753296 0.00045172180398367345 5.0385879148961976e-05 0.0 7.684384273010359e-34 0.0413900688290596 1.8718158119223046e-25 0.14234250414108102 -0.10551207964997669 0.7253267557055645 2.007075495183946 0.5442856819702483 -2.149579236809105 0.0030964631146699756 -0.007004256706139837 -0.0009605383994323377 0.03787746154655066 0.016633360600723485 -0.0008801917347098274 -4.2801803147032444 -1.7404897845578264 3.435908176695978 0.09542252077678325 -0.6651441898762372 -0.12745804106880565 0.1424563559654699 -0.10526611187834882 0.725353439270174 2.006148727788962 0.5431505110813688 -2.1496606504736366 0.0 0.0 0.0 0.0 0.0 0.0 1
20399.856 0.4161461889743805 -1.5301833649030705 -0.8859370350837708 -2.3291670284666957 4.877832412719727 1.5248446464538574 0.0 0.0 0.0 0.0 0.0 0.0 0.0 0.0 0.0 0.0 0.0 0.0 0.4160194993019104 -1.5301124838045617 -0.8857673406600952 -2.328707834283346 4.878711700439453 1.524871587753296 0.00045172180398367345 5.0385879148961976e-05 0.0 7.684384273010359e-34 0.0413900688290596 1.8718158119223046e-25 0.14234250414108102 -0.10551207964997669 0.7253267557055645 2.007075495183946 0.5442856819702483 -2.149579236809105 0.0030964631146699756 -0.007004256706139837 -0.0009605383994323377 0.03787746154655066 0.016633360600723485 -0.0008801917347098274 -4.2801803147032444 -1.7404897845578264 3.435908176695978 0.09542252077678325 -0.6651441898762372 -0.12745804106880565 0.1424563559654699 -0.10526611187834882 0.725353439270174 2.006148727788962 0.5431505110813688 -2.1496606504736366 0.0 0.0 0.0 0.0 0.0 0.0 1
20399.863999999998 0.4161461889743805 -1.5301833649030705 -0.8859370350837708 -2.3291670284666957 4.877832412719727 1.5248446464538574 0.0 0.0 0.0 0.0 0.0 0.0 0.0 0.0 0.0 0.0 0.0 0.0 0.4160194993019104 -1.5301124838045617 -0.8857673406600952 -2.328707834283346 4.878711700439453 1.524871587753296 0.00045172180398367345 5.0385879148961976e-05 0.0 7.684384273010359e-34 0.0413900688290596 1.8718158119223046e-25 0.14234250414108102 -0.10551207964997669 0.7253267557055645 2.007075495183946 0.5442856819702483 -2.149579236809105 0.0030964631146699756 -0.007004256706139837 -0.0009605383994323377 0.03787746154655066 0.016633360600723485 -0.0008801917347098274 -4.2801803147032444 -1.7404897845578264 3.435908176695978 0.09542252077678325 -0.6651441898762372 -0.12745804106880565 0.1424563559654699 -0.10526611187834882 0.725353439270174 2.006148727788962 0.5431505110813688 -2.1496606504736366 0.0 0.0 0.0 0.0 0.0 0.0 1
20399.872 0.4161461889743805 -1.5301833649030705 -0.8859370350837708 -2.3291670284666957 4.877832412719727 1.5248446464538574 0.0 0.0 0.0 0.0 0.0 0.0 0.0 0.0 0.0 0.0 0.0 0.0 0.4160194993019104 -1.5301124838045617 -0.8857673406600952 -2.328707834283346 4.878711700439453 1.524871587753296 0.00045172180398367345 5.0385879148961976e-05 0.0 7.684384273010359e-34 0.0413900688290596 1.8718158119223046e-25 0.14234250414108102 -0.10551207964997669 0.7253267557055645 2.007075495183946 0.5442856819702483 -2.149579236809105 0.0030964631146699756 -0.007004256706139837 -0.0009605383994323377 0.03787746154655066 0.016633360600723485 -0.0008801917347098274 -4.2801803147032444 -1.7404897845578264 3.435908176695978 0.09542252077678325 -0.6651441898762372 -0.12745804106880565 0.1424563559654699 -0.10526611187834882 0.725353439270174 2.006148727788962 0.5431505110813688 -2.1496606504736366 0.0 0.0 0.0 0.0 0.0 0.0 1
20399.879999999997 0.4161461889743805 -1.5301833649030705 -0.8859370350837708 -2.3291670284666957 4.877832412719727 1.5248446464538574 0.0 0.0 0.0 0.0 0.0 0.0 0.0 0.0 0.0 0.0 0.0 0.0 0.4160194993019104 -1.5301124838045617 -0.8857673406600952 -2.328707834283346 4.878711700439453 1.524871587753296 0.00045172180398367345 5.0385879148961976e-05 0.0 7.684384273010359e-34 0.0413900688290596 1.8718158119223046e-25 0.14234250414108102 -0.10551207964997669 0.7253267557055645 2.007075495183946 0.5442856819702483 -2.149579236809105 0.0030964631146699756 -0.007004256706139837 -0.0009605383994323377 0.03787746154655066 0.016633360600723485 -0.0008801917347098274 -4.2801803147032444 -1.7404897845578264 3.435908176695978 0.09542252077678325 -0.6651441898762372 -0.12745804106880565 0.1424563559654699 -0.10526611187834882 0.725353439270174 2.006148727788962 0.5431505110813688 -2.1496606504736366 0.0 0.0 0.0 0.0 0.0 0.0 1
20399.888 0.4161461889743805 -1.5301833649030705 -0.8859370350837708 -2.3291670284666957 4.877832412719727 1.5248446464538574 0.0 0.0 0.0 0.0 0.0 0.0 0.0 0.0 0.0 0.0 0.0 0.0 0.4160194993019104 -1.5301124838045617 -0.8857673406600952 -2.328707834283346 4.878711700439453 1.524871587753296 0.00045172180398367345 5.0385879148961976e-05 0.0 7.684384273010359e-34 0.0413900688290596 1.8718158119223046e-25 0.14234250414108102 -0.10551207964997669 0.7253267557055645 2.007075495183946 0.5442856819702483 -2.149579236809105 0.0030964631146699756 -0.007004256706139837 -0.0009605383994323377 0.03787746154655066 0.016633360600723485 -0.0008801917347098274 -4.2801803147032444 -1.7404897845578264 3.435908176695978 0.09542252077678325 -0.6651441898762372 -0.12745804106880565 0.1424563559654699 -0.10526611187834882 0.725353439270174 2.006148727788962 0.5431505110813688 -2.1496606504736366 0.0 0.0 0.0 0.0 0.0 0.0 1
20399.896 0.4161461889743805 -1.5301833649030705 -0.8859370350837708 -2.3291670284666957 4.877832412719727 1.5248446464538574 0.0 0.0 0.0 0.0 0.0 0.0 0.0 0.0 0.0 0.0 0.0 0.0 0.4160194993019104 -1.5301124838045617 -0.8857673406600952 -2.328707834283346 4.878711700439453 1.524871587753296 0.00045172180398367345 5.0385879148961976e-05 0.0 7.684384273010359e-34 0.0413900688290596 1.8718158119223046e-25 0.14234250414108102 -0.10551207964997669 0.7253267557055645 2.007075495183946 0.5442856819702483 -2.149579236809105 0.0030964631146699756 -0.007004256706139837 -0.0009605383994323377 0.03787746154655066 0.016633360600723485 -0.0008801917347098274 -4.2801803147032444 -1.7404897845578264 3.435908176695978 0.09542252077678325 -0.6651441898762372 -0.12745804106880565 0.1424563559654699 -0.10526611187834882 0.725353439270174 2.006148727788962 0.5431505110813688 -2.1496606504736366 0.0 0.0 0.0 0.0 0.0 0.0 1
20399.904 0.4161461889743805 -1.5301833649030705 -0.8859370350837708 -2.3291670284666957 4.877832412719727 1.5248446464538574 0.0 0.0 0.0 0.0 0.0 0.0 0.0 0.0 0.0 0.0 0.0 0.0 0.4160194993019104 -1.5301124838045617 -0.8857673406600952 -2.328707834283346 4.878711700439453 1.524871587753296 0.00045172180398367345 5.0385879148961976e-05 0.0 7.684384273010359e-34 0.0413900688290596 1.8718158119223046e-25 0.14234250414108102 -0.10551207964997669 0.7253267557055645 2.007075495183946 0.5442856819702483 -2.149579236809105 0.0030964631146699756 -0.007004256706139837 -0.0009605383994323377 0.03787746154655066 0.016633360600723485 -0.0008801917347098274 -4.2801803147032444 -1.7404897845578264 3.435908176695978 0.09542252077678325 -0.6651441898762372 -0.12745804106880565 0.1424563559654699 -0.10526611187834882 0.725353439270174 2.006148727788962 0.5431505110813688 -2.1496606504736366 0.0 0.0 0.0 0.0 0.0 0.0 1
20399.912 0.4161461889743805 -1.5301833649030705 -0.8859370350837708 -2.3291670284666957 4.877832412719727 1.5248446464538574 0.0 0.0 0.0 0.0 0.0 0.0 0.0 0.0 0.0 0.0 0.0 0.0 0.4160194993019104 -1.5301124838045617 -0.8857673406600952 -2.328707834283346 4.878711700439453 1.524871587753296 0.00045172180398367345 5.0385879148961976e-05 0.0 7.684384273010359e-34 0.0413900688290596 1.8718158119223046e-25 0.14234250414108102 -0.10551207964997669 0.7253267557055645 2.007075495183946 0.5442856819702483 -2.149579236809105 0.0030964631146699756 -0.007004256706139837 -0.0009605383994323377 0.03787746154655066 0.016633360600723485 -0.0008801917347098274 -4.2801803147032444 -1.7404897845578264 3.435908176695978 0.09542252077678325 -0.6651441898762372 -0.12745804106880565 0.1424563559654699 -0.10526611187834882 0.725353439270174 2.006148727788962 0.5431505110813688 -2.1496606504736366 0.0 0.0 0.0 0.0 0.0 0.0 1
20399.92 0.4161461889743805 -1.5301833649030705 -0.8859370350837708 -2.3291670284666957 4.877832412719727 1.5248446464538574 0.0 0.0 0.0 0.0 0.0 0.0 0.0 0.0 0.0 0.0 0.0 0.0 0.4160194993019104 -1.5301124838045617 -0.8857673406600952 -2.328707834283346 4.878711700439453 1.524871587753296 0.00045172180398367345 5.0385879148961976e-05 0.0 7.684384273010359e-34 0.0413900688290596 1.8718158119223046e-25 0.14234250414108102 -0.10551207964997669 0.7253267557055645 2.007075495183946 0.5442856819702483 -2.149579236809105 0.0030964631146699756 -0.007004256706139837 -0.0009605383994323377 0.03787746154655066 0.016633360600723485 -0.0008801917347098274 -4.2801803147032444 -1.7404897845578264 3.435908176695978 0.09542252077678325 -0.6651441898762372 -0.12745804106880565 0.1424563559654699 -0.10526611187834882 0.725353439270174 2.006148727788962 0.5431505110813688 -2.1496606504736366 0.0 0.0 0.0 0.0 0.0 0.0 1
20399.928 0.4161461889743805 -1.5301833649030705 -0.8859370350837708 -2.3291670284666957 4.877832412719727 1.5248446464538574 0.0 0.0 0.0 0.0 0.0 0.0 0.0 0.0 0.0 0.0 0.0 0.0 0.4160194993019104 -1.5301124838045617 -0.8857673406600952 -2.328707834283346 4.878711700439453 1.524871587753296 0.00045172180398367345 5.0385879148961976e-05 0.0 7.684384273010359e-34 0.0413900688290596 1.8718158119223046e-25 0.14234250414108102 -0.10551207964997669 0.7253267557055645 2.007075495183946 0.5442856819702483 -2.149579236809105 0.0030964631146699756 -0.007004256706139837 -0.0009605383994323377 0.03787746154655066 0.016633360600723485 -0.0008801917347098274 -4.2801803147032444 -1.7404897845578264 3.435908176695978 0.09542252077678325 -0.6651441898762372 -0.12745804106880565 0.1424563559654699 -0.10526611187834882 0.725353439270174 2.006148727788962 0.5431505110813688 -2.1496606504736366 0.0 0.0 0.0 0.0 0.0 0.0 1
20399.935999999998 0.4161461889743805 -1.5301833649030705 -0.8859370350837708 -2.3291670284666957 4.877832412719727 1.5248446464538574 0.0 0.0 0.0 0.0 0.0 0.0 0.0 0.0 0.0 0.0 0.0 0.0 0.4160194993019104 -1.5301124838045617 -0.8857673406600952 -2.328707834283346 4.878711700439453 1.524871587753296 0.00045172180398367345 5.0385879148961976e-05 0.0 7.684384273010359e-34 0.0413900688290596 1.8718158119223046e-25 0.14234250414108102 -0.10551207964997669 0.7253267557055645 2.007075495183946 0.5442856819702483 -2.149579236809105 0.0030964631146699756 -0.007004256706139837 -0.0009605383994323377 0.03787746154655066 0.016633360600723485 -0.0008801917347098274 -4.2801803147032444 -1.7404897845578264 3.435908176695978 0.09542252077678325 -0.6651441898762372 -0.12745804106880565 0.1424563559654699 -0.10526611187834882 0.725353439270174 2.006148727788962 0.5431505110813688 -2.1496606504736366 0.0 0.0 0.0 0.0 0.0 0.0 1
20399.944 0.4161461889743805 -1.5301833649030705 -0.8859370350837708 -2.3291670284666957 4.877832412719727 1.5248446464538574 0.0 0.0 0.0 0.0 0.0 0.0 0.0 0.0 0.0 0.0 0.0 0.0 0.4160194993019104 -1.5301124838045617 -0.8857673406600952 -2.328707834283346 4.878711700439453 1.524871587753296 0.00045172180398367345 5.0385879148961976e-05 0.0 7.684384273010359e-34 0.0413900688290596 1.8718158119223046e-25 0.14234250414108102 -0.10551207964997669 0.7253267557055645 2.007075495183946 0.5442856819702483 -2.149579236809105 0.0030964631146699756 -0.007004256706139837 -0.0009605383994323377 0.03787746154655066 0.016633360600723485 -0.0008801917347098274 -4.2801803147032444 -1.7404897845578264 3.435908176695978 0.09542252077678325 -0.6651441898762372 -0.12745804106880565 0.1424563559654699 -0.10526611187834882 0.725353439270174 2.006148727788962 0.5431505110813688 -2.1496606504736366 0.0 0.0 0.0 0.0 0.0 0.0 1
20399.951999999997 0.4161461889743805 -1.5301833649030705 -0.8859370350837708 -2.3291670284666957 4.877832412719727 1.5248446464538574 0.0 0.0 0.0 0.0 0.0 0.0 0.0 0.0 0.0 0.0 0.0 0.0 0.4160194993019104 -1.5301124838045617 -0.8857673406600952 -2.328707834283346 4.878711700439453 1.524871587753296 0.00045172180398367345 5.0385879148961976e-05 0.0 7.684384273010359e-34 0.0413900688290596 1.8718158119223046e-25 0.14234250414108102 -0.10551207964997669 0.7253267557055645 2.007075495183946 0.5442856819702483 -2.149579236809105 0.0030964631146699756 -0.007004256706139837 -0.0009605383994323377 0.03787746154655066 0.016633360600723485 -0.0008801917347098274 -4.2801803147032444 -1.7404897845578264 3.435908176695978 0.09542252077678325 -0.6651441898762372 -0.12745804106880565 0.1424563559654699 -0.10526611187834882 0.725353439270174 2.006148727788962 0.5431505110813688 -2.1496606504736366 0.0 0.0 0.0 0.0 0.0 0.0 1
20399.96 0.4161461889743805 -1.5301833649030705 -0.8859370350837708 -2.3291670284666957 4.877832412719727 1.5248446464538574 0.0 0.0 0.0 0.0 0.0 0.0 0.0 0.0 0.0 0.0 0.0 0.0 0.4160194993019104 -1.5301124838045617 -0.8857673406600952 -2.328707834283346 4.878711700439453 1.524871587753296 0.00045172180398367345 5.0385879148961976e-05 0.0 7.684384273010359e-34 0.0413900688290596 1.8718158119223046e-25 0.14234250414108102 -0.10551207964997669 0.7253267557055645 2.007075495183946 0.5442856819702483 -2.149579236809105 0.0030964631146699756 -0.007004256706139837 -0.0009605383994323377 0.03787746154655066 0.016633360600723485 -0.0008801917347098274 -4.2801803147032444 -1.7404897845578264 3.435908176695978 0.09542252077678325 -0.6651441898762372 -0.12745804106880565 0.1424563559654699 -0.10526611187834882 0.725353439270174 2.006148727788962 0.5431505110813688 -2.1496606504736366 0.0 0.0 0.0 0.0 0.0 0.0 1
20399.968 0.4161461889743805 -1.5301833649030705 -0.8859370350837708 -2.3291670284666957 4.877832412719727 1.5248446464538574 0.0 0.0 0.0 0.0 0.0 0.0 0.0 0.0 0.0 0.0 0.0 0.0 0.4160194993019104 -1.5301124838045617 -0.8857673406600952 -2.328707834283346 4.878711700439453 1.524871587753296 0.00045172180398367345 5.0385879148961976e-05 0.0 7.684384273010359e-34 0.0413900688290596 1.8718158119223046e-25 0.14234250414108102 -0.10551207964997669 0.7253267557055645 2.007075495183946 0.5442856819702483 -2.149579236809105 0.0030964631146699756 -0.007004256706139837 -0.0009605383994323377 0.03787746154655066 0.016633360600723485 -0.0008801917347098274 -4.2801803147032444 -1.7404897845578264 3.435908176695978 0.09542252077678325 -0.6651441898762372 -0.12745804106880565 0.1424563559654699 -0.10526611187834882 0.725353439270174 2.006148727788962 0.5431505110813688 -2.1496606504736366 0.0 0.0 0.0 0.0 0.0 0.0 1
20399.976 0.4161461889743805 -1.5301833649030705 -0.8859370350837708 -2.3291670284666957 4.877832412719727 1.5248446464538574 0.0 0.0 0.0 0.0 0.0 0.0 0.0 0.0 0.0 0.0 0.0 0.0 0.4160194993019104 -1.5301124838045617 -0.8857673406600952 -2.328707834283346 4.878711700439453 1.524871587753296 0.00045172180398367345 5.0385879148961976e-05 0.0 7.684384273010359e-34 0.0413900688290596 1.8718158119223046e-25 0.14234250414108102 -0.10551207964997669 0.7253267557055645 2.007075495183946 0.5442856819702483 -2.149579236809105 0.0030964631146699756 -0.007004256706139837 -0.0009605383994323377 0.03787746154655066 0.016633360600723485 -0.0008801917347098274 -4.2801803147032444 -1.7404897845578264 3.435908176695978 0.09542252077678325 -0.6651441898762372 -0.12745804106880565 0.1424563559654699 -0.10526611187834882 0.725353439270174 2.006148727788962 0.5431505110813688 -2.1496606504736366 0.0 0.0 0.0 0.0 0.0 0.0 1
20399.984 0.4161461889743805 -1.5301833649030705 -0.8859370350837708 -2.3291670284666957 4.877832412719727 1.5248446464538574 0.0 0.0 0.0 0.0 0.0 0.0 0.0 0.0 0.0 0.0 0.0 0.0 0.4160194993019104 -1.5301124838045617 -0.8857673406600952 -2.328707834283346 4.878711700439453 1.524871587753296 0.00045172180398367345 5.0385879148961976e-05 0.0 7.684384273010359e-34 0.0413900688290596 1.8718158119223046e-25 0.14234250414108102 -0.10551207964997669 0.7253267557055645 2.007075495183946 0.5442856819702483 -2.149579236809105 0.0030964631146699756 -0.007004256706139837 -0.0009605383994323377 0.03787746154655066 0.016633360600723485 -0.0008801917347098274 -4.2801803147032444 -1.7404897845578264 3.435908176695978 0.09542252077678325 -0.6651441898762372 -0.12745804106880565 0.1424563559654699 -0.10526611187834882 0.725353439270174 2.006148727788962 0.5431505110813688 -2.1496606504736366 0.0 0.0 0.0 0.0 0.0 0.0 1
20399.992 0.4161461889743805 -1.5301833649030705 -0.8859370350837708 -2.3291670284666957 4.877832412719727 1.5248446464538574 0.0 0.0 0.0 0.0 0.0 0.0 0.0 0.0 0.0 0.0 0.0 0.0 0.4160194993019104 -1.5301124838045617 -0.8857673406600952 -2.328707834283346 4.878711700439453 1.524871587753296 0.00045172180398367345 5.0385879148961976e-05 0.0 7.684384273010359e-34 0.0413900688290596 1.8718158119223046e-25 0.14234250414108102 -0.10551207964997669 0.7253267557055645 2.007075495183946 0.5442856819702483 -2.149579236809105 0.0030964631146699756 -0.007004256706139837 -0.0009605383994323377 0.03787746154655066 0.016633360600723485 -0.0008801917347098274 -4.2801803147032444 -1.7404897845578264 3.435908176695978 0.09542252077678325 -0.6651441898762372 -0.12745804106880565 0.1424563559654699 -0.10526611187834882 0.725353439270174 2.006148727788962 0.5431505110813688 -2.1496606504736366 0.0 0.0 0.0 0.0 0.0 0.0 1
20400.0 0.4161461889743805 -1.5301833649030705 -0.8859370350837708 -2.3291670284666957 4.877832412719727 1.5248446464538574 0.0 0.0 0.0 0.0 0.0 0.0 0.0 0.0 0.0 0.0 0.0 0.0 0.4160194993019104 -1.5301124838045617 -0.8857673406600952 -2.328707834283346 4.878711700439453 1.524871587753296 0.00045172180398367345 5.0385879148961976e-05 0.0 7.684384273010359e-34 0.0413900688290596 1.8718158119223046e-25 0.14234250414108102 -0.10551207964997669 0.7253267557055645 2.007075495183946 0.5442856819702483 -2.149579236809105 0.0030964631146699756 -0.007004256706139837 -0.0009605383994323377 0.03787746154655066 0.016633360600723485 -0.0008801917347098274 -4.2801803147032444 -1.7404897845578264 3.435908176695978 0.09542252077678325 -0.6651441898762372 -0.12745804106880565 0.1424563559654699 -0.10526611187834882 0.725353439270174 2.006148727788962 0.5431505110813688 -2.1496606504736366 0.0 0.0 0.0 0.0 0.0 0.0 1
20400.007999999998 0.4161461889743805 -1.5301833649030705 -0.8859370350837708 -2.3291670284666957 4.877832412719727 1.5248446464538574 0.0 0.0 0.0 0.0 0.0 0.0 0.0 0.0 0.0 0.0 0.0 0.0 0.4160194993019104 -1.5301124838045617 -0.8857673406600952 -2.328707834283346 4.878711700439453 1.524871587753296 0.00045172180398367345 5.0385879148961976e-05 0.0 7.684384273010359e-34 0.0413900688290596 1.8718158119223046e-25 0.14234250414108102 -0.10551207964997669 0.7253267557055645 2.007075495183946 0.5442856819702483 -2.149579236809105 0.0030964631146699756 -0.007004256706139837 -0.0009605383994323377 0.03787746154655066 0.016633360600723485 -0.0008801917347098274 -4.2801803147032444 -1.7404897845578264 3.435908176695978 0.09542252077678325 -0.6651441898762372 -0.12745804106880565 0.1424563559654699 -0.10526611187834882 0.725353439270174 2.006148727788962 0.5431505110813688 -2.1496606504736366 0.0 0.0 0.0 0.0 0.0 0.0 1
20400.016 0.4161461889743805 -1.5301833649030705 -0.8859370350837708 -2.3291670284666957 4.877832412719727 1.5248446464538574 0.0 0.0 0.0 0.0 0.0 0.0 0.0 0.0 0.0 0.0 0.0 0.0 0.4160194993019104 -1.5301124838045617 -0.8857673406600952 -2.328707834283346 4.878711700439453 1.524871587753296 0.00045172180398367345 5.0385879148961976e-05 0.0 7.684384273010359e-34 0.0413900688290596 1.8718158119223046e-25 0.14234250414108102 -0.10551207964997669 0.7253267557055645 2.007075495183946 0.5442856819702483 -2.149579236809105 0.0030964631146699756 -0.007004256706139837 -0.0009605383994323377 0.03787746154655066 0.016633360600723485 -0.0008801917347098274 -4.2801803147032444 -1.7404897845578264 3.435908176695978 0.09542252077678325 -0.6651441898762372 -0.12745804106880565 0.1424563559654699 -0.10526611187834882 0.725353439270174 2.006148727788962 0.5431505110813688 -2.1496606504736366 0.0 0.0 0.0 0.0 0.0 0.0 1
20400.023999999998 0.4161461889743805 -1.5301833649030705 -0.8859370350837708 -2.3291670284666957 4.877832412719727 1.5248446464538574 0.0 0.0 0.0 0.0 0.0 0.0 0.0 0.0 0.0 0.0 0.0 0.0 0.4160194993019104 -1.5301124838045617 -0.8857673406600952 -2.328707834283346 4.878711700439453 1.524871587753296 0.00045172180398367345 5.0385879148961976e-05 0.0 7.684384273010359e-34 0.0413900688290596 1.8718158119223046e-25 0.14234250414108102 -0.10551207964997669 0.7253267557055645 2.007075495183946 0.5442856819702483 -2.149579236809105 0.0030964631146699756 -0.007004256706139837 -0.0009605383994323377 0.03787746154655066 0.016633360600723485 -0.0008801917347098274 -4.2801803147032444 -1.7404897845578264 3.435908176695978 0.09542252077678325 -0.6651441898762372 -0.12745804106880565 0.1424563559654699 -0.10526611187834882 0.725353439270174 2.006148727788962 0.5431505110813688 -2.1496606504736366 0.0 0.0 0.0 0.0 0.0 0.0 1
20400.032 0.4161461889743805 -1.5301833649030705 -0.8859370350837708 -2.3291670284666957 4.877832412719727 1.5248446464538574 0.0 0.0 0.0 0.0 0.0 0.0 0.0 0.0 0.0 0.0 0.0 0.0 0.4160194993019104 -1.5301124838045617 -0.8857673406600952 -2.328707834283346 4.878711700439453 1.524871587753296 0.00045172180398367345 5.0385879148961976e-05 0.0 7.684384273010359e-34 0.0413900688290596 1.8718158119223046e-25 0.14234250414108102 -0.10551207964997669 0.7253267557055645 2.007075495183946 0.5442856819702483 -2.149579236809105 0.0030964631146699756 -0.007004256706139837 -0.0009605383994323377 0.03787746154655066 0.016633360600723485 -0.0008801917347098274 -4.2801803147032444 -1.7404897845578264 3.435908176695978 0.09542252077678325 -0.6651441898762372 -0.12745804106880565 0.1424563559654699 -0.10526611187834882 0.725353439270174 2.006148727788962 0.5431505110813688 -2.1496606504736366 0.0 0.0 0.0 0.0 0.0 0.0 1
20400.04 0.4161461889743805 -1.5301833649030705 -0.8859370350837708 -2.3291670284666957 4.877832412719727 1.5248446464538574 0.0 0.0 0.0 0.0 0.0 0.0 0.0 0.0 0.0 0.0 0.0 0.0 0.4160194993019104 -1.5301124838045617 -0.8857673406600952 -2.328707834283346 4.878711700439453 1.524871587753296 0.00045172180398367345 5.0385879148961976e-05 0.0 7.684384273010359e-34 0.0413900688290596 1.8718158119223046e-25 0.14234250414108102 -0.10551207964997669 0.7253267557055645 2.007075495183946 0.5442856819702483 -2.149579236809105 0.0030964631146699756 -0.007004256706139837 -0.0009605383994323377 0.03787746154655066 0.016633360600723485 -0.0008801917347098274 -4.2801803147032444 -1.7404897845578264 3.435908176695978 0.09542252077678325 -0.6651441898762372 -0.12745804106880565 0.1424563559654699 -0.10526611187834882 0.725353439270174 2.006148727788962 0.5431505110813688 -2.1496606504736366 0.0 0.0 0.0 0.0 0.0 0.0 1
20400.048 0.4161461889743805 -1.5301833649030705 -0.8859370350837708 -2.3291670284666957 4.877832412719727 1.5248446464538574 0.0 0.0 0.0 0.0 0.0 0.0 0.0 0.0 0.0 0.0 0.0 0.0 0.4160194993019104 -1.5301124838045617 -0.8857673406600952 -2.328707834283346 4.878711700439453 1.524871587753296 0.00045172180398367345 5.0385879148961976e-05 0.0 7.684384273010359e-34 0.0413900688290596 1.8718158119223046e-25 0.14234250414108102 -0.10551207964997669 0.7253267557055645 2.007075495183946 0.5442856819702483 -2.149579236809105 0.0030964631146699756 -0.007004256706139837 -0.0009605383994323377 0.03787746154655066 0.016633360600723485 -0.0008801917347098274 -4.2801803147032444 -1.7404897845578264 3.435908176695978 0.09542252077678325 -0.6651441898762372 -0.12745804106880565 0.1424563559654699 -0.10526611187834882 0.725353439270174 2.006148727788962 0.5431505110813688 -2.1496606504736366 0.0 0.0 0.0 0.0 0.0 0.0 1
20400.056 0.4161461889743805 -1.5301833649030705 -0.8859370350837708 -2.3291670284666957 4.877832412719727 1.5248446464538574 0.0 0.0 0.0 0.0 0.0 0.0 0.0 0.0 0.0 0.0 0.0 0.0 0.4160194993019104 -1.5301124838045617 -0.8857673406600952 -2.328707834283346 4.878711700439453 1.524871587753296 0.00045172180398367345 5.0385879148961976e-05 0.0 7.684384273010359e-34 0.0413900688290596 1.8718158119223046e-25 0.14234250414108102 -0.10551207964997669 0.7253267557055645 2.007075495183946 0.5442856819702483 -2.149579236809105 0.0030964631146699756 -0.007004256706139837 -0.0009605383994323377 0.03787746154655066 0.016633360600723485 -0.0008801917347098274 -4.2801803147032444 -1.7404897845578264 3.435908176695978 0.09542252077678325 -0.6651441898762372 -0.12745804106880565 0.1424563559654699 -0.10526611187834882 0.725353439270174 2.006148727788962 0.5431505110813688 -2.1496606504736366 0.0 0.0 0.0 0.0 0.0 0.0 1
20400.064 0.4161461889743805 -1.5301833649030705 -0.8859370350837708 -2.3291670284666957 4.877832412719727 1.5248446464538574 0.0 0.0 0.0 0.0 0.0 0.0 0.0 0.0 0.0 0.0 0.0 0.0 0.4160194993019104 -1.5301124838045617 -0.8857673406600952 -2.328707834283346 4.878711700439453 1.524871587753296 0.00045172180398367345 5.0385879148961976e-05 0.0 7.684384273010359e-34 0.0413900688290596 1.8718158119223046e-25 0.14234250414108102 -0.10551207964997669 0.7253267557055645 2.007075495183946 0.5442856819702483 -2.149579236809105 0.0030964631146699756 -0.007004256706139837 -0.0009605383994323377 0.03787746154655066 0.016633360600723485 -0.0008801917347098274 -4.2801803147032444 -1.7404897845578264 3.435908176695978 0.09542252077678325 -0.6651441898762372 -0.12745804106880565 0.1424563559654699 -0.10526611187834882 0.725353439270174 2.006148727788962 0.5431505110813688 -2.1496606504736366 0.0 0.0 0.0 0.0 0.0 0.0 1
20400.072 0.4161461889743805 -1.5301833649030705 -0.8859370350837708 -2.3291670284666957 4.877832412719727 1.5248446464538574 0.0 0.0 0.0 0.0 0.0 0.0 0.0 0.0 0.0 0.0 0.0 0.0 0.4160194993019104 -1.5301124838045617 -0.8857673406600952 -2.328707834283346 4.878711700439453 1.524871587753296 0.00045172180398367345 5.0385879148961976e-05 0.0 7.684384273010359e-34 0.0413900688290596 1.8718158119223046e-25 0.14234250414108102 -0.10551207964997669 0.7253267557055645 2.007075495183946 0.5442856819702483 -2.149579236809105 0.0030964631146699756 -0.007004256706139837 -0.0009605383994323377 0.03787746154655066 0.016633360600723485 -0.0008801917347098274 -4.2801803147032444 -1.7404897845578264 3.435908176695978 0.09542252077678325 -0.6651441898762372 -0.12745804106880565 0.1424563559654699 -0.10526611187834882 0.725353439270174 2.006148727788962 0.5431505110813688 -2.1496606504736366 0.0 0.0 0.0 0.0 0.0 0.0 1
20400.079999999998 0.4161461889743805 -1.5301833649030705 -0.8859370350837708 -2.3291670284666957 4.877832412719727 1.5248446464538574 0.0 0.0 0.0 0.0 0.0 0.0 0.0 0.0 0.0 0.0 0.0 0.0 0.4160194993019104 -1.5301124838045617 -0.8857673406600952 -2.328707834283346 4.878711700439453 1.524871587753296 0.00045172180398367345 5.0385879148961976e-05 0.0 7.684384273010359e-34 0.0413900688290596 1.8718158119223046e-25 0.14234250414108102 -0.10551207964997669 0.7253267557055645 2.007075495183946 0.5442856819702483 -2.149579236809105 0.0030964631146699756 -0.007004256706139837 -0.0009605383994323377 0.03787746154655066 0.016633360600723485 -0.0008801917347098274 -4.2801803147032444 -1.7404897845578264 3.435908176695978 0.09542252077678325 -0.6651441898762372 -0.12745804106880565 0.1424563559654699 -0.10526611187834882 0.725353439270174 2.006148727788962 0.5431505110813688 -2.1496606504736366 0.0 0.0 0.0 0.0 0.0 0.0 1
20400.088 0.4161461889743805 -1.5301833649030705 -0.8859370350837708 -2.3291670284666957 4.877832412719727 1.5248446464538574 0.0 0.0 0.0 0.0 0.0 0.0 0.0 0.0 0.0 0.0 0.0 0.0 0.4160194993019104 -1.5301124838045617 -0.8857673406600952 -2.328707834283346 4.878711700439453 1.524871587753296 0.00045172180398367345 5.0385879148961976e-05 0.0 7.684384273010359e-34 0.0413900688290596 1.8718158119223046e-25 0.14234250414108102 -0.10551207964997669 0.7253267557055645 2.007075495183946 0.5442856819702483 -2.149579236809105 0.0030964631146699756 -0.007004256706139837 -0.0009605383994323377 0.03787746154655066 0.016633360600723485 -0.0008801917347098274 -4.2801803147032444 -1.7404897845578264 3.435908176695978 0.09542252077678325 -0.6651441898762372 -0.12745804106880565 0.1424563559654699 -0.10526611187834882 0.725353439270174 2.006148727788962 0.5431505110813688 -2.1496606504736366 0.0 0.0 0.0 0.0 0.0 0.0 1
20400.095999999998 0.4161461889743805 -1.5301833649030705 -0.8859370350837708 -2.3291670284666957 4.877832412719727 1.5248446464538574 0.0 0.0 0.0 0.0 0.0 0.0 0.0 0.0 0.0 0.0 0.0 0.0 0.4160194993019104 -1.5301124838045617 -0.8857673406600952 -2.328707834283346 4.878711700439453 1.524871587753296 0.00045172180398367345 5.0385879148961976e-05 0.0 7.684384273010359e-34 0.0413900688290596 1.8718158119223046e-25 0.14234250414108102 -0.10551207964997669 0.7253267557055645 2.007075495183946 0.5442856819702483 -2.149579236809105 0.0030964631146699756 -0.007004256706139837 -0.0009605383994323377 0.03787746154655066 0.016633360600723485 -0.0008801917347098274 -4.2801803147032444 -1.7404897845578264 3.435908176695978 0.09542252077678325 -0.6651441898762372 -0.12745804106880565 0.1424563559654699 -0.10526611187834882 0.725353439270174 2.006148727788962 0.5431505110813688 -2.1496606504736366 0.0 0.0 0.0 0.0 0.0 0.0 1
20400.104 0.4161461889743805 -1.5301833649030705 -0.8859370350837708 -2.3291670284666957 4.877832412719727 1.5248446464538574 0.0 0.0 0.0 0.0 0.0 0.0 0.0 0.0 0.0 0.0 0.0 0.0 0.4160194993019104 -1.5301124838045617 -0.8857673406600952 -2.328707834283346 4.878711700439453 1.524871587753296 0.00045172180398367345 5.0385879148961976e-05 0.0 7.684384273010359e-34 0.0413900688290596 1.8718158119223046e-25 0.14234250414108102 -0.10551207964997669 0.7253267557055645 2.007075495183946 0.5442856819702483 -2.149579236809105 0.0030964631146699756 -0.007004256706139837 -0.0009605383994323377 0.03787746154655066 0.016633360600723485 -0.0008801917347098274 -4.2801803147032444 -1.7404897845578264 3.435908176695978 0.09542252077678325 -0.6651441898762372 -0.12745804106880565 0.1424563559654699 -0.10526611187834882 0.725353439270174 2.006148727788962 0.5431505110813688 -2.1496606504736366 0.0 0.0 0.0 0.0 0.0 0.0 1
20400.111999999997 0.4161461889743805 -1.5301833649030705 -0.8859370350837708 -2.3291670284666957 4.877832412719727 1.5248446464538574 0.0 0.0 0.0 0.0 0.0 0.0 0.0 0.0 0.0 0.0 0.0 0.0 0.4160194993019104 -1.5301124838045617 -0.8857673406600952 -2.328707834283346 4.878711700439453 1.524871587753296 0.00045172180398367345 5.0385879148961976e-05 0.0 7.684384273010359e-34 0.0413900688290596 1.8718158119223046e-25 0.14234250414108102 -0.10551207964997669 0.7253267557055645 2.007075495183946 0.5442856819702483 -2.149579236809105 0.0030964631146699756 -0.007004256706139837 -0.0009605383994323377 0.03787746154655066 0.016633360600723485 -0.0008801917347098274 -4.2801803147032444 -1.7404897845578264 3.435908176695978 0.09542252077678325 -0.6651441898762372 -0.12745804106880565 0.1424563559654699 -0.10526611187834882 0.725353439270174 2.006148727788962 0.5431505110813688 -2.1496606504736366 0.0 0.0 0.0 0.0 0.0 0.0 1
20400.12 0.4161461889743805 -1.5301833649030705 -0.8859370350837708 -2.3291670284666957 4.877832412719727 1.5248446464538574 0.0 0.0 0.0 0.0 0.0 0.0 0.0 0.0 0.0 0.0 0.0 0.0 0.4160194993019104 -1.5301124838045617 -0.8857673406600952 -2.328707834283346 4.878711700439453 1.524871587753296 0.00045172180398367345 5.0385879148961976e-05 0.0 7.684384273010359e-34 0.0413900688290596 1.8718158119223046e-25 0.14234250414108102 -0.10551207964997669 0.7253267557055645 2.007075495183946 0.5442856819702483 -2.149579236809105 0.0030964631146699756 -0.007004256706139837 -0.0009605383994323377 0.03787746154655066 0.016633360600723485 -0.0008801917347098274 -4.2801803147032444 -1.7404897845578264 3.435908176695978 0.09542252077678325 -0.6651441898762372 -0.12745804106880565 0.1424563559654699 -0.10526611187834882 0.725353439270174 2.006148727788962 0.5431505110813688 -2.1496606504736366 0.0 0.0 0.0 0.0 0.0 0.0 1
20400.128 0.4161461889743805 -1.5301833649030705 -0.8859370350837708 -2.3291670284666957 4.877832412719727 1.5248446464538574 0.0 0.0 0.0 0.0 0.0 0.0 0.0 0.0 0.0 0.0 0.0 0.0 0.4160194993019104 -1.5301124838045617 -0.8857673406600952 -2.328707834283346 4.878711700439453 1.524871587753296 0.00045172180398367345 5.0385879148961976e-05 0.0 7.684384273010359e-34 0.0413900688290596 1.8718158119223046e-25 0.14234250414108102 -0.10551207964997669 0.7253267557055645 2.007075495183946 0.5442856819702483 -2.149579236809105 0.0030964631146699756 -0.007004256706139837 -0.0009605383994323377 0.03787746154655066 0.016633360600723485 -0.0008801917347098274 -4.2801803147032444 -1.7404897845578264 3.435908176695978 0.09542252077678325 -0.6651441898762372 -0.12745804106880565 0.1424563559654699 -0.10526611187834882 0.725353439270174 2.006148727788962 0.5431505110813688 -2.1496606504736366 0.0 0.0 0.0 0.0 0.0 0.0 1
20400.136 0.4161461889743805 -1.5301833649030705 -0.8859370350837708 -2.3291670284666957 4.877832412719727 1.5248446464538574 0.0 0.0 0.0 0.0 0.0 0.0 0.0 0.0 0.0 0.0 0.0 0.0 0.4160194993019104 -1.5301124838045617 -0.8857673406600952 -2.328707834283346 4.878711700439453 1.524871587753296 0.00045172180398367345 5.0385879148961976e-05 0.0 7.684384273010359e-34 0.0413900688290596 1.8718158119223046e-25 0.14234250414108102 -0.10551207964997669 0.7253267557055645 2.007075495183946 0.5442856819702483 -2.149579236809105 0.0030964631146699756 -0.007004256706139837 -0.0009605383994323377 0.03787746154655066 0.016633360600723485 -0.0008801917347098274 -4.2801803147032444 -1.7404897845578264 3.435908176695978 0.09542252077678325 -0.6651441898762372 -0.12745804106880565 0.1424563559654699 -0.10526611187834882 0.725353439270174 2.006148727788962 0.5431505110813688 -2.1496606504736366 0.0 0.0 0.0 0.0 0.0 0.0 1
20400.144 0.4161461889743805 -1.5301833649030705 -0.8859370350837708 -2.3291670284666957 4.877832412719727 1.5248446464538574 0.0 0.0 0.0 0.0 0.0 0.0 0.0 0.0 0.0 0.0 0.0 0.0 0.4160194993019104 -1.5301124838045617 -0.8857673406600952 -2.328707834283346 4.878711700439453 1.524871587753296 0.00045172180398367345 5.0385879148961976e-05 0.0 7.684384273010359e-34 0.0413900688290596 1.8718158119223046e-25 0.14234250414108102 -0.10551207964997669 0.7253267557055645 2.007075495183946 0.5442856819702483 -2.149579236809105 0.0030964631146699756 -0.007004256706139837 -0.0009605383994323377 0.03787746154655066 0.016633360600723485 -0.0008801917347098274 -4.2801803147032444 -1.7404897845578264 3.435908176695978 0.09542252077678325 -0.6651441898762372 -0.12745804106880565 0.1424563559654699 -0.10526611187834882 0.725353439270174 2.006148727788962 0.5431505110813688 -2.1496606504736366 0.0 0.0 0.0 0.0 0.0 0.0 1
20400.152 0.4161461889743805 -1.5301833649030705 -0.8859370350837708 -2.3291670284666957 4.877832412719727 1.5248446464538574 0.0 0.0 0.0 0.0 0.0 0.0 0.0 0.0 0.0 0.0 0.0 0.0 0.4160194993019104 -1.5301124838045617 -0.8857673406600952 -2.328707834283346 4.878711700439453 1.524871587753296 0.00045172180398367345 5.0385879148961976e-05 0.0 7.684384273010359e-34 0.0413900688290596 1.8718158119223046e-25 0.14234250414108102 -0.10551207964997669 0.7253267557055645 2.007075495183946 0.5442856819702483 -2.149579236809105 0.0030964631146699756 -0.007004256706139837 -0.0009605383994323377 0.03787746154655066 0.016633360600723485 -0.0008801917347098274 -4.2801803147032444 -1.7404897845578264 3.435908176695978 0.09542252077678325 -0.6651441898762372 -0.12745804106880565 0.1424563559654699 -0.10526611187834882 0.725353439270174 2.006148727788962 0.5431505110813688 -2.1496606504736366 0.0 0.0 0.0 0.0 0.0 0.0 1
20400.16 0.4161461889743805 -1.5301833649030705 -0.8859370350837708 -2.3291670284666957 4.877832412719727 1.5248446464538574 0.0 0.0 0.0 0.0 0.0 0.0 0.0 0.0 0.0 0.0 0.0 0.0 0.4160194993019104 -1.5301124838045617 -0.8857673406600952 -2.328707834283346 4.878711700439453 1.524871587753296 0.00045172180398367345 5.0385879148961976e-05 0.0 7.684384273010359e-34 0.0413900688290596 1.8718158119223046e-25 0.14234250414108102 -0.10551207964997669 0.7253267557055645 2.007075495183946 0.5442856819702483 -2.149579236809105 0.0030964631146699756 -0.007004256706139837 -0.0009605383994323377 0.03787746154655066 0.016633360600723485 -0.0008801917347098274 -4.2801803147032444 -1.7404897845578264 3.435908176695978 0.09542252077678325 -0.6651441898762372 -0.12745804106880565 0.1424563559654699 -0.10526611187834882 0.725353439270174 2.006148727788962 0.5431505110813688 -2.1496606504736366 0.0 0.0 0.0 0.0 0.0 0.0 1
20400.167999999998 0.4161461889743805 -1.5301833649030705 -0.8859370350837708 -2.3291670284666957 4.877832412719727 1.5248446464538574 0.0 0.0 0.0 0.0 0.0 0.0 0.0 0.0 0.0 0.0 0.0 0.0 0.4160194993019104 -1.5301124838045617 -0.8857673406600952 -2.328707834283346 4.878711700439453 1.524871587753296 0.00045172180398367345 5.0385879148961976e-05 0.0 7.684384273010359e-34 0.0413900688290596 1.8718158119223046e-25 0.14234250414108102 -0.10551207964997669 0.7253267557055645 2.007075495183946 0.5442856819702483 -2.149579236809105 0.0030964631146699756 -0.007004256706139837 -0.0009605383994323377 0.03787746154655066 0.016633360600723485 -0.0008801917347098274 -4.2801803147032444 -1.7404897845578264 3.435908176695978 0.09542252077678325 -0.6651441898762372 -0.12745804106880565 0.1424563559654699 -0.10526611187834882 0.725353439270174 2.006148727788962 0.5431505110813688 -2.1496606504736366 0.0 0.0 0.0 0.0 0.0 0.0 1
20400.176 0.4161461889743805 -1.5301833649030705 -0.8859370350837708 -2.3291670284666957 4.877832412719727 1.5248446464538574 0.0 0.0 0.0 0.0 0.0 0.0 0.0 0.0 0.0 0.0 0.0 0.0 0.4160194993019104 -1.5301124838045617 -0.8857673406600952 -2.328707834283346 4.878711700439453 1.524871587753296 0.00045172180398367345 5.0385879148961976e-05 0.0 7.684384273010359e-34 0.0413900688290596 1.8718158119223046e-25 0.14234250414108102 -0.10551207964997669 0.7253267557055645 2.007075495183946 0.5442856819702483 -2.149579236809105 0.0030964631146699756 -0.007004256706139837 -0.0009605383994323377 0.03787746154655066 0.016633360600723485 -0.0008801917347098274 -4.2801803147032444 -1.7404897845578264 3.435908176695978 0.09542252077678325 -0.6651441898762372 -0.12745804106880565 0.1424563559654699 -0.10526611187834882 0.725353439270174 2.006148727788962 0.5431505110813688 -2.1496606504736366 0.0 0.0 0.0 0.0 0.0 0.0 1
20400.183999999997 0.4161461889743805 -1.5301833649030705 -0.8859370350837708 -2.3291670284666957 4.877832412719727 1.5248446464538574 0.0 0.0 0.0 0.0 0.0 0.0 0.0 0.0 0.0 0.0 0.0 0.0 0.4160194993019104 -1.5301124838045617 -0.8857673406600952 -2.328707834283346 4.878711700439453 1.524871587753296 0.00045172180398367345 5.0385879148961976e-05 0.0 7.684384273010359e-34 0.0413900688290596 1.8718158119223046e-25 0.14234250414108102 -0.10551207964997669 0.7253267557055645 2.007075495183946 0.5442856819702483 -2.149579236809105 0.0030964631146699756 -0.007004256706139837 -0.0009605383994323377 0.03787746154655066 0.016633360600723485 -0.0008801917347098274 -4.2801803147032444 -1.7404897845578264 3.435908176695978 0.09542252077678325 -0.6651441898762372 -0.12745804106880565 0.1424563559654699 -0.10526611187834882 0.725353439270174 2.006148727788962 0.5431505110813688 -2.1496606504736366 0.0 0.0 0.0 0.0 0.0 0.0 1
20400.192 0.4161461889743805 -1.5301833649030705 -0.8859370350837708 -2.3291670284666957 4.877832412719727 1.5248446464538574 0.0 0.0 0.0 0.0 0.0 0.0 0.0 0.0 0.0 0.0 0.0 0.0 0.4160194993019104 -1.5301124838045617 -0.8857673406600952 -2.328707834283346 4.878711700439453 1.524871587753296 0.00045172180398367345 5.0385879148961976e-05 0.0 7.684384273010359e-34 0.0413900688290596 1.8718158119223046e-25 0.14234250414108102 -0.10551207964997669 0.7253267557055645 2.007075495183946 0.5442856819702483 -2.149579236809105 0.0030964631146699756 -0.007004256706139837 -0.0009605383994323377 0.03787746154655066 0.016633360600723485 -0.0008801917347098274 -4.2801803147032444 -1.7404897845578264 3.435908176695978 0.09542252077678325 -0.6651441898762372 -0.12745804106880565 0.1424563559654699 -0.10526611187834882 0.725353439270174 2.006148727788962 0.5431505110813688 -2.1496606504736366 0.0 0.0 0.0 0.0 0.0 0.0 1
20400.2 0.4161461889743805 -1.5301833649030705 -0.8859370350837708 -2.3291670284666957 4.877832412719727 1.5248446464538574 0.0 0.0 0.0 0.0 0.0 0.0 0.0 0.0 0.0 0.0 0.0 0.0 0.4160194993019104 -1.5301124838045617 -0.8857673406600952 -2.328707834283346 4.878711700439453 1.524871587753296 0.00045172180398367345 5.0385879148961976e-05 0.0 7.684384273010359e-34 0.0413900688290596 1.8718158119223046e-25 0.14234250414108102 -0.10551207964997669 0.7253267557055645 2.007075495183946 0.5442856819702483 -2.149579236809105 0.0030964631146699756 -0.007004256706139837 -0.0009605383994323377 0.03787746154655066 0.016633360600723485 -0.0008801917347098274 -4.2801803147032444 -1.7404897845578264 3.435908176695978 0.09542252077678325 -0.6651441898762372 -0.12745804106880565 0.1424563559654699 -0.10526611187834882 0.725353439270174 2.006148727788962 0.5431505110813688 -2.1496606504736366 0.0 0.0 0.0 0.0 0.0 0.0 1
20400.208 0.4161461889743805 -1.5301833649030705 -0.8859370350837708 -2.3291670284666957 4.877832412719727 1.5248446464538574 0.0 0.0 0.0 0.0 0.0 0.0 0.0 0.0 0.0 0.0 0.0 0.0 0.4160194993019104 -1.5301124838045617 -0.8857673406600952 -2.328707834283346 4.878711700439453 1.524871587753296 0.00045172180398367345 5.0385879148961976e-05 0.0 7.684384273010359e-34 0.0413900688290596 1.8718158119223046e-25 0.14234250414108102 -0.10551207964997669 0.7253267557055645 2.007075495183946 0.5442856819702483 -2.149579236809105 0.0030964631146699756 -0.007004256706139837 -0.0009605383994323377 0.03787746154655066 0.016633360600723485 -0.0008801917347098274 -4.2801803147032444 -1.7404897845578264 3.435908176695978 0.09542252077678325 -0.6651441898762372 -0.12745804106880565 0.1424563559654699 -0.10526611187834882 0.725353439270174 2.006148727788962 0.5431505110813688 -2.1496606504736366 0.0 0.0 0.0 0.0 0.0 0.0 1
20400.216 0.4161461889743805 -1.5301833649030705 -0.8859370350837708 -2.3291670284666957 4.877832412719727 1.5248446464538574 0.0 0.0 0.0 0.0 0.0 0.0 0.0 0.0 0.0 0.0 0.0 0.0 0.4160194993019104 -1.5301124838045617 -0.8857673406600952 -2.328707834283346 4.878711700439453 1.524871587753296 0.00045172180398367345 5.0385879148961976e-05 0.0 7.684384273010359e-34 0.0413900688290596 1.8718158119223046e-25 0.14234250414108102 -0.10551207964997669 0.7253267557055645 2.007075495183946 0.5442856819702483 -2.149579236809105 0.0030964631146699756 -0.007004256706139837 -0.0009605383994323377 0.03787746154655066 0.016633360600723485 -0.0008801917347098274 -4.2801803147032444 -1.7404897845578264 3.435908176695978 0.09542252077678325 -0.6651441898762372 -0.12745804106880565 0.1424563559654699 -0.10526611187834882 0.725353439270174 2.006148727788962 0.5431505110813688 -2.1496606504736366 0.0 0.0 0.0 0.0 0.0 0.0 1
20400.224 0.4161461889743805 -1.5301833649030705 -0.8859370350837708 -2.3291670284666957 4.877832412719727 1.5248446464538574 0.0 0.0 0.0 0.0 0.0 0.0 0.0 0.0 0.0 0.0 0.0 0.0 0.4160194993019104 -1.5301124838045617 -0.8857673406600952 -2.328707834283346 4.878711700439453 1.524871587753296 0.00045172180398367345 5.0385879148961976e-05 0.0 7.684384273010359e-34 0.0413900688290596 1.8718158119223046e-25 0.14234250414108102 -0.10551207964997669 0.7253267557055645 2.007075495183946 0.5442856819702483 -2.149579236809105 0.0030964631146699756 -0.007004256706139837 -0.0009605383994323377 0.03787746154655066 0.016633360600723485 -0.0008801917347098274 -4.2801803147032444 -1.7404897845578264 3.435908176695978 0.09542252077678325 -0.6651441898762372 -0.12745804106880565 0.1424563559654699 -0.10526611187834882 0.725353439270174 2.006148727788962 0.5431505110813688 -2.1496606504736366 0.0 0.0 0.0 0.0 0.0 0.0 1
20400.232 0.4161461889743805 -1.5301833649030705 -0.8859370350837708 -2.3291670284666957 4.877832412719727 1.5248446464538574 0.0 0.0 0.0 0.0 0.0 0.0 0.0 0.0 0.0 0.0 0.0 0.0 0.4160194993019104 -1.5301124838045617 -0.8857673406600952 -2.328707834283346 4.878711700439453 1.524871587753296 0.00045172180398367345 5.0385879148961976e-05 0.0 7.684384273010359e-34 0.0413900688290596 1.8718158119223046e-25 0.14234250414108102 -0.10551207964997669 0.7253267557055645 2.007075495183946 0.5442856819702483 -2.149579236809105 0.0030964631146699756 -0.007004256706139837 -0.0009605383994323377 0.03787746154655066 0.016633360600723485 -0.0008801917347098274 -4.2801803147032444 -1.7404897845578264 3.435908176695978 0.09542252077678325 -0.6651441898762372 -0.12745804106880565 0.1424563559654699 -0.10526611187834882 0.725353439270174 2.006148727788962 0.5431505110813688 -2.1496606504736366 0.0 0.0 0.0 0.0 0.0 0.0 1
20400.239999999998 0.4161461889743805 -1.5301833649030705 -0.8859370350837708 -2.3291670284666957 4.877832412719727 1.5248446464538574 0.0 0.0 0.0 0.0 0.0 0.0 0.0 0.0 0.0 0.0 0.0 0.0 0.4160194993019104 -1.5301124838045617 -0.8857673406600952 -2.328707834283346 4.878711700439453 1.524871587753296 0.00045172180398367345 5.0385879148961976e-05 0.0 7.684384273010359e-34 0.0413900688290596 1.8718158119223046e-25 0.14234250414108102 -0.10551207964997669 0.7253267557055645 2.007075495183946 0.5442856819702483 -2.149579236809105 0.0030964631146699756 -0.007004256706139837 -0.0009605383994323377 0.03787746154655066 0.016633360600723485 -0.0008801917347098274 -4.2801803147032444 -1.7404897845578264 3.435908176695978 0.09542252077678325 -0.6651441898762372 -0.12745804106880565 0.1424563559654699 -0.10526611187834882 0.725353439270174 2.006148727788962 0.5431505110813688 -2.1496606504736366 0.0 0.0 0.0 0.0 0.0 0.0 1
20400.248 0.4161461889743805 -1.5301833649030705 -0.8859370350837708 -2.3291670284666957 4.877832412719727 1.5248446464538574 0.0 0.0 0.0 0.0 0.0 0.0 0.0 0.0 0.0 0.0 0.0 0.0 0.4160194993019104 -1.5301124838045617 -0.8857673406600952 -2.328707834283346 4.878711700439453 1.524871587753296 0.00045172180398367345 5.0385879148961976e-05 0.0 7.684384273010359e-34 0.0413900688290596 1.8718158119223046e-25 0.14234250414108102 -0.10551207964997669 0.7253267557055645 2.007075495183946 0.5442856819702483 -2.149579236809105 0.0030964631146699756 -0.007004256706139837 -0.0009605383994323377 0.03787746154655066 0.016633360600723485 -0.0008801917347098274 -4.2801803147032444 -1.7404897845578264 3.435908176695978 0.09542252077678325 -0.6651441898762372 -0.12745804106880565 0.1424563559654699 -0.10526611187834882 0.725353439270174 2.006148727788962 0.5431505110813688 -2.1496606504736366 0.0 0.0 0.0 0.0 0.0 0.0 1
20400.255999999998 0.4161461889743805 -1.5301833649030705 -0.8859370350837708 -2.3291670284666957 4.877832412719727 1.5248446464538574 0.0 0.0 0.0 0.0 0.0 0.0 0.0 0.0 0.0 0.0 0.0 0.0 0.4160194993019104 -1.5301124838045617 -0.8857673406600952 -2.328707834283346 4.878711700439453 1.524871587753296 0.00045172180398367345 5.0385879148961976e-05 0.0 7.684384273010359e-34 0.0413900688290596 1.8718158119223046e-25 0.14234250414108102 -0.10551207964997669 0.7253267557055645 2.007075495183946 0.5442856819702483 -2.149579236809105 0.0030964631146699756 -0.007004256706139837 -0.0009605383994323377 0.03787746154655066 0.016633360600723485 -0.0008801917347098274 -4.2801803147032444 -1.7404897845578264 3.435908176695978 0.09542252077678325 -0.6651441898762372 -0.12745804106880565 0.1424563559654699 -0.10526611187834882 0.725353439270174 2.006148727788962 0.5431505110813688 -2.1496606504736366 0.0 0.0 0.0 0.0 0.0 0.0 1
20400.264 0.4161461889743805 -1.5301833649030705 -0.8859370350837708 -2.3291670284666957 4.877832412719727 1.5248446464538574 0.0 0.0 0.0 0.0 0.0 0.0 0.0 0.0 0.0 0.0 0.0 0.0 0.4160194993019104 -1.5301124838045617 -0.8857673406600952 -2.328707834283346 4.878711700439453 1.524871587753296 0.00045172180398367345 5.0385879148961976e-05 0.0 7.684384273010359e-34 0.0413900688290596 1.8718158119223046e-25 0.14234250414108102 -0.10551207964997669 0.7253267557055645 2.007075495183946 0.5442856819702483 -2.149579236809105 0.0030964631146699756 -0.007004256706139837 -0.0009605383994323377 0.03787746154655066 0.016633360600723485 -0.0008801917347098274 -4.2801803147032444 -1.7404897845578264 3.435908176695978 0.09542252077678325 -0.6651441898762372 -0.12745804106880565 0.1424563559654699 -0.10526611187834882 0.725353439270174 2.006148727788962 0.5431505110813688 -2.1496606504736366 0.0 0.0 0.0 0.0 0.0 0.0 1
20400.272 0.4161461889743805 -1.5301833649030705 -0.8859370350837708 -2.3291670284666957 4.877832412719727 1.5248446464538574 0.0 0.0 0.0 0.0 0.0 0.0 0.0 0.0 0.0 0.0 0.0 0.0 0.4160194993019104 -1.5301124838045617 -0.8857673406600952 -2.328707834283346 4.878711700439453 1.524871587753296 0.00045172180398367345 5.0385879148961976e-05 0.0 7.684384273010359e-34 0.0413900688290596 1.8718158119223046e-25 0.14234250414108102 -0.10551207964997669 0.7253267557055645 2.007075495183946 0.5442856819702483 -2.149579236809105 0.0030964631146699756 -0.007004256706139837 -0.0009605383994323377 0.03787746154655066 0.016633360600723485 -0.0008801917347098274 -4.2801803147032444 -1.7404897845578264 3.435908176695978 0.09542252077678325 -0.6651441898762372 -0.12745804106880565 0.1424563559654699 -0.10526611187834882 0.725353439270174 2.006148727788962 0.5431505110813688 -2.1496606504736366 0.0 0.0 0.0 0.0 0.0 0.0 1
20400.28 0.4161461889743805 -1.5301833649030705 -0.8859370350837708 -2.3291670284666957 4.877832412719727 1.5248446464538574 0.0 0.0 0.0 0.0 0.0 0.0 0.0 0.0 0.0 0.0 0.0 0.0 0.4160194993019104 -1.5301124838045617 -0.8857673406600952 -2.328707834283346 4.878711700439453 1.524871587753296 0.00045172180398367345 5.0385879148961976e-05 0.0 7.684384273010359e-34 0.0413900688290596 1.8718158119223046e-25 0.14234250414108102 -0.10551207964997669 0.7253267557055645 2.007075495183946 0.5442856819702483 -2.149579236809105 0.0030964631146699756 -0.007004256706139837 -0.0009605383994323377 0.03787746154655066 0.016633360600723485 -0.0008801917347098274 -4.2801803147032444 -1.7404897845578264 3.435908176695978 0.09542252077678325 -0.6651441898762372 -0.12745804106880565 0.1424563559654699 -0.10526611187834882 0.725353439270174 2.006148727788962 0.5431505110813688 -2.1496606504736366 0.0 0.0 0.0 0.0 0.0 0.0 1
20400.288 0.4161461889743805 -1.5301833649030705 -0.8859370350837708 -2.3291670284666957 4.877832412719727 1.5248446464538574 0.0 0.0 0.0 0.0 0.0 0.0 0.0 0.0 0.0 0.0 0.0 0.0 0.4160194993019104 -1.5301124838045617 -0.8857673406600952 -2.328707834283346 4.878711700439453 1.524871587753296 0.00045172180398367345 5.0385879148961976e-05 0.0 7.684384273010359e-34 0.0413900688290596 1.8718158119223046e-25 0.14234250414108102 -0.10551207964997669 0.7253267557055645 2.007075495183946 0.5442856819702483 -2.149579236809105 0.0030964631146699756 -0.007004256706139837 -0.0009605383994323377 0.03787746154655066 0.016633360600723485 -0.0008801917347098274 -4.2801803147032444 -1.7404897845578264 3.435908176695978 0.09542252077678325 -0.6651441898762372 -0.12745804106880565 0.1424563559654699 -0.10526611187834882 0.725353439270174 2.006148727788962 0.5431505110813688 -2.1496606504736366 0.0 0.0 0.0 0.0 0.0 0.0 1
20400.296 0.4161461889743805 -1.5301833649030705 -0.8859370350837708 -2.3291670284666957 4.877832412719727 1.5248446464538574 0.0 0.0 0.0 0.0 0.0 0.0 0.0 0.0 0.0 0.0 0.0 0.0 0.4160194993019104 -1.5301124838045617 -0.8857673406600952 -2.328707834283346 4.878711700439453 1.524871587753296 0.00045172180398367345 5.0385879148961976e-05 0.0 7.684384273010359e-34 0.0413900688290596 1.8718158119223046e-25 0.14234250414108102 -0.10551207964997669 0.7253267557055645 2.007075495183946 0.5442856819702483 -2.149579236809105 0.0030964631146699756 -0.007004256706139837 -0.0009605383994323377 0.03787746154655066 0.016633360600723485 -0.0008801917347098274 -4.2801803147032444 -1.7404897845578264 3.435908176695978 0.09542252077678325 -0.6651441898762372 -0.12745804106880565 0.1424563559654699 -0.10526611187834882 0.725353439270174 2.006148727788962 0.5431505110813688 -2.1496606504736366 0.0 0.0 0.0 0.0 0.0 0.0 1
20400.304 0.4161461889743805 -1.5301833649030705 -0.8859370350837708 -2.3291670284666957 4.877832412719727 1.5248446464538574 0.0 0.0 0.0 0.0 0.0 0.0 0.0 0.0 0.0 0.0 0.0 0.0 0.4160194993019104 -1.5301124838045617 -0.8857673406600952 -2.328707834283346 4.878711700439453 1.524871587753296 0.00045172180398367345 5.0385879148961976e-05 0.0 7.684384273010359e-34 0.0413900688290596 1.8718158119223046e-25 0.14234250414108102 -0.10551207964997669 0.7253267557055645 2.007075495183946 0.5442856819702483 -2.149579236809105 0.0030964631146699756 -0.007004256706139837 -0.0009605383994323377 0.03787746154655066 0.016633360600723485 -0.0008801917347098274 -4.2801803147032444 -1.7404897845578264 3.435908176695978 0.09542252077678325 -0.6651441898762372 -0.12745804106880565 0.1424563559654699 -0.10526611187834882 0.725353439270174 2.006148727788962 0.5431505110813688 -2.1496606504736366 0.0 0.0 0.0 0.0 0.0 0.0 1
20400.311999999998 0.4161461889743805 -1.5301833649030705 -0.8859370350837708 -2.3291670284666957 4.877832412719727 1.5248446464538574 0.0 0.0 0.0 0.0 0.0 0.0 0.0 0.0 0.0 0.0 0.0 0.0 0.4160194993019104 -1.5301124838045617 -0.8857673406600952 -2.328707834283346 4.878711700439453 1.524871587753296 0.00045172180398367345 5.0385879148961976e-05 0.0 7.684384273010359e-34 0.0413900688290596 1.8718158119223046e-25 0.14234250414108102 -0.10551207964997669 0.7253267557055645 2.007075495183946 0.5442856819702483 -2.149579236809105 0.0030964631146699756 -0.007004256706139837 -0.0009605383994323377 0.03787746154655066 0.016633360600723485 -0.0008801917347098274 -4.2801803147032444 -1.7404897845578264 3.435908176695978 0.09542252077678325 -0.6651441898762372 -0.12745804106880565 0.1424563559654699 -0.10526611187834882 0.725353439270174 2.006148727788962 0.5431505110813688 -2.1496606504736366 0.0 0.0 0.0 0.0 0.0 0.0 1
20400.32 0.4161461889743805 -1.5301833649030705 -0.8859370350837708 -2.3291670284666957 4.877832412719727 1.5248446464538574 0.0 0.0 0.0 0.0 0.0 0.0 0.0 0.0 0.0 0.0 0.0 0.0 0.4160194993019104 -1.5301124838045617 -0.8857673406600952 -2.328707834283346 4.878711700439453 1.524871587753296 0.00045172180398367345 5.0385879148961976e-05 0.0 7.684384273010359e-34 0.0413900688290596 1.8718158119223046e-25 0.14234250414108102 -0.10551207964997669 0.7253267557055645 2.007075495183946 0.5442856819702483 -2.149579236809105 0.0030964631146699756 -0.007004256706139837 -0.0009605383994323377 0.03787746154655066 0.016633360600723485 -0.0008801917347098274 -4.2801803147032444 -1.7404897845578264 3.435908176695978 0.09542252077678325 -0.6651441898762372 -0.12745804106880565 0.1424563559654699 -0.10526611187834882 0.725353439270174 2.006148727788962 0.5431505110813688 -2.1496606504736366 0.0 0.0 0.0 0.0 0.0 0.0 1
20400.327999999998 0.4161461889743805 -1.5301833649030705 -0.8859370350837708 -2.3291670284666957 4.877832412719727 1.5248446464538574 0.0 0.0 0.0 0.0 0.0 0.0 0.0 0.0 0.0 0.0 0.0 0.0 0.4160194993019104 -1.5301124838045617 -0.8857673406600952 -2.328707834283346 4.878711700439453 1.524871587753296 0.00045172180398367345 5.0385879148961976e-05 0.0 7.684384273010359e-34 0.0413900688290596 1.8718158119223046e-25 0.14234250414108102 -0.10551207964997669 0.7253267557055645 2.007075495183946 0.5442856819702483 -2.149579236809105 0.0030964631146699756 -0.007004256706139837 -0.0009605383994323377 0.03787746154655066 0.016633360600723485 -0.0008801917347098274 -4.2801803147032444 -1.7404897845578264 3.435908176695978 0.09542252077678325 -0.6651441898762372 -0.12745804106880565 0.1424563559654699 -0.10526611187834882 0.725353439270174 2.006148727788962 0.5431505110813688 -2.1496606504736366 0.0 0.0 0.0 0.0 0.0 0.0 1
20400.336 0.4161461889743805 -1.5301833649030705 -0.8859370350837708 -2.3291670284666957 4.877832412719727 1.5248446464538574 0.0 0.0 0.0 0.0 0.0 0.0 0.0 0.0 0.0 0.0 0.0 0.0 0.4160194993019104 -1.5301124838045617 -0.8857673406600952 -2.328707834283346 4.878711700439453 1.524871587753296 0.00045172180398367345 5.0385879148961976e-05 0.0 7.684384273010359e-34 0.0413900688290596 1.8718158119223046e-25 0.14234250414108102 -0.10551207964997669 0.7253267557055645 2.007075495183946 0.5442856819702483 -2.149579236809105 0.0030964631146699756 -0.007004256706139837 -0.0009605383994323377 0.03787746154655066 0.016633360600723485 -0.0008801917347098274 -4.2801803147032444 -1.7404897845578264 3.435908176695978 0.09542252077678325 -0.6651441898762372 -0.12745804106880565 0.1424563559654699 -0.10526611187834882 0.725353439270174 2.006148727788962 0.5431505110813688 -2.1496606504736366 0.0 0.0 0.0 0.0 0.0 0.0 1
20400.343999999997 0.4161461889743805 -1.5301833649030705 -0.8859370350837708 -2.3291670284666957 4.877832412719727 1.5248446464538574 0.0 0.0 0.0 0.0 0.0 0.0 0.0 0.0 0.0 0.0 0.0 0.0 0.4160194993019104 -1.5301124838045617 -0.8857673406600952 -2.328707834283346 4.878711700439453 1.524871587753296 0.00045172180398367345 5.0385879148961976e-05 0.0 7.684384273010359e-34 0.0413900688290596 1.8718158119223046e-25 0.14234250414108102 -0.10551207964997669 0.7253267557055645 2.007075495183946 0.5442856819702483 -2.149579236809105 0.0030964631146699756 -0.007004256706139837 -0.0009605383994323377 0.03787746154655066 0.016633360600723485 -0.0008801917347098274 -4.2801803147032444 -1.7404897845578264 3.435908176695978 0.09542252077678325 -0.6651441898762372 -0.12745804106880565 0.1424563559654699 -0.10526611187834882 0.725353439270174 2.006148727788962 0.5431505110813688 -2.1496606504736366 0.0 0.0 0.0 0.0 0.0 0.0 1
20400.352 0.4161461889743805 -1.5301833649030705 -0.8859370350837708 -2.3291670284666957 4.877832412719727 1.5248446464538574 0.0 0.0 0.0 0.0 0.0 0.0 0.0 0.0 0.0 0.0 0.0 0.0 0.4160194993019104 -1.5301124838045617 -0.8857673406600952 -2.328707834283346 4.878711700439453 1.524871587753296 0.00045172180398367345 5.0385879148961976e-05 0.0 7.684384273010359e-34 0.0413900688290596 1.8718158119223046e-25 0.14234250414108102 -0.10551207964997669 0.7253267557055645 2.007075495183946 0.5442856819702483 -2.149579236809105 0.0030964631146699756 -0.007004256706139837 -0.0009605383994323377 0.03787746154655066 0.016633360600723485 -0.0008801917347098274 -4.2801803147032444 -1.7404897845578264 3.435908176695978 0.09542252077678325 -0.6651441898762372 -0.12745804106880565 0.1424563559654699 -0.10526611187834882 0.725353439270174 2.006148727788962 0.5431505110813688 -2.1496606504736366 0.0 0.0 0.0 0.0 0.0 0.0 1
20400.36 0.4161461889743805 -1.5301833649030705 -0.8859370350837708 -2.3291670284666957 4.877832412719727 1.5248446464538574 0.0 0.0 0.0 0.0 0.0 0.0 0.0 0.0 0.0 0.0 0.0 0.0 0.4160194993019104 -1.5301124838045617 -0.8857673406600952 -2.328707834283346 4.878711700439453 1.524871587753296 0.00045172180398367345 5.0385879148961976e-05 0.0 7.684384273010359e-34 0.0413900688290596 1.8718158119223046e-25 0.14234250414108102 -0.10551207964997669 0.7253267557055645 2.007075495183946 0.5442856819702483 -2.149579236809105 0.0030964631146699756 -0.007004256706139837 -0.0009605383994323377 0.03787746154655066 0.016633360600723485 -0.0008801917347098274 -4.2801803147032444 -1.7404897845578264 3.435908176695978 0.09542252077678325 -0.6651441898762372 -0.12745804106880565 0.1424563559654699 -0.10526611187834882 0.725353439270174 2.006148727788962 0.5431505110813688 -2.1496606504736366 0.0 0.0 0.0 0.0 0.0 0.0 1
20400.368 0.4161461889743805 -1.5301833649030705 -0.8859370350837708 -2.3291670284666957 4.877832412719727 1.5248446464538574 0.0 0.0 0.0 0.0 0.0 0.0 0.0 0.0 0.0 0.0 0.0 0.0 0.4160194993019104 -1.5301124838045617 -0.8857673406600952 -2.328707834283346 4.878711700439453 1.524871587753296 0.00045172180398367345 5.0385879148961976e-05 0.0 7.684384273010359e-34 0.0413900688290596 1.8718158119223046e-25 0.14234250414108102 -0.10551207964997669 0.7253267557055645 2.007075495183946 0.5442856819702483 -2.149579236809105 0.0030964631146699756 -0.007004256706139837 -0.0009605383994323377 0.03787746154655066 0.016633360600723485 -0.0008801917347098274 -4.2801803147032444 -1.7404897845578264 3.435908176695978 0.09542252077678325 -0.6651441898762372 -0.12745804106880565 0.1424563559654699 -0.10526611187834882 0.725353439270174 2.006148727788962 0.5431505110813688 -2.1496606504736366 0.0 0.0 0.0 0.0 0.0 0.0 1
20400.376 0.4161461889743805 -1.5301833649030705 -0.8859370350837708 -2.3291670284666957 4.877832412719727 1.5248446464538574 0.0 0.0 0.0 0.0 0.0 0.0 0.0 0.0 0.0 0.0 0.0 0.0 0.4160194993019104 -1.5301124838045617 -0.8857673406600952 -2.328707834283346 4.878711700439453 1.524871587753296 0.00045172180398367345 5.0385879148961976e-05 0.0 7.684384273010359e-34 0.0413900688290596 1.8718158119223046e-25 0.14234250414108102 -0.10551207964997669 0.7253267557055645 2.007075495183946 0.5442856819702483 -2.149579236809105 0.0030964631146699756 -0.007004256706139837 -0.0009605383994323377 0.03787746154655066 0.016633360600723485 -0.0008801917347098274 -4.2801803147032444 -1.7404897845578264 3.435908176695978 0.09542252077678325 -0.6651441898762372 -0.12745804106880565 0.1424563559654699 -0.10526611187834882 0.725353439270174 2.006148727788962 0.5431505110813688 -2.1496606504736366 0.0 0.0 0.0 0.0 0.0 0.0 1
20400.384 0.4161461889743805 -1.5301833649030705 -0.8859370350837708 -2.3291670284666957 4.877832412719727 1.5248446464538574 0.0 0.0 0.0 0.0 0.0 0.0 0.0 0.0 0.0 0.0 0.0 0.0 0.4160194993019104 -1.5301124838045617 -0.8857673406600952 -2.328707834283346 4.878711700439453 1.524871587753296 0.00045172180398367345 5.0385879148961976e-05 0.0 7.684384273010359e-34 0.0413900688290596 1.8718158119223046e-25 0.14234250414108102 -0.10551207964997669 0.7253267557055645 2.007075495183946 0.5442856819702483 -2.149579236809105 0.0030964631146699756 -0.007004256706139837 -0.0009605383994323377 0.03787746154655066 0.016633360600723485 -0.0008801917347098274 -4.2801803147032444 -1.7404897845578264 3.435908176695978 0.09542252077678325 -0.6651441898762372 -0.12745804106880565 0.1424563559654699 -0.10526611187834882 0.725353439270174 2.006148727788962 0.5431505110813688 -2.1496606504736366 0.0 0.0 0.0 0.0 0.0 0.0 1
20400.392 0.4161461889743805 -1.5301833649030705 -0.8859370350837708 -2.3291670284666957 4.877832412719727 1.5248446464538574 0.0 0.0 0.0 0.0 0.0 0.0 0.0 0.0 0.0 0.0 0.0 0.0 0.4160194993019104 -1.5301124838045617 -0.8857673406600952 -2.328707834283346 4.878711700439453 1.524871587753296 0.00045172180398367345 5.0385879148961976e-05 0.0 7.684384273010359e-34 0.0413900688290596 1.8718158119223046e-25 0.14234250414108102 -0.10551207964997669 0.7253267557055645 2.007075495183946 0.5442856819702483 -2.149579236809105 0.0030964631146699756 -0.007004256706139837 -0.0009605383994323377 0.03787746154655066 0.016633360600723485 -0.0008801917347098274 -4.2801803147032444 -1.7404897845578264 3.435908176695978 0.09542252077678325 -0.6651441898762372 -0.12745804106880565 0.1424563559654699 -0.10526611187834882 0.725353439270174 2.006148727788962 0.5431505110813688 -2.1496606504736366 0.0 0.0 0.0 0.0 0.0 0.0 1
20400.399999999998 0.4161461889743805 -1.5301833649030705 -0.8859370350837708 -2.3291670284666957 4.877832412719727 1.5248446464538574 0.0 0.0 0.0 0.0 0.0 0.0 0.0 0.0 0.0 0.0 0.0 0.0 0.4160194993019104 -1.5301124838045617 -0.8857673406600952 -2.328707834283346 4.878711700439453 1.524871587753296 0.00045172180398367345 5.0385879148961976e-05 0.0 7.684384273010359e-34 0.0413900688290596 1.8718158119223046e-25 0.14234250414108102 -0.10551207964997669 0.7253267557055645 2.007075495183946 0.5442856819702483 -2.149579236809105 0.0030964631146699756 -0.007004256706139837 -0.0009605383994323377 0.03787746154655066 0.016633360600723485 -0.0008801917347098274 -4.2801803147032444 -1.7404897845578264 3.435908176695978 0.09542252077678325 -0.6651441898762372 -0.12745804106880565 0.1424563559654699 -0.10526611187834882 0.725353439270174 2.006148727788962 0.5431505110813688 -2.1496606504736366 0.0 0.0 0.0 0.0 0.0 0.0 1
20400.408 0.4161461889743805 -1.5301833649030705 -0.8859370350837708 -2.3291670284666957 4.877832412719727 1.5248446464538574 0.0 0.0 0.0 0.0 0.0 0.0 0.0 0.0 0.0 0.0 0.0 0.0 0.4160194993019104 -1.5301124838045617 -0.8857673406600952 -2.328707834283346 4.878711700439453 1.524871587753296 0.00045172180398367345 5.0385879148961976e-05 0.0 7.684384273010359e-34 0.0413900688290596 1.8718158119223046e-25 0.14234250414108102 -0.10551207964997669 0.7253267557055645 2.007075495183946 0.5442856819702483 -2.149579236809105 0.0030964631146699756 -0.007004256706139837 -0.0009605383994323377 0.03787746154655066 0.016633360600723485 -0.0008801917347098274 -4.2801803147032444 -1.7404897845578264 3.435908176695978 0.09542252077678325 -0.6651441898762372 -0.12745804106880565 0.1424563559654699 -0.10526611187834882 0.725353439270174 2.006148727788962 0.5431505110813688 -2.1496606504736366 0.0 0.0 0.0 0.0 0.0 0.0 1
