Andreas691667/Digital_Twin_UR/data_analysis/busters_stuff/robot_data/robot_output_wgo4.csv
timestamp actual_q_0 actual_q_1 actual_q_2 actual_q_3 actual_q_4 actual_q_5 actual_qd_0 actual_qd_1 actual_qd_2 actual_qd_3 actual_qd_4 actual_qd_5 safety_status output_bit_register_65 output_bit_register_66
18438.022 3.7120580673217773 -0.825482503776886 0.8429587523089808 -1.5882412395873011 -1.5707929770099085 2.141279697418213 0.0 0.0 0.0 -0.0 0.0 0.0 1 False False
18438.072 3.7120819091796875 -0.8254545491984864 0.8430007139789026 -1.5882932148375453 -1.5707810560809534 2.141279697418213 0.0 0.0 0.0 -0.0 0.0 0.0 1 False False
18438.122 3.7120132446289062 -0.8254707616618653 0.8430126349078577 -1.5882774792113246 -1.5707810560809534 2.141263246536255 0.0 0.0 0.0 -0.0 0.0 0.0 1 False False
18438.172 3.7120165824890137 -0.8255038422397156 0.8430336157428187 -1.588269372979635 -1.5708006064044397 2.141279697418213 0.0 0.0 0.0 -0.0 0.0 0.0 1 False False
18438.221999999998 3.712094783782959 -0.8254869741252442 0.8429754416095179 -1.5882569752135218 -1.5708330313311976 2.1412994861602783 0.0 0.0 0.0 -0.0 0.0 0.0 1 False False
18438.272 3.712090492248535 -0.8254663509181519 0.8429845015155237 -1.5882650814452113 -1.5708373228656214 2.141235113143921 0.0 0.0 0.0 -0.0 0.0 0.0 1 False False
18438.322 3.712099313735962 -0.8254383367351075 0.8430007139789026 -1.588285585443014 -1.5707886854754847 2.141270637512207 0.0 0.0 0.0 -0.0 0.0 0.0 1 False False
18438.372 3.712106704711914 -0.825463132267334 0.8430054823504847 -1.5882774792113246 -1.5708087126361292 2.1412723064422607 0.0 0.0 0.0 -0.0 0.0 0.0 1 False False
18438.422 3.7120580673217773 -0.8255448502353211 0.8430007139789026 -1.5883094273009242 -1.5708125273333948 2.1412885189056396 0.0 0.0 0.0 -0.0 0.0 0.0 1 False False
18438.471999999998 3.7120862007141113 -0.8254296344569703 0.8429845015155237 -1.5882932148375453 -1.5708006064044397 2.1413040161132812 0.0 0.0 0.0 -0.0 0.0 0.0 1 False False
18438.522 3.712066650390625 -0.8254338663867493 0.8429148832904261 -1.5882727108397425 -1.570824925099508 2.14131760597229 0.0 0.0 0.0 -0.0 0.0 0.0 1 False False
18438.572 3.712038278579712 -0.825478271847107 0.8429721037494105 -1.5882851086058558 -1.5708006064044397 2.141270637512207 0.0 0.0 0.0 -0.0 0.0 0.0 1 False False
18438.622 3.712106704711914 -0.8254458469203492 0.8430126349078577 -1.5883094273009242 -1.5708168188678187 2.1413159370422363 0.0 0.0 0.0 -0.0 0.0 0.0 1 False False
18438.672 3.71207857131958 -0.8254306477359314 0.8429477850543421 -1.5882650814452113 -1.570801083241598 2.141263246536255 0.0 0.0 0.0 -0.0 0.0 0.0 1 False False
18438.721999999998 3.7120537757873535 -0.825463132267334 0.8429845015155237 -1.5882932148375453 -1.5707929770099085 2.141263246536255 0.0 0.0 0.0 -0.0 0.0 0.0 1 False False
18438.772 3.71207857131958 -0.825557605629303 0.8430050055133265 -1.5882569752135218 -1.5707929770099085 2.14127516746521 0.0 0.0 0.0 -0.0 0.0 0.0 1 False False
18438.822 3.7120580673217773 -0.825487808590271 0.8429887930499476 -1.588280817071432 -1.5707691351519983 2.141324996948242 0.0 0.0 0.0 -0.0 0.0 0.0 1 False False
18438.872 3.7120327949523926 -0.825482503776886 0.842959229146139 -1.588285585443014 -1.5708048979388636 2.141279697418213 0.0 0.0 0.0 -0.0 0.0 0.0 1 False False
18438.922 3.7120742797851562 -0.8254793447307129 0.8429635206805628 -1.5883013210692347 -1.5707605520831507 2.1413004398345947 0.0 0.0 0.0 -0.0 0.0 0.0 1 False False
18438.971999999998 3.712066650390625 -0.8255200547030945 0.8429802099810999 -1.5882846317686976 -1.5707767645465296 2.141300678253174 0.0 0.0 0.0 -0.0 0.0 0.0 1 False False
18439.022 3.712062358856201 -0.8254264158061524 0.8430050055133265 -1.5882774792113246 -1.5708168188678187 2.1413004398345947 0.0 0.0 0.0 -0.0 0.0 0.0 1 False False
18439.072 3.71207857131958 -0.8254998487285157 0.8429635206805628 -1.5883094273009242 -1.5707767645465296 2.141291618347168 0.0 0.0 0.0 -0.0 0.0 0.0 1 False False
18439.122 3.712110996246338 -0.825491265659668 0.8430126349078577 -1.5882569752135218 -1.5707810560809534 2.141242504119873 0.0 0.0 0.0 -0.0 0.0 0.0 1 False False
18439.172 3.712090492248535 -0.8254546088031312 0.8429887930499476 -1.5882650814452113 -1.570772949849264 2.14131760597229 0.0 0.0 0.0 -0.0 0.0 0.0 1 False False
18439.221999999998 3.7120537757873535 -0.8254954379848023 0.842959229146139 -1.5883175335326136 -1.5707247892962855 2.141313076019287 0.0 0.0 0.0 -0.0 0.0 0.0 1 False False
18439.272 3.7120742797851562 -0.8254663509181519 0.8429759184466761 -1.5883294544615687 -1.5707929770099085 2.141326427459717 0.0 0.0 0.0 -0.0 0.0 0.0 1 False False
18439.322 3.7120490074157715 -0.8254264754107972 0.8429759184466761 -1.5882650814452113 -1.5707967917071741 2.141282558441162 0.0 0.0 0.0 -0.0 0.0 0.0 1 False False
18439.372 3.7120697498321533 -0.8254912060550232 0.8429563681231897 -1.5882889233031214 -1.570772949849264 2.1412513256073 0.0 0.0 0.0 -0.0 0.0 0.0 1 False False
18439.422 3.712111473083496 -0.825463132267334 0.8429802099810999 -1.5882932148375453 -1.570784870778219 2.141284227371216 0.0 0.0 0.0 -0.0 0.0 0.0 1 False False
18439.471999999998 3.712062358856201 -0.8254707616618653 0.842992130910055 -1.5882731876769007 -1.5707767645465296 2.141226053237915 0.0 0.0 0.0 -0.0 0.0 0.0 1 False False
18439.522 3.7120444774627686 -0.825451211338379 0.8429678122149866 -1.5883246860899867 -1.5707891623126429 2.141296148300171 0.0 0.0 0.0 -0.0 0.0 0.0 1 False False
18439.572 3.712106943130493 -0.8254750531962891 0.8430050055133265 -1.5882889233031214 -1.5707972685443323 2.141313076019287 0.0 0.0 0.0 -0.0 0.0 0.0 1 False False
18439.622 3.7121188640594482 -0.8254912060550232 0.8430083433734339 -1.5882731876769007 -1.5707972685443323 2.1413004398345947 0.0 0.0 0.0 -0.0 0.0 0.0 1 False False
18439.672 3.7120203971862793 -0.8254869145205994 0.8430083433734339 -1.588280817071432 -1.5708044211017054 2.141188621520996 0.0 0.0 0.0 -0.0 0.0 0.0 1 False False
18439.721999999998 3.712095022201538 -0.825487808590271 0.8430050055133265 -1.5883094273009242 -1.5708416144000452 2.141221523284912 0.0 0.0 0.0 -0.0 0.0 0.0 1 False False
18439.772 3.7120578289031982 -0.8254469198039551 0.8429887930499476 -1.5883132419981898 -1.57074481645693 2.1413004398345947 0.0 0.0 0.0 -0.0 0.0 0.0 1 False False
18439.822 3.7121024131774902 -0.82550402105365 0.8429845015155237 -1.5882774792113246 -1.5707891623126429 2.141235113143921 0.0 0.0 0.0 -0.0 0.0 0.0 1 False False
18439.872 3.7120413780212402 -0.8254707616618653 0.8430379072772425 -1.5883132419981898 -1.570829216633932 2.141322135925293 0.0 0.0 0.0 -0.0 0.0 0.0 1 False False
18439.922 3.712106943130493 -0.825491265659668 0.8430336157428187 -1.5882655582823695 -1.5707925001727503 2.141263246536255 0.0 0.0 0.0 -0.0 0.0 0.0 1 False False
18439.971999999998 3.7120697498321533 -0.8254825633815308 0.8429892698871058 -1.5883413753905238 -1.5708254019366663 2.141296148300171 0.0 0.0 0.0 -0.0 0.0 0.0 1 False False
18440.022 3.7120578289031982 -0.8254620593837281 0.8429587523089808 -1.588292738000387 -1.5707929770099085 2.141284227371216 0.0 0.0 0.0 -0.0 0.0 0.0 1 False False
18440.072 3.7120563983917236 -0.8255080741694947 0.8429802099810999 -1.5882774792113246 -1.5708335081683558 2.141263246536255 0.0 0.0 0.0 -0.0 0.0 0.0 1 False False
18440.122 3.7120816707611084 -0.8254426878741761 0.8430216948138636 -1.5883246860899867 -1.5708048979388636 2.141267776489258 0.0 0.0 0.0 -0.0 0.0 0.0 1 False False
18440.172 3.7121188640594482 -0.8255083125880738 0.8430216948138636 -1.5882774792113246 -1.5708335081683558 2.141342878341675 0.0 0.0 0.0 -0.0 0.0 0.0 1 False False
18440.221999999998 3.712062358856201 -0.8254546088031312 0.8429721037494105 -1.588273664514059 -1.5708044211017054 2.141308546066284 0.0 0.0 0.0 -0.0 0.0 0.0 1 False False
18440.272 3.7120413780212402 -0.8254146140864869 0.8429935614215296 -1.5883013210692347 -1.570784870778219 2.141270637512207 0.0 0.0 0.0 -0.0 0.0 0.0 1 False False
18440.322 3.712062358856201 -0.8254954975894471 0.8430054823504847 -1.5882612667479457 -1.5708406607257288 2.14131760597229 0.0 0.0 0.0 -0.0 0.0 0.0 1 False False
18440.372 3.712041139602661 -0.825458900337555 0.842966381703512 -1.5882569752135218 -1.5708006064044397 2.141324996948242 0.0 0.0 0.0 -0.0 0.0 0.0 1 False False
18440.422 3.712095260620117 -0.8255123657039185 0.8429668585406702 -1.5882846317686976 -1.5707967917071741 2.14127516746521 0.0 0.0 0.0 -0.0 0.0 0.0 1 False False
18440.471999999998 3.712104082107544 -0.825430766945221 0.8429763952838343 -1.5882412395873011 -1.5708048979388636 2.14127516746521 0.0 0.0 0.0 -0.0 0.0 0.0 1 False False
18440.522 3.7121026515960693 -0.8254912060550232 0.8429964224444788 -1.5882774792113246 -1.570813004170553 2.1412723064422607 0.0 0.0 0.0 -0.0 0.0 0.0 1 True False
18440.572 3.7120742797851562 -0.825451211338379 0.8429721037494105 -1.588268896142477 -1.5708335081683558 2.1413516998291016 0.0 0.0 0.0 -0.0 0.0 0.0 1 True False
18440.622 3.7120532989501953 -0.8254459065249939 0.8429587523089808 -1.588280817071432 -1.5707805792437952 2.1413040161132812 0.0 0.0 0.0 -0.0 0.0 0.0 1 True False
18440.672 3.712066888809204 -0.8254825633815308 0.842992130910055 -1.5882765255370082 -1.5707967917071741 2.141345977783203 0.0 0.0 0.0 -0.0 0.0 0.0 1 True False
18440.721999999998 3.7121191024780273 -0.8254793447307129 0.8429845015155237 -1.5882412395873011 -1.5708087126361292 2.141278028488159 0.0 0.0 0.0 -0.0 0.0 -1.5083717608277425e-09 1 True False
18440.772 3.7120862007141113 -0.8255208891681214 0.8429964224444788 -1.5882774792113246 -1.570772949849264 2.141334056854248 0.0 0.0 0.0 -0.0 0.0 -2.2912201139741907e-28 1 True False
18440.822 3.712066888809204 -0.825463132267334 0.8429587523089808 -1.588297029534811 -1.5707805792437952 2.141279697418213 0.0 0.0 0.0 -0.0 0.0 -0.0 1 True False
18440.872 3.71205472946167 -0.8254792851260682 0.8429587523089808 -1.5882488689818324 -1.5708406607257288 2.1412994861602783 0.0 0.0 0.0 -0.0 0.0 -5.7333960285177454e-05 1 True False
18440.922 3.7120907306671143 -0.8254997295192261 0.8430007139789026 -1.588280817071432 -1.5708254019366663 2.141263246536255 0.0 0.0 0.0 -0.0 0.0 -7.226708923120662e-15 1 True False
18440.971999999998 3.712045669555664 -0.8255165976336976 0.8429964224444788 -1.588252683679098 -1.5708254019366663 2.1412484645843506 0.0 0.0 0.0 -0.0 0.0 -1.2247187974461253e-15 1 True False
18441.022 3.712111473083496 -0.8254674238017579 0.8429473082171839 -1.5882607899107875 -1.5707886854754847 2.141216993331909 0.0 0.0 0.0 -0.0 0.0 0.000279575731838122 1 True False
18441.072 3.712050199508667 -0.825491265659668 0.8429763952838343 -1.5882731876769007 -1.5707362333880823 2.1412558555603027 0.0 0.0 0.0 -0.0 9.735552808365355e-09 -3.557111995178275e-05 1 True False
18441.122 3.7120742797851562 -0.8254630726626893 0.8430264631854456 -1.5882369480528773 -1.5707767645465296 2.141221523284912 0.0 0.0 0.0 -0.0 1.4788326263315277e-27 -1.788990448403638e-05 1 True False
18441.172 3.7125625610351562 -0.8258388799479981 0.843447510396139 -1.5884973011412562 -1.5707886854754847 2.14176344871521 0.03671213984489441 -0.024855708703398705 0.03835199773311615 -0.014044749550521374 -3.2159365218831226e-05 0.039885278791189194 1 True False
18441.221999999998 3.7159316539764404 -0.8283812564662476 0.8471506277667444 -1.5894495449461878 -1.5708406607257288 2.145179033279419 0.09627440571784973 -0.07864878326654434 0.11318270862102509 -0.03185008466243744 -3.8328394268304163e-23 0.09586983174085617 1 True False
18441.272 3.7224247455596924 -0.8337301772883912 0.854706112538473 -1.5916434727110804 -1.5708168188678187 2.1515257358551025 0.15808799862861633 -0.13250719010829926 0.1793537735939026 -0.05723675340414047 -5.822395119269615e-42 0.15643493831157684 1 True False
18441.322 3.7317700386047363 -0.8418209117702027 0.8655651251422327 -1.5946060619749964 -1.5708044211017054 2.1610875129699707 0.2210354208946228 -0.17833994328975677 0.2492588460445404 -0.06751547753810883 -0.0 0.21759746968746185 1 True False
18441.372 3.7443695068359375 -0.8520170015147706 0.8798740545855921 -1.5986205540099085 -1.5707686583148401 2.173461675643921 0.27626121044158936 -0.23017428815364838 0.3139730393886566 -0.10109417885541916 8.057644299697131e-05 0.27848708629608154 1 True False
18441.422 3.759822368621826 -0.8647257846644898 0.8976071516620081 -1.603525301019186 -1.5708254019366663 2.189056158065796 0.34350675344467163 -0.2846047282218933 0.3891853094100952 -0.1049867570400238 0.00010501415090402588 0.3360235393047333 1 True False
18441.471999999998 3.778571367263794 -0.8801743549159546 0.9189265410052698 -1.6093503437437953 -1.570829216633932 2.207602024078369 0.40070879459381104 -0.3309294581413269 0.45992550253868103 -0.12149606645107269 3.336296140332706e-05 0.40916889905929565 1 True False
18441.522 3.800011396408081 -0.8979649108699341 0.9436481634723108 -1.616432329217428 -1.5707529226886194 2.22928786277771 0.4639061987400055 -0.3818480968475342 0.5244677066802979 -0.1380823254585266 4.223722135066055e-05 0.4559338390827179 1 True False
18441.572 3.824822425842285 -0.9184029263309021 0.9717682043658655 -1.6242872677245082 -1.5708368460284632 2.254049777984619 0.5203720927238464 -0.4365210235118866 0.5960749387741089 -0.1656109243631363 4.1346869693370536e-05 0.5211130380630493 1 True False
18441.622 3.8526716232299805 -0.9411029380610962 1.0037077108966272 -1.6330801449217738 -1.5707653204547327 2.281831741333008 0.5918915271759033 -0.48168691992759705 0.6675263047218323 -0.20475132763385773 1.7536144420235147e-23 0.5807510018348694 1 True False
18441.672 3.8833653926849365 -0.9666369718364258 1.0388010183917444 -1.6430374584593714 -1.570784870778219 2.3126683235168457 0.6504184007644653 -0.5258130431175232 0.7386979460716248 -0.20335814356803894 2.6638683806814773e-42 0.6475301384925842 1 True False
18441.721999999998 3.9173097610473633 -0.9944980305484314 1.0775545279132288 -1.6537333927550257 -1.5707281271563929 2.346440076828003 0.7119646668434143 -0.5850344300270081 0.8089643716812134 -0.2118891328573227 0.0 0.7034121155738831 1 True False
18441.772 3.9541969299316406 -1.024823324089386 1.1196473280536097 -1.6655851803221644 -1.570784870778219 2.3835442066192627 0.7683436274528503 -0.6309987306594849 0.8769860863685608 -0.2504225969314575 -9.619879710953683e-05 0.7573563456535339 1 True False
18441.822 3.9942662715911865 -1.057735340004303 1.1653850714312952 -1.6784898243346156 -1.5707686583148401 2.423356056213379 0.8234185576438904 -0.6870271563529968 0.9456818699836731 -0.26679685711860657 1.3839666079817903e-09 0.8265607357025146 1 True False
18441.872 4.037220478057861 -1.0932158094695588 1.2145956198321741 -1.6920649013915003 -1.570784870778219 2.466413974761963 0.8937041759490967 -0.7267422676086426 1.0177557468414307 -0.2750300168991089 -0.0002883978304453194 0.9002317190170288 1 True False
18441.922 4.082841873168945 -1.1307969254306336 1.2667425314532679 -1.7065726719298304 -1.5707686583148401 2.5119760036468506 0.9163133502006531 -0.7489595413208008 1.0496631860733032 -0.2816585600376129 -2.5728195129914866e-09 0.9101139307022095 1 True False
18441.971999999998 4.128691673278809 -1.1684573751739045 1.3189752737628382 -1.7213217220702113 -1.5707805792437952 2.557731866836548 0.9152372479438782 -0.751823365688324 1.0417433977127075 -0.29124608635902405 -1.4578277278930185e-14 0.921065092086792 1 True False
18442.022 4.174519062042236 -1.2062158745578309 1.3712227980243128 -1.7358371220030726 -1.5707362333880823 2.603755235671997 0.9175249338150024 -0.7571595311164856 1.046703815460205 -0.2899118661880493 -0.000151475629536435 0.9121389985084534 1 True False
18442.072 4.220313549041748 -1.2438463431647797 1.4235895315753382 -1.7506596050658167 -1.5707562605487269 2.6493871212005615 0.9146028757095337 -0.7583039999008179 1.0467917919158936 -0.295802503824234 -0.00020773425057996064 0.9271780848503113 1 True False
18442.122 4.266096115112305 -1.2815975409797211 1.4759014288531702 -1.7652765713133753 -1.5707925001727503 2.6954550743103027 0.9146920442581177 -0.750249981880188 1.048812747001648 -0.30315083265304565 1.0787436622194946e-05 0.9112029075622559 1 True False
18442.172 4.311971187591553 -1.3194467288306733 1.5283706823932093 -1.779734273950094 -1.5708368460284632 2.741109609603882 0.9141713976860046 -0.7528402209281921 1.0556526184082031 -0.287726491689682 -0.0003329380415380001 0.9161597490310669 1 True False
18442.221999999998 4.357258319854736 -1.356677607899048 1.5802086035357874 -1.7942177257933558 -1.5708091894732874 2.786529779434204 0.8824754357337952 -0.7263748049736023 1.001110553741455 -0.2987929582595825 -3.006720206144564e-09 0.8831136226654053 1 True False
18442.272 4.399755001068115 -1.3915675741485138 1.6284969488727015 -1.8078772030272425 -1.5708487669574183 2.828836441040039 0.8193989396095276 -0.677315890789032 0.9365406632423401 -0.2757188677787781 2.7572527372399236e-08 0.8146932125091553 1 True False
18442.322 4.439270496368408 -1.4240274292281647 1.6736787001239222 -1.820465704003805 -1.5707529226886194 2.8683485984802246 0.7583072781562805 -0.6305668950080872 0.8656888008117676 -0.25168806314468384 -2.3390839487547055e-05 0.7638564705848694 1 True False
18442.372 4.475579738616943 -1.4541184690645714 1.7151649633990687 -1.8320704899229945 -1.570784870778219 2.9047014713287354 0.7043748497962952 -0.5757819414138794 0.7932131886482239 -0.22741790115833282 0.0016104793176054955 0.7089006900787354 1 True False
18442.422 4.508920669555664 -1.4814783570221444 1.7533100287066858 -1.8427959881224574 -1.5707486311541956 2.938192367553711 0.6428128480911255 -0.52352374792099 0.7261071801185608 -0.21088774502277374 0.0012261156225576997 0.6362583637237549 1 True False
18442.471999999998 4.53919792175293 -1.506451280122139 1.7879794279681605 -1.8522974453368128 -1.5707972685443323 2.96848464012146 0.5786972045898438 -0.47442978620529175 0.6556944847106934 -0.1814490258693695 0.0003196476027369499 0.5754181742668152 1 True False
18442.522 4.566524028778076 -1.5289635372212906 1.8191354910479944 -1.8609010181822718 -1.570784870778219 2.9956114292144775 0.5133467316627502 -0.4250059723854065 0.5964938998222351 -0.16965684294700623 -0.00018989639647770673 0.5205928087234497 1 True False
18442.572 4.590726852416992 -1.5487219908139487 1.846588436757223 -1.8687440357603968 -1.5707843939410608 3.019644260406494 0.45277607440948486 -0.3786279559135437 0.5267006158828735 -0.14357990026474 0.00047667630133219063 0.4615977108478546 1 True False
18442.622 4.611734867095947 -1.5661405178583045 1.8708069960223597 -1.8756057224669398 -1.5707686583148401 3.041053295135498 0.3964485228061676 -0.3220953643321991 0.44276610016822815 -0.14217431843280792 2.181017589464318e-05 0.38997340202331543 1 True False
18442.672 4.62968635559082 -1.58095182994985 1.8916705290423792 -1.8811189136900843 -1.5707605520831507 3.059030532836914 0.3326992094516754 -0.2729296088218689 0.38139811158180237 -0.10863271355628967 1.5701438630180697e-12 0.33104947209358215 1 True False
18442.721999999998 4.6448445320129395 -1.5934797726073207 1.9083555380450647 -1.8861242733397425 -1.5707767645465296 3.07397198677063 0.2717946767807007 -0.21778565645217896 0.3170914947986603 -0.07739822566509247 1.4546203716292272e-20 0.26678383350372314 1 True False
18442.772 4.656741619110107 -1.603243967095846 1.9223716894732874 -1.8899713955321253 -1.5707891623126429 3.0859103202819824 0.2071608304977417 -0.17178544402122498 0.23480232059955597 -0.07079806178808212 0.00014596281107515097 0.21521858870983124 1 True False
18442.822 4.665579319000244 -1.610364099542135 1.9324849287616175 -1.8926340542235316 -1.5707886854754847 3.0948357582092285 0.1501704454421997 -0.12312696129083633 0.17038847506046295 -0.04677596315741539 2.4095643311738968e-05 0.1502554714679718 1 True False
18442.872 4.671441555023193 -1.6153561077513636 1.9389389196978968 -1.8945814571776332 -1.5707925001727503 3.100721836090088 0.08798933774232864 -0.07205621898174286 0.10323937982320786 -0.029124241322278976 1.4433649084821809e-05 0.08587906509637833 1 True False
18442.922 4.674264430999756 -1.6175443134703578 1.9422929922686976 -1.895498891870016 -1.570796314870016 3.1034815311431885 0.026674846187233925 -0.022970788180828094 0.030373308807611465 -0.008754346519708633 1.0302759619662538e-05 0.026513030752539635 1 True False
18442.971999999998 4.674411773681641 -1.617551942864889 1.9429190794574183 -1.8962975941100062 -1.570796314870016 3.1036744117736816 -0.0004355177516117692 0.012573852203786373 0.025656582787632942 -0.035445407032966614 2.7419537839324223e-22 7.175530481617898e-05 1 True False
18443.022 4.6744890213012695 -1.616225381890768 1.9452832380877894 -1.899966379205221 -1.570829216633932 3.103698253631592 0.00030296845943666995 0.04111636430025101 0.06620541214942932 -0.10670328885316849 4.165079425512654e-41 0.0005079879774712026 1 True False
18443.072 4.674442291259766 -1.613474031487936 1.9498818556415003 -1.9072987041869105 -1.570772949849264 3.103722095489502 0.0006610130658373237 0.07118416577577591 0.11087681353092194 -0.17007948458194733 0.0 0.0005440428503789008 1 True False
18443.122 4.674527645111084 -1.609297891656393 1.9564192930804651 -1.91807283977651 -1.570784870778219 3.103776454925537 0.00010971136362059042 0.09865802526473999 0.15923810005187988 -0.25924965739250183 2.822885805317532e-12 0.00038005071110092103 1 True False
18443.172 4.67453145980835 -1.6037632427611292 1.9652827421771448 -1.9323154888548792 -1.5708373228656214 3.1037344932556152 0.00018859973351936787 0.12232940644025803 0.19439579546451569 -0.32528576254844666 4.287969233325021e-31 0.0001465344976168126 1 True False
18443.221999999998 4.674527645111084 -1.596884389916891 1.9763959089862269 -1.9499951801695765 -1.5707767645465296 3.10368013381958 8.982253348222002e-05 0.1500740945339203 0.2454911768436432 -0.3796519637107849 7.744166941847652e-05 8.730173431104049e-05 1 True False
18443.272 4.67453145980835 -1.5887257061400355 1.9893220106707972 -1.9714027843871058 -1.570784870778219 3.103743553161621 6.538414891110733e-05 0.17276312410831451 0.2804800868034363 -0.45629504323005676 6.497453432530165e-05 6.217229383764789e-05 1 True False
18443.322 4.674495697021484 -1.579156061212057 2.0045302549945276 -1.996049543420309 -1.5707805792437952 3.103722095489502 4.496697511058301e-05 0.20557250082492828 0.3332841396331787 -0.5264393091201782 -3.280545934103429e-05 3.913627353709922e-21 1 True False
18443.372 4.674503326416016 -1.5683400091114272 2.021961037312643 -2.0242868862547816 -1.570784870778219 3.103739023208618 3.476071563972116e-34 0.23126529157161713 0.3675956428050995 -0.5986515283584595 -1.960719600901939e-05 5.944812553113031e-40 1 True False
18443.422 4.674499988555908 -1.5573976210183282 2.0395715872394007 -2.052976270715231 -1.5707643667804163 3.1037464141845703 0.0 0.20498445630073547 0.3383816182613373 -0.5385680794715881 -1.2693301869148854e-05 0.0 1 True False
18443.471999999998 4.674544334411621 -1.5477519922754546 2.054988686238424 -2.078142305413717 -1.5707925001727503 3.103739023208618 1.5090656254041854e-36 0.18119142949581146 0.2834525406360626 -0.4767104685306549 -7.211028996145785e-10 0.0 1 True False
18443.522 4.674556255340576 -1.5394085992923756 2.0684054533587855 -2.0999185047545375 -1.5707605520831507 3.103743553161621 0.0 0.15412987768650055 0.2487536519765854 -0.3989619016647339 -1.0953567669481992e-28 0.0 1 True False
18443.572 4.67452335357666 -1.5322464641979714 2.0798352400409144 -2.1181022129454554 -1.5707805792437952 3.103717565536499 0.0 0.1223558783531189 0.20207741856575012 -0.3463325798511505 -0.0 0.0 1 True False
18443.622 4.67452335357666 -1.5267075833729287 2.0887516180621546 -2.1328875027098597 -1.5708211104022425 3.1037344932556152 0.0 0.09532909840345383 0.16356170177459717 -0.2684127688407898 -0.0 0.0 1 True False
18443.672 4.6745076179504395 -1.5223932650736351 2.0955732504474085 -2.144125600854391 -1.570801083241598 3.1037464141845703 7.397506607276227e-08 0.07264970988035202 0.11931073665618896 -0.1858201026916504 -0.0 0.0 1 True False
18443.721999999998 4.674535751342773 -1.5194378656199952 2.1004751364337366 -2.1518780193724574 -1.5707925001727503 3.103739023208618 0.0 0.04789724573493004 0.07703094184398651 -0.13588997721672058 -0.0 0.0 1 True False
18443.772 4.67453145980835 -1.5177605611136933 2.1031416098224085 -2.1561089954771937 -1.5707925001727503 3.1037299633026123 0.0 0.0203490499407053 0.029136870056390762 -0.05086582526564598 -0.0 8.291965623735381e-23 1 True False
18443.822 4.67453145980835 -1.5174293418279667 2.1035807768451136 -2.156926771203512 -1.5708211104022425 3.103684663772583 0.0 2.92569126258968e-07 -0.0008008367731235921 0.0005800932995043695 -0.0 1.2594870597351456e-41 1 True False
18443.872 4.674557209014893 -1.517438319777586 2.1036551634417933 -2.1569425068297328 -1.570801083241598 3.103701114654541 0.0 0.0001314354594796896 0.0001439665211364627 -0.0001521110098110512 -0.0 0.0 1 True False
18443.922 4.674548625946045 -1.517426398848631 2.1036341826068323 -2.1570025883116664 -1.5707805792437952 3.103656530380249 0.0 0.000305705500068143 7.21913602319546e-05 -0.00031728186877444386 -0.0 0.0 1 True False
18443.971999999998 4.674540042877197 -1.5174144779196759 2.1036461035357874 -2.157050748864645 -1.5707891623126429 3.1037344932556152 0.0 8.547927427571267e-05 3.433785241213627e-05 -0.0010579574154689908 -0.0 0.0 1 True False
18444.022 4.674516201019287 -1.517468137001135 2.1036418120013636 -2.157042165795797 -1.5707486311541956 3.103696584701538 0.0 0.00017853204917628318 5.496398807736114e-05 -0.0003399000852368772 -0.0 0.0 1 True False
18444.072 4.674571514129639 -1.5174067591181775 2.1036418120013636 -2.157058378259176 -1.5707967917071741 3.1037189960479736 0.0 0.0001705332106212154 4.675323361880146e-05 -0.00019363405590411276 -0.0 0.0 1 True False
18444.122 4.674520492553711 -1.5174112182906647 2.1036704222308558 -2.1570660076537074 -1.5708254019366663 3.103722095489502 -0.00013041653437539935 0.00010854619176825508 4.350439121481031e-05 -0.00011910859757335857 -0.0 0.0 1 True False
18444.172 4.674551963806152 -1.5174100336483498 2.1036489645587366 -2.157086034814352 -1.5708006064044397 3.103739023208618 -1.0705300403786064e-29 9.632363071432337e-05 9.532288203217831e-08 -8.087889000307769e-05 -0.0 0.0 1 True False
18444.221999999998 4.674462795257568 -1.5173606139472504 2.1036952177630823 -2.157046457330221 -1.570813004170553 3.1037254333496094 0.0 6.356029649297186e-23 2.243047914080283e-37 -2.716300830638875e-14 -0.0 0.0 1 True False
18444.272 4.674499034881592 -1.5173580099693318 2.1036461035357874 -2.1570779285826625 -1.570824925099508 3.103701114654541 0.0 0.0 0.0 -4.126066353964833e-33 -0.0 0.0 1 True False
18444.322 4.674531936645508 -1.5173694726875802 2.1036747137652796 -2.1570660076537074 -1.5708254019366663 3.103743553161621 0.0 0.0 0.0 -0.0 -0.0 0.0 1 True False
18444.372 4.674475193023682 -1.5174398396960278 2.1036952177630823 -2.157017847100729 -1.570772949849264 3.1037254333496094 0.0 0.0 0.0 -0.0 -0.0 -7.712384341741965e-22 1 True False
18444.422 4.674568176269531 -1.5175444421223183 2.1035459677325647 -2.1571666202940882 -1.570784870778219 3.1037538051605225 0.0 -0.002044962253421545 -0.0028127655386924744 -1.2461535334296059e-05 -5.022946712425827e-14 2.7281243782611406e-18 1 True False
18444.471999999998 4.6744914054870605 -1.5174337674728413 2.1035502592669886 -2.157193800012106 -1.570756737385885 3.103755474090576 0.0 5.341308092000818e-31 -1.866760946856788e-27 -0.00024047378974501044 -7.629864936854718e-33 3.0400475225178525e-05 1 True False
18444.522 4.674519062042236 -1.517475539152958 2.1035221258746546 -2.15718998531484 -1.5707247892962855 3.103701114654541 0.0 0.00045156647684052587 0.0007786297937855124 6.571974518010393e-05 -0.0 1.648063334869221e-05 1 True True
18444.572 4.674466609954834 -1.5174486984363575 2.103438202534811 -2.1567698917784632 -1.5707810560809534 3.103748083114624 0.0 -0.009267478249967098 -0.011246195994317532 0.031256724148988724 -0.0 1.1304980034765322e-05 1 True True
18444.622 4.674475193023682 -1.5183673848262806 2.10207444826235 -2.1534911594786585 -1.570784870778219 3.103713035583496 0.0 -0.03957797959446907 -0.06000462919473648 0.0907377377152443 -0.0 1.8695705917840997e-16 1 True True
18444.672 4.674556255340576 -1.521051937048771 2.097597901021139 -2.146935125390524 -1.5708048979388636 3.103713035583496 0.0 -0.06655807048082352 -0.10364881902933121 0.15491066873073578 -0.0 2.8398809921460766e-35 1 True True
18444.721999999998 4.674519062042236 -1.525133655672409 2.0912612120257776 -2.136864324609274 -1.5707886854754847 3.103739023208618 0.0 -0.09061788767576218 -0.14705567061901093 0.2335449457168579 -0.0 0.0 1 True True
18444.772 4.674511909484863 -1.5303886619261284 2.082869831715719 -2.123293539086813 -1.5707886854754847 3.103748083114624 0.0 -0.1150590106844902 -0.18962465226650238 0.29846519231796265 -2.1401474441518076e-05 -1.2408602287905524e-06 1 True True
18444.822 4.674527645111084 -1.5369742226651688 2.0723097960101526 -2.1061583958067835 -1.5708044211017054 3.1037509441375732 0.0 -0.142063170671463 -0.23220495879650116 0.3814293146133423 -1.5327624438864925e-19 -1.8848697342704822e-25 1 True True
18444.872 4.674511909484863 -1.5448190376958628 2.0595296064959925 -2.085560461083883 -1.5707886854754847 3.1037256717681885 0.0 -0.17296160757541656 -0.2644030451774597 0.45120808482170105 -2.328269870032016e-38 -2.802596928649634e-44 1 True True
18444.922 4.674540042877197 -1.5541120276651164 2.044788185750143 -2.0615436039366664 -1.5708006064044397 3.103684663772583 0.0 -0.20129114389419556 -0.3170040547847748 0.5112829208374023 -0.0 -0.0 1 True True
18444.971999999998 4.674561023712158 -1.5647463964163144 2.0278037230121058 -2.0340057812132777 -1.5707648436175745 3.1037509441375732 0.0 -0.2254732847213745 -0.36273622512817383 0.5805677771568298 -0.0 -0.0 1 True True
18445.022 4.674544811248779 -1.5758310757079066 2.0100396315204065 -2.004876276055807 -1.5708335081683558 3.103760004043579 0.0 -0.2097468078136444 -0.3338521718978882 0.5489866137504578 -8.397378792324162e-07 -0.0 1 True True
18445.072 4.6744866371154785 -1.5858265362181605 1.9939826170550745 -1.97894348720693 -1.5707486311541956 3.10367751121521 0.0 -0.18573406338691711 -0.29733648896217346 0.48070028424263 -1.2755636783581208e-25 -0.0 1 True True
18445.122 4.674502849578857 -1.594494958917135 1.980400864277975 -1.9566432438292445 -1.5708044211017054 3.103651762008667 0.0 -0.15964332222938538 -0.25686272978782654 0.4119339883327484 -1.961817850054744e-44 -0.0 1 True True
18445.172 4.6745524406433105 -1.601757665673727 1.9685528914081019 -1.9377175770201625 -1.5708449522601526 3.1037344932556152 0.0 -0.12953105568885803 -0.21095313131809235 0.33656010031700134 -0.0 -0.0 1 True True
18445.221999999998 4.67452335357666 -1.607575079003805 1.9592211882220667 -1.9222914181151332 -1.570813004170553 3.1037027835845947 0.0 -0.10701869428157806 -0.17160607874393463 0.2764092683792114 -0.0 -0.0 1 True True
18445.272 4.674572944641113 -1.6120802364745082 1.951893154774801 -1.9104382000365199 -1.5707925001727503 3.1037673950195312 0.0 -0.08045413345098495 -0.12624914944171906 0.20292812585830688 -0.0 -0.0 1 True True
18445.322 4.67452335357666 -1.6153165302672328 1.9466469923602503 -1.9020568333067835 -1.5707967917071741 3.103698253631592 0.0 -0.05117829144001007 -0.08564803749322891 0.13671931624412537 -0.0 -0.0 1 True True
18445.372 4.6745076179504395 -1.6173283062376917 1.9435160795794886 -1.8970872364439906 -1.5707967917071741 3.103692054748535 0.0 -0.02510840818285942 -0.03739023208618164 0.06238176301121712 -0.0 -0.0 1 True True
18445.422 4.67453670501709 -1.6178094349303187 1.9427273909198206 -1.8955909214415492 -1.5707281271563929 3.1037344932556152 -8.431219612248242e-06 0.003991954494267702 0.00010548835416557267 -0.006279676221311092 -0.0 -0.0 1 True True
18445.471999999998 4.6724934577941895 -1.6173178158202113 1.9419596830951136 -1.8955513439574183 -1.5707772413836878 3.101663827896118 -0.0738271102309227 0.015908636152744293 -0.027355026453733444 0.00566344428807497 -0.0 -0.07399315387010574 1 True True
18445.522 4.666922569274902 -1.615950723687643 1.9401944319354456 -1.8950916729369105 -1.5708168188678187 3.0960776805877686 -0.1446334570646286 0.03863196447491646 -0.04811098054051399 0.007760624401271343 -0.0 -0.14260752499103546 1 True True
18445.572 4.657939910888672 -1.6135341129698695 1.9373438994037073 -1.8946296177306117 -1.5707648436175745 3.087033748626709 -0.21606849133968353 0.05982981622219086 -0.06768642365932465 0.009908759035170078 -0.0 -0.2092236429452896 1 True True
18445.622 4.6452436447143555 -1.6101933918394984 1.9333460966693323 -1.8939782581725062 -1.5707648436175745 3.07462215423584 -0.2836165726184845 0.0780213326215744 -0.09696534276008606 0.01390898134559393 -0.0 -0.2876412272453308 1 True True
18445.672 4.629448890686035 -1.605927129785055 1.9281824270831507 -1.8931762180724085 -1.570801083241598 3.058530807495117 -0.3528689444065094 0.0956214889883995 -0.1115799993276596 0.018848545849323273 -8.534341031918302e-05 -0.3510470688343048 1 True True
18445.721999999998 4.609780788421631 -1.6006928882994593 1.9219053427325647 -1.8921338520445765 -1.5708044211017054 3.0390818119049072 -0.4237935245037079 0.11271076649427414 -0.1316841095685959 0.0208231620490551 -1.2024330641423331e-14 -0.4241483807563782 1 True True
18445.772 4.586831092834473 -1.5945760212340296 1.9146464506732386 -1.8908807239928187 -1.5708211104022425 3.0161678791046143 -0.4963807165622711 0.12642011046409607 -0.15454146265983582 0.021100027486681938 -1.826497999658048e-33 -0.5005592107772827 1 True True
18445.822 4.560476303100586 -1.5876132450499476 1.9062445799456995 -1.8893796406187953 -1.5707529226886194 2.9895942211151123 -0.5649493336677551 0.14925448596477509 -0.17400982975959778 0.03070133551955223 -1.794186027836986e-05 -0.5565252900123596 1 True True
18445.872 4.530403137207031 -1.5796905956664027 1.896703068410055 -1.8877555332579554 -1.5707805792437952 2.959479808807373 -0.6297290921211243 0.16849276423454285 -0.20148608088493347 0.04178314283490181 -3.6148303479421884e-05 -0.6239850521087646 1 True True
18445.922 4.496951103210449 -1.570789174442627 1.8860610167132776 -1.8860227070250453 -1.570853058491842 2.926065683364868 -0.7036305665969849 0.18542695045471191 -0.2215140163898468 0.03522101417183876 -0.0002389601431787014 -0.6975643634796143 1 True True
18445.971999999998 4.459965705871582 -1.5610287154889484 1.874108616505758 -1.884042879144186 -1.5707805792437952 2.8892788887023926 -0.7721500992774963 0.20162300765514374 -0.24298842251300812 0.05026555433869362 0.0020005737897008657 -0.7800068855285645 1 True True
18446.022 4.419497013092041 -1.5503257655403395 1.8613384405719202 -1.8818475208678187 -1.5708258787738245 2.8487565517425537 -0.8368551135063171 0.22100545465946198 -0.2720602750778198 0.05095783621072769 0.002684305887669325 -0.8506965041160583 1 True True
18446.072 4.375576972961426 -1.5386064511588593 1.8472841421710413 -1.8794003925719203 -1.5708406607257288 2.804720401763916 -0.9145713448524475 0.24503067135810852 -0.29091233015060425 0.04821885749697685 -1.690183271119139e-10 -0.9079171419143677 1 True True
18446.122 4.328156471252441 -1.5259815913489838 1.8323076407061976 -1.876930376092428 -1.570784870778219 2.757443904876709 -0.9803075790405273 0.2555144429206848 -0.3140484094619751 0.058480046689510345 -0.00016762883751653135 -0.9879831671714783 1 True True
18446.172 4.277255058288574 -1.5126897145858784 1.8158586660968226 -1.874296327630514 -1.5708048979388636 2.706414222717285 -1.0489484071731567 0.2829793393611908 -0.3306528925895691 0.060640882700681686 -2.1264893019532927e-22 -1.0402615070343018 1 True True
18446.221999999998 4.224862575531006 -1.4986693796566506 1.7993653456317347 -1.8713857136168421 -1.5707882086383265 2.653954267501831 -1.045128583908081 0.2756270170211792 -0.34024569392204285 0.048682596534490585 0.00018429341434966773 -1.0467097759246826 1 True True
18446.272 4.172571182250977 -1.4849022638848801 1.7826069037066858 -1.8686028919615687 -1.570784870778219 2.601919174194336 -1.04705011844635 0.2765854597091675 -0.32706525921821594 0.056274641305208206 0.0003221293445676565 -1.0512746572494507 1 True True
18446.322 4.120261192321777 -1.4709597688964386 1.7660563627826136 -1.8656803570189417 -1.570780102406637 2.54935622215271 -1.0518100261688232 0.2797594666481018 -0.33630722761154175 0.048495545983314514 -1.9946974031282566e-13 -1.0394994020462036 1 True True
18446.372 4.067883491516113 -1.457231031065323 1.7491896788226526 -1.862981458703512 -1.5707767645465296 2.4968912601470947 -1.043358564376831 0.2745570242404938 -0.33660057187080383 0.05802145227789879 0.00043289727182127535 -1.0523602962493896 1 True True
18446.422 4.015364170074463 -1.443235383634903 1.7327049414264124 -1.8600789509215296 -1.5707686583148401 2.4448165893554688 -1.0436885356903076 0.2768072485923767 -0.3408122956752777 0.05854117125272751 -5.777841358559627e-17 -1.055214285850525 1 True True
18446.471999999998 3.9631237983703613 -1.4293301564506073 1.7158940474139612 -1.8573681316771449 -1.5708006064044397 2.3923685550689697 -1.0489152669906616 0.2745082974433899 -0.33521655201911926 0.05625234171748161 -8.776552633447247e-36 -1.0444297790527344 1 True True
18446.522 3.9106593132019043 -1.415582151418068 1.6993392149554651 -1.8545810184874476 -1.5708168188678187 2.339825391769409 -1.045896291732788 0.2822171151638031 -0.33107417821884155 0.057692933827638626 2.3282696020032745e-06 -1.0495105981826782 1 True True
18446.572 3.858274221420288 -1.401601867084839 1.6825550238238733 -1.8517147503294886 -1.5707925001727503 2.287691116333008 -1.0451183319091797 0.27442115545272827 -0.338092565536499 0.052946336567401886 -4.487916612561094e-06 -1.0556811094284058 1 True True
18446.622 3.8060007095336914 -1.3879016500762482 1.6658881346331995 -1.8489395580687464 -1.5708406607257288 2.2352046966552734 -1.0515775680541992 0.2801411747932434 -0.3258727192878723 0.05797925963997841 2.082408536807634e-05 -1.0420488119125366 1 True True
18446.672 3.753678798675537 -1.3739061814597626 1.649163071309225 -1.8459779224791468 -1.570801083241598 2.182769536972046 -1.0454413890838623 0.27774307131767273 -0.3344291150569916 0.0577857531607151 8.833784522721544e-05 -1.054127812385559 1 True True
18446.721999999998 3.70131516456604 -1.3599877220443268 1.6323793570147913 -1.843278547326559 -1.5707529226886194 2.130680561065674 -1.044129490852356 0.27539941668510437 -0.3361455202102661 0.05927427113056183 1.9156404387477074e-21 -1.0523451566696167 1 True True
18446.772 3.648940086364746 -1.346101464038231 1.6158016363727015 -1.8404199085631312 -1.570869270955221 2.0780746936798096 -1.0483564138412476 0.27826040983200073 -0.33062583208084106 0.06001719832420349 2.909866326093699e-40 -1.0412412881851196 1 True True
18446.822 3.5965452194213867 -1.3323510897210618 1.5991562048541468 -1.837602277795309 -1.5708325544940394 2.0256829261779785 -1.0442390441894531 0.2733563482761383 -0.338320791721344 0.04895157366991043 0.0 -1.0449858903884888 1 True True
18446.872 3.5441572666168213 -1.318455533390381 1.5824926535235804 -1.8348108730711878 -1.5708454290973108 1.9734553098678589 -1.0417925119400024 0.280691534280777 -0.32491740584373474 0.05218278244137764 0.0 -1.0492281913757324 1 True True
18446.922 3.4918599128723145 -1.3044638496688385 1.5657480398761194 -1.83195223430776 -1.570772949849264 1.9210216999053955 -1.0504285097122192 0.27281132340431213 -0.33819258213043213 0.056644126772880554 0.0 -1.0424578189849854 1 True True
18446.971999999998 3.439446210861206 -1.2907789808562775 1.5490863958941858 -1.8291336498656214 -1.5708087126361292 1.868651032447815 -1.0475363731384277 0.2807725667953491 -0.3332042098045349 0.0591975562274456 0.0 -1.047133207321167 1 True True
18447.022 3.3873634338378906 -1.276803509598114 1.5323708693133753 -1.8264252148070277 -1.570829216633932 1.8166859149932861 -1.0244344472885132 0.27245745062828064 -0.32409539818763733 0.05042314529418945 0.0 -1.028641700744629 1 True True
18447.072 3.338144540786743 -1.2638720136931916 1.5168455282794397 -1.8236414394774378 -1.570813004170553 1.767267107963562 -0.95980304479599 0.2549073100090027 -0.3088308572769165 0.05125276744365692 0.0 -0.9528989791870117 1 True True
18447.122 3.29219913482666 -1.251673863535263 1.5021441618548792 -1.8213054142394007 -1.5708296934710901 1.721412181854248 -0.8782724738121033 0.2317940890789032 -0.28361138701438904 0.050486717373132706 0.00024942823802120984 -0.8851516246795654 1 True True
18447.172 3.2497758865356445 -1.240458683376648 1.4887579123126429 -1.8188721142210902 -1.5708487669574183 1.6789807081222534 -0.8118142485618591 0.21348153054714203 -0.26486337184906006 0.050613630563020706 9.249674803868402e-07 -0.8098284006118774 1 True True
18447.221999999998 3.210888624191284 -1.2302460235408326 1.4762585798846644 -1.816887994805807 -1.5708001295672815 1.6401931047439575 -0.7491307854652405 0.2008509635925293 -0.23945856094360352 0.03692275658249855 0.0001099078290280886 -0.7422531247138977 1 True True
18447.272 3.1756417751312256 -1.22074048340831 1.4650467077838343 -1.8149963817992152 -1.5708254019366663 1.6048169136047363 -0.6745823621749878 0.17913399636745453 -0.20814144611358643 0.035855814814567566 6.523293268401176e-05 -0.677460253238678 1 True True
18447.322 3.1437370777130127 -1.2123573285392304 1.4549229780780237 -1.8132950268187464 -1.5707562605487269 1.57291841506958 -0.6025590300559998 0.15511496365070343 -0.19581328332424164 0.03784385696053505 -1.559070915391203e-05 -0.6052213907241821 1 True True
18447.372 3.115346670150757 -1.2048122149756928 1.4458511511432093 -1.8117004833617152 -1.5707967917071741 1.5445377826690674 -0.532628059387207 0.14027580618858337 -0.16719655692577362 0.028403976932168007 -1.3173535355083973e-23 -0.5349776744842529 1 True True
18447.422 3.0903985500335693 -1.1982840460589905 1.437737766896383 -1.8104125461974085 -1.5708254019366663 1.5196095705032349 -0.46515953540802 0.12439792603254318 -0.14289720356464386 0.024577924981713295 3.76287498511374e-05 -0.4646759033203125 1 True True
18447.471999999998 3.0688581466674805 -1.192503200178482 1.4310553709613245 -1.8092924557127894 -1.5708325544940394 1.4981181621551514 -0.39536187052726746 0.10242769122123718 -0.1218738928437233 0.018339863047003746 -0.0004995674244128168 -0.39346855878829956 1 True True
18447.522 3.0511579513549805 -1.1877007645419617 1.4253633658038538 -1.8082925281920375 -1.570801083241598 1.4802799224853516 -0.32844552397727966 0.08506350219249725 -0.10693585127592087 0.015889408066868782 0.0003166975802741945 -0.32845965027809143 1 True True
18447.572 3.0366649627685547 -1.1839568775943299 1.4207947889911097 -1.807479044000143 -1.5707767645465296 1.4658371210098267 -0.25377875566482544 0.06655890494585037 -0.0818798616528511 0.014300369657576084 -7.783714863762725e-06 -0.25787368416786194 1 True True
18447.622 3.0257115364074707 -1.1810755890658875 1.4173310438739222 -1.806892534295553 -1.5707805792437952 1.4549301862716675 -0.18430040776729584 0.048580385744571686 -0.05245112255215645 0.012308514676988125 -1.1823480774040997e-24 -0.1867794245481491 1 True True
18447.672 3.018218994140625 -1.1791799825480958 1.414820973073141 -1.806594034234518 -1.5708172957049769 1.4474446773529053 -0.11545202136039734 0.03073672577738762 -0.04128985479474068 0.005470640491694212 -1.793662034335766e-43 -0.11641674488782883 1 True True
18447.721999999998 3.0143158435821533 -1.178046630030014 1.4135854879962366 -1.8063632450499476 -1.5708087126361292 1.4434598684310913 -0.045027315616607666 0.013323076069355011 -0.01264890842139721 0.0034140374045819044 -0.0 -0.04785788431763649 1 True True
18447.772 3.0136516094207764 -1.1778747898391266 1.4135344664203089 -1.8064986668028773 -1.5706928412066858 1.4428462982177734 0.0083096232265234 0.0073204245418310165 0.014000589028000832 -0.01454999390989542 -0.0 -0.00021431248751468956 1 True True
18447.822 3.0136735439300537 -1.1768110555461426 1.4154542128192347 -1.8093863926329554 -1.5708125273333948 1.4428741931915283 -0.0006898610154166818 0.027436403557658195 0.06495101749897003 -0.09348481893539429 -0.0 -0.00013178869266994298 1 True True
18447.872 3.013619899749756 -1.174758718614914 1.4197843710528772 -1.8160726032652796 -1.570784870778219 1.4428024291992188 -0.000781164038926363 0.05420127138495445 0.11336435377597809 -0.15645451843738556 -0.0 -0.0002954748342745006 1 True True
18447.922 3.0136003494262695 -1.1714536112597962 1.426694695149557 -1.8260327778258265 -1.5707247892962855 1.4427688121795654 -0.0010371007956564426 0.07455217093229294 0.15758515894412994 -0.22683727741241455 -0.0 -0.0002380278310738504 1 True True
18447.971999999998 3.013575315475464 -1.167063758974411 1.4358237425433558 -1.8395263157286585 -1.5707724730121058 1.4427893161773682 -0.00024003109137993306 0.10239293426275253 0.20332075655460358 -0.29905635118484497 -0.00010369124356657267 -0.00015985380741767585 1 True True
18448.022 3.0135838985443115 -1.1616467994502564 1.4476125876056116 -1.8565508327879847 -1.5707967917071741 1.4427493810653687 -9.110136306844652e-05 0.12258888781070709 0.2528620660305023 -0.37742871046066284 -8.1734309787862e-05 -0.00011797060142271221 1 True True
18448.072 3.0136048793792725 -1.1549674731544037 1.4612372557269495 -1.8771163425841273 -1.5707929770099085 1.4428014755249023 -8.468299347441643e-05 0.13857293128967285 0.29843053221702576 -0.4503643810749054 -1.0471841221850603e-13 -9.175328159471974e-05 1 True True
18448.122 3.0135838985443115 -1.1472740930369874 1.4776127974139612 -1.901041646996969 -1.5707648436175745 1.4428024291992188 -7.182883564382792e-05 0.16138707101345062 0.34601593017578125 -0.5007522106170654 -9.28967710933648e-05 -5.6444281653966755e-05 1 True True
18448.172 3.013547897338867 -1.138736293917038 1.4955185095416468 -1.927356859246725 -1.5707929770099085 1.4427570104599 -8.866256393957883e-05 0.16121673583984375 0.341587632894516 -0.5223101377487183 -7.295284677288049e-23 -1.526306732557714e-06 1 True True
18448.221999999998 3.013585090637207 -1.1311332148364563 1.5115364233600062 -1.951165338555807 -1.5708444754229944 1.4427688121795654 -5.705423973267898e-05 0.14795926213264465 0.30268338322639465 -0.4341309666633606 -1.1081468255880653e-41 -2.318463679558751e-25 1 True True
18448.272 3.0135231018066406 -1.1245131951621552 1.5251315275775355 -1.9716164074339808 -1.5708048979388636 1.4427893161773682 -1.4968000621880278e-35 0.11379891633987427 0.24633647501468658 -0.3621927797794342 -0.0 -3.5032461608120427e-44 1 True True
18448.322 3.013580560684204 -1.1190734666636963 1.5367310682879847 -1.9882685146727503 -1.5708006064044397 1.4428060054779053 0.0 0.09445207566022873 0.20670254528522491 -0.30998921394348145 -0.0 -0.0 1 True True
18448.372 3.0135960578918457 -1.114791141157486 1.5456536451922815 -2.001731058160299 -1.5708048979388636 1.4427701234817505 0.0 0.0757269635796547 0.15786927938461304 -0.2352517992258072 -0.0 -0.0 1 True True
18448.422 3.0135676860809326 -1.111602709894516 1.5521910826312464 -2.0114900074400843 -1.5708048979388636 1.442765712738037 1.3730615965433095e-32 0.05077279731631279 0.11153991520404816 -0.1567976325750351 -0.0 -0.0 1 True True
18448.471999999998 3.0135838985443115 -1.1095793706229706 1.5566208998309534 -2.0177189312376917 -1.5707967917071741 1.4427688121795654 0.0 0.030425293371081352 0.061919864267110825 -0.08893146365880966 -0.0 -0.0 1 True True
18448.522 3.0135555267333984 -1.1089914304069062 1.5580256620990198 -2.0209490261473597 -1.5707767645465296 1.4428561925888062 0.0 0.00518996175378561 0.017603876069188118 -0.021622778847813606 -0.00011851776798721403 -0.0 1 True True
18448.572 3.0135726928710938 -1.109016792183258 1.5582507292376917 -2.0211130581297816 -1.5707491079913538 1.4428014755249023 0.0 0.0027911781799048185 0.005443807691335678 0.0012070873053744435 -2.721614873735234e-05 -0.0 1 True True
18448.622 3.0136218070983887 -1.1088474553874512 1.5583093802081507 -2.0210758648314417 -1.5708888212787073 1.4428374767303467 0.0 0.0052709379233419895 0.005072613712400198 0.001890660380013287 -4.649361289921217e-05 -0.0 1 True True
18448.672 3.0135796070098877 -1.1078564387610932 1.5597079435931605 -2.0199557743468226 -1.570784870778219 1.442793607711792 0.0010430201655253768 0.010189886204898357 0.00908408872783184 0.01733648218214512 0.0006010581273585558 5.7638430007500574e-05 1 True True
18448.721999999998 3.0136165618896484 -1.1082723897746583 1.5589898268329065 -2.0207096538939417 -1.5707648436175745 1.4426600933074951 0.00019744485325645655 -0.0015011871000751853 -0.0013671756023541093 -0.0026010889559984207 6.464688340201974e-05 -0.004594691097736359 1 True False
18448.772 3.0136003494262695 -1.108395592575409 1.5588868300067347 -2.020785471002096 -1.5707209745990198 1.4427908658981323 4.9654674512567e-05 -0.006417985074222088 -0.0061383554711937904 -0.005236969329416752 4.685703203222147e-08 0.0003986656665802002 1 True False
18448.822 3.013575315475464 -1.108558015232422 1.5587361494647425 -2.0208775005736292 -1.5707605520831507 1.4428560733795166 -7.61036655916314e-09 -0.0037387616466730833 -0.0032305768691003323 -0.001988757634535432 7.117593813853798e-27 -5.880192505331762e-15 1 True False
18448.872 3.0135796070098877 -1.108575777416565 1.558723274861471 -2.020881315270895 -1.5708168188678187 1.4427626132965088 0.0 -5.4983440350042656e-05 -0.00016078469343483448 -0.00026971838087774813 1.401298464324817e-45 -8.932025048791845e-34 1 True False
18448.922 3.0136327743530273 -1.1089084905437012 1.5581119696246546 -2.0202070675291957 -1.5707967917071741 1.4428014755249023 0.0 -0.018469862639904022 -0.030723949894309044 0.036531608551740646 0.0 -0.0 1 True False
18448.971999999998 3.01357102394104 -1.1101479691318055 1.5556705633746546 -2.016125818292135 -1.5707767645465296 1.4428014755249023 0.0 -0.031565532088279724 -0.06854312121868134 0.11466777324676514 -2.4879574854301534e-13 -0.0 1 True False
18449.022 3.0135881900787354 -1.1126148265651246 1.550363842641012 -2.008726259271139 -1.570829216633932 1.4427449703216553 0.0 -0.06454586237668991 -0.12468547374010086 0.1729896515607834 -9.828639304032549e-05 -0.0 1 True False
18449.072 3.0136165618896484 -1.116055355673172 1.5430434385882776 -1.9976536236205042 -1.570784870778219 1.4427847862243652 0.0 -0.08079668879508972 -0.1734083890914917 0.25627413392066956 -6.357131496770307e-05 -0.0 1 True False
18449.122 3.013526439666748 -1.120818780069687 1.533046070729391 -1.9832531414427699 -1.5708449522601526 1.442764401435852 0.0 -0.10102522373199463 -0.21595272421836853 0.33416053652763367 -4.332220360225847e-09 6.785884033888578e-05 1 True False
18449.172 3.0136003494262695 -1.1265845459750672 1.5210531393634241 -1.9651490650572718 -1.5707767645465296 1.4427971839904785 0.0 -0.1260320246219635 -0.2619369924068451 0.3813784420490265 -6.5806517675959285e-28 3.333284257678315e-05 1 True False
18449.221999999998 3.013530731201172 -1.1335362952998658 1.5064423719989222 -1.9438382587828578 -1.570801083241598 1.442826509475708 0.0 -0.14664116501808167 -0.3061527609825134 0.4581314027309418 3.755481884581968e-05 1.730571239022538e-05 1 True False
18449.272 3.0135838985443115 -1.1415629845908661 1.489633862172262 -1.9188643894591273 -1.5707891623126429 1.4427893161773682 0.0 -0.17190423607826233 -0.3645228147506714 0.5359852910041809 1.255271394967596e-18 1.1687189726217184e-05 1 True False
18449.322 3.0136404037475586 -1.149982528095581 1.4718416372882288 -1.8926807842650355 -1.5707724730121058 1.4427937269210815 0.0 -0.15658961236476898 -0.32285910844802856 0.49693500995635986 1.9067596002487732e-37 1.9254226102491563e-14 1 True False
18449.372 3.0135512351989746 -1.1573535066894074 1.456559960042135 -1.8698069057860316 -1.5708168188678187 1.4427952766418457 0.0 -0.13390709459781647 -0.28738704323768616 0.41662952303886414 0.0 2.9247206783160554e-33 1 True False
18449.422 3.013596773147583 -1.1635746520808716 1.4433863798724573 -1.8506180248656214 -1.5708048979388636 1.4427525997161865 0.0 -0.11398322135210037 -0.23934616148471832 0.36175528168678284 0.0 0.0 1 True False
18449.471999999998 3.0135719776153564 -1.1687197250178833 1.4326542059527796 -1.8346697292723597 -1.5707767645465296 1.442768931388855 0.0 -0.0944066196680069 -0.1875818520784378 0.2786785960197449 0.0 0.0 1 True False
18449.522 3.0135838985443115 -1.1725728672793885 1.4243491331683558 -1.8224965534605921 -1.5707686583148401 1.4427613019943237 0.0 -0.06804081052541733 -0.14651596546173096 0.21070683002471924 0.0 0.0 1 True False
18449.572 3.013608932495117 -1.1755348604968567 1.4183033148394983 -1.8135134182372035 -1.5708211104022425 1.4427893161773682 0.0 -0.0471000112593174 -0.09638114273548126 0.14076672494411469 0.0 0.0 1 True False
18449.622 3.0136284828186035 -1.1772718590549012 1.4146912733661097 -1.8081685505309046 -1.5707686583148401 1.4427893161773682 0.0 -0.021694816648960114 -0.05298919975757599 0.07025410979986191 0.0 0.0 1 True False
18449.672 3.0135436058044434 -1.1778763395598908 1.413375202809469 -1.8063990078368128 -1.570829216633932 1.4428060054779053 0.0 -5.4962376452749595e-05 -0.00041918232454918325 0.0037494879215955734 0.0 0.0 1 True False
18449.721999999998 3.0135505199432373 -1.1778608125499268 1.4133418242083948 -1.8063708744444789 -1.5707805792437952 1.4427701234817505 0.0 -0.0003001158474944532 7.402080615115381e-10 8.242249168688431e-05 0.0 0.0 1 False False
18449.772 3.0136327743530273 -1.1778237384608765 1.4133742491351526 -1.8063308201231898 -1.570813004170553 1.442776083946228 0.0 -0.0001148142182501033 -7.150254532461986e-05 0.0004525838594418019 0.0 0.0 1 False False
18449.822 3.0135598182678223 -1.1777923864177247 1.4134023825274866 -1.8062874279417933 -1.5708044211017054 1.4427733421325684 0.0 -0.00019452156266197562 -5.387328565120697e-05 0.0009847519686445594 0.0 0.0 1 False False
18449.872 3.0135555267333984 -1.1778266590884705 1.4133742491351526 -1.8062831364073695 -1.5707605520831507 1.442814588546753 0.0 -0.00025709293549880385 -7.999577792361379e-05 0.0006487800856120884 0.0 0.0 1 False False
18449.922 3.013564109802246 -1.1778519910625 1.4133666197406214 -1.8063317737975062 -1.570824925099508 1.442797064781189 0.0 -0.00032332714181393385 -7.753532554488629e-05 0.00022663777053821832 0.0 0.0 1 False False
18449.971999999998 3.013546943664551 -1.1778763097575684 1.4133580366717737 -1.8062507114806117 -1.570829216633932 1.4427733421325684 0.0 -1.388021777593354e-13 -7.600341632496566e-05 0.00010600124369375408 0.0 0.0 1 False False
18450.022 3.0136165618896484 -1.1778564614108582 1.4133904615985315 -1.806263109246725 -1.570784870778219 1.4427570104599 0.0 0.0 -2.411056423956559e-11 7.117611676221713e-05 0.0 0.0 1 False False
18450.072 3.0135436058044434 -1.1778882604888459 1.4133876005755823 -1.806315084496969 -1.5708044211017054 1.4427776336669922 0.0 -0.00010095517063746229 -9.806891466723755e-05 7.458138924151814e-13 0.0 0.0 1 False False
18450.122 3.0135350227355957 -1.177925245170929 1.4133742491351526 -1.8063394031920375 -1.5708168188678187 1.4427908658981323 0.0 -6.879979628138244e-05 -8.06807292974554e-05 1.1328924372080914e-31 0.0 0.0 1 False False
18450.172 3.0135555267333984 -1.177880660896637 1.4133828322040003 -1.8062917194762171 -1.5707562605487269 1.4427481889724731 0.0 -1.3745496489645436e-30 -6.129576649982482e-05 0.0 0.0 0.0 1 False False
18450.221999999998 3.0135838985443115 -1.1778719288161774 1.4133785406695765 -1.8062712154784144 -1.5708044211017054 1.4428297281265259 0.0 0.0 -1.6439899842932842e-14 0.0 0.0 0.0 1 False False
18450.272 3.0135762691497803 -1.177855597143509 1.4133546988116663 -1.80627503017568 -1.5707843939410608 1.4427570104599 0.0 0.0 -3.923635700109488e-44 0.0 0.0 0.0 1 False False
18450.322 3.013608932495117 -1.1779251557639618 1.4132846037494105 -1.8062998257079066 -1.5707486311541956 1.4428189992904663 0.0 0.0 -0.0 0.0 0.0 0.0 1 False False
18450.372 3.0135838985443115 -1.1778969031623383 1.4133413473712366 -1.8063069782652796 -1.5708254019366663 1.4427980184555054 0.0 0.0 -0.0 0.0 0.0 0.0 1 False False
18450.422 3.0135838985443115 -1.1778556269458313 1.4133828322040003 -1.8062998257079066 -1.5708335081683558 1.4427571296691895 0.0 0.0 -0.0 0.0 0.0 0.0 1 False False
18450.471999999998 3.0136003494262695 -1.1778926116279145 1.4133546988116663 -1.8062712154784144 -1.5707686583148401 1.4428189992904663 0.0 0.0 -0.0 0.0 0.0 0.0 1 False False
18450.522 3.0135719776153564 -1.1778926116279145 1.4133384863482874 -1.8062831364073695 -1.5707925001727503 1.4428091049194336 0.0 0.0 -0.0 0.0 0.0 0.0 1 False False
18450.572 3.0135884284973145 -1.1778474015048523 1.4133756796466272 -1.8062473736205042 -1.5707929770099085 1.4427733421325684 0.0 0.0 -0.0 0.0 0.0 0.0 1 True False
18450.622 3.0136168003082275 -1.1778607231429596 1.4133504072772425 -1.8062831364073695 -1.5707805792437952 1.4427776336669922 0.0 0.0 -0.0 0.0 0.0 0.0 1 True False
18450.672 3.0135719776153564 -1.1778806906989594 1.4133666197406214 -1.8062192402281703 -1.5708211104022425 1.4427804946899414 0.0 0.0 5.78779049426742e-13 0.0 0.0 0.0 1 True False
18450.721999999998 3.0135509967803955 -1.177880660896637 1.4133337179767054 -1.8062955341734828 -1.5707967917071741 1.4428428411483765 0.0 0.0 1.3620621073237222e-42 0.0 0.0 0.0 1 True False
18450.772 3.0135674476623535 -1.1778719586184998 1.4133995215045374 -1.8062554798521937 -1.5707767645465296 1.4428023099899292 0.0 0.0 0.0 2.5568506547596408e-20 0.0 0.0 1 True False
18450.822 3.0136168003082275 -1.17790441334758 1.4133246580706995 -1.8062507114806117 -1.570784870778219 1.4427450895309448 0.0 0.0 0.0 3.883861244498092e-39 0.0 0.0 1 True False
18450.872 3.0135927200317383 -1.1778644186309357 1.4133413473712366 -1.8062793217101039 -1.570784870778219 1.4428309202194214 0.0 0.0 0.0 0.0 0.0 0.0 1 True False
18450.922 3.0135884284973145 -1.1778719586184998 1.4133532683001917 -1.8062831364073695 -1.570801083241598 1.4427614212036133 0.0 0.0 0.0 0.0 0.0 0.0 1 True False
18450.971999999998 3.0135927200317383 -1.17783875883136 1.4133756796466272 -1.8062998257079066 -1.5708254019366663 1.442838430404663 0.0 0.0 0.0 0.0 0.0 0.0 1 True False
18451.022 3.0135552883148193 -1.1779088538936158 1.4134085814105433 -1.8062955341734828 -1.5707886854754847 1.4428144693374634 0.0 0.0 0.0 0.0 3.1327382264093474e-15 1.0977917186405506e-10 1 True False
18451.072 3.0135793685913086 -1.1778925520232697 1.4133413473712366 -1.8062793217101039 -1.5707843939410608 1.4428253173828125 0.0 -3.9793390809814296e-16 0.0 0.0 4.7586380677087074e-34 0.004201945848762989 1 True False
18451.122 3.0135509967803955 -1.17783875883136 1.4133947531329554 -1.8062502346434535 -1.5708368460284632 1.4427893161773682 0.0 0.0 0.0 0.0 -0.0004979099612683058 -0.000718501687515527 1 True False
18451.172 3.0136048793792725 -1.1778806310943146 1.4134247938739222 -1.8062473736205042 -1.570801083241598 1.4428023099899292 0.0 0.0 0.0 0.0 -1.5601027414380297e-12 7.500313222408295e-05 1 True False
18451.221999999998 3.0135838985443115 -1.177892581825592 1.4133337179767054 -1.8063036404051722 -1.5708087126361292 1.4427762031555176 0.0 0.0 0.0 0.0 -2.3697994324441736e-31 2.4309123546117917e-05 1 True False
18451.272 3.0142242908477783 -1.1778676372817536 1.4134233633624476 -1.8062392673888148 -1.5708616415606897 1.4433741569519043 0.043348513543605804 -0.0037402475718408823 0.0028084497898817062 0.0 -3.3129315852420405e-05 0.039752326905727386 1 True False
18451.322 3.0181283950805664 -1.1782734853080292 1.4137514273272913 -1.8063637218871058 -1.570853058491842 1.447397232055664 0.11481296271085739 -0.00955814216285944 0.011160833761096 -0.0023382471408694983 -1.1344516678946093e-05 0.11501805484294891 1 True False
18451.372 3.0256667137145996 -1.1787900191596528 1.4144328276263636 -1.806554456750387 -1.5707967917071741 1.454854965209961 0.17919933795928955 -0.012539542280137539 0.016961699351668358 -0.0076085166074335575 -4.525910966765648e-19 0.18558333814144135 1 True False
18451.422 3.036583185195923 -1.179467038517334 1.4155038038836878 -1.8068610630431117 -1.570829216633932 1.465767502784729 0.2521269917488098 -0.01700599677860737 0.025713950395584106 -0.008888029493391514 -6.87487171998637e-38 0.2514990270137787 1 True False
18451.471999999998 3.0509915351867676 -1.18047450602565 1.4168065229998987 -1.8072997532286585 -1.5707843939410608 1.480139136314392 0.3230237364768982 -0.02230698987841606 0.032549940049648285 -0.008469418622553349 -0.0 0.3240353465080261 1 True False
18451.522 3.06880521774292 -1.1816626650146027 1.4185870329486292 -1.8077784977354945 -1.5707767645465296 1.4981446266174316 0.39251813292503357 -0.027875054627656937 0.03640662878751755 -0.010582800954580307 7.109175930963829e-05 0.3903065323829651 1 True False
18451.572 3.090487480163574 -1.1831654471210022 1.4206669966327112 -1.8083249531187953 -1.5707891623126429 1.5194799900054932 0.45765912532806396 -0.03203369677066803 0.04640468582510948 -0.014696819707751274 6.257089989958331e-05 0.46672356128692627 1 True False
18451.622 3.1152424812316895 -1.1848601263812562 1.423089329396383 -1.8089739284911097 -1.570780102406637 1.5444104671478271 0.5329991579055786 -0.037765711545944214 0.052802350372076035 -0.012344232760369778 -1.97064127860358e-05 0.5308847427368164 1 True False
18451.672 3.1434783935546875 -1.1867789787105103 1.4257600943194788 -1.8097645244994105 -1.5708406607257288 1.5727142095565796 0.6013955473899841 -0.04059600457549095 0.05434340238571167 -0.016589414328336716 -1.027334086983852e-21 0.598175048828125 1 True False
18451.721999999998 3.1753578186035156 -1.1890206199935456 1.4287508169757288 -1.8106285534300746 -1.5707886854754847 1.6046265363693237 0.6647778749465942 -0.04697716608643532 0.06554300338029861 -0.020898111164569855 -0.000179288923391141 0.6675949692726135 1 True False
18451.772 3.210789442062378 -1.1914658707431336 1.4322665373431605 -1.8115693531432093 -1.570829216633932 1.6399738788604736 0.7335748076438904 -0.04794203117489815 0.06658629328012466 -0.02537057176232338 2.058931022475008e-05 0.742090106010437 1 True False
18451.822 3.249610424041748 -1.1941906672767182 1.4359434286700647 -1.812707086602682 -1.5707562605487269 1.6788100004196167 0.8112092614173889 -0.05424349009990692 0.07961129397153854 -0.02110111340880394 3.677189670270309e-05 0.8144542574882507 1 True False
18451.872 3.2920024394989014 -1.197052763109543 1.440040413533346 -1.8137384853758753 -1.5707925001727503 1.7212765216827393 0.8812865614891052 -0.05989857390522957 0.08288142830133438 -0.02153133600950241 4.799773859615053e-13 0.8795744776725769 1 True False
18451.922 3.3377976417541504 -1.2003069084933777 1.4445341269122522 -1.8149334392943324 -1.5708406607257288 1.7669060230255127 0.9481598734855652 -0.0689958706498146 0.08980172872543335 -0.025034261867403984 7.290868529124894e-32 0.9472710490226746 1 True False
18451.971999999998 3.3871610164642334 -1.203575388794281 1.4492152372943323 -1.8163253269591273 -1.570857350026266 1.81645929813385 1.022560477256775 -0.07213706523180008 0.09506528079509735 -0.028950205072760582 1.5224826711346395e-05 1.0180325508117676 1 True False
18452.022 3.4392733573913574 -1.207272694712021 1.4540827910052698 -1.8176328144469203 -1.5707972685443323 1.8684450387954712 1.044039249420166 -0.07217976450920105 0.10064011812210083 -0.027826830744743347 5.748478724854067e-05 1.0509071350097656 1 True False
18452.072 3.4916391372680664 -1.2108554405025025 1.4591215292560022 -1.8191243610777796 -1.570784870778219 1.9207677841186523 1.0448676347732544 -0.07147081196308136 0.10558260232210159 -0.027084829285740852 -5.1901923143304884e-05 1.043086290359497 1 True False
18452.122 3.5439507961273193 -1.214501605635025 1.4640935103045862 -1.8205028973021449 -1.570784870778219 1.9732638597488403 1.0503649711608887 -0.07247041910886765 0.10166151076555252 -0.0274385754019022 -0.00018033545347861946 1.0491797924041748 1 True False
18452.172 3.5963501930236816 -1.2181095343879242 1.469109837208883 -1.8218823872008265 -1.5708087126361292 2.0254313945770264 1.0452743768692017 -0.07078590989112854 0.10318135470151901 -0.024388018995523453 -0.00012606980453711003 1.0559029579162598 1 True False
18452.221999999998 3.6487205028533936 -1.2216780644706269 1.4742701689349573 -1.8232585392394007 -1.5707843939410608 2.077808141708374 1.0439013242721558 -0.07026194036006927 0.09744870662689209 -0.02735830470919609 -9.274289186578244e-05 1.0438188314437866 1 True False
18452.272 3.7010583877563477 -1.225316510801651 1.4792793432818812 -1.8246175251402796 -1.5707648436175745 2.130406618118286 1.051161766052246 -0.0711296871304512 0.10071276873350143 -0.02833816595375538 -4.31147163908463e-05 1.0489845275878906 1 True False
18452.322 3.7534377574920654 -1.228824720983841 1.4842174688922327 -1.8261929951109828 -1.5707967917071741 2.182659387588501 1.0442997217178345 -0.07714975625276566 0.09940687566995621 -0.028804609552025795 -3.068141813855618e-05 1.0462971925735474 1 True False
18452.372 3.8058249950408936 -1.2324367326549073 1.4892271200763147 -1.8275119266905726 -1.5707886854754847 2.23496413230896 1.045798420906067 -0.07389537990093231 0.09819719940423965 -0.025952277705073357 -1.5575833458569832e-05 1.042096734046936 1 True False
18452.422 3.8581268787384033 -1.2361543637565156 1.4942486921893519 -1.828867574731344 -1.5707886854754847 2.2874410152435303 1.0512750148773193 -0.07165312021970749 0.09908351302146912 -0.027207806706428528 -1.6708222485428313e-19 1.0456247329711914 1 True False
18452.471999999998 3.910446882247925 -1.239768610601761 1.4991510550128382 -1.830310960809225 -1.5708211104022425 2.3396008014678955 1.050618290901184 -0.07280726730823517 0.10412078350782394 -0.025893645361065865 -0.0002637510187923908 1.0541009902954102 1 True False
18452.522 3.9628427028656006 -1.243375228052475 1.5043061415301722 -1.8317347965636195 -1.5708211104022425 2.3919763565063477 1.0462181568145752 -0.0714724063873291 0.09838581085205078 -0.03021705336868763 -1.0466268476894136e-11 1.0375093221664429 1 True False
18452.572 4.015295028686523 -1.2469241482070466 1.5093839804278772 -1.8331777058043421 -1.5708168188678187 2.4445133209228516 1.048784613609314 -0.06928729265928268 0.09870943427085876 -0.03111129254102707 -1.5898282737809164e-30 1.0433505773544312 1 True False
18452.622 4.067582607269287 -1.2505694192698975 1.514336887990133 -1.8345571957030238 -1.5707972685443323 2.49674654006958 1.0491403341293335 -0.07252379506826401 0.10136741399765015 -0.02184758335351944 -0.0 1.0499590635299683 1 True False
18452.672 4.120030403137207 -1.254178212290146 1.5192597548114222 -1.8359409771361292 -1.570768181477682 2.5490686893463135 1.043127417564392 -0.06949464976787567 0.10214219987392426 -0.029686521738767624 -0.0 1.048027753829956 1 True False
18452.721999999998 4.17233943939209 -1.257789985542633 1.5243671576129358 -1.8373080692686976 -1.5708373228656214 2.6016576290130615 1.0498294830322266 -0.07232633233070374 0.09928937256336212 -0.030670534819364548 4.2713541915873066e-05 1.0478085279464722 1 True False
18452.772 4.224600791931152 -1.2613277298263093 1.529273811970846 -1.838687082330221 -1.5707529226886194 2.6538162231445312 1.047695517539978 -0.0740746259689331 0.09890452772378922 -0.025994572788476944 2.5363996804017756e-19 1.0544365644454956 1 True False
18452.822 4.276970386505127 -1.265097902422287 1.5343769232379358 -1.8402139149107875 -1.5708006064044397 2.706021785736084 1.0434514284133911 -0.07220292091369629 0.10169690102338791 -0.027880722656846046 3.8527958588424753e-38 1.0452446937561035 1 True False
18452.872 4.328396797180176 -1.2685753268054505 1.5393856207477015 -1.8415261707701625 -1.5707810560809534 2.7576911449432373 0.9956255555152893 -0.069298155605793 0.09153499454259872 -0.027143511921167374 4.900546991848387e-05 0.9924920797348022 1 True False
18452.922 4.376384735107422 -1.2718852323344727 1.5439942518817347 -1.8426948986449183 -1.5707605520831507 2.8055574893951416 0.9231486320495605 -0.06400316953659058 0.08639677613973618 -0.029919324442744255 4.251660827541632e-23 0.9311375617980957 1 True False
18452.971999999998 4.420956134796143 -1.2749571067145844 1.5481122175799769 -1.8439790211119593 -1.570756737385885 2.8501975536346436 0.8618683815002441 -0.05663388967514038 0.08287006616592407 -0.0220110435038805 -3.119190594702559e-08 0.8560353517532349 1 True False
18453.022 4.4618964195251465 -1.2777704757503052 1.5519726912127894 -1.8450762234129847 -1.5707929770099085 2.891146421432495 0.7833922505378723 -0.056711167097091675 0.0771048441529274 -0.020875627174973488 -0.0001607739250175655 0.7806752920150757 1 True False
18453.072 4.499440670013428 -1.2803572875312348 1.555716339741842 -1.846098085443014 -1.5707967917071741 2.928614377975464 0.7110242247581482 -0.04803657531738281 0.06874604523181915 -0.02163582295179367 2.0702611891465494e-07 0.7200372815132141 1 True False
18453.122 4.533611297607422 -1.28274159253154 1.5588143507586878 -1.8471037350096644 -1.5707805792437952 2.962693452835083 0.6477972269058228 -0.04488097503781319 0.0645117461681366 -0.015682900324463844 3.1447308281613877e-26 0.6622345447540283 1 True False
18453.172 4.564109802246094 -1.2848297220519562 1.5618475119220179 -1.8478390179076136 -1.5707486311541956 2.993248462677002 0.5779976844787598 -0.03795548155903816 0.05683239549398422 -0.01245678961277008 5.148703322412421e-15 0.5837404727935791 1 True False
18453.221999999998 4.591288089752197 -1.2866859298995514 1.564409081135885 -1.8485585651793421 -1.5707767645465296 3.0201468467712402 0.5087140798568726 -0.03675365075469017 0.048546113073825836 -0.012693258002400398 7.820890850387001e-34 0.5149860382080078 1 True False
18453.272 4.614640712738037 -1.2883019012263794 1.5667184034930628 -1.8491903744139613 -1.5708325544940394 3.043968915939331 0.440297394990921 -0.029395561665296555 0.04333631694316864 -0.010340481996536255 -0.0005845666746608913 0.432381808757782 1 True False
18453.322 4.634653568267822 -1.2896664005569 1.5687277952777308 -1.8497349224486292 -1.5708211104022425 3.064082145690918 0.3640362620353699 -0.025622304528951645 0.03160073980689049 -0.011438686400651932 6.905955274305597e-07 0.3663824796676636 1 True False
18453.372 4.651546478271484 -1.2909288865378876 1.5702956358539026 -1.8501173458495082 -1.5708335081683558 3.0805258750915527 0.2929550111293793 -0.018934927880764008 0.02795209363102913 -0.010734468698501587 0.00021055684192106128 0.3034694492816925 1 True False
18453.422 4.6645050048828125 -1.291730062370636 1.5715907255755823 -1.85048307994985 -1.5707805792437952 3.093787670135498 0.2319311797618866 -0.015299915336072445 0.022076044231653214 -0.006344258319586515 2.6134802149768453e-20 0.22520363330841064 1 True False
18453.471999999998 4.6742472648620605 -1.2924560767463227 1.572395149861471 -1.8507095775999964 -1.5708168188678187 3.103445053100586 0.15854406356811523 -0.01173467468470335 0.016099125146865845 -0.004174713511019945 3.9698827533276e-39 0.15559661388397217 1 True False
18453.522 4.680348873138428 -1.2928049725345154 1.5730326811419886 -1.850936075250143 -1.570813004170553 3.109429121017456 0.08895665407180786 -0.004473730456084013 0.007882243022322655 -0.0026292912662029266 0.0 0.09173661470413208 1 True False
18453.572 4.682843208312988 -1.2929347616485138 1.5731847921954554 -1.8509594402708949 -1.5708168188678187 3.112076997756958 0.01995694264769554 -0.0009327513980679214 0.0009442621958442032 -0.0010760066797956824 0.0 0.020656097680330276 1 True False
18453.622 4.682887077331543 -1.2927351158908387 1.573904816304342 -1.8521014652647914 -1.5708282629596155 3.1121315956115723 -0.0003027812344953418 0.013744344003498554 0.032683201134204865 -0.03751004859805107 -1.3542734988991612e-10 0.00021704108803533018 1 True False
18453.672 4.682939529418945 -1.2913305920413514 1.5766962210284632 -1.8564354381956996 -1.570813004170553 3.1121630668640137 0.0003188041446264833 0.04276367276906967 0.0757131427526474 -0.11307802051305771 -2.0571444542779997e-29 0.0006188449333421886 1 True False
18453.721999999998 4.682877063751221 -1.2885556680015107 1.5817773977862757 -1.8642479381956996 -1.5708044211017054 3.1122286319732666 0.00036580258165486157 0.0717787817120552 0.1267499476671219 -0.18412639200687408 -0.0 0.000499851128552109 1 True False
18453.772 4.682999134063721 -1.2844301623157044 1.5892251173602503 -1.875472208062643 -1.570796314870016 3.112165927886963 0.00040898696170188487 0.08975282311439514 0.17190589010715485 -0.26493966579437256 6.450427463278174e-05 0.00028030137764289975 1 True False
18453.822 4.683011054992676 -1.2792340976050873 1.598807160054342 -1.890397687951559 -1.5708168188678187 3.1122069358825684 0.00017600395949557424 0.11546777188777924 0.2146041840314865 -0.33439531922340393 8.989091782041214e-08 7.156341741421102e-09 1 True False
18453.872 4.683028221130371 -1.2727297109416504 1.610772434865133 -1.908687253991598 -1.5707767645465296 3.1121985912323 0.00011354876914992929 0.13823267817497253 0.2549692392349243 -0.3959726095199585 1.3654450415996847e-26 1.087049749615571e-27 1 True False
18453.922 4.682998180389404 -1.2650602620891114 1.6247323195086878 -1.9303175411620082 -1.5708335081683558 3.1122405529022217 9.747723379405215e-05 0.16883647441864014 0.31557926535606384 -0.4620380699634552 1.401298464324817e-45 0.0 1 True False
18453.971999999998 4.683014392852783 -1.2561612886241456 1.6413357893573206 -1.955719610253805 -1.570784870778219 3.112227439880371 8.613960380898789e-05 0.19286242127418518 0.34770628809928894 -0.527214527130127 4.623858668997491e-14 0.0 1 True False
18454.022 4.683042526245117 -1.2467523974231263 1.658595387135641 -1.9825450382628382 -1.5707767645465296 3.112190008163452 6.991148984525353e-05 0.1751503348350525 0.33133697509765625 -0.5168027877807617 7.023650745192156e-33 0.0 1 True False
18454.072 4.683067321777344 -1.238460735683777 1.67399770418276 -2.006156106988424 -1.570756737385885 3.112231731414795 4.4825923159115695e-28 0.15308928489685059 0.28197523951530457 -0.43756118416786194 0.0 0.0 1 True False
18454.122 4.683043479919434 -1.2314273876002808 1.686965290700094 -2.0263616047301234 -1.5707891623126429 3.1122360229492188 3.145691880490631e-05 0.13408443331718445 0.24188938736915588 -0.35542184114456177 0.0 0.0 1 True False
18454.172 4.683030605316162 -1.2255965036204834 1.6978896299945276 -2.0430571041502894 -1.5707805792437952 3.1122405529022217 -2.4203855246820926e-29 0.10650308430194855 0.19689328968524933 -0.3009311556816101 0.0 0.0 1 True False
18454.221999999998 4.682994842529297 -1.220860705976822 1.7062528769122522 -2.056322237054342 -1.5707805792437952 3.11221981048584 0.0 0.07722491770982742 0.15163996815681458 -0.23770193755626678 0.0 0.0 1 True False
18454.272 4.683018684387207 -1.2174823743155976 1.7125523726092737 -2.06593718151235 -1.5707925001727503 3.1122405529022217 0.0 0.05583793669939041 0.10526884347200394 -0.14945600926876068 0.0 -4.1592535126255825e-05 1 True False
18454.322 4.6830153465271 -1.2153731745532532 1.7164877096759241 -2.0720988712706507 -1.5707686583148401 3.112231731414795 0.0 0.028540583327412605 0.06144557520747185 -0.08935678750276566 0.0 -3.858797936118208e-05 1 True False
18454.372 4.683043479919434 -1.2143631142428895 1.7183521429644983 -2.0747677288451136 -1.5708487669574183 3.1122729778289795 0.0 0.0052373409271240234 0.01393107883632183 -0.02541174553334713 0.0 -3.768396709347144e-05 1 True False
18454.422 4.683006763458252 -1.2143287521651764 1.7184374968158167 -2.0749107799925746 -1.5708087126361292 3.112166166305542 0.0 -2.5160630059885642e-33 1.8726516038193851e-19 7.498770719394088e-05 0.0 -5.896433341590068e-10 1 True False
18454.471999999998 4.682978630065918 -1.2143004399589081 1.718440357838766 -2.0749551258482875 -1.5707886854754847 3.1121792793273926 0.0 0.0 0.0003889387589879334 -4.628034002962522e-05 0.0 -9.034597070467498e-08 1 True False
18454.522 4.683035850524902 -1.2143168312362214 1.7184808889972132 -2.0749107799925746 -1.570801083241598 3.1122117042541504 0.0 0.0 0.0011844625696539879 -4.225588418194093e-05 0.0 -1.3723575893560794e-26 1 True False
18454.572 4.68303918838501 -1.214379445915558 1.7184627691852015 -2.074963232079977 -1.570801083241598 3.112182378768921 0.0 0.00018194432777818292 0.00029984430875629187 -4.049604831379838e-05 0.0 -1.401298464324817e-45 1 True False
18454.622 4.682989120483398 -1.2142768067172547 1.7184627691852015 -2.07491459468984 -1.570784870778219 3.112166166305542 0.0 0.00018763836123980582 0.000122181634651497 -6.135119474492967e-05 0.0 -0.0 1 True False
18454.672 4.683022975921631 -1.2143095296672364 1.7184718290912073 -2.0749312839903773 -1.5708172957049769 3.1122243404388428 -7.8850100494214e-35 0.00011663275654427707 7.803819607943296e-05 -4.488249994892638e-22 0.0 -0.0 1 True False
18454.721999999998 4.682990550994873 -1.2143794757178803 1.7184956709491175 -2.074883123437399 -1.570784870778219 3.1122610569000244 0.0 0.00014161098806653172 2.62497560470365e-05 -6.958760786801577e-05 0.0 -0.0 1 True False
18454.772 4.683047771453857 -1.21433641136203 1.7184866110431116 -2.074918886224264 -1.5707925001727503 3.1122329235076904 0.0 0.0001140460153692402 5.531920699297643e-09 -6.0222402680665255e-05 0.0 -0.0 1 True False
18454.822 4.682986259460449 -1.214322881107666 1.7185290495501917 -2.074975153008932 -1.570784870778219 3.1121912002563477 -2.9875045584049076e-05 5.63841313123703e-05 1.301719392852967e-38 -3.3285212812113477e-23 0.0 -0.0 1 True False
18454.872 4.683043479919434 -1.2143095892718812 1.7184799353228968 -2.0749227009215296 -1.5707686583148401 3.1121912002563477 2.262937170982582e-09 4.394211282487959e-05 0.0 -5.05588485928394e-42 0.0 -0.0 1 True False
18454.922 4.6830573081970215 -1.214322881107666 1.7184675375567835 -2.0749312839903773 -1.5708168188678187 3.1122360229492188 0.0 2.728805884544272e-05 0.0 -4.20699716846254e-18 0.0 -2.6579868948189977e-12 1 True False
18454.971999999998 4.683006763458252 -1.2143200200847168 1.7184913794146937 -2.074979444543356 -1.5707443396197718 3.1122286319732666 0.0 6.23608775640605e-06 0.0 -6.390437123571546e-37 0.0 -3.7558140775217908e-06 1 True False
18455.022 4.683006286621094 -1.2144320470145722 1.7183240095721644 -2.0750776729979457 -1.5707719961749476 3.1122360229492188 0.0 -6.159246662771744e-16 -9.374986257171258e-05 -0.001048100064508617 0.0001140304739237763 -0.00024019340344239026 1 True False
18455.072 4.682994842529297 -1.2143525940230866 1.7183387915240687 -2.0750819645323695 -1.5707882086383265 3.112231731414795 0.0 0.0002643039624672383 -4.042539766157232e-32 -6.761136983612914e-09 4.411888221511617e-05 -5.5341588449664414e-05 1 True False
18455.122 4.682994842529297 -1.214412884121277 1.718379322682516 -2.075001379052633 -1.5707686583148401 3.112271785736084 0.0 -0.005688241217285395 -0.00872812606394291 0.019536510109901428 2.7355037673260085e-05 -3.1288400350604206e-05 1 True True
18455.172 4.683034896850586 -1.2147852939418335 1.7174561659442347 -2.072435518304342 -1.5708206335650843 3.112255573272705 0.0 -0.02278493158519268 -0.04849708825349808 0.0757516548037529 2.1014108508854434e-10 -4.361974060884677e-05 1 True True
18455.221999999998 4.683011054992676 -1.217136726980545 1.7133916060077112 -2.066803117791647 -1.5707724730121058 3.1121985912323 0.0 -0.055213313549757004 -0.10417043417692184 0.1662662774324417 3.1920474241098957e-29 -4.130310081053361e-18 1 True True
18455.272 4.682999134063721 -1.2203712922385712 1.7072284857379358 -2.057359834710592 -1.5707686583148401 3.11221981048584 0.0 -0.08295897394418716 -0.142856165766716 0.21190404891967773 0.0 -1.9032490469894643e-20 1 True True
18455.322 4.6830244064331055 -1.2249868673137208 1.698949162160055 -2.04458012203359 -1.5708048979388636 3.1122286319732666 0.0 -0.10147620737552643 -0.18666861951351166 0.2992534339427948 0.0 -2.891039881225495e-39 1 True True
18455.372 4.68297815322876 -1.2307518881610413 1.6880748907672327 -2.0283829174437464 -1.570813004170553 3.1122360229492188 0.0 -0.1261862963438034 -0.23486438393592834 0.35505133867263794 0.0 -6.476247654063627e-05 1 True True
18455.422 4.682997703552246 -1.237574504022934 1.67540151277651 -2.008577962914938 -1.5708168188678187 3.112166166305542 0.0 -0.15108565986156464 -0.2836487591266632 0.4275190830230713 0.0 -3.152890215574189e-08 1 True True
18455.471999999998 4.68297815322876 -1.2458461684039612 1.6602605024920862 -1.9851952991881312 -1.5707810560809534 3.112215518951416 0.0 -0.17315778136253357 -0.32228466868400574 0.49676278233528137 0.0 -4.7892477409346494e-27 1 True True
18455.522 4.683048248291016 -1.25530959785495 1.64301044145693 -1.9585448704161585 -1.5708168188678187 3.1122028827667236 0.0 -0.1830405741930008 -0.3450656533241272 0.5470371842384338 0.0 -1.401298464324817e-45 1 True True
18455.572 4.683013916015625 -1.2641796630671998 1.6263330618487757 -1.9329282246031703 -1.5707929770099085 3.1122028827667236 0.0 -0.16832612454891205 -0.3096320927143097 0.48263001441955566 0.0 -0.0 1 True True
18455.622 4.6829328536987305 -1.2719779175570984 1.6121004263507288 -1.910804887811178 -1.5707967917071741 3.112178087234497 0.0 -0.14490066468715668 -0.2687802016735077 0.415508508682251 0.0 -0.0 1 True True
18455.672 4.682997703552246 -1.2786396604827424 1.5999162832843226 -1.8920299015440882 -1.5707929770099085 3.1121997833251953 0.0 -0.11723455786705017 -0.22179462015628815 0.3441784679889679 0.0 -0.0 1 True True
18455.721999999998 4.68303918838501 -1.2839602392962952 1.5901177565204065 -1.877023836175436 -1.5708087126361292 3.1122360229492188 -2.2802381605047409e-29 -0.09509626030921936 -0.17284835875034332 0.26934653520584106 0.0 -0.0 1 True True
18455.772 4.682973861694336 -1.288032279615738 1.5825064818011683 -1.865265508691305 -1.5707810560809534 3.1122846603393555 0.0 -0.07167431712150574 -0.1300252079963684 0.20403891801834106 0.0 -0.0 1 True True
18455.822 4.68303918838501 -1.2908796232989808 1.5772431532489222 -1.8569489918150843 -1.570756737385885 3.1122074127197266 0.0 -0.04597795009613037 -0.07963763177394867 0.121485136449337 0.0 -0.0 1 True True
18455.872 4.683069229125977 -1.2925464075854798 1.5741713682757776 -1.8521791897215785 -1.5707691351519983 3.1121866703033447 0.0 -0.022197362035512924 -0.043869953602552414 0.061355721205472946 0.0 -0.0 1 True True
18455.922 4.682985782623291 -1.2929501694491883 1.5733078161822718 -1.8510948620238246 -1.5707686583148401 3.1122028827667236 -0.012308279983699322 -1.432694327757611e-11 -0.0003095497959293425 -0.001740993233397603 0.0 -0.008186781778931618 1 True True
18455.971999999998 4.681888103485107 -1.293048457508423 1.5733254591571253 -1.85107483486318 -1.5708006064044397 3.1099960803985596 -0.03927404433488846 -0.0012713407631963491 -5.5602798965992406e-05 0.00016838125884532928 0.0 -0.07925821095705032 1 True True
18456.022 4.678876876831055 -1.293123946791031 1.5733240286456507 -1.851091047326559 -1.5708006064044397 3.1041481494903564 -0.07902223616838455 -0.004686952102929354 0.0007792736287228763 0.0003215382166672498 0.0 -0.14805635809898376 1 True True
18456.072 4.674102783203125 -1.2932589811137696 1.5735152403460901 -1.851051469842428 -1.5707886854754847 3.094912052154541 -0.11396199464797974 -0.004778981674462557 0.004217575304210186 4.5966222387505695e-05 0.0 -0.21265441179275513 1 True True
18456.122 4.667390823364258 -1.2934920352748414 1.573824707661764 -1.8510829410948695 -1.570829216633932 3.082265615463257 -0.14755113422870636 -0.004687754902988672 0.006372950971126556 8.759225305797133e-14 0.0 -0.2948993146419525 1 True True
18456.172 4.659038066864014 -1.293790654545166 1.5741317907916468 -1.851194520989889 -1.5708330313311976 3.065944194793701 -0.18771713972091675 -0.007047336082905531 0.009133902378380299 -0.0030771049205213785 0.0 -0.3566242754459381 1 True True
18456.221999999998 4.648873805999756 -1.2940559846213837 1.574613396321432 -1.8512898884215296 -1.5707929770099085 3.046298027038574 -0.22132335603237152 -0.006617891136556864 0.00822534877806902 -0.002374437404796481 0.0 -0.4287755489349365 1 True True
18456.272 4.6368327140808105 -1.294491396551468 1.5750826040851038 -1.8514172039427699 -1.570784870778219 3.0229854583740234 -0.2559036910533905 -0.008341118693351746 0.010451090522110462 -0.0033194608986377716 -4.248187088565225e-13 -0.4889737367630005 1 True True
18456.322 4.623114585876465 -1.2947868567756196 1.5755327383624476 -1.8515564403929652 -1.5707572142230433 2.996234655380249 -0.2942499816417694 -0.00897489208728075 0.010566525161266327 -0.002993622561916709 -6.453002016734485e-32 -0.5626814365386963 1 True True
18456.372 4.6073150634765625 -1.2952925723842164 1.576130215321676 -1.8516832790770472 -1.570841137562887 2.9660654067993164 -0.3267570436000824 -0.009997115470468998 0.01426284946501255 -0.0035216291435062885 -0.0 -0.631253182888031 1 True True
18456.422 4.590067386627197 -1.2958292228034516 1.5768011252032679 -1.8518020115294398 -1.5707562605487269 2.932394504547119 -0.3685204088687897 -0.011193577200174332 0.013447598554193974 -0.004957425873726606 -2.1525745978578925e-05 -0.7041113972663879 1 True True
18456.471999999998 4.570725440979004 -1.2963785094073792 1.5774853865252894 -1.8519979916014613 -1.5708330313311976 2.8954081535339355 -0.39781951904296875 -0.011797039769589901 0.015514211729168892 -0.0043823011219501495 6.542271080434148e-08 -0.769932746887207 1 True True
18456.522 4.549627780914307 -1.296998844747879 1.5783751646624964 -1.8521558247008265 -1.5708006064044397 2.8547589778900146 -0.43915483355522156 -0.013680876232683659 0.01723751239478588 -0.004464813973754644 9.937723016584317e-27 -0.8465493321418762 1 True True
18456.572 4.527009963989258 -1.2977306109717865 1.5792515913592737 -1.8523789844908656 -1.5707772413836878 2.810396432876587 -0.4765281677246094 -0.01431187056005001 0.020232710987329483 -0.0045473757199943066 1.401298464324817e-45 -0.9176362156867981 1 True True
18456.622 4.502294063568115 -1.2983293694308777 1.5801861921893519 -1.8525577984251917 -1.570784870778219 2.7629101276397705 -0.5074520111083984 -0.015568649396300316 0.019979847595095634 -0.0036010341718792915 3.1952437522025576e-14 -0.9840151071548462 1 True True
18456.672 4.475580215454102 -1.2991947096637269 1.5811737219439905 -1.8528882465758265 -1.5708406607257288 2.7116971015930176 -0.5344126224517822 -0.016354134306311607 0.022060994058847427 -0.005616165231913328 -0.001127712894231081 -1.0399525165557861 1 True True
18456.721999999998 4.4486236572265625 -1.299957589512207 1.5823033491717737 -1.853114744225973 -1.5708087126361292 2.659395933151245 -0.5491237044334412 -0.015543482266366482 0.019093479961156845 -0.009267643094062805 -0.002534758299589157 -1.0588977336883545 1 True True
18456.772 4.421682834625244 -1.3007722061923523 1.5833752791034144 -1.8532740078368128 -1.5707204977618616 2.607120990753174 -0.5434575080871582 -0.016047140583395958 0.020104868337512016 -0.004472572822123766 0.0006636432954110205 -1.0408371686935425 1 True True
18456.822 4.39476203918457 -1.3016384106925507 1.5843475500689905 -1.853584428826803 -1.5707204977618616 2.554600477218628 -0.5394124984741211 -0.016766928136348724 0.02148689143359661 -0.0028489709366112947 0.0008283360511995852 -1.0442243814468384 1 True True
18456.872 4.367692470550537 -1.3023391228965302 1.5854504744159144 -1.8537899456419886 -1.570772949849264 2.5023672580718994 -0.5354445576667786 -0.01850149966776371 0.02211335115134716 -0.0009529952076263726 0.002284667221829295 -1.0541439056396484 1 True True
18456.922 4.34039831161499 -1.3031225961497803 1.5864389578448694 -1.854112287560934 -1.5707686583148401 2.4501142501831055 -0.5377472043037415 -0.017273208126425743 0.021529754623770714 -0.0030859827529639006 -5.1499620894901454e-05 -1.0482733249664307 1 True True
18456.971999999998 4.3130574226379395 -1.3039174538901825 1.5874159971820276 -1.8543549976744593 -1.5708687941180628 2.3975512981414795 -0.5434812307357788 -0.01471334882080555 0.019653944298624992 -0.006615688093006611 -0.0010509658604860306 -1.0405726432800293 1 True True
18457.022 4.285977840423584 -1.3047489684871216 1.588550869618551 -1.8545414410033167 -1.5708168188678187 2.3453211784362793 -0.5480765700340271 -0.01292916014790535 0.018885551020503044 -0.008414234034717083 -0.001286505488678813 -1.0524839162826538 1 True True
18457.072 4.2589216232299805 -1.305642620926239 1.5895574728595179 -1.854732175866598 -1.5708211104022425 2.2929787635803223 -0.5490348935127258 -0.013991519808769226 0.01817585900425911 -0.007419358007609844 -0.00041851369314827025 -1.044783353805542 1 True True
18457.122 4.232019901275635 -1.306437448864319 1.59068471590151 -1.8549353084959925 -1.570716683064596 2.2404696941375732 -0.5437507629394531 -0.01524050161242485 0.018506724387407303 -0.0056576780043542385 0.000411281333072111 -1.0415843725204468 1 True True
18457.172 4.205029010772705 -1.30721731603656 1.5916522184955042 -1.855218072930807 -1.5707486311541956 2.1881582736968994 -0.5396586656570435 -0.015713335946202278 0.023526323959231377 -0.0029604702722281218 0.0007383415941148996 -1.0540295839309692 1 True True
18457.221999999998 4.17799711227417 -1.308079020386078 1.5926740805255335 -1.8554684124388636 -1.5707529226886194 2.135915517807007 -0.5364015102386475 -0.01822257973253727 0.023386655375361443 -0.002252807142212987 0.0013578743673861027 -1.0473829507827759 1 True True
18457.272 4.1507768630981445 -1.3087526720813294 1.593762222920553 -1.8556786976256312 -1.5707605520831507 2.083345890045166 -0.533189058303833 -0.016994893550872803 0.02265135571360588 -0.0015207665273919702 0.0027531005907803774 -1.0417180061340332 1 True True
18457.322 4.123496055603027 -1.3095376950553437 1.5947330633746546 -1.8559805355467738 -1.5708368460284632 2.0310733318328857 -0.5427546501159668 -0.015572899952530861 0.021131906658411026 -0.003453864948824048 -0.00029967533191666007 -1.0522775650024414 1 True True
18457.372 4.096285820007324 -1.3104160291007538 1.595865551625387 -1.8562070331969203 -1.5708568731891077 1.9788111448287964 -0.5441610217094421 -0.015186451375484467 0.019172772765159607 -0.008554133586585522 -0.0008806148543953896 -1.044657826423645 1 True True
18457.422 4.069269180297852 -1.311272458439209 1.5969341436969202 -1.8564707241454066 -1.5708168188678187 1.9263228178024292 -0.5462486147880554 -0.013041889294981956 0.019155971705913544 -0.008902451954782009 -0.0019731572829186916 -1.040384292602539 1 True True
18457.471999999998 4.042330741882324 -1.312019096021988 1.5979169050799769 -1.856668611566061 -1.5708377997027796 1.8739774227142334 -0.5469006896018982 -0.014399630017578602 0.019013499841094017 -0.008665062487125397 -0.00010856174776563421 -1.0524613857269287 1 True True
18457.522 4.015471935272217 -1.3128507894328614 1.599023167287008 -1.856851717034811 -1.5707371870623987 1.8217856884002686 -0.5398055911064148 -0.017526738345623016 0.022128738462924957 -0.0045961434952914715 0.0006280980305746198 -1.0464445352554321 1 True True
18457.572 3.9883484840393066 -1.313720778828003 1.599966828023092 -1.8570739231505335 -1.5707648436175745 1.769267201423645 -0.5337418913841248 -0.016808776184916496 0.02408689633011818 -0.0015348970191553235 0.0010631339391693473 -1.043738603591919 1 True True
18457.622 3.961113691329956 -1.3144532603076478 1.601027790700094 -1.8573762379088343 -1.5707972685443323 1.716822862625122 -0.5377499461174011 -0.017870500683784485 0.021229805424809456 -0.0022823249455541372 0.003690736833959818 -1.0476040840148926 1 True True
18457.672 3.933950662612915 -1.3152623933604737 1.6021364370929163 -1.8576427898802699 -1.5708492437945765 1.6645885705947876 -0.5392929315567017 -0.016699815168976784 0.022868270054459572 -0.002459712326526642 -0.0003478490689303726 -1.0509265661239624 1 True True
18457.721999999998 3.9067420959472656 -1.3159959477237244 1.603126351033346 -1.8579288921751917 -1.5708888212787073 1.6121833324432373 -0.5448439121246338 -0.014249072410166264 0.018090900033712387 -0.007725144736468792 -0.0006435252144001424 -1.0437535047531128 1 True True
18457.772 3.8796446323394775 -1.3168565195849915 1.6041582266436976 -1.8580957851805628 -1.5708730856524866 1.5598118305206299 -0.5487112402915955 -0.014141430146992207 0.016820285469293594 -0.007681446615606546 -0.0013355984119698405 -1.0563230514526367 1 True True
18457.822 3.8526360988616943 -1.3176162999919434 1.6051901022540491 -1.8583785496153773 -1.5707724730121058 1.50754976272583 -0.5483012795448303 -0.014680431224405766 0.01890379935503006 -0.007867095991969109 -0.0028280008118599653 -1.0468263626098633 1 True True
18457.872 3.8257691860198975 -1.3185158532908936 1.6062987486468714 -1.8584886989989222 -1.5707610289203089 1.45512056350708 -0.5423117280006409 -0.016780974343419075 0.020390676334500313 -0.0038062038365751505 0.0005728724645450711 -1.0458455085754395 1 True True
18457.922 3.798682451248169 -1.3193105322173615 1.6072853247271937 -1.8587595425047816 -1.5707610289203089 1.4027374982833862 -0.5367826819419861 -0.016548486426472664 0.022730497643351555 -0.0029667364433407784 0.0009764295537024736 -1.0472766160964966 1 True True
18457.971999999998 3.771589994430542 -1.3200370234302063 1.608363453541891 -1.8590136967101039 -1.5707772413836878 1.3504005670547485 -0.5351419448852539 -0.01702233776450157 0.022185713052749634 -0.0018938056891784072 0.00250060623511672 -1.0490344762802124 1 True True
18458.022 3.744277000427246 -1.3208594036153336 1.6094358603106897 -1.859324117700094 -1.5707891623126429 1.2980619668960571 -0.535128653049469 -0.01777140609920025 0.02271495759487152 -0.0021684535313397646 -7.221670966828242e-05 -1.0444916486740112 1 True True
18458.072 3.717108726501465 -1.3216483753970643 1.6103537718402308 -1.8595944843687953 -1.5708487669574183 1.2456634044647217 -0.5418230891227722 -0.016255008056759834 0.02084767445921898 -0.006342222914099693 -0.0006532710394822061 -1.052492380142212 1 True True
18458.122 3.6899778842926025 -1.3223475378802796 1.6113980452166956 -1.8598691425719203 -1.5708726088153284 1.193375825881958 -0.5443557500839233 -0.013908876106142998 0.017973005771636963 -0.008585900068283081 -0.0008757821633480489 -1.0445841550827026 1 True True
18458.172 3.6628777980804443 -1.3232409369996567 1.6124780813800257 -1.8600641689696253 -1.570853058491842 1.1409406661987305 -0.5501512289047241 -0.014586067758500576 0.020096952095627785 -0.00832450296729803 -0.002804539632052183 -1.0437909364700317 1 True True
18458.221999999998 3.6359896659851074 -1.3240821969560166 1.6135180632220667 -1.8602029285826625 -1.5707853476153772 1.0885261297225952 -0.5467665791511536 -0.015128257684409618 0.02011077292263508 -0.0058770552277565 0.00042637254227884114 -1.0451328754425049 1 True True
18458.272 3.6089649200439453 -1.3249048006585618 1.6146257559405726 -1.860469480554098 -1.570704762135641 1.0362370014190674 -0.5394543409347534 -0.016363374888896942 0.021944560110569 -0.0026552260387688875 0.0007469833362847567 -1.0455527305603027 1 True True
18458.322 3.581911325454712 -1.3256720763495942 1.6156695524798792 -1.8607036075987757 -1.5708172957049769 0.9838639497756958 -0.5360234975814819 -0.018680274486541748 0.023814743384718895 -0.002365365158766508 0.0016793719260022044 -1.0486936569213867 1 True True
18458.372 3.554744005203247 -1.3264728498509903 1.6166933218585413 -1.8609825573363246 -1.570772949849264 0.931585431098938 -0.537291407585144 -0.017812952399253845 0.022364862263202667 -0.0031520819757133722 0.00017477200890425593 -1.0489025115966797 1 True True
18458.422 3.527538776397705 -1.32728827119384 1.617730442677633 -1.861276765862936 -1.5708044211017054 0.8792257905006409 -0.5403952598571777 -0.01662956178188324 0.02025657519698143 -0.0029460203368216753 -0.00010258892871206626 -1.0477739572525024 1 True True
18458.471999999998 3.50032377243042 -1.328026996260025 1.6187236944781702 -1.8615309200682582 -1.5708769003497522 0.8267796039581299 -0.5407912135124207 -0.014392363838851452 0.019020309671759605 -0.005262413993477821 -0.0009038749849423766 -1.0416587591171265 1 True True
18458.522 3.4732189178466797 -1.3288252365640183 1.6197293440448206 -1.8616935215392054 -1.570857350026266 0.774444580078125 -0.5475155711174011 -0.013848862610757351 0.019907230511307716 -0.007908180356025696 -0.002342715859413147 -1.0504350662231445 1 True True
18458.572 3.446221113204956 -1.3297103208354493 1.6208012739764612 -1.8619567356505335 -1.5707562605487269 0.722137451171875 -0.5471562147140503 -0.015073743648827076 0.019492866471409798 -0.009015205316245556 -0.0001252432120963931 -1.0451350212097168 1 True True
18458.622 3.4193203449249268 -1.3304734987071534 1.6219094435321253 -1.862131258050436 -1.5707929770099085 0.6697680354118347 -0.5433241128921509 -0.017795812338590622 0.021233102306723595 -0.004899474326521158 0.00017442458192817867 -1.0504943132400513 1 True True
18458.672 3.3923323154449463 -1.33132620275531 1.6229446570025843 -1.862321516076559 -1.570704762135641 0.6173784136772156 -0.5378103852272034 -0.01700042188167572 0.024633346125483513 -0.0026548064779490232 0.0010563806863501668 -1.0479974746704102 1 True True
18458.721999999998 3.3650829792022705 -1.332092897301056 1.6239803473102015 -1.8626486263670863 -1.5707247892962855 0.5650495886802673 -0.5346338748931885 -0.01856984570622444 0.02308274433016777 -0.001871154410764575 0.0020530179608613253 -1.049898624420166 1 True True
18458.772 3.337984800338745 -1.3329665821841736 1.6249726454364222 -1.8628369770445765 -1.5708044211017054 0.512590229511261 -0.5413687825202942 -0.016587425023317337 0.020601164549589157 -0.0024244540836662054 0.00019281530694570392 -1.045878291130066 1 True True
18458.822 3.31073260307312 -1.3337219518474122 1.6260579268084925 -1.863185545007223 -1.5708211104022425 0.4602731764316559 -0.5417760610580444 -0.015897389501333237 0.02090262435376644 -0.005385010503232479 -0.00025363985332660377 -1.0486911535263062 1 True True
18458.872 3.283634901046753 -1.3344643276980896 1.6270526091205042 -1.8633510075011195 -1.5708368460284632 0.4078920781612396 -0.5464895963668823 -0.015169758349657059 0.018594885244965553 -0.006885468494147062 -0.001500332378782332 -1.0392178297042847 1 True True
18458.922 3.2565600872039795 -1.3353204292109986 1.6281521956073206 -1.8636137447752894 -1.5707967917071741 0.35560598969459534 -0.543106198310852 -0.014824328944087029 0.0203697606921196 -0.008691363036632538 2.2716107196174562e-05 -1.0505400896072388 1 True True
18458.971999999998 3.229621648788452 -1.3361303371242066 1.6292441526996058 -1.8637844524779261 -1.5707362333880823 0.3032059073448181 -0.5439410209655762 -0.016869347542524338 0.021006744354963303 -0.007146190851926804 0.00038999668322503567 -1.045625925064087 1 True True
18459.022 3.202552318572998 -1.336923362021782 1.630307976399557 -1.864063402215475 -1.5707529226886194 0.2509259581565857 -0.5395175218582153 -0.01577952317893505 0.020898891612887383 -0.004776297602802515 0.0009521726751700044 -1.0463402271270752 1 True True
18459.072 3.1763713359832764 -1.337707207804062 1.6313045660602015 -1.8643061123290003 -1.5707529226886194 0.2002147138118744 -0.5016576647758484 -0.015875695273280144 0.02253895439207554 -0.0019158736104145646 0.001285574515350163 -0.9782530665397644 1 True True
