Andreas691667/Digital_Twin_UR/data_analysis/busters_stuff/robot_data/robot_output_2_blocks_v3.csv
timestamp actual_q_0 actual_q_1 actual_q_2 actual_q_3 actual_q_4 actual_q_5 actual_qd_0 actual_qd_1 actual_qd_2 actual_qd_3 actual_qd_4 actual_qd_5 safety_status output_bit_register_65 output_bit_register_66
21212.424 3.7120935916900635 -0.8255037826350708 0.842971150075094 -1.588245531121725 -1.570772949849264 2.141239643096924 0.0 0.0 0.0 -0.0 0.0 0.0 1 False False
21212.474 3.7121024131774902 -0.8254793447307129 0.8429892698871058 -1.5882607899107875 -1.5708091894732874 2.1413002014160156 0.0 0.0 0.0 -0.0 0.0 0.0 1 False False
21212.523999999998 3.7120370864868164 -0.8255328697017212 0.8429425398456019 -1.588245531121725 -1.5707724730121058 2.1412503719329834 0.0 0.0 0.0 -0.0 0.0 0.0 1 False False
21212.574 3.7120654582977295 -0.8254825633815308 0.8429301420794886 -1.5882898769774378 -1.5707886854754847 2.1412839889526367 0.0 0.0 0.0 -0.0 0.0 0.0 1 False False
21212.624 3.7120535373687744 -0.8254750531962891 0.8429811636554163 -1.588269372979635 -1.5708449522601526 2.141329050064087 0.0 0.0 0.0 -0.0 0.0 0.0 1 False False
21212.674 3.7120296955108643 -0.825450138454773 0.8430145422564905 -1.5882898769774378 -1.5707686583148401 2.141279697418213 0.0 0.0 0.0 -0.0 0.0 0.0 1 False False
21212.724 3.7120819091796875 -0.8255037826350708 0.8429630438434046 -1.5882817707457484 -1.570756737385885 2.1412882804870605 0.0 0.0 0.0 -0.0 0.0 0.0 1 False False
21212.773999999998 3.712045907974243 -0.8254546088031312 0.8430007139789026 -1.5883094273009242 -1.5707524458514612 2.1412665843963623 0.0 0.0 0.0 -0.0 0.0 0.0 1 False False
21212.824 3.712111234664917 -0.8255040806582947 0.8430040518390101 -1.5883375606932582 -1.5708048979388636 2.141279697418213 0.0 0.0 0.0 -0.0 0.0 0.0 1 False False
21212.874 3.7121198177337646 -0.8254340452006836 0.8430293242083948 -1.588252683679098 -1.570829216633932 2.141279697418213 0.0 0.0 0.0 -0.0 0.0 0.0 1 False False
21212.924 3.712095022201538 -0.8255165380290528 0.8429630438434046 -1.5882817707457484 -1.5708087126361292 2.141317129135132 0.0 0.0 0.0 -0.0 0.0 0.0 1 False False
21212.974 3.712099313735962 -0.8254545491984864 0.8430007139789026 -1.5882607899107875 -1.5707843939410608 2.1412384510040283 0.0 0.0 0.0 -0.0 0.0 0.0 1 False False
21213.023999999998 3.712062358856201 -0.825425462131836 0.8429630438434046 -1.5882898769774378 -1.5708168188678187 2.141231060028076 0.0 0.0 0.0 -0.0 0.0 0.0 1 False False
21213.074 3.7120776176452637 -0.8255165976336976 0.8429349104510706 -1.5883332691588343 -1.5707686583148401 2.141275405883789 0.0 0.0 0.0 -0.0 0.0 0.0 1 False False
21213.124 3.712090492248535 -0.8254222434810181 0.8429754416095179 -1.5883013210692347 -1.5707967917071741 2.141296863555908 0.0 0.0 0.0 -0.0 0.0 0.0 1 False False
21213.174 3.712070941925049 -0.825478271847107 0.8429845015155237 -1.5882932148375453 -1.5708406607257288 2.141267776489258 0.0 0.0 0.0 -0.0 0.0 0.0 1 False False
21213.224 3.712082862854004 -0.825463132267334 0.8430174032794397 -1.588280817071432 -1.570801083241598 2.1413257122039795 0.0 0.0 0.0 -0.0 0.0 0.0 1 False False
21213.273999999998 3.712045907974243 -0.8254954975894471 0.8429802099810999 -1.5882932148375453 -1.570784870778219 2.141267776489258 0.0 0.0 0.0 -0.0 0.0 0.0 1 False False
21213.324 3.712106704711914 -0.825438455944397 0.8429964224444788 -1.5883251629271449 -1.5707767645465296 2.1413044929504395 0.0 0.0 0.0 -0.0 0.0 0.0 1 False False
21213.374 3.712090492248535 -0.8254707616618653 0.8429563681231897 -1.5882889233031214 -1.5708087126361292 2.1412720680236816 0.0 0.0 0.0 -0.0 0.0 0.0 1 False False
21213.424 3.7120862007141113 -0.8254588407329102 0.8430421988116663 -1.5883251629271449 -1.5707529226886194 2.141291618347168 0.0 0.0 0.0 -0.0 0.0 0.0 1 False False
21213.474 3.712033987045288 -0.8254869741252442 0.8429964224444788 -1.5883056126036585 -1.5707281271563929 2.141324758529663 0.0 0.0 0.0 -0.0 0.0 0.0 1 False False
21213.523999999998 3.71207857131958 -0.8255123657039185 0.8430216948138636 -1.5882774792113246 -1.5707247892962855 2.141295909881592 0.0 0.0 0.0 -0.0 0.0 0.0 1 False False
21213.574 3.712094783782959 -0.825463132267334 0.8429759184466761 -1.5882932148375453 -1.570801083241598 2.141263484954834 0.0 0.0 0.0 -0.0 0.0 0.0 1 False False
21213.624 3.712062358856201 -0.8254707616618653 0.8429802099810999 -1.588313718835348 -1.5707805792437952 2.1413002014160156 0.0 0.0 0.0 -0.0 0.0 0.0 1 False False
21213.674 3.7120373249053955 -0.825451211338379 0.8430364767657679 -1.5883289776244105 -1.570813004170553 2.141279697418213 0.0 0.0 0.0 -0.0 0.0 0.0 1 False False
21213.724 3.7120862007141113 -0.8254793447307129 0.8429678122149866 -1.5882731876769007 -1.5707486311541956 2.141291618347168 0.0 0.0 0.0 -0.0 0.0 0.0 1 False False
21213.773999999998 3.712050199508667 -0.8255123060992737 0.8429845015155237 -1.588245531121725 -1.5707362333880823 2.141295909881592 0.0 0.0 0.0 -0.0 0.0 0.0 1 False False
21213.824 3.7120580673217773 -0.8254265350154419 0.8430007139789026 -1.5883251629271449 -1.5707925001727503 2.141287088394165 0.0 0.0 0.0 -0.0 0.0 0.0 1 False False
21213.874 3.712045907974243 -0.8255123657039185 0.8430169264422815 -1.5882412395873011 -1.5707886854754847 2.141312837600708 0.0 0.0 0.0 -0.0 0.0 0.0 1 False False
21213.924 3.7120981216430664 -0.8254501980594178 0.8429606596576136 -1.5882889233031214 -1.5707891623126429 2.141239643096924 0.0 0.0 0.0 -0.0 0.0 0.0 1 False False
21213.974 3.7120537757873535 -0.8254869741252442 0.8429845015155237 -1.5882607899107875 -1.5708168188678187 2.1412546634674072 0.0 0.0 0.0 -0.0 0.0 0.0 1 False False
21214.023999999998 3.712082862854004 -0.8255165380290528 0.8429477850543421 -1.588268896142477 -1.5708330313311976 2.1412353515625 0.0 0.0 0.0 -0.0 0.0 0.0 1 False False
21214.074 3.71207857131958 -0.825483576660492 0.8430374304400843 -1.5882851086058558 -1.5707767645465296 2.14125919342041 0.0 0.0 0.0 -0.0 0.0 0.0 1 False False
21214.124 3.7120296955108643 -0.8254792851260682 0.8429673353778284 -1.5882774792113246 -1.570784870778219 2.1412429809570312 0.0 0.0 0.0 -0.0 0.0 0.0 1 False False
21214.174 3.712066650390625 -0.8254502576640625 0.8429887930499476 -1.5882650814452113 -1.5707967917071741 2.1413257122039795 0.0 0.0 0.0 -0.0 0.0 0.0 1 False False
21214.224 3.712115526199341 -0.825482503776886 0.8429802099810999 -1.5883575878539027 -1.5708006064044397 2.141267776489258 0.0 0.0 0.0 -0.0 0.0 0.0 1 False False
21214.273999999998 3.7120165824890137 -0.825463132267334 0.8429635206805628 -1.588297029534811 -1.5708087126361292 2.1412720680236816 0.0 0.0 0.0 -0.0 0.0 0.0 1 False False
21214.324 3.712033987045288 -0.8255208891681214 0.8430007139789026 -1.5882655582823695 -1.5708330313311976 2.141219139099121 0.0 0.0 0.0 -0.0 0.0 0.0 1 False False
21214.374 3.712099075317383 -0.82541777313266 0.8429759184466761 -1.5882531605162562 -1.5707648436175745 2.1413002014160156 0.0 0.0 0.0 -0.0 0.0 0.0 1 False False
21214.424 3.7120699882507324 -0.8255080145648499 0.8429802099810999 -1.588320871392721 -1.570784870778219 2.1412839889526367 0.0 0.0 0.0 -0.0 0.0 0.0 1 False False
21214.474 3.712033987045288 -0.825450138454773 0.8429635206805628 -1.5882607899107875 -1.5707648436175745 2.141308546066284 0.0 0.0 0.0 -0.0 0.0 0.0 1 False False
21214.523999999998 3.7120614051818848 -0.8254793447307129 0.8430374304400843 -1.5882655582823695 -1.5708125273333948 2.141282796859741 0.0 0.0 0.0 -0.0 0.0 0.0 1 False False
21214.574 3.7120938301086426 -0.825491265659668 0.8429220358477991 -1.588292738000387 -1.570772949849264 2.141279697418213 0.0 0.0 0.0 -0.0 0.0 0.0 1 False False
21214.624 3.712062358856201 -0.8255242270282288 0.8429964224444788 -1.5882817707457484 -1.5707967917071741 2.14125919342041 0.0 0.0 0.0 -0.0 0.0 0.0 1 False False
21214.674 3.712123394012451 -0.8254620593837281 0.8429563681231897 -1.5882417164244593 -1.5707648436175745 2.141263484954834 0.0 0.0 0.0 -0.0 0.0 0.0 1 False False
21214.724 3.712078809738159 -0.8255112928203125 0.8429678122149866 -1.5882889233031214 -1.5707648436175745 2.141231060028076 0.0 0.0 0.0 -0.0 0.0 0.0 1 False False
21214.773999999998 3.7120652198791504 -0.8255080741694947 0.8430255095111292 -1.588308950463766 -1.570829216633932 2.1412839889526367 0.0 0.0 0.0 -0.0 0.0 0.0 1 False False
21214.824 3.712078809738159 -0.8254469198039551 0.8429845015155237 -1.588229318658346 -1.5707810560809534 2.141279697418213 0.0 0.0 0.0 -0.0 0.0 0.0 1 False False
21214.874 3.712036609649658 -0.8254588407329102 0.8429802099810999 -1.5883165798582972 -1.5707929770099085 2.1412546634674072 0.0 0.0 0.0 -0.0 0.0 0.0 1 False False
21214.924 3.712062358856201 -0.8254793447307129 0.8430331389056605 -1.588273664514059 -1.5707452932940882 2.141279697418213 0.0 0.0 0.0 -0.0 0.0 0.0 1 False False
21214.974 3.7120742797851562 -0.8254296344569703 0.8429845015155237 -1.5883094273009242 -1.5708206335650843 2.141270875930786 0.0 0.0 0.0 -0.0 0.0 0.0 1 False False
21215.023999999998 3.712106943130493 -0.8254869741252442 0.8430417219745081 -1.5883094273009242 -1.5708006064044397 2.1412882804870605 0.0 0.0 0.0 -0.0 0.0 0.0 1 True False
21215.074 3.7120981216430664 -0.825458900337555 0.8429845015155237 -1.588269372979635 -1.5707691351519983 2.1412503719329834 0.0 0.0 0.0 -0.0 0.0 0.0 1 True False
21215.124 3.7121026515960693 -0.8254221838763733 0.8429520765887659 -1.5882851086058558 -1.5707486311541956 2.1412546634674072 0.0 0.0 0.0 -0.0 0.0 0.0 1 True False
21215.174 3.712144613265991 -0.8254620593837281 0.8430007139789026 -1.5882612667479457 -1.5708211104022425 2.1412546634674072 0.0 0.0 0.0 -0.0 0.0 0.0 1 True False
21215.224 3.7120413780212402 -0.825402633552887 0.8429845015155237 -1.5882774792113246 -1.5708048979388636 2.1413159370422363 0.0 0.0 0.0 -0.0 0.0 0.0 1 True False
21215.273999999998 3.712123394012451 -0.8255080145648499 0.8430083433734339 -1.588273664514059 -1.570829216633932 2.1412839889526367 0.0 0.0 0.0 -0.0 0.0 0.0 1 True False
21215.324 3.7121429443359375 -0.825478271847107 0.8429673353778284 -1.588297029534811 -1.570801083241598 2.141275405883789 0.0 0.0 0.0 -0.0 0.0 0.0 1 True False
21215.374 3.7121188640594482 -0.8254954975894471 0.8429544607745569 -1.5882569752135218 -1.5707772413836878 2.141275405883789 0.0 0.0 0.0 -0.0 0.0 0.0 1 True False
21215.424 3.7120816707611084 -0.8254512709430237 0.8429892698871058 -1.5882846317686976 -1.5708172957049769 2.1412525177001953 0.0 0.0 0.0 -0.0 0.0 6.944892447791062e-07 1 True False
21215.474 3.7120816707611084 -0.825491265659668 0.8430007139789026 -1.588280817071432 -1.57074481645693 2.141270875930786 0.0 0.0 0.0 -0.0 0.0 1.0549304997838e-25 1 True False
21215.523999999998 3.7120280265808105 -0.825425462131836 0.8429515997516077 -1.5882846317686976 -1.570801083241598 2.14125919342041 0.0 0.0 0.0 -0.0 0.0 5.709974357159808e-05 1 True False
21215.574 3.7120578289031982 -0.8254707616618653 0.842992130910055 -1.5883370838561 -1.5707610289203089 2.141263484954834 0.0 0.0 0.0 -0.0 0.0 3.7351979699451476e-05 1 True False
21215.624 3.7121775150299072 -0.825616793041565 0.8430998961078089 -1.5883170566954554 -1.5708850065814417 2.141376495361328 0.025648895651102066 -0.015231145545840263 0.024815162643790245 -0.006679793819785118 0.0 0.018631840124726295 1 True False
21215.674 3.714684247970581 -0.8273502153209229 0.8457234541522425 -1.5890113315977992 -1.5707805792437952 2.1439316272735596 0.07789945602416992 -0.06292407214641571 0.092464379966259 -0.02671103924512863 -3.40733167831786e-05 0.07964562624692917 1 True False
21215.724 3.720322370529175 -0.8319405478290101 0.8522914091693323 -1.5908814869322718 -1.5707805792437952 2.1494641304016113 0.14119301736354828 -0.12102003395557404 0.1599445939064026 -0.04857084900140762 -2.504796915467713e-15 0.1395285725593567 1 True False
21215.773999999998 3.7287557125091553 -0.8392710846713562 0.8620861212359827 -1.5936724148192347 -1.570801083241598 2.158085823059082 0.2002871036529541 -0.1671190708875656 0.2329268902540207 -0.05538051947951317 -3.804792360283578e-34 0.19620536267757416 1 True False
21215.824 3.7405927181243896 -0.8488184970668335 0.875498119984762 -1.5972734890379847 -1.5707967917071741 2.1696417331695557 0.25875604152679443 -0.21521879732608795 0.29833194613456726 -0.08462555706501007 8.567507757106796e-05 0.26216191053390503 1 True False
21215.874 3.7551422119140625 -0.861033634548523 0.8921745459185999 -1.6020857296385707 -1.5707805792437952 2.1844005584716797 0.32120659947395325 -0.264647513628006 0.3710756301879883 -0.10465603321790695 6.983953062444925e-05 0.3220193684101105 1 True False
21215.924 3.7730014324188232 -0.8755515378764649 0.9127948919879358 -1.607692380944723 -1.5707686583148401 2.2020444869995117 0.3848552107810974 -0.3152434229850769 0.43690913915634155 -0.11747394502162933 5.543137089202184e-14 0.386934369802475 1 True False
21215.974 3.793663740158081 -0.8927649420550843 0.936261002217428 -1.6143814525999964 -1.5707405249225062 2.223029375076294 0.442768931388855 -0.36669912934303284 0.5097845196723938 -0.1461864709854126 2.3181741198641248e-05 0.4398217499256134 1 True False
21216.023999999998 3.8177225589752197 -0.9123548430255433 0.9635356108294886 -1.6220265827574671 -1.5707691351519983 2.2467892169952393 0.5074818730354309 -0.41762202978134155 0.5751786231994629 -0.1553550809621811 5.374375905375928e-05 0.5097267031669617 1 True False
21216.074 3.8445465564727783 -0.9343641561320801 0.9943507353412073 -1.6305395565428675 -1.5707891623126429 2.2736477851867676 0.5717588663101196 -0.46170100569725037 0.6502501368522644 -0.1673474758863449 -0.00010476154420757666 0.5738252401351929 1 True False
21216.124 3.8744728565216064 -0.9592558306506653 1.0284956137286585 -1.64011873821401 -1.5707925001727503 2.3036348819732666 0.6248818635940552 -0.5189793109893799 0.72369784116745 -0.19713068008422852 -6.7392436105516035e-21 0.6335352063179016 1 True False
21216.174 3.9074904918670654 -0.9862736624530335 1.0662711302386683 -1.6507374248900355 -1.5707486311541956 2.336627721786499 0.6891652345657349 -0.5731574296951294 0.7849161028862 -0.21902430057525635 -2.8080219635739923e-05 0.6976669430732727 1 True False
21216.224 3.9435999393463135 -1.0161588352969666 1.1075308958636683 -1.6621796093382777 -1.570784870778219 2.3727829456329346 0.7557317018508911 -0.6255168318748474 0.8616095185279846 -0.2412133514881134 -7.463019574061036e-05 0.7521008253097534 1 True False
21216.273999999998 3.982666015625 -1.048249439602234 1.152160946522848 -1.6746460400023402 -1.570772949849264 2.412031412124634 0.8156458735466003 -0.6731082201004028 0.9218305945396423 -0.275465726852417 3.1239978852681816e-05 0.810088038444519 1 True False
21216.324 4.024954795837402 -1.083044396047928 1.2004640738116663 -1.6882926426329554 -1.570813004170553 2.454054594039917 0.8673819303512573 -0.7213041186332703 0.9899196624755859 -0.2829071879386902 3.910665090689399e-18 0.866232693195343 1 True False
21216.374 4.0699591636657715 -1.1201892358115693 1.2519257704364222 -1.7025295696654261 -1.570756737385885 2.4991824626922607 0.9180626273155212 -0.7527733445167542 1.0465749502182007 -0.29189881682395935 5.940309564575831e-37 0.9184092879295349 1 True False
21216.424 4.115792751312256 -1.157876805668213 1.3043749968158167 -1.7170359096922816 -1.5707529226886194 2.5450401306152344 0.9161982536315918 -0.7489856481552124 1.052629828453064 -0.28292185068130493 -0.00015927401545923203 0.9087908267974854 1 True False
21216.474 4.161623001098633 -1.195625053053238 1.3566868940936487 -1.7318035564818324 -1.5707772413836878 2.5908186435699463 0.9196904897689819 -0.7577415704727173 1.0499645471572876 -0.3044935166835785 -0.00026419866480864584 0.928697943687439 1 True False
21216.523999999998 4.2073774337768555 -1.2332984072021027 1.4089348951922815 -1.7464238605894984 -1.5708373228656214 2.636718988418579 0.9166257977485657 -0.7565972208976746 1.046960711479187 -0.3020055890083313 -0.0006963032064959407 0.9094557166099548 1 True False
21216.574 4.2533674240112305 -1.2711230379394074 1.4613450209247034 -1.7610990009703578 -1.5707290808307093 2.6825063228607178 0.9121478796005249 -0.7556585669517517 1.0469093322753906 -0.2840345799922943 -0.00010383988410467282 0.9213833808898926 1 True False
21216.624 4.299112796783447 -1.3087571424296875 1.5136378447162073 -1.7759338817992152 -1.5708091894732874 2.7284107208251953 0.9153724312782288 -0.7554032802581787 1.0427404642105103 -0.3052259087562561 0.0009830526541918516 0.9122596383094788 1 True False
21216.674 4.344752788543701 -1.3463760179332276 1.5659096876727503 -1.7901069126524867 -1.5707724730121058 2.773921251296997 0.8963079452514648 -0.7333917021751404 1.0342937707901 -0.2686348855495453 1.3950506028148624e-10 0.9075315594673157 1 True False
21216.724 4.388044834136963 -1.3821429771235962 1.6154349485980433 -1.8040338955321253 -1.5708091894732874 2.8174314498901367 0.8431850671768188 -0.6895593404769897 0.9576398134231567 -0.23760825395584106 -2.1524975579723105e-08 0.8389280438423157 1 True False
21216.773999999998 4.42834997177124 -1.4152415257743378 1.661393944417135 -1.8169518909850062 -1.570768181477682 2.85762882232666 0.7727217078208923 -0.6348023414611816 0.8885830640792847 -0.2456129789352417 -0.0031178644858300686 0.7706203460693359 1 True False
21216.824 4.465617656707764 -1.4459714081934472 1.7041643301593226 -1.828893323937887 -1.5708492437945765 2.894718647003174 0.7140714526176453 -0.5879289507865906 0.8134901523590088 -0.2258639633655548 -0.003169470466673374 0.7227201461791992 1 True False
21216.874 4.499846458435059 -1.4740547326258202 1.743190113698141 -1.8395239315428675 -1.5708492437945765 2.929079294204712 0.6507430076599121 -0.5335201025009155 0.7535430788993835 -0.20469242334365845 -0.0008386847330257297 0.6571927070617676 1 True False
21216.924 4.530987739562988 -1.4996731665781518 1.7785914579974573 -1.8497406444945277 -1.5708168188678187 2.9600517749786377 0.5924413800239563 -0.4804849922657013 0.6811609268188477 -0.1946832239627838 -2.0038212824147195e-05 0.6055312156677246 1 True False
21216.974 4.559195041656494 -1.5227649521878739 1.8105524222003382 -1.8587261639037074 -1.5707443396197718 2.9882237911224365 0.5289326310157776 -0.43816080689430237 0.6109191179275513 -0.16841712594032288 -5.91365278523881e-06 0.5356922745704651 1 True False
21217.023999999998 4.584088325500488 -1.5434572112611313 1.8391879240619105 -1.86676087001943 -1.5707724730121058 3.0133776664733887 0.4757940173149109 -0.3870393633842468 0.5379971265792847 -0.14515896141529083 0.0001537091302452609 0.4652940332889557 1 True False
21217.074 4.605990886688232 -1.5614163524336 1.8645804564105433 -1.8735267124571742 -1.5708282629596155 3.0353312492370605 0.4128594994544983 -0.3361871540546417 0.4649522304534912 -0.12672491371631622 -0.0001510633301222697 0.4088887572288513 1 True False
21217.124 4.624968528747559 -1.5771643124022425 1.886050049458639 -1.8797055683531703 -1.5708254019366663 3.054150104522705 0.34514120221138 -0.2830524444580078 0.40385058522224426 -0.10497348755598068 -5.825369225931354e-05 0.35523858666419983 1 True False
21217.174 4.640905857086182 -1.5903011761107386 1.9038828055011194 -1.884885927239889 -1.5707686583148401 3.0701539516448975 0.29070645570755005 -0.24336470663547516 0.32330942153930664 -0.09314184635877609 -1.9231798376040388e-09 0.2844506502151489 1 True False
21217.224 4.653722763061523 -1.6006227932372035 1.919037167225973 -1.8888904056944789 -1.5708168188678187 3.0827600955963135 0.2263343334197998 -0.18173733353614807 0.257943332195282 -0.08457732200622559 7.836743406985924e-12 0.23945796489715576 1 True False
21217.273999999998 4.663352966308594 -1.6086555920042933 1.9299309889422815 -1.8920227489867152 -1.5708335081683558 3.0926411151885986 0.16831105947494507 -0.13262394070625305 0.19283267855644226 -0.05063050240278244 4.0684411236810696e-16 0.16550761461257935 1 True False
21217.324 4.670152187347412 -1.614190240899557 1.9374807516681116 -1.8941990337767542 -1.5707967917071741 3.099391460418701 0.10429725050926208 -0.09000008553266525 0.1175568476319313 -0.03187016770243645 6.179970416821798e-35 0.10494323074817657 1 True False
21217.374 4.67382287979126 -1.6172124348082484 1.9417379538165491 -1.8953401050963343 -1.5708211104022425 3.103041410446167 0.0426204614341259 -0.03622710332274437 0.05121072381734848 -0.015605940483510494 0.0 0.0430997870862484 1 True False
21217.424 4.6744489669799805 -1.6177388630309046 1.9426315466510218 -1.8958188496031703 -1.570813004170553 3.103687286376953 -0.004052659962326288 0.012644799426198006 0.019141381606459618 -0.03511327877640724 0.0 -0.0004537033673841506 1 True False
21217.474 4.6744160652160645 -1.6167665920653285 1.9444406668292444 -1.8985702000060023 -1.5707643667804163 3.1036906242370605 0.0003981727350037545 0.031667791306972504 0.055166687816381454 -0.08581052720546722 0.0 0.0008373151067644358 1 True False
21217.523999999998 4.674484729766846 -1.6144148312010707 1.9484546820269983 -1.9049602947630824 -1.5707805792437952 3.1037089824676514 0.0003684032417368144 0.06358541548252106 0.09724641591310501 -0.15744352340698242 0.0 0.0005679866299033165 1 True False
21217.574 4.674466609954834 -1.610617300073141 1.9543846289264124 -1.9147206745543421 -1.5708168188678187 3.103755235671997 0.0005573665839619935 0.09084192663431168 0.1402636468410492 -0.22466258704662323 0.0 0.00038044684333726764 1 True False
21217.624 4.674466609954834 -1.6054612598814906 1.9625933806048792 -1.9280053577818812 -1.5708044211017054 3.103743314743042 0.00030994246480986476 0.11610932648181915 0.18870800733566284 -0.2967977523803711 0.0 0.00014674807607661933 1 True False
21217.674 4.674527645111084 -1.598924299279684 1.9728973547564905 -1.9447199306883753 -1.5707648436175745 3.103755235671997 1.0085919946445365e-11 0.13989455997943878 0.22563409805297852 -0.36627668142318726 0.0 8.737741882214323e-05 1 True False
21217.724 4.6745076179504395 -1.5911127529540003 1.9856026808368128 -1.964949747125143 -1.570813004170553 3.103710174560547 0.0 0.1654592901468277 0.2630767226219177 -0.4401492178440094 2.468859372158522e-16 6.221075454959646e-05 1 True False
21217.773999999998 4.674577236175537 -1.5819932423033656 2.000019375477926 -1.9886332950987757 -1.5708335081683558 3.10370135307312 0.0 0.19951613247394562 0.31468480825424194 -0.5149865746498108 3.750202930685494e-35 3.91595985763448e-21 1 True False
21217.824 4.6745686531066895 -1.5715919933714808 2.0169056097613733 -2.016064306298727 -1.5708168188678187 3.1036646366119385 6.221661897143349e-05 0.2257784903049469 0.35365453362464905 -0.5844495296478271 0.0 5.9483438252431295e-40 1 True False
21217.874 4.674553394317627 -1.560293835853674 2.0348108450519007 -2.0452734432616175 -1.5707805792437952 3.103759527206421 2.730592677835375e-05 0.2128978818655014 0.3453216850757599 -0.5627195239067078 0.0 0.0 1 True False
21217.924 4.674531936645508 -1.5502511107227583 2.050943199788229 -2.0714270077147425 -1.5707767645465296 3.103710174560547 1.4452571971506866e-40 0.18769271671772003 0.29766976833343506 -0.4937852919101715 0.0 0.0 1 True False
21217.974 4.674482345581055 -1.5415449750474473 2.064807717000143 -2.0942188702025355 -1.5707886854754847 3.1037046909332275 0.0 0.16620193421840668 0.266281396150589 -0.4198218584060669 0.0 2.159320777739282e-10 1 True False
21218.023999999998 4.674477577209473 -1.5341087107411404 2.076884094868795 -2.113338609735006 -1.5708168188678187 3.103750705718994 0.0 0.13496001064777374 0.21430762112140656 -0.3521801829338074 0.0 3.2800130706135674e-29 1 True False
21218.074 4.674540042877197 -1.5280993704548855 2.0863049666034144 -2.1291119060912074 -1.5707724730121058 3.103739023208618 0.0 0.10485082864761353 0.1753566414117813 -0.26982182264328003 0.0 0.0 1 True False
21218.124 4.674514293670654 -1.5234573495439072 2.093855683003561 -2.1413165531554164 -1.5707891623126429 3.103766918182373 0.0 0.08216531574726105 0.12937815487384796 -0.2070978432893753 0.0 0.0 1 True False
21218.174 4.674577236175537 -1.5200441528907795 2.0993812719928187 -2.149996896783346 -1.570813004170553 3.103739023208618 0.0 0.052815452218055725 0.08672071993350983 -0.13586215674877167 0.0 -2.0247223631031375e-07 1 True False
21218.224 4.674544334411621 -1.5181605269065876 2.102577034627096 -2.1552826366820277 -1.5708006064044397 3.103755235671997 0.0 0.02622877061367035 0.0409885048866272 -0.07374222576618195 1.5539557979504302e-24 5.860820544190701e-16 1 True False
21218.273999999998 4.674535751342773 -1.5173905429295083 2.1036575476275843 -2.1569181881346644 -1.5708091894732874 3.1037144660949707 0.0 2.9029404657876512e-08 1.5970508684404194e-05 -0.0007788861985318363 2.3541814200656927e-43 8.90259785637483e-35 1 True False
21218.324 4.674535751342773 -1.517459013765194 2.1036747137652796 -2.156926294366354 -1.5707524458514612 3.103726387023926 0.0 -1.8971273528851402e-16 0.00018535259005147964 -8.010732562979683e-05 0.0 0.0 1 True False
21218.374 4.674511909484863 -1.5174384501627465 2.1036623159991663 -2.1569587192931117 -1.5707925001727503 3.10366153717041 0.0 0.0005804878892377019 9.097275324165821e-05 -0.00018432957585901022 0.0 0.0 1 True False
21218.424 4.674581527709961 -1.5173644807985802 2.1036537329303187 -2.1570030651488246 -1.570784870778219 3.1037306785583496 0.0 0.0005388183635659516 6.488064536824822e-05 -0.0005253084818832576 0.0 0.0 1 True False
21218.474 4.674478054046631 -1.5174752746573468 2.103661839162008 -2.1570426426329554 -1.5707686583148401 3.1036970615386963 0.0 0.0001502467057434842 4.472900400287472e-05 -0.00042369079892523587 0.0 0.0 1 True False
21218.523999999998 4.674540042877197 -1.517484874730446 2.1036418120013636 -2.157070299188131 -1.5707891623126429 3.10370135307312 0.0 0.00018653005827218294 2.64101181528531e-05 -0.0002183632750529796 0.0 0.0 1 True False
21218.574 4.674531936645508 -1.5173948568156739 2.1036623159991663 -2.157042165795797 -1.5707967917071741 3.103739023208618 0.0 7.905434176791459e-05 1.6445117267949172e-08 -0.00015783405979163945 0.0 0.0 1 True False
21218.624 4.674548625946045 -1.5173860874823113 2.1036623159991663 -2.157114645043844 -1.5707891623126429 3.1036734580993652 -7.294879545582133e-41 6.480827869381756e-05 3.8697086905277973e-38 -8.073886419879273e-05 0.0 0.0 1 True False
21218.674 4.674551963806152 -1.5174601835063477 2.1036790052997034 -2.157030244866842 -1.5707967917071741 3.103722095489502 0.0 4.46938538516406e-05 0.0 -5.573691669269465e-05 0.0 0.0 1 True False
21218.724 4.67453670501709 -1.5174233515611668 2.103666130696432 -2.1570378742613734 -1.570857350026266 3.1037344932556152 0.0 2.3390517526422627e-05 5.308441630160911e-26 -1.072496441852246e-16 0.0 0.0 1 True False
21218.773999999998 4.674531936645508 -1.5174276803484936 2.1036537329303187 -2.1570621929564417 -1.5708168188678187 3.103755235671997 0.0 4.828110888689445e-28 0.0 -1.6291245371654127e-35 0.0 0.0 1 True False
21218.824 4.674503326416016 -1.5173904945007344 2.1036575476275843 -2.1570540867247523 -1.5707805792437952 3.103739023208618 0.0 0.0 0.0 -0.0 0.0 0.0 1 True False
21218.874 4.674483776092529 -1.5174894046834488 2.103490654622213 -2.157290121118063 -1.5708611647235315 3.103733539581299 0.0 -1.982405279932209e-07 -0.00017911885515786707 -0.0049797361716628075 0.0001284269819734618 0.0004716188705060631 1 True False
21218.924 4.674544334411621 -1.5174785417369385 2.1035669485675257 -2.1572777233519496 -1.5708006064044397 3.103743314743042 0.0 0.0004691976646427065 0.0005147240008227527 -8.442723924417805e-07 1.950809000173051e-23 -0.00010966496483888477 1 True False
21218.974 4.674492359161377 -1.5174265702119847 2.1035502592669886 -2.157290121118063 -1.5707882086383265 3.103743314743042 0.0 0.0008483537239953876 0.001174106844700873 0.0009379381081089377 3.841660509351641e-05 -5.440590393845923e-05 1 True True
21219.023999999998 4.674568176269531 -1.5176979091814538 2.103206459675924 -2.1558710537352503 -1.5707886854754847 3.103750705718994 0.0 -0.015781033784151077 -0.025129912421107292 0.055819347500801086 0.0006539059104397893 -3.6179124435875565e-05 1 True True
21219.074 4.674482822418213 -1.5192812618664284 2.1007373968707483 -2.1517025432982386 -1.5707486311541956 3.103739023208618 0.0 -0.05205892026424408 -0.08647441118955612 0.11339219659566879 0.00022551376605406404 -3.4630331811058568e-06 1 True True
21219.124 4.6744914054870605 -1.5222974953106423 2.0955436865436 -2.1437717876830042 -1.5707972685443323 3.103762626647949 0.0 -0.07622097432613373 -0.12188604474067688 0.1865813434123993 9.192631114274263e-05 -5.260353778714287e-25 1 True True
21219.174 4.6745076179504395 -1.5268033419600506 2.088498894368307 -2.1324192486205042 -1.570801083241598 3.1036734580993652 0.0 -0.10183443129062653 -0.15675397217273712 0.2581239342689514 -3.4526921808719635e-05 8.642461762065068e-05 1 True True
21219.224 4.674531936645508 -1.5325510588339348 2.079416100178854 -2.1175672016539515 -1.5708449522601526 3.1037421226501465 0.0 -0.12435577064752579 -0.20336000621318817 0.3300517201423645 -1.656270251260139e-05 6.075016770877955e-21 1 True True
21219.273999999998 4.674540042877197 -1.5395759803107758 2.0678842703448694 -2.099180837670797 -1.570853058491842 3.1037344932556152 -2.5223372357846707e-44 -0.15407274663448334 -0.24749656021595 0.40579113364219666 -0.0002186694910051301 9.227956764133575e-40 1 True True
21219.324 4.674563884735107 -1.548008171176054 2.0546019713031214 -2.0773002109923304 -1.570801083241598 3.1037344932556152 0.0 -0.18283432722091675 -0.2894239127635956 0.4688798487186432 -0.00010865568765439093 0.0 1 True True
21219.374 4.6745076179504395 -1.5577167200720687 2.039010826741354 -2.0519257984557093 -1.570801083241598 3.103722095489502 0.0 -0.2090774029493332 -0.3262181878089905 0.5427960753440857 -7.228922186186537e-05 0.0 1 True True
21219.424 4.674551963806152 -1.5688689828715106 2.0211618582354944 -2.02317013363027 -1.570801083241598 3.103710174560547 0.0 -0.22325782477855682 -0.3635445833206177 0.6097096800804138 -4.228416661949952e-12 0.0 1 True True
21219.474 4.674556255340576 -1.5794826946654261 2.0038583914386194 -1.9952098331847132 -1.5707925001727503 3.10370135307312 0.0 -0.20700909197330475 -0.3185846209526062 0.5370739698410034 -3.7175148484731857e-13 0.0 1 True True
21219.523999999998 4.674520492553711 -1.589060445825094 1.9889300505267542 -1.9705921612181605 -1.5708325544940394 3.1037421226501465 0.0 -0.1737780123949051 -0.28446611762046814 0.46046969294548035 2.5731771529535763e-05 0.0 1 True True
21219.574 4.67452335357666 -1.5972181759276332 1.975882355366842 -1.9494568310179652 -1.5707967917071741 3.10370135307312 0.0 -0.14649882912635803 -0.2375435084104538 0.38083672523498535 1.5005072782514617e-05 0.0 1 True True
21219.624 4.67453145980835 -1.6039515934386195 1.964985195790426 -1.9316746197142542 -1.5707925001727503 3.1037302017211914 0.0 -0.12121772766113281 -0.1975894570350647 0.3188396990299225 1.0590636520646513e-05 0.0 1 True True
21219.674 4.674527645111084 -1.609358926812643 1.9562442938434046 -1.9176174602904261 -1.5707767645465296 3.103726387023926 0.0 -0.09842740744352341 -0.14943675696849823 0.24118544161319733 1.356161483369695e-20 0.0 1 True True
21219.724 4.674560546875 -1.613476415673727 1.9497469107257288 -1.906945367852682 -1.5707805792437952 3.103710174560547 0.0 -0.07109794020652771 -0.10950585454702377 0.18537095189094543 2.060012438643841e-39 0.0 1 True True
21219.773999999998 4.674535751342773 -1.6161638698973597 1.945214573537008 -1.8996778927245082 -1.5708168188678187 3.103710174560547 0.0 -0.043501678854227066 -0.0698857381939888 0.1071901023387909 0.0 0.0 1 True True
21219.824 4.674564838409424 -1.617638727227682 1.9430387655841272 -1.8961173496642054 -1.570813004170553 3.103722095489502 0.0 -0.015734856948256493 -0.023171013221144676 0.04028623551130295 0.0 0.0 1 True True
21219.874 4.674194812774658 -1.6176697216429652 1.9426782766925257 -1.8956195316710414 -1.5707925001727503 3.1033694744110107 -0.03157689422369003 0.008965561166405678 -0.011780527420341969 0.0004998120712116361 0.0 -0.025412416085600853 1 True True
21219.924 4.670981407165527 -1.6169301472105921 1.9414971510516565 -1.895355840722555 -1.570732895527975 3.100087881088257 -0.10014349222183228 0.024483822286128998 -0.03129086270928383 0.009305581450462341 0.0 -0.09755949676036835 1 True True
21219.974 4.664139747619629 -1.6151753864684046 1.9392336050616663 -1.8949600658812464 -1.570813004170553 3.0932393074035645 -0.16834717988967896 0.04609474912285805 -0.05660555511713028 0.009474117308855057 0.0 -0.16669565439224243 1 True True
21220.023999999998 4.653808116912842 -1.6123725376524867 1.93610126176943 -1.8944136104979457 -1.5708373228656214 3.082984447479248 -0.24103036522865295 0.0635993480682373 -0.0752788633108139 0.010014702565968037 0.0 -0.2458292543888092 1 True True
21220.074 4.639861583709717 -1.6087576351561488 1.9316509405719202 -1.893719335595602 -1.5707481543170374 3.069209098815918 -0.30519554018974304 0.08752135187387466 -0.09839802980422974 0.015335236676037312 -0.0001184908178402111 -0.3111315071582794 1 True True
21220.124 4.622886657714844 -1.604147573510641 1.9261458555804651 -1.8927446804442347 -1.5707767645465296 3.051914691925049 -0.38153374195098877 0.1030067503452301 -0.12333795428276062 0.02100105583667755 -0.00011293165880488232 -0.37268027663230896 1 True True
21220.174 4.601863384246826 -1.5985962353148402 1.9194944540606897 -1.8917070827879847 -1.5708211104022425 3.0310921669006348 -0.446877121925354 0.11897625029087067 -0.14221665263175964 0.028320616111159325 -8.811892621451989e-05 -0.4428846538066864 1 True True
21220.224 4.577579021453857 -1.5921551189818324 1.9116323629962366 -1.8903576336302699 -1.570857350026266 3.0069587230682373 -0.5172068476676941 0.1372997909784317 -0.16857565939426422 0.03020772896707058 -5.34767605131492e-05 -0.525102436542511 1 True True
21220.273999999998 4.549903392791748 -1.5847670040526332 1.9028809706317347 -1.8888689480223597 -1.5707805792437952 2.979217529296875 -0.5914814472198486 0.1549103856086731 -0.19001629948616028 0.030149053782224655 -1.0473729412197326e-20 -0.5950535535812378 1 True True
21220.324 4.51882791519165 -1.5767041645445765 1.8930771986590784 -1.8871413669981898 -1.5707405249225062 2.948030471801758 -0.6605743765830994 0.17575475573539734 -0.21072827279567719 0.030966706573963165 0.0009681255905888975 -0.6647127866744995 1 True True
21220.374 4.484133720397949 -1.567382251178362 1.8819897810565394 -1.88529696087026 -1.570716683064596 2.913241386413574 -0.7286863327026367 0.18967270851135254 -0.22830192744731903 0.03911982476711273 0.000720628653652966 -0.7331119179725647 1 True True
21220.424 4.4458818435668945 -1.557300041695573 1.8697517553912562 -1.8831926784911097 -1.5707610289203089 2.875001907348633 -0.7959945201873779 0.2093994915485382 -0.2519398033618927 0.04171625152230263 0.0005278027383610606 -0.8002892136573792 1 True True
21220.474 4.4040937423706055 -1.546312080030777 1.8564727942096155 -1.8810373745360316 -1.570813004170553 2.8332972526550293 -0.8701410293579102 0.2333277314901352 -0.2787978947162628 0.04977864399552345 2.152221068030258e-09 -0.8574517369270325 1 True True
21220.523999999998 4.3589982986450195 -1.5341677007130166 1.8420236746417444 -1.87866272548818 -1.5707653204547327 2.7882344722747803 -0.9337393641471863 0.245867058634758 -0.3006991744041443 0.04928690195083618 0.0015105593483895063 -0.9460327625274658 1 True True
21220.574 4.310229301452637 -1.5213183139315625 1.8265793959247034 -1.875972410241598 -1.5708449522601526 2.739335536956787 -1.011362910270691 0.2624940276145935 -0.3254380226135254 0.051237549632787704 -0.0001359310990665108 -1.0021610260009766 1 True True
21220.624 4.258377552032471 -1.5077127528241654 1.809911076222555 -1.8730503521361292 -1.570813004170553 2.687621593475342 -1.0470577478408813 0.2803569734096527 -0.3309808075428009 0.05586137995123863 -9.986422810470685e-05 -1.055773138999939 1 True True
21220.674 4.205995559692383 -1.493742325609066 1.793450180684225 -1.8704115353026332 -1.570784870778219 2.635347604751587 -1.049809455871582 0.27238529920578003 -0.3345591425895691 0.05809909850358963 -0.00031435894197784364 -1.04788076877594 1 True True
21220.724 4.1536335945129395 -1.4799873915365716 1.7765515486346644 -1.86757292369985 -1.5708611647235315 2.582855224609375 -1.051350712776184 0.2789747416973114 -0.3319202959537506 0.06378377974033356 -0.0003554219729267061 -1.0387647151947021 1 True True
21220.773999999998 4.101151943206787 -1.465923399930336 1.7601459662066858 -1.8647304973998011 -1.5707724730121058 2.530468463897705 -1.0436702966690063 0.27623677253723145 -0.33535394072532654 0.04837620258331299 0.00019452086417004466 -1.0541754961013794 1 True True
21220.824 4.048985481262207 -1.4521605235389252 1.7432783285724085 -1.8620077572264613 -1.570784870778219 2.4782257080078125 -1.049718976020813 0.2784148156642914 -0.33387666940689087 0.06169115751981735 9.864565072348341e-05 -1.047096610069275 1 True True
21220.874 3.9966490268707275 -1.4381724757007142 1.726560417805807 -1.8590733013548792 -1.5708449522601526 2.425741672515869 -1.049065351486206 0.2761198878288269 -0.3291988670825958 0.054270122200250626 -7.491394353564829e-05 -1.041083812713623 1 True True
21220.924 3.9443066120147705 -1.4243970972350617 1.70988637605776 -1.856349607507223 -1.5707805792437952 2.373391628265381 -1.0448960065841675 0.27645596861839294 -0.3366066515445709 0.05654498189687729 -2.1029689989404687e-08 -1.0526666641235352 1 True True
21220.974 3.8918919563293457 -1.4105430108359833 1.6932719389544886 -1.8534275494017542 -1.5708087126361292 2.321216344833374 -1.04645574092865 0.2788749933242798 -0.3266051411628723 0.06391723453998566 -3.1944140429367452e-27 -1.0485734939575195 1 True True
21221.023999999998 3.839498996734619 -1.3965981763652344 1.67650014558901 -1.8507405720152796 -1.5707967917071741 2.2686820030212402 -1.0500653982162476 0.27663102746009827 -0.3355270326137543 0.05199049785733223 -1.160708074793293e-11 -1.0403854846954346 1 True True
21221.074 3.7870566844940186 -1.3827390682748337 1.6597493330584925 -1.8479258022704066 -1.5708335081683558 2.2162270545959473 -1.0469588041305542 0.27999579906463623 -0.3330494463443756 0.05768461897969246 -3.7779859241027225e-09 -1.0488488674163818 1 True True
21221.124 3.734666347503662 -1.368832216863968 1.643322769795553 -1.8449684582152308 -1.570784870778219 2.163987636566162 -1.0455163717269897 0.27672523260116577 -0.33373698592185974 0.05029614269733429 -5.7387671221110195e-28 -1.0507807731628418 1 True True
21221.174 3.682490587234497 -1.3551747065833588 1.6262882391559046 -1.8422123394408167 -1.5708449522601526 2.111647844314575 -1.0545421838760376 0.2780876159667969 -0.3379361033439636 0.0615244098007679 -0.0 -1.0388038158416748 1 True True
21221.224 3.630023717880249 -1.3410466623357316 1.6099465529071253 -1.8393427334227503 -1.5707805792437952 2.059255838394165 -1.0448049306869507 0.2756754755973816 -0.3279137909412384 0.05734959989786148 -1.4403123138606588e-09 -1.0552990436553955 1 True True
21221.273999999998 3.5776801109313965 -1.327369825249054 1.5930431524859827 -1.8367344341673792 -1.570756737385885 2.0069773197174072 -1.046807050704956 0.27530255913734436 -0.34202447533607483 0.055242691189050674 -2.1878383612306713e-28 -1.050317406654358 1 True True
21221.324 3.5254504680633545 -1.3133503955653687 1.5765178839312952 -1.8337441883482875 -1.5708487669574183 1.954540729522705 -1.0528054237365723 0.27924251556396484 -0.33225247263908386 0.05981222540140152 -8.350423759580228e-13 -1.0463662147521973 1 True True
21221.374 3.472980499267578 -1.2996109885028382 1.5596020857440394 -1.831010480920309 -1.5707891623126429 1.9020850658416748 -1.046431064605713 0.2740858793258667 -0.3375858962535858 0.04609708860516548 -1.2684316378353044e-31 -1.046522855758667 1 True True
21221.424 3.4206299781799316 -1.285675362949707 1.5431578795062464 -1.8281952343382777 -1.5707686583148401 1.849805235862732 -1.0431115627288818 0.28151676058769226 -0.3364933133125305 0.05963814631104469 -0.0 -1.0512220859527588 1 True True
21221.474 3.3691513538360596 -1.2720726889422913 1.5266988913165491 -1.8253923855223597 -1.5708282629596155 1.798392415046692 -1.0026549100875854 0.2617105543613434 -0.31605589389801025 0.05841081961989403 -0.0 -0.9947186708450317 1 True True
21221.523999999998 3.3211019039154053 -1.2593630415252228 1.5114501158343714 -1.8228517971434535 -1.5707772413836878 1.7503876686096191 -0.9276260733604431 0.24351023137569427 -0.299524188041687 0.045399390161037445 -8.119120164981564e-18 -0.9412572979927063 1 True True
21221.574 3.2765870094299316 -1.2474950116923829 1.4971893469439905 -1.820446630517477 -1.570796314870016 1.7057361602783203 -0.8641967177391052 0.2241460233926773 -0.2761223316192627 0.048553213477134705 0.00036358210491016507 -0.8541149497032166 1 True True
21221.624 3.235469341278076 -1.2366905969432374 1.484089199696676 -1.8181849918761195 -1.5707767645465296 1.6646331548690796 -0.7836724519729614 0.20921961963176727 -0.256033718585968 0.03832587972283363 0.00016678856627549976 -0.7924202084541321 1 True True
21221.674 3.197722911834717 -1.2267332536033173 1.4720609823810022 -1.8162852726378382 -1.5707891623126429 1.627089500427246 -0.7136982679367065 0.19295020401477814 -0.2211747169494629 0.03688296675682068 0.00010721375292632729 -0.7222230434417725 1 True True
21221.724 3.1636369228363037 -1.2175680559924622 1.4613707701312464 -1.8142758808531703 -1.5708044211017054 1.5928977727890015 -0.6480543613433838 0.17183007299900055 -0.2062225192785263 0.03818541765213013 -1.9310036208919357e-11 -0.649360716342926 1 True True
21221.773999999998 3.133157968521118 -1.2096333068660279 1.451555077229635 -1.8127175770201625 -1.5708211104022425 1.5622730255126953 -0.5805474519729614 0.1509922295808792 -0.1816660463809967 0.02784007601439953 -2.9331976999910287e-30 -0.5850602984428406 1 True True
21221.824 3.1059741973876953 -1.202393339281418 1.4428847471820276 -1.8111549816527308 -1.570784870778219 1.5351468324661255 -0.5072152018547058 0.13452358543872833 -0.1590462177991867 0.027945294976234436 -0.0 -0.5113855004310608 1 True True
21221.874 3.0823709964752197 -1.1961234670928498 1.4352152983294886 -1.8099266491331996 -1.5707805792437952 1.511544942855835 -0.43556660413742065 0.11837799102067947 -0.140133798122406 0.025177134200930595 -0.0 -0.4396723806858063 1 True True
21221.924 3.0621497631073 -1.190683440571167 1.428852383290426 -1.8088585338988246 -1.5708454290973108 1.4913256168365479 -0.3647793233394623 0.09586144238710403 -0.11968772113323212 0.022677507251501083 -0.0 -0.36821240186691284 1 True True
21221.974 3.045398712158203 -1.1863322418979187 1.4235757032977503 -1.8080531559386195 -1.5708535353290003 1.4747416973114014 -0.30174577236175537 0.0776621475815773 -0.09779030084609985 0.017057452350854874 -9.137454617302865e-05 -0.3019227087497711 1 True True
21222.023999999998 3.0322957038879395 -1.1828318399241944 1.4193747679339808 -1.8072997532286585 -1.5707967917071741 1.4615099430084229 -0.23281078040599823 0.06050420552492142 -0.07609275728464127 0.009715920314192772 -8.63618584198006e-13 -0.22957172989845276 1 True True
21222.074 3.0226337909698486 -1.180312768822052 1.4164131323443812 -1.8067456684508265 -1.5707967917071741 1.4518219232559204 -0.1586836874485016 0.04302579537034035 -0.04876205325126648 0.00852352473884821 -1.311839117728119e-31 -0.16501809656620026 1 True True
21222.124 3.0163426399230957 -1.1786853236011048 1.414213005696432 -1.8065382442870082 -1.5707724730121058 1.4456150531768799 -0.08770658820867538 0.024403836578130722 -0.0292213037610054 0.006251922342926264 -0.0 -0.09255415946245193 1 True True
21222.174 3.0137293338775635 -1.1778867703727265 1.4134343306170862 -1.8062988720335902 -1.570784870778219 1.4428796768188477 -0.01960066519677639 0.002970359520986676 -0.0034543429501354694 0.0010717628756538033 -0.0 -0.022165978327393532 1 True True
21222.224 3.013715982437134 -1.1776564878276368 1.4139469305621546 -1.8069969616331996 -1.5707486311541956 1.442780613899231 -0.00015502401220146567 0.019453836604952812 0.03038303181529045 -0.044060155749320984 -0.0 2.9722504703766014e-14 1 True True
21222.273999999998 3.0136919021606445 -1.1762020748904725 1.4167268911944788 -1.811427732507223 -1.570829216633932 1.4427528381347656 -6.189439591253176e-05 0.03688503056764603 0.07981710135936737 -0.12000323086977005 5.519525488443174e-20 -0.0002476164372637868 1 True True
21222.324 3.013648509979248 -1.173706666832306 1.422006909047262 -1.8191215000548304 -1.5708258787738245 1.4428058862686157 -0.0004583136469591409 0.06143338605761528 0.1316884458065033 -0.19134634733200073 8.384171900332708e-39 -0.00020501791732385755 1 True True
21222.374 3.0136125087738037 -1.1701406401446839 1.4297321478473108 -1.830491682092184 -1.5708168188678187 1.4427210092544556 -0.0004749760846607387 0.08376060426235199 0.17703239619731903 -0.2515257000923157 0.0 -0.00015977301518432796 1 True True
21222.424 3.013599157333374 -1.1652795237353821 1.4397996107684534 -1.8453613720335902 -1.5708044211017054 1.4427440166473389 -0.00017321525956504047 0.10570383816957474 0.2209259271621704 -0.3256995379924774 -7.244817243190482e-05 -0.00012304013944230974 1 True True
21222.474 3.0135674476623535 -1.1592762035182496 1.4522884527789515 -1.8634349308409632 -1.5707357565509241 1.4427733421325684 -0.00011731969425454736 0.1295442283153534 0.2702912390232086 -0.4120349586009979 -6.209738057805225e-05 -7.58369715185836e-05 1 True True
21222.523999999998 3.0135884284973145 -1.1523299676230927 1.4667819182025355 -1.8852182827391566 -1.570801083241598 1.4427409172058105 -8.336178871104494e-05 0.1516234129667282 0.3190903663635254 -0.4734686613082886 -2.5415164710370123e-21 -6.402745930245146e-05 1 True True
21222.574 3.0136168003082275 -1.1442393821528931 1.4840534369098108 -1.9104849300780238 -1.570824925099508 1.442752718925476 -1.0546456706096831e-38 0.17147326469421387 0.3634936511516571 -0.5343686938285828 -3.860563256230228e-40 -2.9819711156050622e-19 1 True True
21222.624 3.0135509967803955 -1.1360000234893342 1.501439396535055 -1.9364673099913539 -1.5708168188678187 1.4427847862243652 0.0 0.1592738777399063 0.32792043685913086 -0.4897082448005676 -1.2426220669841184e-14 -4.529618813215969e-38 1 True True
21222.674 3.0135927200317383 -1.128482387667038 1.516836945210592 -1.958818098107809 -1.570784870778219 1.442781925201416 0.0 0.14279505610466003 0.2784824073314667 -0.4182072877883911 -9.29127637050442e-08 -0.0 1 True True
21222.724 3.0135793685913086 -1.12250371397052 1.5294402281390589 -1.9779201946654261 -1.5708211104022425 1.442752718925476 0.0 0.1080404669046402 0.23561757802963257 -0.3404783606529236 -1.4113465773734412e-26 -0.0 1 True True
21222.773999999998 3.0136170387268066 -1.1174259942821045 1.5402496496783655 -1.9935513935484828 -1.5707481543170374 1.4427733421325684 -2.843500171652478e-34 0.08581077307462692 0.18775860965251923 -0.28967180848121643 -2.802596928649634e-45 -0.0 1 True True
21222.824 3.0135884284973145 -1.113555447464325 1.5482447783099573 -2.005606313745016 -1.5708048979388636 1.442770004272461 0.0 0.06764855980873108 0.14002346992492676 -0.20641501247882843 -0.0 -0.0 1 True True
21222.874 3.0135598182678223 -1.11077834785495 1.5540879408465784 -2.014223714868063 -1.5708006064044397 1.442797064781189 0.0 0.04269974306225777 0.09776197373867035 -0.14577434957027435 -0.0 -0.0 1 True True
21222.924 3.013597249984741 -1.1092580717853089 1.557354752217428 -2.0191756687560023 -1.5708168188678187 1.4428058862686157 0.0 0.015630580484867096 0.03773035481572151 -0.07148311287164688 -0.00033466998138464987 -2.125836317645735e-06 1 True True
21222.974 3.0135180950164795 -1.1090932053378602 1.5581429640399378 -2.021121164361471 -1.5707686583148401 1.4427363872528076 0.0 0.0003279555239714682 6.316746294032782e-05 0.00448621204122901 1.7896198412081787e-10 -3.2291508395633725e-25 1 True True
21223.023999999998 3.0135552883148193 -1.1090330642512818 1.5581820646869105 -2.0211087665953578 -1.5708487669574183 1.4427409172058105 0.0 0.005801914259791374 0.005633036606013775 0.0012941184686496854 2.718436273881108e-29 -4.90454462513686e-44 1 True True
21223.074 3.013598680496216 -1.108119474058487 1.5594208876239222 -2.0203215084471644 -1.570756737385885 1.4427762031555176 0.0 0.017688482999801636 0.024239664897322655 0.03192664682865143 0.001236829673871398 -2.0458614457489338e-13 1 True True
21223.124 3.0135135650634766 -1.1082803469947358 1.5589259306537073 -2.020806928674215 -1.5707162062274378 1.4427626132965088 4.564383149463199e-15 -0.004964960739016533 -0.011460228823125362 -0.017196422442793846 -0.00022392798564396799 -0.0008065267466008663 1 True False
21223.174 3.0135927200317383 -1.10830710948024 1.5589593092547815 -2.020705362359518 -1.5707686583148401 1.4427571296691895 0.0 -0.008724323473870754 -0.00844027753919363 -0.004754921421408653 -3.9053957152646035e-05 0.0011032570619136095 1 True False
21223.224 3.0135674476623535 -1.1085003179362793 1.5588138739215296 -2.0208221874632777 -1.5707805792437952 1.442781925201416 0.0 -0.002103942446410656 -0.0027715505566447973 -0.0008774176239967346 -5.613273970084265e-05 -8.6857463292059e-18 1 True False
21223.273999999998 3.0135838985443115 -1.1085758072188874 1.5586817900287073 -2.020865102807516 -1.5707805792437952 1.4427733421325684 0.0 -6.634402961935848e-05 -0.0001385285722790286 -0.0003770207695197314 -3.1539719202555716e-05 -1.319366583406309e-36 1 True False
21223.324 3.0135915279388428 -1.1085921686938782 1.5586651007281702 -2.0208851299681605 -1.5707934538470667 1.4427950382232666 0.0 -4.667197208618745e-05 -0.00011421944509493187 -0.00015099841402843595 -3.285708953626454e-05 -0.0 1 True False
21223.374 3.0135509967803955 -1.1091950100711365 1.5577738920794886 -2.019735952416891 -1.5707886854754847 1.4428263902664185 0.0 -0.022160261869430542 -0.0412408746778965 0.05459160730242729 -3.064582962397644e-11 -0.0 1 True False
21223.424 3.0136048793792725 -1.1104627412608643 1.5548818747149866 -2.014876981774801 -1.5707934538470667 1.4427483081817627 0.0 -0.03648705407977104 -0.08463668823242188 0.1256857067346573 -0.00012243344099260867 6.088603606750967e-14 1 True False
21223.474 3.0136005878448486 -1.1131729644588013 1.5491135756122034 -2.0068546734251917 -1.570801083241598 1.4428058862686157 0.0 -0.06543155014514923 -0.13310496509075165 0.19841375946998596 -0.00011638517025858164 9.248600738489657e-33 1 True False
21223.523999999998 3.0135509967803955 -1.11685864747081 1.541276756917135 -1.9950453243651332 -1.5707805792437952 1.442793607711792 0.0 -0.08675362169742584 -0.17654317617416382 0.26589497923851013 -8.298884495161474e-05 0.0 1 True False
21223.574 3.0135960578918457 -1.1218579572490235 1.5308120886432093 -1.9798551998534144 -1.5707724730121058 1.442793607711792 0.0 -0.10639921575784683 -0.2276303917169571 0.3376452624797821 -4.9254791520070285e-05 0.0 1 True False
21223.624 3.0135345458984375 -1.1279268723777314 1.5183256308185022 -1.9612351856627406 -1.5707967917071741 1.4428144693374634 5.774549456030276e-29 -0.12864041328430176 -0.2809932827949524 0.4096905589103699 -4.558619818176072e-17 0.0 1 True False
21223.674 3.0136003494262695 -1.135037825708725 1.503259007130758 -1.9390398464598597 -1.5707810560809534 1.4428263902664185 0.0 -0.15371529757976532 -0.3263600468635559 0.47604113817214966 -6.924553535106745e-36 5.926834917008931e-22 1 True False
21223.724 3.0135915279388428 -1.143263892536499 1.4859378973590296 -1.91347136119985 -1.5707929770099085 1.4427493810653687 0.0 -0.17479677498340607 -0.3638077676296234 0.5569387078285217 -0.0 9.002922243747652e-41 1 True False
21223.773999999998 3.0136091709136963 -1.1515989762595673 1.4685176054583948 -1.887834211389059 -1.5707805792437952 1.4427849054336548 0.0 -0.15124954283237457 -0.32922494411468506 0.4655521512031555 -0.0 0.0 1 True False
21223.824 3.013558864593506 -1.158650056724884 1.453829590474264 -1.865704198876852 -1.5708006064044397 1.4427776336669922 0.0 -0.12978975474834442 -0.28066545724868774 0.4119594693183899 -0.0 1.8554637826184717e-09 1 True False
21223.874 3.0135509967803955 -1.164718435411789 1.4409869352923792 -1.8471600017943324 -1.5708330313311976 1.4427645206451416 0.0 -0.1080373078584671 -0.22984859347343445 0.3424105644226074 -0.0 2.8184530658999184e-28 1 True False
21223.924 3.0135796070098877 -1.1695395869067688 1.4307902495013636 -1.832029481927389 -1.5708006064044397 1.4428220987319946 0.0 -0.0863378643989563 -0.17616237699985504 0.2699204385280609 -0.0 0.0 1 True False
21223.974 3.0135796070098877 -1.1733204287341614 1.422936741505758 -1.8204051456847132 -1.5708330313311976 1.442740797996521 0.0 -0.06802500039339066 -0.13456425070762634 0.19797733426094055 -0.0 0.0 1 True False
21224.023999999998 3.0136048793792725 -1.1759032172015687 1.4174450079547327 -1.8122669659056605 -1.5707925001727503 1.442765712738037 0.0 -0.04335218295454979 -0.0850536972284317 0.12857365608215332 -0.0 0.0 1 True False
21224.074 3.0135509967803955 -1.1774988931468506 1.4142068068133753 -1.8075581989684046 -1.570824925099508 1.4427319765090942 0.0 -0.01950402744114399 -0.04260064288973808 0.05901509150862694 -0.0 0.0 1 True False
21224.124 3.0135881900787354 -1.1777865153602143 1.4133980909930628 -1.806382795373434 -1.570784870778219 1.4427804946899414 0.0 3.139235923299566e-05 -0.001434602658264339 -0.001656712032854557 -0.0 0.0 1 False False
21224.174 3.0135762691497803 -1.1778326493552704 1.4133980909930628 -1.8063546619811 -1.5708168188678187 1.442826509475708 0.0 -0.00042964715976268053 -0.0001824449427658692 -3.7701237958941895e-19 -0.0 0.0 1 False False
21224.224 3.0135631561279297 -1.177903340463974 1.4133322874652308 -1.8063513241209925 -1.5707610289203089 1.4428144693374634 0.0 -0.0006834561354480684 -0.00011871889000758529 0.0003241394879296422 -0.0 0.0 1 False False
21224.273999999998 3.013607978820801 -1.17782814920459 1.4133933226214808 -1.8063308201231898 -1.5708006064044397 1.4428101778030396 0.0 -0.0012419456616044044 -0.0001699899003142491 0.0005305848899297416 -0.0 0.0 1 False False
21224.324 3.0136210918426514 -1.1778690379909058 1.4134157339679163 -1.806315084496969 -1.5708006064044397 1.4427614212036133 0.0 -0.0009518549777567387 -0.00011657003778964281 0.0003990682598669082 -0.0 0.0 1 False False
21224.374 3.013592481613159 -1.1778690379909058 1.4133785406695765 -1.8062998257079066 -1.5708330313311976 1.442752718925476 0.0 -0.00024472910445183516 -0.00012056255945935845 0.00013861589832231402 -0.0 0.0 1 False False
21224.424 3.013645887374878 -1.1779076319983979 1.4133947531329554 -1.8062473736205042 -1.5707967917071741 1.4427613019943237 -5.047974761498884e-32 -0.00016027184028644115 -0.00012606025848072022 0.00010958727943943813 -0.0 0.0 1 False False
21224.474 3.0135719776153564 -1.1779135030559083 1.4133785406695765 -1.8062588177123011 -1.5707491079913538 1.442768931388855 0.0 -0.00010297246626578271 -0.00010420705075375736 7.63917196309194e-05 -0.0 0.0 1 False False
21224.523999999998 3.0136208534240723 -1.1778882604888459 1.4134319464312952 -1.8062669239439906 -1.5707967917071741 1.442732810974121 0.0 -5.906587466597557e-05 -9.239754581358284e-05 7.232789521186094e-18 -0.0 0.0 1 False False
21224.574 3.0135231018066406 -1.1779032510570069 1.413408104573385 -1.8062831364073695 -1.5707610289203089 1.4427980184555054 0.0 -2.2366722987499088e-05 -4.38412044445613e-08 1.0986627478984133e-36 -0.0 0.0 1 False False
21224.624 3.0136003494262695 -1.1779062908938904 1.4133871237384241 -1.806234975854391 -1.57082444826235 1.442793607711792 0.0 -1.3795623999612872e-05 -5.527806206373498e-05 0.0 -0.0 0.0 1 False False
21224.674 3.0135512351989746 -1.1778519612601777 1.4134228865252894 -1.8062473736205042 -1.570772949849264 1.4428308010101318 0.0 -1.9947325199609622e-05 -5.430787473110126e-24 0.0 -0.0 0.0 1 False False
21224.724 3.0135838985443115 -1.1778554779342194 1.4133828322040003 -1.806307931939596 -1.570784870778219 1.4427893161773682 0.0 6.031235233461274e-11 -0.0 0.0 -0.0 0.0 1 False False
21224.773999999998 3.0135512351989746 -1.177938924436905 1.4133504072772425 -1.8062511883177699 -1.5707967917071741 1.4427372217178345 0.0 0.0 -3.1899930036161095e-05 0.0 -0.0 0.0 1 False False
21224.824 3.0135881900787354 -1.1779135328582306 1.4133947531329554 -1.8062311611571253 -1.5708048979388636 1.4427776336669922 0.0 0.0 -9.0467525797928e-28 0.0 -0.0 0.0 1 False False
21224.874 3.0136046409606934 -1.1778599482825776 1.4133504072772425 -1.8062387905516566 -1.5707767645465296 1.4428058862686157 0.0 0.0 -0.0 2.774667668748506e-14 -0.0 0.0 1 False False
21224.924 3.0135881900787354 -1.177897111778595 1.4133341948138636 -1.8062874279417933 -1.5708087126361292 1.442765712738037 0.0 0.0 -0.0 4.21472691334965e-33 -0.0 0.0 1 False False
21224.974 3.013625144958496 -1.1778057676604767 1.4133947531329554 -1.8062793217101039 -1.5707605520831507 1.4428101778030396 0.0 0.0 -0.0 0.0 -0.0 0.0 1 False False
21225.023999999998 3.013563394546509 -1.1778309804252167 1.4133709112750452 -1.8062707386412562 -1.570829216633932 1.4428222179412842 0.0 0.0 -0.0 0.0 -0.0 0.0 1 True False
21225.074 3.013575315475464 -1.1778763097575684 1.4134166876422327 -1.8062712154784144 -1.5708168188678187 1.4427849054336548 0.0 0.0 -0.0 0.0 -0.0 0.0 1 True False
21225.124 3.0135796070098877 -1.1778734189322968 1.4133666197406214 -1.8062507114806117 -1.570813004170553 1.442768931388855 0.0 0.0 -0.0 0.0 -0.0 0.0 1 True False
21225.174 3.0135676860809326 -1.1778280895999451 1.4133427778827112 -1.8062831364073695 -1.5707891623126429 1.4427733421325684 0.0 0.0 -0.0 0.0 -0.0 0.0 1 True False
21225.224 3.013613224029541 -1.1778384310058136 1.4133623282061976 -1.8062874279417933 -1.570772949849264 1.4427893161773682 0.0 0.0 -1.0514714757520908e-19 0.0 -0.0 0.0 1 True False
21225.273999999998 3.0135598182678223 -1.1778734785369416 1.4133341948138636 -1.8062917194762171 -1.5707805792437952 1.4428232908248901 0.0 0.0 -0.0 0.0 -0.0 0.0 1 True False
21225.324 3.0135960578918457 -1.1778520208648224 1.4133828322040003 -1.8062707386412562 -1.5708044211017054 1.442781925201416 0.0 0.0 -0.0 0.0 -0.0 0.0 1 True False
21225.374 3.013559103012085 -1.1778853994658967 1.4133871237384241 -1.8062268696227015 -1.5707724730121058 1.4427863359451294 0.0 0.0 -0.0 0.0 -0.0 0.0 1 True False
21225.424 3.0135555267333984 -1.1778429311564942 1.4133828322040003 -1.8062430820860804 -1.5707891623126429 1.442765712738037 0.0 0.0 -0.0 0.0 -0.0 0.0 1 True False
21225.474 3.013542652130127 -1.1778882604888459 1.4133957068072718 -1.8062793217101039 -1.5707529226886194 1.4427034854888916 0.0 0.0 -0.0 0.0 -0.0 -0.00014542830467689782 1 True False
21225.523999999998 3.0136003494262695 -1.1778191787055512 1.4133666197406214 -1.8063069782652796 -1.570829216633932 1.4427849054336548 0.0 0.0 -0.0 0.0 -0.0 0.0014785402454435825 1 True False
21225.574 3.013563394546509 -1.1778599184802552 1.4133871237384241 -1.8062511883177699 -1.570813004170553 1.4428058862686157 0.0 0.0 -0.0 0.0 -0.0 0.00028618008946068585 1 True False
21225.624 3.0135350227355957 -1.1778882306865235 1.4133504072772425 -1.806234975854391 -1.570801083241598 1.4427978992462158 0.0 0.0 -0.0 0.0 -0.0 1.0877598730689207e-21 1 True False
21225.674 3.0137321949005127 -1.1778882306865235 1.4133828322040003 -1.8062473736205042 -1.5708168188678187 1.4429535865783691 0.02426239475607872 -0.0019908705726265907 2.963400902444846e-07 0.0 -0.0 0.021179305389523506 1 True False
21225.724 3.0164458751678467 -1.1781331461719056 1.4135258833514612 -1.80627503017568 -1.5707724730121058 1.4457734823226929 0.08833594620227814 -0.008421084843575954 0.00903899036347866 -0.0015852955402806401 -1.2543280216575914e-12 0.09219546616077423 1 True False
21225.773999999998 3.0229380130767822 -1.178607539539673 1.4141648451434534 -1.8064986668028773 -1.5707843939410608 1.4520983695983887 0.15969865024089813 -0.011988840065896511 0.014805073849856853 -0.004968084394931793 8.39994681882672e-05 0.16260139644145966 1 True False
21225.824 3.032715082168579 -1.1792128545096894 1.4151037375079554 -1.8068262539305628 -1.5707925001727503 1.4618499279022217 0.23198598623275757 -0.013642607256770134 0.023060208186507225 -0.007005169987678528 4.737285780720413e-05 0.22845417261123657 1 True False
21225.874 3.0459794998168945 -1.1800801020911713 1.4163854757892054 -1.8071724377074183 -1.5708006064044397 1.475171446800232 0.2985796332359314 -0.01982293091714382 0.028226573020219803 -0.007455155253410339 4.390468529891223e-05 0.29952511191368103 1 True False
21225.924 3.062762498855591 -1.181226597433426 1.4180682341205042 -1.8076187572874964 -1.570772949849264 1.4920597076416016 0.37013331055641174 -0.025983227416872978 0.034220658242702484 -0.010306326672434807 7.28600425645709e-05 0.36810415983200073 1 True False
21225.974 3.0831847190856934 -1.1826439958861847 1.4199684301959437 -1.808141370812887 -1.5707724730121058 1.5122805833816528 0.437835156917572 -0.028659045696258545 0.04151712730526924 -0.010679575614631176 7.053016077450911e-21 0.43893614411354065 1 True False
21226.023999999998 3.106782913208008 -1.1842664045146485 1.42226487794985 -1.8087874851622523 -1.570813004170553 1.5360745191574097 0.5113316774368286 -0.03627438470721245 0.04986681789159775 -0.014629007317125797 5.1789542339975014e-05 0.5023100972175598 1 True False
21226.074 3.1340911388397217 -1.1862263840487977 1.4248769919024866 -1.8095289669432582 -1.5708487669574183 1.5633376836776733 0.577707827091217 -0.0369599349796772 0.05436468496918678 -0.0159686878323555 0.00012406350288074464 0.5798976421356201 1 True False
21226.124 3.1649622917175293 -1.1883608859828492 1.4278400580035608 -1.8102661571898402 -1.5707967917071741 1.594118356704712 0.6485445499420166 -0.04415963590145111 0.06183918938040733 -0.019779928028583527 1.9550123981748667e-22 0.6492478251457214 1 True False
21226.174 3.19909930229187 -1.1907477539828797 1.4311845938311976 -1.8111754856505335 -1.5707524458514612 1.6283538341522217 0.7229065299034119 -0.048679813742637634 0.07116449624300003 -0.020383896306157112 0.0002866893482860178 0.7167648673057556 1 True False
21226.224 3.2368063926696777 -1.1932315987399598 1.4347441832171839 -1.8123122654356898 -1.5707686583148401 1.66608464717865 0.7856736779212952 -0.05427698418498039 0.07554267346858978 -0.022111672908067703 3.943649062421173e-05 0.7837521433830261 1 True False
21226.273999999998 3.2781496047973633 -1.1961134535125275 1.438735310231344 -1.813376089135641 -1.5708048979388636 1.7071139812469482 0.8539727926254272 -0.05664284527301788 0.08009884506464005 -0.020982231944799423 -9.159291248763074e-16 0.8587647080421448 1 True False
21226.324 3.322786331176758 -1.1993113321116944 1.4430120627032679 -1.8145228825011195 -1.570801083241598 1.7520601749420166 0.9337021708488464 -0.06819094717502594 0.08961328119039536 -0.02128390595316887 -2.5041821572813205e-05 0.9238146543502808 1 True False
21226.374 3.3709802627563477 -1.2024938625148316 1.4476736227618616 -1.815888067285055 -1.5708087126361292 1.8001904487609863 0.9953513741493225 -0.06754882633686066 0.08992988616228104 -0.030994385480880737 -1.4775048485351957e-16 0.996844470500946 1 True False
21226.424 3.4224812984466553 -1.2060841482928772 1.4525421301471155 -1.8171917400755824 -1.5707772413836878 1.8517098426818848 1.0485774278640747 -0.07148800045251846 0.09597796201705933 -0.02720412239432335 -2.244333252294088e-35 1.0435727834701538 1 True False
21226.474 3.4747748374938965 -1.2096378666213532 1.457454029713766 -1.8186623058714808 -1.570772949849264 1.904076337814331 1.052281379699707 -0.0742485523223877 0.10331327468156815 -0.029878200963139534 -0.00033286443795077503 1.0522396564483643 1 True False
21226.523999999998 3.5271754264831543 -1.2133006614497681 1.4625452200519007 -1.8200975857176722 -1.570813004170553 1.9563158750534058 1.041105031967163 -0.07233036309480667 0.10018441081047058 -0.028705568984150887 -0.00031845690682530403 1.043028473854065 1 True False
21226.574 3.5795602798461914 -1.2169179183295746 1.4675338904010218 -1.821437498132223 -1.5707686583148401 2.0088212490081787 1.0478119850158691 -0.06972073763608932 0.10033559054136276 -0.029312804341316223 -2.5657186444871805e-11 1.0405008792877197 1 True False
21226.624 3.631909132003784 -1.2205497187427063 1.47264272371401 -1.8228374920287074 -1.5708211104022425 2.061143398284912 1.0512475967407227 -0.07137573510408401 0.10436798632144928 -0.026386041194200516 -7.89189653005451e-05 1.0501843690872192 1 True False
21226.674 3.684340476989746 -1.2241565746119996 1.4776399771319788 -1.8242131672301234 -1.5707324186908167 2.113481283187866 1.0426888465881348 -0.07303622364997864 0.10034124553203583 -0.027682946994900703 -7.507215195801109e-05 1.047399640083313 1 True False
21226.724 3.7365801334381104 -1.2276844543269654 1.482645336781637 -1.8256274662413539 -1.570801083241598 2.1658847332000732 1.0519613027572632 -0.07267186045646667 0.09884269535541534 -0.033284228295087814 -1.6852056432981044e-05 1.0467052459716797 1 True False
21226.773999999998 3.7889461517333984 -1.2313679319671174 1.4876521269427698 -1.827067037621969 -1.570829216633932 2.218212604522705 1.051533579826355 -0.07568512111902237 0.09837725013494492 -0.022911498323082924 -2.6345935111748986e-05 1.0545740127563477 1 True False
21226.824 3.8413496017456055 -1.2349522572806855 1.4926655928241175 -1.828479906121725 -1.5708087126361292 2.2705178260803223 1.0459692478179932 -0.07413771003484726 0.1013294905424118 -0.027318663895130157 -3.001220648002345e-05 1.0455654859542847 1 True False
21226.874 3.893695592880249 -1.2386059027961274 1.497497860585348 -1.8299099407591761 -1.5707805792437952 2.32296085357666 1.0480607748031616 -0.07690003514289856 0.10009951889514923 -0.03138059377670288 -1.0600378118397202e-05 1.0409979820251465 1 True False
21226.924 3.946073055267334 -1.2421561640552063 1.5026815573321741 -1.8311578236021937 -1.570829216633932 2.375309705734253 1.05221426486969 -0.07116754353046417 0.09811059385538101 -0.027072273194789886 -4.1321271125158045e-20 1.049788475036621 1 True False
21226.974 3.9985971450805664 -1.24583055198703 1.5077641646014612 -1.832717081109518 -1.5708368460284632 2.4276528358459473 1.0398317575454712 -0.07028438150882721 0.09770752489566803 -0.028644872829318047 -7.686969911446795e-05 1.0478233098983765 1 True False
21227.023999999998 4.0508527755737305 -1.2494217914393921 1.5127180258380335 -1.834175249139303 -1.5707524458514612 2.480095386505127 1.047445297241211 -0.07368040829896927 0.10216690599918365 -0.02791306935250759 -6.876795607898985e-22 1.043306589126587 1 True False
21227.074 4.103125095367432 -1.25303070366893 1.5176790396319788 -1.8354484043517054 -1.5707605520831507 2.532459259033203 1.0509743690490723 -0.0732734203338623 0.10038154572248459 -0.023139555007219315 -1.0445839272462916e-40 1.0510236024856567 1 True False
21227.124 4.15542459487915 -1.2566583317569275 1.5227673689471644 -1.8368832073607386 -1.5708449522601526 2.584651470184326 1.044224739074707 -0.07071370631456375 0.1017446219921112 -0.02793610841035843 5.92355854678317e-06 1.0479894876480103 1 True False
21227.174 4.2079081535339355 -1.260326312189438 1.5277026335345667 -1.838306566277975 -1.5707810560809534 2.637129545211792 1.047663927078247 -0.07279115915298462 0.10447126626968384 -0.03012795001268387 6.880355118109305e-13 1.0384900569915771 1 True False
21227.224 4.260274410247803 -1.2638965112021943 1.532717529927389 -1.8397499523558558 -1.5708335081683558 2.6895198822021484 1.0484776496887207 -0.07317955046892166 0.10235723108053207 -0.02769889496266842 1.0451275604375627e-31 1.0511823892593384 1 True False
21227.273999999998 4.3123779296875 -1.2673908335021515 1.5379045645343226 -1.841133256951803 -1.5707724730121058 2.741398334503174 1.018513560295105 -0.07297932356595993 0.09685153514146805 -0.027847107499837875 0.0 1.0177475214004517 1 True False
21227.324 4.361469745635986 -1.270789549951889 1.5425499121295374 -1.8423410854735316 -1.570813004170553 2.7907235622406006 0.9497720003128052 -0.0634993463754654 0.08869588375091553 -0.023107292130589485 -0.00015155448636505753 0.9455211162567139 1 True False
21227.374 4.407013893127441 -1.274025873546936 1.5468233267413538 -1.8436452351012171 -1.570813004170553 2.8361568450927734 0.8761096000671387 -0.061394162476062775 0.08622857928276062 -0.0222470685839653 -9.566651715431362e-05 0.8900627493858337 1 True False
21227.424 4.449202537536621 -1.2768537563136597 1.5508230368243616 -1.8447305164732875 -1.5708168188678187 2.8784773349761963 0.8094896078109741 -0.05561507120728493 0.0759333148598671 -0.02477787248790264 -0.00021220321650616825 0.805498480796814 1 True False
21227.474 4.487916946411133 -1.2795674365809937 1.5545876661883753 -1.8457476101317347 -1.5708087126361292 2.9172120094299316 0.7395966053009033 -0.04926075413823128 0.07497081905603409 -0.019789425656199455 6.273369945120066e-05 0.7354523539543152 1 True False
21227.523999999998 4.522945404052734 -1.2819525462440033 1.5578368345843714 -1.8467608890929164 -1.5708325544940394 2.952216148376465 0.6680119037628174 -0.04741913080215454 0.0625363290309906 -0.020036796107888222 5.702598006342205e-20 0.6641063094139099 1 True False
21227.574 4.554654121398926 -1.2841628950885315 1.5609701315509241 -1.8475963077940882 -1.5708449522601526 2.983927011489868 0.5945808291435242 -0.04062007740139961 0.061021607369184494 -0.017885170876979828 2.5050644580915105e-06 0.5963782668113708 1 True False
21227.624 4.582744121551514 -1.286176399593689 1.5636451880084437 -1.848367830316061 -1.5708654562579554 3.012077569961548 0.5287539958953857 -0.0349721759557724 0.049288466572761536 -0.015144666656851768 3.805198766230649e-25 0.5219600200653076 1 True False
21227.674 4.607461929321289 -1.2877928179553528 1.5660765806781214 -1.849015852014059 -1.5707600752459925 3.0368540287017822 0.45535141229629517 -0.031214149668812752 0.04173428565263748 -0.015688259154558182 -0.00038015260361135006 0.45740774273872375 1 True False
21227.724 4.628847122192383 -1.2893525522998353 1.5682581106769007 -1.8494283161559046 -1.5707653204547327 3.057939291000366 0.385515034198761 -0.025906506925821304 0.03753817081451416 -0.012919089756906033 0.0005044574500061572 0.39274922013282776 1 True False
21227.773999999998 4.646674633026123 -1.2905236345580597 1.5698383490191858 -1.850013872186178 -1.5707610289203089 3.0756149291992188 0.3237167298793793 -0.023774785920977592 0.02899402752518654 -0.005099477246403694 0.0008208186482079327 0.31903356313705444 1 True False
21227.824 4.660632133483887 -1.291498677139618 1.5710986296283167 -1.8504511318602503 -1.5707967917071741 3.089979410171509 0.252661794424057 -0.01786067895591259 0.024736110121011734 -0.006140792742371559 -0.00016760958533268422 0.2505711615085602 1 True False
21227.874 4.671425819396973 -1.2922409039786835 1.5721853415118616 -1.850717683831686 -1.570829216633932 3.1006968021392822 0.18261684477329254 -0.012870466336607933 0.017228340730071068 -0.005641038529574871 -7.199819083325565e-05 0.18041300773620605 1 True False
21227.924 4.67867374420166 -1.2927293938449402 1.5728395620929163 -1.8509084186949671 -1.5707925001727503 3.1079013347625732 0.11103317886590958 -0.0060012368485331535 0.010155667550861835 -0.0038775105495005846 -1.4124396329862066e-05 0.11083836108446121 1 True False
21227.974 4.682437419891357 -1.292866126900055 1.573094669972555 -1.8510281048216761 -1.570813004170553 3.111635208129883 0.039521392434835434 -0.0027043470181524754 0.0019860300235450268 -0.0023956422228366137 -1.0144222869712394e-05 0.04574090987443924 1 True False
21228.023999999998 4.682977676391602 -1.2928497356227417 1.573489014302389 -1.8516041241087855 -1.570813004170553 3.112164258956909 -0.00223230617120862 0.006843325681984425 0.022667469456791878 -0.037626516073942184 -2.0398701341950547e-23 0.00022107060067355633 1 True False
21228.074 4.68288516998291 -1.292001650934555 1.575646702443258 -1.854746004144186 -1.5708254019366663 3.1121554374694824 0.0002504710282664746 0.03441980481147766 0.060932472348213196 -0.10697003453969955 2.0071956896572374e-05 0.0010230705374851823 1 True False
21228.124 4.6829915046691895 -1.2896320980838318 1.579876724873678 -1.861270090142721 -1.5708449522601526 3.1122183799743652 0.00036357890348881483 0.0628877803683281 0.1101386770606041 -0.17896021902561188 4.7593770432285964e-05 0.0003697478969115764 1 True False
21228.174 4.682928562164307 -1.2858070892146607 1.5865581671344202 -1.8715278110899867 -1.5707648436175745 3.112231731414795 0.0007044532685540617 0.08865624666213989 0.15421874821186066 -0.235676571726799 9.895601397147402e-05 0.00021232439030427486 1 True False
21228.224 4.683060169219971 -1.2810428005507966 1.5954144636737269 -1.8852726421751917 -1.5707805792437952 3.1122119426727295 0.00041347742080688477 0.10681711137294769 0.2045617401599884 -0.3150075674057007 0.00012293888721615076 0.00011592837836360559 1 True False
21228.273999999998 4.682936668395996 -1.2749475997737427 1.6068280378924769 -1.9023486576476039 -1.570836369191305 3.1122524738311768 0.00021135924907866865 0.13175532221794128 0.239216148853302 -0.365776389837265 8.408241410506889e-05 7.939993520267308e-05 1 True False
21228.324 4.683048248291016 -1.267790512447693 1.6199677626239222 -1.9230724773802699 -1.570772949849264 3.1122028827667236 0.00012428117042873055 0.15702073276042938 0.28782880306243896 -0.43789926171302795 4.9247936458052255e-12 2.0188657603309457e-15 1 True False
21228.374 4.682990074157715 -1.259262428884842 1.6357768217669886 -1.9473535023131312 -1.570801083241598 3.1122360229492188 9.203788067679852e-05 0.18259230256080627 0.32977959513664246 -0.5203035473823547 7.480774108378767e-31 1.990275944052655e-09 1 True False
21228.424 4.6830525398254395 -1.2496558886817475 1.653231445943014 -1.9743615589537562 -1.5708492437945765 3.112227201461792 6.627958646276966e-05 0.18492555618286133 0.34360167384147644 -0.5318909287452698 0.0 -8.782258232274687e-13 1 True False
21228.474 4.682990074157715 -1.241010920410492 1.6694567839251917 -1.9990207157530726 -1.570801083241598 3.1122028827667236 1.485231049258573e-09 0.16183297336101532 0.29703274369239807 -0.4554205536842346 0.0 -1.33402680869876e-31 1 True False
21228.523999999998 4.683067798614502 -1.2336184841445466 1.6829422155963343 -2.0203987560667933 -1.5708449522601526 3.1122360229492188 0.0 0.1398923099040985 0.25099173188209534 -0.38795411586761475 0.0 -0.0 1 True False
21228.574 4.683006286621094 -1.2273565393737336 1.6946514288531702 -2.0381785831847132 -1.570784870778219 3.1122028827667236 0.0 0.1140885278582573 0.2063995599746704 -0.3256787359714508 0.0 -0.0 1 True False
21228.624 4.683030605316162 -1.2221856278232117 1.7038686911212366 -2.052345415154928 -1.5707805792437952 3.1122615337371826 0.0 0.08733613789081573 0.1577196717262268 -0.24783502519130707 0.0 -0.0 1 True False
21228.674 4.683027744293213 -1.2184358400157471 1.7107880751239222 -2.0632440052428187 -1.5707925001727503 3.1122360229492188 0.0 0.0640532374382019 0.12195482105016708 -0.18672800064086914 0.0 -2.7773036648248706e-10 1 True False
21228.724 4.682994842529297 -1.2158611577800293 1.7155121008502405 -2.0705515346922816 -1.5707362333880823 3.112210988998413 0.0 0.03908485174179077 0.06962749361991882 -0.10928988456726074 0.0 -4.218729381101135e-29 1 True False
21228.773999999998 4.683048248291016 -1.214528815155365 1.718046013508932 -2.074242731133932 -1.570869270955221 3.1122496128082275 0.0 0.015436147339642048 0.031242333352565765 -0.04388298839330673 0.0 -0.0 1 True False
21228.824 4.683043956756592 -1.214455322628357 1.7183635870562952 -2.0749031505980433 -1.5707929770099085 3.1121983528137207 0.0 -0.0019223701674491167 1.0199855404735558e-09 -0.00024464461603201926 0.0 -0.0 1 True False
21228.874 4.683011054992676 -1.2143948835185547 1.718396011983053 -2.0749107799925746 -1.5707925001727503 3.11221981048584 0.0 0.00014794350136071444 0.0004326757334638387 -5.4873562476132065e-05 0.0 -0.0 1 True False
21228.924 4.682973861694336 -1.2143406134894867 1.7184684912311 -2.0749670467772425 -1.5708406607257288 3.1121878623962402 0.0 0.00029579648980870843 0.0007883374346420169 -6.560359906870872e-05 0.0 -5.213206224814782e-23 1 True False
21228.974 4.683030605316162 -1.214318410759308 1.7184956709491175 -2.0749107799925746 -1.570813004170553 3.112240791320801 0.0 0.00031362747540697455 0.00040018584695644677 -0.00011086114682257175 0.0 -7.918737621899541e-42 1 True False
21229.023999999998 4.683027267456055 -1.214330331688263 1.7184308210956019 -2.0748993359007777 -1.5707686583148401 3.1122450828552246 0.0 0.0002059212129097432 0.00021139642922207713 -0.00013578541984315962 0.0 -3.023985118488781e-05 1 True False
21229.074 4.68307638168335 -1.2143511933139344 1.7185080687152308 -2.0749107799925746 -1.5707810560809534 3.1122493743896484 0.0 0.00013113947352394462 9.342779230792075e-05 -0.0001339357258984819 0.0 -6.766084914566761e-11 1 True False
21229.124 4.683043956756592 -1.2142819327167054 1.7184589544879358 -2.074935098687643 -1.5708254019366663 3.1122777462005615 3.2105844429233494e-35 0.00010879882029257715 7.380465103778988e-05 -9.646388207329437e-05 0.0 1.7837766790762544e-05 1 True False
21229.174 4.683018684387207 -1.2142686408809205 1.7184913794146937 -2.0749827824034632 -1.5707648436175745 3.1122028827667236 0.0 8.827378042042255e-05 3.902520667731224e-14 -6.71961679472588e-05 0.0 1.192743638966931e-05 1 True False
21229.224 4.683055400848389 -1.214302049284317 1.7184713522540491 -2.074951311151022 -1.5708087126361292 3.112210988998413 0.0 -3.4359006355940813e-15 9.248569864543793e-44 -2.8826996185671305e-06 0.0 1.920624710704047e-13 1 True False
21229.273999999998 4.683022975921631 -1.2143467229655762 1.7184799353228968 -2.0748869381346644 -1.5707805792437952 3.112215280532837 0.0 0.0 0.0 -4.378828834223423e-25 0.0 2.9174323929357665e-32 1 True False
21229.324 4.6830153465271 -1.2143437427333375 1.7184913794146937 -2.074923177758688 -1.5708087126361292 3.1121983528137207 0.0 0.0 0.0 -6.58610278232664e-44 0.0 0.0 1 True False
21229.374 4.682999134063721 -1.2143200498870392 1.7185123602496546 -2.074935098687643 -1.5708091894732874 3.1122186183929443 -6.241545946750193e-08 0.0 0.0 -2.331081238527382e-20 0.0 0.0 1 True False
21229.424 4.683046817779541 -1.2143511933139344 1.7184632460223597 -2.074958463708395 -1.5708044211017054 3.112177610397339 0.0 0.0 0.0 -0.0009986768709495664 2.5364113298564916e-07 0.0 1 True False
21229.474 4.683027267456055 -1.2143830221942444 1.7184208075152796 -2.075130125085348 -1.5707967917071741 3.1122686862945557 0.0 0.00018944390467368066 -1.314534840830734e-22 -0.00021634087897837162 3.910429922579506e-14 0.0001117359715863131 1 True False
21229.523999999998 4.6830034255981445 -1.214382992391922 1.718433682118551 -2.075198312798971 -1.570784870778219 3.1122450828552246 0.0 0.00012535056157503277 0.00024907360784709454 0.0006739940727129579 5.9399507482255806e-33 1.3155037947853998e-08 1 True False
21229.574 4.682937145233154 -1.2143348318389435 1.7184045950519007 -2.0750862560667933 -1.5707929770099085 3.1121864318847656 0.0 0.000884484383277595 0.0006546226213686168 0.0013344023609533906 0.0 1.9982534286238375e-27 1 True True
21229.624 4.6830315589904785 -1.2144857806018372 1.7181952635394495 -2.074197908441061 -1.570772949849264 3.1122450828552246 0.0 -0.011396046727895737 -0.01918966695666313 0.0394955575466156 0.0 0.0 1 True True
21229.674 4.682997703552246 -1.2155471307090302 1.7161524931537073 -2.0707365475096644 -1.5708325544940394 3.1122615337371826 -4.0923295145413177e-19 -0.04408368840813637 -0.08100919425487518 0.10348675400018692 0.0 0.0 1 True True
21229.724 4.683027267456055 -1.2182474893382569 1.7113359610186976 -2.0633160076537074 -1.5707967917071741 3.1121699810028076 0.0 -0.06127931550145149 -0.11877092719078064 0.1694144755601883 0.0 0.0 1 True True
21229.773999999998 4.68303918838501 -1.2221566897681733 1.704118553792135 -2.052791257897848 -1.5707967917071741 3.11220645904541 0.0 -0.08501758426427841 -0.16392049193382263 0.2532016336917877 0.0 0.0 1 True True
21229.824 4.682997703552246 -1.2270388764194031 1.694944206868307 -2.038523336450094 -1.5707362333880823 3.1122074127197266 0.0 -0.11100098490715027 -0.20755472779273987 0.3224366307258606 0.0 0.0 1 True True
21229.874 4.6830153465271 -1.2333198648742218 1.6832802931415003 -2.020802160302633 -1.5707891623126429 3.1122524738311768 0.0 -0.13531069457530975 -0.25220876932144165 0.3836513161659241 0.0 0.0 1 True True
21229.924 4.682982921600342 -1.2407465142062684 1.669605557118551 -1.9997245273985804 -1.5708087126361292 3.1122496128082275 0.0 -0.1638692021369934 -0.30509939789772034 0.45441919565200806 0.0 0.0 1 True True
21229.974 4.682953357696533 -1.2495234471610566 1.6536715666400355 -1.9750243626036585 -1.570772949849264 3.1121983528137207 0.0 -0.18427303433418274 -0.34250375628471375 0.5355818867683411 0.0 0.0 1 True True
21230.023999999998 4.683022975921631 -1.2589789789966126 1.6361358801471155 -1.947963377038473 -1.5708168188678187 3.1122450828552246 0.0 -0.1804564893245697 -0.3352319002151489 0.5284535884857178 0.0 0.0 1 True True
21230.074 4.683011054992676 -1.2675136190703888 1.6203721205340784 -1.9237061939635218 -1.5708048979388636 3.1122822761535645 0.0 -0.16143019497394562 -0.29821568727493286 0.44262105226516724 0.0 0.0 1 True True
21230.124 4.683006763458252 -1.2748035949519654 1.6070945898639124 -1.9028593502440394 -1.5708492437945765 3.1121864318847656 0.0 -0.13837142288684845 -0.2512153089046478 0.3769822120666504 0.0 0.0 1 True True
21230.174 4.683022975921631 -1.2808444660953064 1.5956819693194788 -1.8856407604613246 -1.570784870778219 3.1122028827667236 0.0 -0.10756305605173111 -0.2022416591644287 0.3172081708908081 0.0 0.0 1 True True
21230.224 4.6830034255981445 -1.2857353550246735 1.5868819395648401 -1.8717614612975062 -1.5707767645465296 3.1121864318847656 0.0 -0.0833117738366127 -0.16085566580295563 0.2534180283546448 0.0 0.0 1 True True
21230.273999999998 4.683043479919434 -1.2893093091300507 1.5801566282855433 -1.8615051708617152 -1.5707405249225062 3.112231731414795 0.0 -0.05998152494430542 -0.11545858532190323 0.1642671525478363 0.0 0.0 1 True True
21230.324 4.68303918838501 -1.2916506093791504 1.5758393446551722 -1.8548671207823695 -1.5708211104022425 3.112236261367798 0.0 -0.035832688212394714 -0.06792464852333069 0.10120667517185211 0.0 0.0 1 True True
21230.374 4.683030605316162 -1.2929182213595887 1.5735357443438929 -1.8514443836607875 -1.5707929770099085 3.1122243404388428 0.0 -0.012515487149357796 -0.024807102978229523 0.029629582539200783 0.0 0.0 1 True True
21230.424 4.6827545166015625 -1.292952613239624 1.5733016172992151 -1.8510905704894007 -1.5707929770099085 3.111767530441284 -0.02029106393456459 4.663677139375481e-25 0.0004881913773715496 0.0008244420168921351 0.0 -0.03337572515010834 1 True True
21230.474 4.6810221672058105 -1.2929858428290864 1.5733392874347132 -1.8510667286314906 -1.5707648436175745 3.108064651489258 -0.05537951737642288 -0.0005658210720866919 0.0014512775233015418 0.001272479654289782 0.0 -0.11186381429433823 1 True True
21230.523999999998 4.677122592926025 -1.2931976479342957 1.5734036604510706 -1.8510991535582484 -1.5708211104022425 3.100884199142456 -0.09135414659976959 -0.0032376444432884455 0.004819345194846392 0.00014728571113664657 0.0 -0.17610237002372742 1 True True
21230.574 4.671648025512695 -1.293358252649643 1.5736573378192347 -1.851091047326559 -1.5708449522601526 3.0901947021484375 -0.12651923298835754 -0.004254140891134739 0.006043610163033009 -7.018289034022018e-05 0.0 -0.24486477673053741 1 True True
21230.624 4.664337158203125 -1.2935452920249482 1.5738990942584437 -1.8511034450926722 -1.5707529226886194 3.0761983394622803 -0.16192427277565002 -0.005421056412160397 0.006864772643893957 -0.0011734894942492247 0.0 -0.3219090402126312 1 True True
21230.674 4.655243873596191 -1.2938139003566285 1.5743373076068323 -1.8512217007079066 -1.5707925001727503 3.0584444999694824 -0.2015296220779419 -0.006514267064630985 0.00915380660444498 -0.0018313344335183501 0.0 -0.38196057081222534 1 True True
21230.724 4.6441450119018555 -1.2941507560065766 1.574731175099508 -1.8513499699034632 -1.5708006064044397 3.0373215675354004 -0.23459333181381226 -0.007081291638314724 0.009503955021500587 -0.0028974018059670925 0.0 -0.45936229825019836 1 True True
21230.773999999998 4.631564617156982 -1.2945798200419922 1.5752165953265589 -1.851509233514303 -1.5707324186908167 3.0128772258758545 -0.27380022406578064 -0.009416620247066021 0.010547518730163574 -0.0021493234671652317 -6.623613444389775e-05 -0.537350594997406 1 True True
21230.824 4.617030143737793 -1.2950616937926789 1.5757582823382776 -1.8516003094115199 -1.5708091894732874 2.984732151031494 -0.30876314640045166 -0.009707674384117126 0.011435242369771004 -0.0035739487502723932 -5.1742870709858835e-05 -0.5924792885780334 1 True True
21230.874 4.6007080078125 -1.2954710584929963 1.5764501730548304 -1.8517514667906703 -1.5708335081683558 2.9531450271606445 -0.3421667218208313 -0.010357516817748547 0.013471935875713825 -0.0022356363479048014 -4.664264997700229e-05 -0.6647025346755981 1 True True
21230.924 4.582487106323242 -1.2960203450969239 1.5770366827594202 -1.851877828637594 -1.570784870778219 2.918102502822876 -0.3788968324661255 -0.010994120500981808 0.014945740811526775 -0.0034030629321932793 -3.7010609963035457e-14 -0.7351189255714417 1 True True
21230.974 4.5627264976501465 -1.2966098648360749 1.5778635183917444 -1.8520728550352992 -1.5707805792437952 2.8794610500335693 -0.4186195135116577 -0.013042570091784 0.01695975475013256 -0.0038665062747895718 -5.621919649584657e-33 -0.8132931590080261 1 True True
21231.023999999998 4.540712833404541 -1.2972357732108613 1.5786860624896448 -1.8523160419859828 -1.5708850065814417 2.8373167514801025 -0.4466746747493744 -0.013531575910747051 0.017634252086281776 -0.0035963766276836395 -1.110275413274131e-10 -0.8688727021217346 1 True True
21231.074 4.5171732902526855 -1.297990308409073 1.5796688238727015 -1.8524419269957484 -1.5707648436175745 2.7920024394989014 -0.4903794229030609 -0.013755729421973228 0.01963620074093342 -0.005843679886311293 -1.6865117249326593e-29 -0.9457459449768066 1 True True
21231.124 4.492053985595703 -1.2986853879741211 1.580639664326803 -1.8526612720885218 -1.5707204977618616 2.7427549362182617 -0.5269500017166138 -0.016085917130112648 0.0204485971480608 -0.005168106872588396 0.0005788537673652172 -1.014159917831421 1 True True
21231.174 4.465094566345215 -1.299520031814911 1.5817120710956019 -1.8529321155943812 -1.5707767645465296 2.690859079360962 -0.5370842218399048 -0.017795583233237267 0.021743211895227432 -0.0017481944523751736 0.00043540503247641027 -1.0569413900375366 1 True True
21231.224 4.437783241271973 -1.3002173167518158 1.5826762358294886 -1.8532496891417445 -1.5708406607257288 2.638566017150879 -0.5398269295692444 -0.016305891796946526 0.01957225799560547 -0.004342778120189905 -0.00025474754511378706 -1.0444730520248413 1 True True
21231.273999999998 4.410637855529785 -1.3010873061469574 1.5837085882769983 -1.8534561596312464 -1.570864502583639 2.586033344268799 -0.5452278256416321 -0.014195823110640049 0.01837693154811859 -0.008588835597038269 -0.0008554425439797342 -1.0390263795852661 1 True True
21231.324 4.383520126342773 -1.301923618917801 1.584794823323385 -1.8537069759764613 -1.5708044211017054 2.53375244140625 -0.5451990365982056 -0.012644819915294647 0.020711615681648254 -0.007832175120711327 -0.0018251418368890882 -1.0547412633895874 1 True True
21231.374 4.356645584106445 -1.3027699452689667 1.5857999960528772 -1.8539263210692347 -1.5707891623126429 2.4814627170562744 -0.547364354133606 -0.015392187051475048 0.019239677116274834 -0.006693588104099035 -0.00012887726188637316 -1.04379403591156 1 True True
21231.424 4.329749584197998 -1.3035874229720612 1.5869434515582483 -1.8541084728636683 -1.5707123915301722 2.428908109664917 -0.5392166972160339 -0.01650935225188732 0.021476490423083305 -0.002574747195467353 0.000809434917755425 -1.0440963506698608 1 True True
21231.474 4.302621364593506 -1.3043561440757294 1.5879095236407679 -1.854318758050436 -1.5707891623126429 2.376628875732422 -0.536298930644989 -0.017926668748259544 0.02330457605421543 -0.0010114553151652217 0.0013618447119370103 -1.0528218746185303 1 True True
21231.523999999998 4.275420188903809 -1.3051786583713074 1.5889800230609339 -1.854605337182516 -1.570784870778219 2.3244214057922363 -0.5342571139335632 -0.017609262838959694 0.021906670182943344 -0.0022954274900257587 0.003203966189175844 -1.0471912622451782 1 True True
21231.574 4.248109340667725 -1.3058669132045289 1.5899418036090296 -1.854908128777975 -1.5708525816546839 2.271867513656616 -0.5421117544174194 -0.01688658818602562 0.02189757116138935 -0.0031210905872285366 -0.0003178404294885695 -1.0396287441253662 1 True True
21231.624 4.220973014831543 -1.3066879671863099 1.5909798781024378 -1.855149885217184 -1.5708325544940394 2.2195308208465576 -0.544611930847168 -0.014506890438497066 0.019688596948981285 -0.008316618390381336 -0.0010696419049054384 -1.0546542406082153 1 True True
21231.674 4.1938395500183105 -1.3074606221965333 1.5921052137957972 -1.8553210697569789 -1.57082444826235 2.1672656536102295 -0.5458043813705444 -0.015187876299023628 0.0206216461956501 -0.00830344669520855 -0.0015312610194087029 -1.0476207733154297 1 True True
21231.724 4.166851997375488 -1.3083172005466004 1.593104664479391 -1.8555757007994593 -1.5707724730121058 2.1147983074188232 -0.5479586720466614 -0.013941439799964428 0.020430976524949074 -0.009035457856953144 -0.0030531587544828653 -1.0414378643035889 1 True True
21231.773999999998 4.1400251388549805 -1.3091261249831696 1.5941999594317835 -1.8557387791075648 -1.5707290808307093 2.062507390975952 -0.5402480959892273 -0.01631751097738743 0.02053099311888218 -0.006106110289692879 0.0007442023488692939 -1.0525819063186646 1 True True
21231.824 4.11297607421875 -1.3099980813315888 1.5952776114093226 -1.8560053310790003 -1.570749584828512 2.0102672576904297 -0.5373806357383728 -0.016797680407762527 0.024946991354227066 -0.0019415232818573713 0.0012179883196949959 -1.0485799312591553 1 True True
21231.874 4.085876941680908 -1.310792164211609 1.59625751176943 -1.856335779229635 -1.5707653204547327 1.9577622413635254 -0.5347115397453308 -0.01866905763745308 0.020982827991247177 -0.0016986351693049073 0.0032815327867865562 -1.0419821739196777 1 True True
21231.924 4.058577537536621 -1.3115367454341431 1.5972932020770472 -1.8564897976317347 -1.5708044211017054 1.9053711891174316 -0.5382767915725708 -0.015755319967865944 0.020909978076815605 -0.0030437035020440817 0.00020791281713172793 -1.0521461963653564 1 True True
21231.974 4.031287670135498 -1.3122951549342652 1.5982697645770472 -1.8568197689452113 -1.57084829012026 1.853127360343933 -0.5426299571990967 -0.015434238128364086 0.019956843927502632 -0.0063374643214046955 -0.0010029857512563467 -1.0500589609146118 1 True True
21232.023999999998 4.0042219161987305 -1.313081519012787 1.5992754141436976 -1.8570138416686 -1.5708892981158655 1.8006646633148193 -0.5494340062141418 -0.014493939466774464 0.018620720133185387 -0.007937595248222351 -0.001198706915602088 -1.0442990064620972 1 True True
21232.074 3.977154016494751 -1.3139404219440003 1.6004412809955042 -1.8572613201537074 -1.570829216633932 1.7483798265457153 -0.5462341904640198 -0.014215875416994095 0.020240483805537224 -0.008638592436909676 -0.003504666965454817 -1.0605506896972656 1 True True
21232.124 3.9503660202026367 -1.3148296040347596 1.6014726797686976 -1.857464452783102 -1.5707204977618616 1.696068525314331 -0.544735312461853 -0.016414692625403404 0.019889501854777336 -0.004787740763276815 0.0004435812297742814 -1.0466485023498535 1 True True
21232.174 3.9233388900756836 -1.3156206172755738 1.60260516801943 -1.8576108417906703 -1.5707085768329065 1.6435667276382446 -0.5371585488319397 -0.017529189586639404 0.022230563685297966 -0.0028819581493735313 0.0009109835955314338 -1.0424405336380005 1 True True
21232.224 3.8962509632110596 -1.3163967293551941 1.6035645643817347 -1.8579088650145472 -1.5707371870623987 1.591275691986084 -0.5345879197120667 -0.017202194780111313 0.023849517107009888 -0.0013607507571578026 0.002389238914474845 -1.047743320465088 1 True True
21232.273999999998 3.868945837020874 -1.3171845537475129 1.604605499898092 -1.858199258843893 -1.5707677046405237 1.5388891696929932 -0.5365725755691528 -0.018380850553512573 0.02039395645260811 -0.003670575562864542 0.0005200451123528183 -1.0496126413345337 1 True True
21232.324 3.8416948318481445 -1.317930893307068 1.6055238882647913 -1.858509202996725 -1.5708449522601526 1.4864823818206787 -0.540800154209137 -0.014964950270950794 0.020236345008015633 -0.004075554199516773 -0.00043504053610377014 -1.040932536125183 1 True True
21232.374 3.814589262008667 -1.318676010971405 1.6066167990313929 -1.8588043651976527 -1.5708568731891077 1.4340986013412476 -0.5453543066978455 -0.01378471590578556 0.01868404448032379 -0.007731716148555279 -0.0011011343449354172 -1.0464555025100708 1 True True
21232.424 3.787541389465332 -1.3195584279349823 1.6076882521258753 -1.8589073620238246 -1.570801083241598 1.3818917274475098 -0.5470917224884033 -0.013046878390014172 0.018713846802711487 -0.008776329457759857 -0.0020095284562557936 -1.0447888374328613 1 True True
21232.474 3.7605674266815186 -1.3204165262034913 1.6087563673602503 -1.859093805352682 -1.5707276503192347 1.3294649124145508 -0.548445463180542 -0.014397352933883667 0.021300887688994408 -0.007045772857964039 0.00010412356641609222 -1.0453009605407715 1 True True
21232.523999999998 3.7336363792419434 -1.321177677517273 1.6098158995257776 -1.8593765697874964 -1.5707486311541956 1.2770664691925049 -0.5370067954063416 -0.016118336468935013 0.021782856434583664 -0.004672192502766848 0.0006189588457345963 -1.044534683227539 1 True True
21232.574 3.7065742015838623 -1.3220306199840088 1.6108973662005823 -1.8596068821349085 -1.570732895527975 1.224738359451294 -0.5362563133239746 -0.018642505630850792 0.023058032616972923 -0.0016591642051935196 0.0012449576752260327 -1.046439290046692 1 True True
21232.624 3.6793909072875977 -1.3228237193873902 1.6118534247027796 -1.859884878198141 -1.570772949849264 1.1724616289138794 -0.5370429754257202 -0.017421020194888115 0.021933451294898987 -0.0023480160161852837 0.0023992566857486963 -1.050635814666748 1 True True
21232.674 3.652190685272217 -1.3235377979329606 1.6128652731524866 -1.8601471386351527 -1.5708730856524866 1.120012640953064 -0.5397457480430603 -0.017199179157614708 0.021990304812788963 -0.0025948109105229378 -0.00014272978296503425 -1.054375171661377 1 True True
21232.724 3.6249682903289795 -1.3242902916720887 1.6139286200152796 -1.8604618511595667 -1.5708525816546839 1.0676969289779663 -0.5448092222213745 -0.016049262136220932 0.021469000726938248 -0.007932428270578384 -0.000990428146906197 -1.046563982963562 1 True True
21232.773999999998 3.597870349884033 -1.3251013171723862 1.614971939717428 -1.8606444797911585 -1.5708087126361292 1.0153141021728516 -0.5499711632728577 -0.0139622762799263 0.019589263945817947 -0.00820001307874918 -0.0015326646389439702 -1.0449016094207764 1 True True
21232.824 3.570882797241211 -1.325988696222641 1.6160476843463343 -1.860819002191061 -1.5708325544940394 0.962918221950531 -0.5459291934967041 -0.015345984138548374 0.01993955485522747 -0.0076311202719807625 -0.0008293224382214248 -1.0443401336669922 1 True True
21232.874 3.5438873767852783 -1.3268367064050217 1.6172173658954065 -1.8609734974303187 -1.5707643667804163 0.9104987382888794 -0.5401148796081543 -0.01678032986819744 0.020692424848675728 -0.004654224030673504 0.0004886622773483396 -1.048781156539917 1 True True
21232.924 3.516953229904175 -1.3276200157454987 1.618159596120016 -1.8612562618651332 -1.5707204977618616 0.8581616878509521 -0.5414556860923767 -0.01715821772813797 0.02019626833498478 -0.003387921489775181 0.0009043495520018041 -1.0500664710998535 1 True True
21232.974 3.4897942543029785 -1.3283458960107346 1.6192205587970179 -1.861514230767721 -1.5707653204547327 0.8058971762657166 -0.5347973704338074 -0.01939302869141102 0.021338051185011864 -0.0016508217668160796 0.002359166508540511 -1.0486056804656982 1 True True
21233.023999999998 3.462629556655884 -1.3291541647962113 1.620143238698141 -1.8617850742735804 -1.5707719961749476 0.7535279989242554 -0.5387805104255676 -0.0175715871155262 0.022275499999523163 -0.001485283370129764 0.00023254216648638248 -1.0525448322296143 1 True True
21233.074 3.435441255569458 -1.3299710315516968 1.6212118307696741 -1.8620835743346156 -1.570808235798971 0.7011266350746155 -0.5393408536911011 -0.015379954129457474 0.02138729766011238 -0.004327005706727505 -0.0004190470208413899 -1.0456068515777588 1 True True
21233.124 3.4082212448120117 -1.3308153611472626 1.622223202382223 -1.8622619114317835 -1.570897404347555 0.6487482786178589 -0.5467895865440369 -0.015249675139784813 0.019917892292141914 -0.007171488832682371 -0.0011129829799756408 -1.0495386123657227 1 True True
21233.174 3.3812105655670166 -1.3315739643624802 1.6233633200274866 -1.8624927006163539 -1.570813004170553 0.596335768699646 -0.5456753969192505 -0.014782765880227089 0.020227370783686638 -0.009862757287919521 -0.002492037834599614 -1.0417181253433228 1 True True
21233.224 3.3542044162750244 -1.332419068818428 1.6244733969317835 -1.8627072773375453 -1.5707610289203089 0.5440577268600464 -0.5445632934570312 -0.016661817207932472 0.02092687599360943 -0.00630656722933054 0.0003560266923159361 -1.053059697151184 1 True True
21233.273999999998 3.3271896839141846 -1.3332082492164155 1.6253936926471155 -1.8628822765746058 -1.570784870778219 0.49175146222114563 -0.5429215431213379 -0.01656724140048027 0.020805656909942627 -0.0034036876168102026 0.000863579218275845 -1.0469977855682373 1 True True
21233.324 3.300168037414551 -1.334068850880005 1.6264918486224573 -1.8631841144957484 -1.5707405249225062 0.4393693804740906 -0.5371696352958679 -0.01672503724694252 0.023525699973106384 -0.0020671659149229527 0.001942637376487255 -1.0497770309448242 1 True True
21233.374 3.2729880809783936 -1.3348824989846726 1.6275199095355433 -1.863467355767721 -1.5708172957049769 0.38691219687461853 -0.5351725816726685 -0.0171355027705431 0.02367018721997738 -0.0020520815160125494 1.3940299140813295e-05 -1.0439109802246094 1 True True
21233.424 3.245727777481079 -1.3355798733285447 1.6285970846759241 -1.8637811146178187 -1.5707762877093714 0.33466100692749023 -0.5405510663986206 -0.016199689358472824 0.02054673805832863 -0.004625555127859116 -0.0003803088329732418 -1.0538036823272705 1 True True
21233.474 3.218681812286377 -1.336402953868248 1.6295984427081507 -1.8639832935728968 -1.5708168188678187 0.28228890895843506 -0.5485330820083618 -0.01416771486401558 0.019978763535618782 -0.00691063329577446 -0.0004955667536705732 -1.04377281665802 1 True True
21233.523999999998 3.1915977001190186 -1.3371976923993607 1.6306102911578577 -1.864178319970602 -1.5708001295672815 0.23020881414413452 -0.5332562327384949 -0.013849291019141674 0.01810736395418644 -0.008701800368726254 -0.0030587005894631147 -1.0265517234802246 1 True True
