Andreas691667/Digital_Twin_UR/data_analysis/busters_stuff/robot_data/robot_output_2_blocks.csv
timestamp actual_q_0 actual_q_1 actual_q_2 actual_q_3 actual_q_4 actual_q_5 actual_qd_0 actual_qd_1 actual_qd_2 actual_qd_3 actual_qd_4 actual_qd_5 safety_status output_bit_register_65 output_bit_register_66
19820.381999999998 3.7121026515960693 -0.825463132267334 0.8430503050433558 -1.5882731876769007 -1.5707882086383265 2.141322135925293 0.0 0.0 0.0 0.0 0.0 0.0 1 False False
19820.432 3.7120578289031982 -0.8254706424525757 0.8429425398456019 -1.5883051357665003 -1.570784870778219 2.141296148300171 0.0 0.0 0.0 0.0 0.0 0.0 1 False False
19820.482 3.7120862007141113 -0.825495795612671 0.8429301420794886 -1.588297029534811 -1.570784870778219 2.141329526901245 0.0 0.0 0.0 0.0 0.0 0.0 1 False False
19820.532 3.712062358856201 -0.825437919502594 0.8430007139789026 -1.588297029534811 -1.5708697477923792 2.141266107559204 0.0 0.0 0.0 0.0 0.0 0.0 1 False False
19820.582 3.7120907306671143 -0.8254869741252442 0.8429673353778284 -1.588297029534811 -1.5707643667804163 2.141205072402954 0.0 0.0 0.0 0.0 0.0 0.0 1 False False
19820.631999999998 3.7120816707611084 -0.8254869741252442 0.8429473082171839 -1.5882731876769007 -1.5707886854754847 2.141235113143921 0.0 0.0 0.0 0.0 0.0 0.0 1 False False
19820.682 3.712095260620117 -0.8254542511752625 0.8429978529559534 -1.5882569752135218 -1.5708487669574183 2.141254186630249 0.0 0.0 0.0 0.0 0.0 0.0 1 False False
19820.732 3.712095022201538 -0.825495795612671 0.8430145422564905 -1.5882889233031214 -1.5707805792437952 2.141338348388672 0.0 0.0 0.0 0.0 0.0 0.0 1 False False
19820.782 3.7121026515960693 -0.825428919201233 0.8429587523089808 -1.5882932148375453 -1.570813004170553 2.1412484645843506 0.0 0.0 0.0 0.0 0.0 0.0 1 False False
19820.832 3.712127923965454 -0.8255039614490052 0.8429392019854944 -1.5882569752135218 -1.5708172957049769 2.141266107559204 0.0 0.0 0.0 0.0 0.0 0.0 1 False False
19820.881999999998 3.7120907306671143 -0.8254423898509522 0.8429673353778284 -1.5882569752135218 -1.5708611647235315 2.1412885189056396 0.0 0.0 0.0 0.0 0.0 0.0 1 False False
19820.932 3.7120444774627686 -0.8254556220820923 0.8430083433734339 -1.588269372979635 -1.5707934538470667 2.141324996948242 0.0 0.0 0.0 0.0 0.0 0.0 1 False False
19820.982 3.7120773792266846 -0.8254511517337342 0.8429425398456019 -1.5883013210692347 -1.5707886854754847 2.141326427459717 0.0 0.0 0.0 0.0 0.0 0.0 1 False False
19821.032 3.7120535373687744 -0.8255083721927186 0.8429802099810999 -1.5882374248900355 -1.5707243124591272 2.141249656677246 0.0 0.0 0.0 0.0 0.0 0.0 1 False False
19821.082 3.7120771408081055 -0.8254838746837159 0.8429754416095179 -1.5882650814452113 -1.5707805792437952 2.1413040161132812 0.0 0.0 0.0 0.0 0.0 0.0 1 False False
19821.131999999998 3.7120816707611084 -0.8254496616176148 0.8429892698871058 -1.5882569752135218 -1.5708330313311976 2.141282558441162 0.0 0.0 0.0 0.0 0.0 0.0 1 False False
19821.182 3.712066888809204 -0.825495795612671 0.8429845015155237 -1.5882889233031214 -1.5707805792437952 2.141308546066284 0.0 0.0 0.0 0.0 0.0 0.0 1 False False
19821.232 3.7120654582977295 -0.8255171936801453 0.842987362538473 -1.5882817707457484 -1.5708296934710901 2.141284227371216 0.0 0.0 0.0 0.0 0.0 0.0 1 False False
19821.282 3.712066888809204 -0.8254913848689576 0.8429887930499476 -1.5882569752135218 -1.5708172957049769 2.141263246536255 0.0 0.0 0.0 0.0 0.0 0.0 1 False False
19821.332 3.712078809738159 -0.8254869145205994 0.8430054823504847 -1.5883218250670375 -1.5707562605487269 2.1412513256073 0.0 0.0 0.0 0.0 0.0 0.0 1 False False
19821.381999999998 3.712071418762207 -0.8254690331271668 0.8429802099810999 -1.5882288418211878 -1.5708087126361292 2.141263246536255 0.0 0.0 0.0 0.0 0.0 0.0 1 False False
19821.432 3.7120490074157715 -0.8254675430110474 0.8430054823504847 -1.5882650814452113 -1.5708053747760218 2.1413040161132812 0.0 0.0 0.0 0.0 0.0 0.0 1 False False
19821.482 3.712066888809204 -0.8254869741252442 0.8430083433734339 -1.5882731876769007 -1.5707967917071741 2.141296148300171 0.0 0.0 0.0 0.0 0.0 0.0 1 False False
19821.532 3.712087631225586 -0.825488345032074 0.8429763952838343 -1.5883051357665003 -1.5708087126361292 2.1412885189056396 0.0 0.0 0.0 0.0 0.0 0.0 1 False False
19821.582 3.7120862007141113 -0.8255127829364319 0.8429759184466761 -1.5882932148375453 -1.5707891623126429 2.1412887573242188 0.0 0.0 0.0 0.0 0.0 0.0 1 False False
19821.631999999998 3.7121071815490723 -0.8254869741252442 0.8429544607745569 -1.5883218250670375 -1.5708048979388636 2.141267776489258 0.0 0.0 0.0 0.0 0.0 0.0 1 False False
19821.682 3.712078809738159 -0.8254795235446473 0.8429349104510706 -1.588285585443014 -1.570784870778219 2.141279697418213 0.0 0.0 0.0 0.0 0.0 0.0 1 False False
19821.732 3.712036609649658 -0.8254869741252442 0.8430007139789026 -1.5883013210692347 -1.5707929770099085 2.1412811279296875 0.0 0.0 0.0 0.0 0.0 0.0 1 False False
19821.782 3.712095260620117 -0.8255156439593812 0.8429635206805628 -1.5882889233031214 -1.5707805792437952 2.1412558555603027 0.0 0.0 0.0 0.0 0.0 0.0 1 False False
19821.832 3.712045669555664 -0.8254869741252442 0.8429845015155237 -1.5882607899107875 -1.5708168188678187 2.141258955001831 0.0 0.0 0.0 0.0 0.0 0.0 1 False False
19821.881999999998 3.712129592895508 -0.8255247634700318 0.8430169264422815 -1.5882889233031214 -1.5707967917071741 2.141308546066284 0.0 0.0 0.0 0.0 0.0 0.0 1 False False
19821.932 3.712095260620117 -0.8254630726626893 0.8430126349078577 -1.5883294544615687 -1.5708406607257288 2.1412930488586426 0.0 0.0 0.0 0.0 0.0 0.0 1 False False
19821.982 3.7120487689971924 -0.8255002063563843 0.8429845015155237 -1.5882445774474085 -1.5708044211017054 2.141258955001831 0.0 0.0 0.0 0.0 0.0 0.0 1 False False
19822.032 3.7120532989501953 -0.8255157035640259 0.842992130910055 -1.588292738000387 -1.5707767645465296 2.141234874725342 0.0 0.0 0.0 0.0 0.0 0.0 1 False False
19822.082 3.7120862007141113 -0.8255216640285035 0.8429635206805628 -1.5883094273009242 -1.5708254019366663 2.141261577606201 0.0 0.0 0.0 0.0 0.0 0.0 1 False False
19822.131999999998 3.7120652198791504 -0.825463132267334 0.843029801045553 -1.5882774792113246 -1.5708211104022425 2.141267776489258 0.0 0.0 0.0 0.0 0.0 0.0 1 False False
19822.182 3.7120907306671143 -0.8254304689219971 0.8430050055133265 -1.5883170566954554 -1.5708168188678187 2.1412513256073 0.0 0.0 0.0 0.0 0.0 0.0 1 False False
19822.232 3.7120535373687744 -0.8254750531962891 0.8429763952838343 -1.588320871392721 -1.5708048979388636 2.141350269317627 0.0 0.0 0.0 0.0 0.0 0.0 1 False False
19822.282 3.712045669555664 -0.8255002063563843 0.8430374304400843 -1.5882612667479457 -1.5707772413836878 2.141270637512207 0.0 0.0 0.0 0.0 0.0 0.0 1 False False
19822.332 3.7120697498321533 -0.8254706424525757 0.8429520765887659 -1.5882851086058558 -1.570801083241598 2.141263246536255 0.0 0.0 0.0 0.0 0.0 0.0 1 False False
19822.381999999998 3.71209979057312 -0.8255320352366944 0.8430169264422815 -1.5882774792113246 -1.5707929770099085 2.141279697418213 0.0 0.0 0.0 0.0 0.0 0.0 1 False False
19822.432 3.712062358856201 -0.8254905504039307 0.8429964224444788 -1.5882889233031214 -1.5707686583148401 2.14127516746521 0.0 0.0 0.0 0.0 0.0 0.0 1 False False
19822.482 3.712108612060547 -0.8255128425410767 0.8429678122149866 -1.5882774792113246 -1.5708006064044397 2.141254186630249 0.0 0.0 0.0 0.0 0.0 0.0 1 False False
19822.532 3.7120578289031982 -0.8255002659610291 0.842931095753805 -1.5882774792113246 -1.5707929770099085 2.14127516746521 0.0 0.0 0.0 0.0 0.0 0.0 1 False False
19822.582 3.712078809738159 -0.825495795612671 0.8429678122149866 -1.5883127651610316 -1.5707891623126429 2.141296148300171 0.0 0.0 0.0 0.0 0.0 0.0 1 False False
19822.631999999998 3.712045669555664 -0.8254949015429993 0.8429887930499476 -1.588297029534811 -1.5707925001727503 2.141247034072876 0.0 0.0 0.0 0.0 0.0 0.0 1 False False
19822.682 3.7120652198791504 -0.8255039614490052 0.8429845015155237 -1.5882607899107875 -1.5708254019366663 2.141279697418213 0.0 0.0 0.0 0.0 0.0 0.0 1 False False
19822.732 3.712062358856201 -0.8255084317973633 0.842992130910055 -1.588269372979635 -1.5707648436175745 2.141350269317627 0.0 0.0 0.0 0.0 0.0 0.0 1 False False
19822.782 3.7121026515960693 -0.8255083721927186 0.8429845015155237 -1.5882851086058558 -1.5707686583148401 2.1413159370422363 0.0 0.0 0.0 0.0 0.0 0.0 1 True False
19822.832 3.7120697498321533 -0.8254706424525757 0.8430417219745081 -1.5882774792113246 -1.5707805792437952 2.141282558441162 0.0 0.0 0.0 0.0 0.0 0.0 1 True False
19822.881999999998 3.7121188640594482 -0.8254838746837159 0.8429887930499476 -1.5882851086058558 -1.5708168188678187 2.1413004398345947 0.0 0.0 0.0 0.0 0.0 0.0 1 True False
19822.932 3.7120323181152344 -0.8254543107799073 0.8429721037494105 -1.588308950463766 -1.5707805792437952 2.141284227371216 0.0 0.0 0.0 0.0 0.0 0.0 1 True False
19822.982 3.7120609283447266 -0.8255335849574585 0.8429721037494105 -1.5882774792113246 -1.5707686583148401 2.141233444213867 0.0 0.0 0.0 0.0 0.0 0.0 1 True False
19823.032 3.7120368480682373 -0.825457291012146 0.8429802099810999 -1.588269372979635 -1.5707405249225062 2.141266107559204 0.0 0.0 0.0 0.0 0.0 0.0 1 True False
19823.082 3.7120654582977295 -0.8255156439593812 0.8429630438434046 -1.5882765255370082 -1.5708168188678187 2.141263246536255 0.0 0.0 0.0 0.0 0.0 0.0 1 True False
19823.131999999998 3.7120699882507324 -0.8255083721927186 0.8429754416095179 -1.588320871392721 -1.5707562605487269 2.141279697418213 0.0 0.0 0.0 0.0 0.0 0.0 1 True False
19823.182 3.7120535373687744 -0.8254587215236207 0.8429892698871058 -1.588292738000387 -1.5707767645465296 2.141247034072876 0.0 0.0 0.0 0.0 0.0 0.0 1 True False
19823.232 3.712066888809204 -0.8254706424525757 0.8429845015155237 -1.5882207355894984 -1.5707891623126429 2.1412765979766846 0.0 0.0 0.0 0.0 0.0 4.870386320805775e-13 1 True False
19823.282 3.712095022201538 -0.8254736226848145 0.8429845015155237 -1.588313718835348 -1.570801083241598 2.1412158012390137 0.0 0.0 0.0 0.0 0.0 7.514375465689227e-05 1 True False
19823.332 3.712148666381836 -0.8255290550044556 0.8429845015155237 -1.5883332691588343 -1.5707805792437952 2.141308546066284 0.0 0.0 0.0 0.0 -2.135778458978166e-06 2.938830573684446e-16 1 True False
19823.381999999998 3.7121024131774902 -0.8254882258227845 0.8430007139789026 -1.5883094273009242 -1.5707767645465296 2.141263246536255 0.0 0.0 0.0 0.0 -3.772569107240997e-05 4.4640878819851916e-35 1 True False
19823.432 3.712834596633911 -0.8259436053088685 0.8436701933490198 -1.5885125599303187 -1.5707886854754847 2.142052412033081 0.043450579047203064 -0.028983337804675102 0.04458281025290489 -0.011881956830620766 -4.611652548192069e-05 0.04265604540705681 1 True False
19823.482 3.716470241546631 -0.8287756604007264 0.8478863875018519 -1.589672704736227 -1.570813004170553 2.1457600593566895 0.10290685296058655 -0.08776619285345078 0.11881737411022186 -0.032973919063806534 -1.3969072824693285e-05 0.10400934517383575 1 True False
19823.532 3.723376512527466 -0.8345183295062562 0.8558281103717249 -1.5919538937010707 -1.5707805792437952 2.1525678634643555 0.16441231966018677 -0.13833776116371155 0.19291487336158752 -0.054592330008745193 -1.1427530858575621e-20 0.16319146752357483 1 True False
19823.582 3.7331604957580566 -0.8428483170321961 0.8670609633075159 -1.5949441395201625 -1.5707767645465296 2.16237735748291 0.22896641492843628 -0.18439370393753052 0.2587376534938812 -0.06623583287000656 -1.735844459697724e-39 0.21710915863513947 1 True False
19823.631999999998 3.746129035949707 -0.8533916634372254 0.8818672339068812 -1.5991469822325648 -1.5707686583148401 2.175187826156616 0.28446269035339355 -0.23855677247047424 0.3242553770542145 -0.09178247302770615 0.00010523755190661177 0.2910975217819214 1 True False
19823.682 3.7618303298950195 -0.8665097516826172 0.8999894301043909 -1.6041470966734828 -1.5708406607257288 2.191154718399048 0.3466346263885498 -0.28660333156585693 0.3981236517429352 -0.10570614784955978 7.424288924084976e-05 0.34476006031036377 1 True False
19823.732 3.7810490131378174 -0.8822355431369324 0.9216635862933558 -1.6101075611510218 -1.5708168188678187 2.20997953414917 0.40937140583992004 -0.3385379910469055 0.46450451016426086 -0.1293780505657196 5.512113784789108e-05 0.41390976309776306 1 True False
19823.782 3.802838087081909 -0.900317446594574 0.9468930403338831 -1.6172181568541468 -1.570857350026266 2.232133150100708 0.4706559479236603 -0.38466116786003113 0.53984534740448 -0.14008498191833496 3.7026486552349525e-06 0.46869584918022156 1 True False
19823.832 3.8278563022613525 -0.9209370774081727 0.9753854910479944 -1.625347753564352 -1.5707891623126429 2.257262945175171 0.5286005139350891 -0.44289901852607727 0.6046907901763916 -0.16756565868854523 1.887815756163036e-06 0.5232704281806946 1 True False
19823.881999999998 3.8562002182006836 -0.9441524308970948 1.007744614277975 -1.6343404255309046 -1.5707653204547327 2.285399913787842 0.5939540863037109 -0.4919111132621765 0.6696858406066895 -0.205345019698143 -1.3995356089313571e-11 0.5869711637496948 1 True False
19823.932 3.8872945308685303 -0.9697849911502381 1.0434249083148401 -1.6441813908019007 -1.5707524458514612 2.316542387008667 0.6558606028556824 -0.5307287573814392 0.7450627088546753 -0.20242471992969513 -5.1586055633379146e-05 0.6507638096809387 1 True False
19823.982 3.9215822219848633 -0.9979957503131409 1.0824325720416468 -1.6551605663695277 -1.5707967917071741 2.350870370864868 0.7145597338676453 -0.5878986716270447 0.8167453408241272 -0.23182877898216248 -4.2267060052836314e-05 0.710057258605957 1 True False
19824.032 3.9588050842285156 -1.0286445182612916 1.1249597708331507 -1.667089124719137 -1.5707686583148401 2.3880813121795654 0.7730893492698669 -0.6308302879333496 0.8889995813369751 -0.24339398741722107 -1.559721931698732e-05 0.7652661800384521 1 True False
19824.082 3.9992661476135254 -1.0619108241847535 1.1711023489581507 -1.6799050770201625 -1.570756737385885 2.428331136703491 0.8311876058578491 -0.6892560720443726 0.9603975415229797 -0.2500150799751282 -1.250012175339028e-14 0.8392136693000793 1 True False
19824.131999999998 4.042593955993652 -1.0976009231856843 1.2207344214068812 -1.6937648258604945 -1.5707967917071741 2.4718573093414307 0.9004292488098145 -0.7334445118904114 1.028933048248291 -0.27957841753959656 -0.00016308280464727432 0.8977881073951721 1 True False
19824.182 4.0883049964904785 -1.13530786455188 1.2729719320880335 -1.7082048855223597 -1.5707686583148401 2.5173895359039307 0.9097065925598145 -0.7534826397895813 1.0502190589904785 -0.26852843165397644 1.0132038141819066e-06 0.9153377413749695 1 True False
19824.232 4.134160041809082 -1.1729746025851746 1.3252223173724573 -1.7231680355467738 -1.5707042852984827 2.563378095626831 0.9208309650421143 -0.7571919560432434 1.0353292226791382 -0.31489574909210205 -4.257941782270791e-06 0.9200798273086548 1 True False
19824.282 4.180023193359375 -1.2106679540923615 1.3774359861956995 -1.7376491032042445 -1.5707805792437952 2.6091365814208984 0.9136479496955872 -0.7532703876495361 1.048917293548584 -0.31015217304229736 -0.00020726262300740927 0.9094915390014648 1 True False
19824.332 4.2257585525512695 -1.2483827036670228 1.4298647085772913 -1.7523194752135218 -1.570801083241598 2.6549453735351562 0.9202143549919128 -0.756895899772644 1.0520628690719604 -0.2751480042934418 -9.243166277883574e-05 0.9236202239990234 1 True False
19824.381999999998 4.27157735824585 -1.2861483556083222 1.4823783079730433 -1.76701082805776 -1.5707891623126429 2.7008068561553955 0.9150656461715698 -0.7529531121253967 1.050064206123352 -0.2984822988510132 -5.088941421038662e-12 0.9098696708679199 1 True False
19824.432 4.317439556121826 -1.323942170744278 1.5346759001361292 -1.7814403973021449 -1.5708087126361292 2.7466177940368652 0.9136316180229187 -0.7547497153282166 1.0528825521469116 -0.2956773340702057 -0.0009602747741155326 0.9190627932548523 1 True False
19824.482 4.362520217895508 -1.3609438699534913 1.5861194769488733 -1.7958957157530726 -1.570772949849264 2.7917604446411133 0.874005913734436 -0.7184925079345703 0.9963545203208923 -0.27026358246803284 0.00019990606233477592 0.870217502117157 1 True False
19824.532 4.404703617095947 -1.3956552606872101 1.6341360251056116 -1.809563776055807 -1.570756737385885 2.8336541652679443 0.8121276497840881 -0.6701698899269104 0.9203088879585266 -0.27408328652381897 9.027438500197604e-05 0.8184188008308411 1 True False
19824.582 4.443788528442383 -1.4278387886336823 1.678866211568014 -1.8218723736205042 -1.5707486311541956 2.872945547103882 0.7551602125167847 -0.6212285757064819 0.8633841276168823 -0.23028932511806488 0.001421071239747107 0.7568274140357971 1 True False
19824.631999999998 4.479722499847412 -1.4575200912407418 1.7197535673724573 -1.8334056339659632 -1.5707691351519983 2.908963680267334 0.6951494812965393 -0.5685753226280212 0.7856252193450928 -0.23399126529693604 0.0017128176987171173 0.6939430832862854 1 True False
19824.682 4.512621879577637 -1.4845917162350197 1.7575677076922815 -1.8440844021239222 -1.5707891623126429 2.9419658184051514 0.6321004629135132 -0.523017406463623 0.7139431834220886 -0.20365087687969208 0.0006402272847481072 0.6264268755912781 1 True False
19824.732 4.542596817016602 -1.5093327064863225 1.7919228712665003 -1.8533550701537074 -1.570772949849264 2.9718706607818604 0.5695122480392456 -0.4682653546333313 0.6512443423271179 -0.18523094058036804 0.0003472765092737973 0.5667250752449036 1 True False
19824.782 4.569438934326172 -1.5314183694175263 1.822747532521383 -1.86195768932485 -1.570829216633932 2.9987075328826904 0.5058041214942932 -0.4180990159511566 0.5781911015510559 -0.18000011146068573 0.0002444215933792293 0.5089445114135742 1 True False
19824.832 4.593365669250488 -1.5508919780007382 1.8497222105609339 -1.8696867428221644 -1.5707686583148401 3.022388219833374 0.44292035698890686 -0.3697519898414612 0.5089114904403687 -0.1467355638742447 -1.8275246767285314e-12 0.4598831236362457 1 True False
19824.881999999998 4.614117622375488 -1.5680804797778656 1.8733513990985315 -1.8763967953123988 -1.5707891623126429 3.04319429397583 0.38804301619529724 -0.32148727774620056 0.43986776471138 -0.12718918919563293 9.422656876267865e-05 0.3782939314842224 1 True False
19824.932 4.631664752960205 -1.58250155071401 1.8938482443438929 -1.881725927392477 -1.5708211104022425 3.0609679222106934 0.32375675439834595 -0.26631876826286316 0.37757715582847595 -0.11423611640930176 0.000296259910101071 0.32513394951820374 1 True False
19824.982 4.646453380584717 -1.594691892663473 1.910276238118307 -1.8865467510619105 -1.5707529226886194 3.075477123260498 0.26220905780792236 -0.20917539298534393 0.30675891041755676 -0.07683201879262924 0.00035471381852403283 0.26387980580329895 1 True False
19825.032 4.658005714416504 -1.6042100391783656 1.923680607472555 -1.8903428516783656 -1.5707767645465296 3.087146520614624 0.2009158879518509 -0.16906239092350006 0.2211131453514099 -0.06158134713768959 2.512846746435094e-19 0.20445357263088226 1 True False
19825.082 4.666521072387695 -1.6111117802061976 1.9334214369403284 -1.892921587029928 -1.5707686583148401 3.095660924911499 0.14510731399059296 -0.11854743212461472 0.1583011895418167 -0.04718939587473869 3.8170193077497984e-38 0.14103294909000397 1 True False
19825.131999999998 4.671990871429443 -1.6157094440855921 1.9395869413958948 -1.8947411976256312 -1.5708168188678187 3.1011886596679688 0.08227553963661194 -0.06561216711997986 0.09336481243371964 -0.025040769949555397 2.975698542981527e-17 0.07929885387420654 1 True False
19825.182 4.674352169036865 -1.6177507839598597 1.9424083868609827 -1.8955594501891078 -1.5707686583148401 3.103578567504883 0.019472511485219002 -0.016437215730547905 0.0218342412263155 -0.002690996276214719 4.520092180894552e-36 0.018679562956094742 1 True False
19825.232 4.674477577209473 -1.6175123653807582 1.9431150595294397 -1.896609445611471 -1.5707805792437952 3.1036698818206787 -0.0001909728889586404 0.015748174861073494 0.029421990737318993 -0.04042878374457359 0.0 -1.849118189296839e-13 1 True False
19825.282 4.6744384765625 -1.6159702740111292 1.9457386175738733 -1.900623460809225 -1.5707724730121058 3.103672981262207 0.0011798931518569589 0.044688642024993896 0.07450976967811584 -0.11172747611999512 0.0 0.0005786975962109864 1 True False
19825.332 4.674501419067383 -1.613073011437887 1.9506118933307093 -1.9083243809142054 -1.5708044211017054 3.1037042140960693 0.000990516971796751 0.07307002693414688 0.11204733699560165 -0.17946022748947144 0.0 0.0003173396980855614 1 True False
19825.381999999998 4.674516201019287 -1.6087218723692835 1.9574011007892054 -1.9195486507811488 -1.5708254019366663 3.1037144660949707 0.000468308397103101 0.10490212589502335 0.1607101559638977 -0.2535531520843506 0.0 0.00018349695892538875 1 True False
19825.432 4.674453258514404 -1.6030036411681117 1.9664562384234827 -1.934213777581686 -1.570813004170553 3.103680372238159 0.0001867180544650182 0.12607866525650024 0.20108075439929962 -0.3234369158744812 0.0 0.00010547207057243213 1 True False
19825.482 4.674514293670654 -1.5959621868529261 1.9779041449176233 -1.9523803196349085 -1.570813004170553 3.1037256717681885 0.00010201862460235134 0.15146729350090027 0.24693869054317474 -0.3996405303478241 4.0074788298016626e-21 7.086624100338668e-05 1 True False
19825.532 4.674514293670654 -1.5877729854979457 1.9909804503070276 -1.9742051563658656 -1.5707686583148401 3.1037299633026123 7.813673437340185e-05 0.17881892621517181 0.2862245738506317 -0.46631288528442383 6.0873666458887946e-40 3.1410301876838576e-13 1 True False
19825.582 4.67452335357666 -1.5780078373351039 2.0065372625934046 -1.999293943444723 -1.5707529226886194 3.1037256717681885 5.467228232636234e-12 0.20627076923847198 0.3289511799812317 -0.534472644329071 0.0 4.7712304774734943e-32 1 True False
19825.631999999998 4.674519062042236 -1.5669629301740606 2.0241854826556605 -2.0278717480101527 -1.5707967917071741 3.103739023208618 2.2066169549361803e-05 0.2299821376800537 0.37462106347084045 -0.6006289124488831 0.0 0.0 1 True False
19825.682 4.674565315246582 -1.5561714454418798 2.041563336049215 -2.0561863384642542 -1.5708335081683558 3.1037344932556152 -3.282639868786245e-23 0.2033325731754303 0.3263165354728699 -0.5393263101577759 0.0 0.0 1 True False
19825.732 4.674532413482666 -1.5467585765621443 2.056669060383932 -2.080998559991354 -1.5707967917071741 3.103743553161621 0.0 0.1765853613615036 0.2843270003795624 -0.4615030586719513 0.0 2.9944822708375408e-21 1 True False
19825.782 4.674520969390869 -1.5384721879712124 2.0699427763568323 -2.102246423760885 -1.5707686583148401 3.103743553161621 0.0 0.15135619044303894 0.24069763720035553 -0.3842458426952362 0.0 4.5486288281829995e-40 1 True False
19825.832 4.6745076179504395 -1.5315361258438607 2.0809553305255335 -2.120103498498434 -1.570829216633932 3.103701114654541 0.0 0.11912261694669724 0.19664709270000458 -0.3294731080532074 0.0 0.0 1 True False
19825.881999999998 4.674527645111084 -1.5260442060283204 2.089696709309713 -2.1344205341734828 -1.5707767645465296 3.1037302017211914 0.0 0.0960569679737091 0.15724125504493713 -0.2480938583612442 0.0 0.0 1 True False
19825.932 4.674535751342773 -1.5219724041274567 2.0962827841388147 -2.1452423534789027 -1.5708335081683558 3.103755474090576 0.0 0.070506751537323 0.11465493589639664 -0.1896277368068695 0.0 0.0 1 True False
19825.982 4.674582004547119 -1.519182701861002 2.1008999983416956 -2.152635713616842 -1.5708335081683558 3.103759765625 0.0 0.043690651655197144 0.06910379976034164 -0.12070544064044952 0.0 0.0 1 True False
19826.032 4.6745524406433105 -1.5176490818015118 2.103278938923971 -2.1564084492125453 -1.5707648436175745 3.103701114654541 0.0 0.017293473705649376 0.02553410641849041 -0.045632217079401016 0.0 0.0 1 True False
19826.082 4.674589157104492 -1.517462247317173 2.1036351362811487 -2.1569344005980433 -1.570772949849264 3.1037790775299072 0.0 -4.018032141582047e-17 -0.0006897418643347919 0.00034994384623132646 0.0 0.0 1 True False
19826.131999999998 4.674532413482666 -1.5173971217921753 2.103581253682272 -2.1569625339903773 -1.5707805792437952 3.103717565536499 0.0 0.0 -1.530519605047866e-21 -0.0015577233862131834 0.0 -4.779345808003654e-10 1 True False
19826.182 4.674556732177734 -1.517410234814026 2.1036461035357874 -2.1569820843138636 -1.5707805792437952 3.103670120239258 0.0 0.0 3.3422202250221744e-05 -0.0015349580207839608 0.0 5.64886795473285e-05 1 True False
19826.232 4.674519062042236 -1.517516640280821 2.1036623159991663 -2.157034536401266 -1.5708168188678187 3.103661298751831 5.193622750154737e-16 0.00023122249695006758 5.0063612434314564e-05 -0.0019496154272928834 0.0 2.1981228201184422e-05 1 True False
19826.282 4.6744914054870605 -1.5174277138761063 2.1036575476275843 -2.1570779285826625 -1.5708416144000452 3.103689432144165 0.0 0.00017982901772484183 5.905961006646976e-05 -0.0002412589092273265 0.0 1.3647420928464271e-05 1 True False
19826.332 4.6745076179504395 -1.5174602840891858 2.1036623159991663 -2.1570540867247523 -1.57082444826235 3.1037397384643555 0.0 0.00017771913553588092 2.375109831032063e-11 -0.00014427733549382538 0.0 2.719540816542576e-06 1 True False
19826.381999999998 4.6744914054870605 -1.517444060449936 2.1036747137652796 -2.1570779285826625 -1.5708048979388636 3.103689432144165 0.0 0.0001333703548880294 5.5889387951131e-41 -9.174575097858906e-05 0.0 4.1309884593256115e-25 1 True False
19826.432 4.6745076179504395 -1.51743637145076 2.1036909262286585 -2.157046457330221 -1.5708335081683558 3.103705883026123 0.0 9.620019409339875e-05 0.0 -2.4927828690124443e-07 0.0 6.305843089461677e-44 1 True False
19826.482 4.674453258514404 -1.5174035292914887 2.1036952177630823 -2.157098432580465 -1.5708168188678187 3.1037302017211914 0.0 6.962254701647907e-05 0.0 -3.786543130268545e-26 0.0 0.0 1 True False
19826.532 4.674511909484863 -1.5174111065319558 2.1036861578570765 -2.1569982967772425 -1.5708168188678187 3.103750705718994 0.0 0.0 0.0 -5.605193857299268e-45 0.0 0.0 1 True False
19826.582 4.674549102783203 -1.5173785847476502 2.103672806416647 -2.1570102177061976 -1.5707686583148401 3.103673219680786 0.0 2.7460098842609153e-18 0.0 -0.0 0.0 0.0 1 True False
19826.631999999998 4.67446231842041 -1.5173991967788716 2.1036418120013636 -2.1570383510985316 -1.570784870778219 3.103775978088379 0.0 0.0 0.0 -0.0 0.0 0.0 1 True False
19826.682 4.674519062042236 -1.517526463871338 2.1035383383380335 -2.15716614345693 -1.5707772413836878 3.103767156600952 0.0 -0.0018772780895233154 -0.0009409747435711324 -0.005193145014345646 -8.530020439989627e-12 0.0006228337879292667 1 True False
19826.732 4.674514293670654 -1.5174416464618226 2.1035292784320276 -2.157165666619772 -1.5708044211017054 3.103743553161621 0.0 0.0005539935082197189 -2.9499124384958625e-19 -0.00020234609837643802 5.623935066978447e-05 -0.00010207870946032926 1 True False
19826.782 4.67450475692749 -1.5174340841225167 2.1035102049456995 -2.157114168206686 -1.5708168188678187 3.1037256717681885 0.0 -0.005955323111265898 -0.008280431851744652 0.0139614287763834 3.1573221349390224e-05 -5.2471958042588085e-05 1 True True
19826.832 4.674490928649902 -1.5180498001030465 2.1026585737811487 -2.154586454431051 -1.570801083241598 3.1037087440490723 0.0 -0.028586916625499725 -0.0421651154756546 0.07114038616418839 2.1948122594039887e-05 -3.53137293132022e-05 1 True True
19826.881999999998 4.674527645111084 -1.5203230169466515 2.098755184804098 -2.148811479608053 -1.5708373228656214 3.103795289993286 0.0 -0.05805981531739235 -0.09939759224653244 0.1595386117696762 4.913667078343636e-18 -1.0181688391702748e-13 1 True True
19826.932 4.674530982971191 -1.524079819475748 2.092914406453268 -2.139615675012106 -1.5707805792437952 3.103710174560547 0.0 -0.08596377819776535 -0.13678117096424103 0.2121841162443161 7.463868965731568e-37 -1.5466010030495546e-32 1 True True
19826.982 4.674495697021484 -1.5289246824434777 2.0850394407855433 -2.1268183193602503 -1.5708087126361292 3.103701114654541 0.0 -0.11127205938100815 -0.1853940486907959 0.2954142391681671 0.0 -0.0 1 True True
19827.032 4.674591064453125 -1.5352748197368165 2.075097386037008 -2.1105810604491175 -1.5707967917071741 3.103717565536499 0.0 -0.1341027319431305 -0.22062014043331146 0.34824737906455994 0.0 -1.831070017832559e-10 1 True True
19827.082 4.674514293670654 -1.5428427413902064 2.062697235737936 -2.090827604333395 -1.5707686583148401 3.103696823120117 0.0 -0.16606676578521729 -0.2686423063278198 0.42987537384033203 0.0 -2.781399738587988e-29 1 True True
19827.131999999998 4.674495697021484 -1.551728069116809 2.0486157576190394 -2.067744871179098 -1.5708168188678187 3.103722095489502 0.0 -0.19195035099983215 -0.3140251636505127 0.4987797439098358 0.0 -0.0 1 True True
19827.182 4.674511909484863 -1.5620274173891922 2.0321171919452112 -2.040837427178854 -1.570801083241598 3.103717565536499 0.0 -0.2191142439842224 -0.3514069616794586 0.5610650777816772 0.0 -0.0 1 True True
19827.232 4.674535751342773 -1.5732909641661585 2.014139000569479 -2.0115934811034144 -1.5708211104022425 3.1037087440490723 0.0 -0.21510663628578186 -0.3538592457771301 0.5635968446731567 0.0 4.289838171917925e-15 1 True True
19827.282 4.674544811248779 -1.5835901699461878 1.9975679556476038 -1.9848224125304164 -1.5708211104022425 3.1037344932556152 0.0 -0.19682419300079346 -0.304462194442749 0.49351999163627625 0.0 6.516273955256655e-34 1 True True
19827.332 4.674495697021484 -1.5924941502013148 1.9835212866412562 -1.9616109333434046 -1.5707929770099085 3.103759765625 0.0 -0.16554224491119385 -0.25969231128692627 0.4365081787109375 0.0 0.0 1 True True
19827.381999999998 4.674540042877197 -1.6000868282713832 1.9711006323443812 -1.94191374401235 -1.5707891623126429 3.103684902191162 0.0 -0.1375938206911087 -0.22090137004852295 0.36914172768592834 0.0 0.0 1 True True
19827.432 4.6745686531066895 -1.6062184772887171 1.961283032094137 -1.9256636104979457 -1.570801083241598 3.1037352085113525 -3.0199563752263496e-28 -0.11169420182704926 -0.17999781668186188 0.2870239019393921 0.0 0.0 1 True True
19827.482 4.674556732177734 -1.6111499271788539 1.9534161726581019 -1.9129239521422328 -1.570801083241598 3.103705883026123 3.1800927219540966e-40 -0.08682753890752792 -0.14155827462673187 0.2306724190711975 0.0 0.0 1 True True
19827.532 4.674514293670654 -1.614762922326559 1.9477809111224573 -1.9036523304381312 -1.570813004170553 3.1037309169769287 0.0 -0.05582176893949509 -0.0942777469754219 0.14902441203594208 0.0 0.0 1 True True
19827.582 4.67452335357666 -1.6169973812498988 1.9440625349627894 -1.8978811703123988 -1.5707767645465296 3.1037144660949707 0.0 -0.0313618965446949 -0.053118836134672165 0.08030669391155243 0.0 0.0 1 True True
19827.631999999998 4.674519062042236 -1.617885252038473 1.942812744771139 -1.8955909214415492 -1.5708087126361292 3.103696823120117 0.0 -0.0022479065228253603 -0.007013245485723019 0.014877771027386189 0.0 0.0 1 True True
19827.682 4.673304557800293 -1.6174694500365199 1.9421995321856897 -1.895555158654684 -1.5707529226886194 3.1024603843688965 -0.05787118896842003 0.01234519388526678 -0.02478698268532753 0.001030756626278162 -2.3947621541600224e-17 -0.05870155245065689 1 True True
19827.732 4.668589115142822 -1.6163469753661097 1.9407537619220179 -1.895139833489889 -1.5708211104022425 3.0977418422698975 -0.1297457218170166 0.03387441858649254 -0.0401473268866539 0.00727718323469162 -3.637649203101297e-36 -0.12567874789237976 1 True True
19827.782 4.660399436950684 -1.614235063592428 1.9380767981158655 -1.8947411976256312 -1.570829216633932 3.089529275894165 -0.19834963977336884 0.05410591512918472 -0.06427176296710968 0.011807665228843689 -0.0 -0.19531205296516418 1 True True
19827.832 4.648666858673096 -1.6110345325865687 1.9344990889178675 -1.8941103420653285 -1.5707686583148401 3.077969789505005 -0.26684674620628357 0.0727163553237915 -0.08828803151845932 0.013968423008918762 -0.0 -0.26680588722229004 1 True True
19827.881999999998 4.633518695831299 -1.6070400677123011 1.929523770009176 -1.893339296380514 -1.5707929770099085 3.062695026397705 -0.3366848826408386 0.09143105149269104 -0.10606570541858673 0.017080215737223625 -4.874364094575867e-05 -0.3342640995979309 1 True True
19827.932 4.614805698394775 -1.6020451984801234 1.9235156218158167 -1.8923851452269496 -1.570813004170553 3.0440471172332764 -0.40731796622276306 0.10535791516304016 -0.13230757415294647 0.019340896978974342 -6.011834363661706e-10 -0.41186872124671936 1 True True
19827.982 4.592737674713135 -1.5961586437621058 1.9166186491595667 -1.8911525211729945 -1.5707805792437952 3.022003173828125 -0.4778454601764679 0.12574590742588043 -0.14987888932228088 0.02513633295893669 -0.0001305394689552486 -0.47036638855934143 1 True True
19828.032 4.5670623779296875 -1.5893551311888636 1.908217732106344 -1.8897787533202113 -1.570784870778219 2.9962031841278076 -0.5420952439308167 0.1411922723054886 -0.16628681123256683 0.0269649475812912 -0.00010304418537998572 -0.5436392426490784 1 True True
19828.082 4.537745952606201 -1.5816112957396449 1.8990514914142054 -1.8882905445494593 -1.5708168188678187 2.9670047760009766 -0.6138352751731873 0.16281302273273468 -0.19303655624389648 0.036739952862262726 -1.7959086199226513e-22 -0.6085649728775024 1 True True
19828.131999999998 4.505154609680176 -1.5729805431761683 1.8886974493609827 -1.8864861927428187 -1.5708854834186 2.9343881607055664 -0.6873857975006104 0.18502837419509888 -0.2215350717306137 0.03349044546484947 -0.0009422911098226905 -0.6836751699447632 1 True True
19828.182 4.469021797180176 -1.563392771208175 1.877056900654928 -1.8846856556334437 -1.57082444826235 2.898336410522461 -0.7604759335517883 0.20161530375480652 -0.24781769514083862 0.038634639233350754 -0.0037267240695655346 -0.7474063634872437 1 True True
19828.232 4.429441928863525 -1.5528693378767748 1.8645032087909144 -1.8824707470335902 -1.570841137562887 2.8588523864746094 -0.8303083181381226 0.21623119711875916 -0.26599082350730896 0.04466523230075836 -0.000562382978387177 -0.8197191953659058 1 True True
19828.282 4.386390686035156 -1.5416198328933497 1.8507922331439417 -1.8800527058043421 -1.5707805792437952 2.8156347274780273 -0.8952523469924927 0.2427779883146286 -0.2825557589530945 0.04420916363596916 -2.055809090961702e-06 -0.9000256061553955 1 True True
19828.332 4.339861869812012 -1.5291027848473568 1.8360870520221155 -1.8776208362975062 -1.5707882086383265 2.7690179347991943 -0.9713923931121826 0.25380364060401917 -0.3102436661720276 0.04981125146150589 -0.00027377071091905236 -0.9555578231811523 1 True True
19828.381999999998 4.2896904945373535 -1.5160341014019032 1.8199213186847132 -1.8749400577940882 -1.5708053747760218 2.7188384532928467 -1.033468246459961 0.2732546329498291 -0.33138272166252136 0.05983300879597664 7.229675247799605e-05 -1.0351016521453857 1 True True
19828.432 4.2374267578125 -1.5020293828896065 1.80328876176943 -1.8720342121519984 -1.5707686583148401 2.666750431060791 -1.0461244583129883 0.28030654788017273 -0.32390540838241577 0.05141056701540947 1.562290336062192e-18 -1.0474064350128174 1 True True
19828.482 4.18514347076416 -1.4882326063564797 1.7866523901568812 -1.869258543054098 -1.5707882086383265 2.6142172813415527 -1.0521109104156494 0.27633315324783325 -0.33683857321739197 0.05217977985739708 -6.980236701148446e-12 -1.041780948638916 1 True True
19828.532 4.1327128410339355 -1.4742836889675637 1.7700160185443323 -1.8663045368590296 -1.5708087126361292 2.561793088912964 -1.041955828666687 0.2811259329319 -0.3332667648792267 0.05559493973851204 -1.2330628962331502e-08 -1.0485634803771973 1 True True
19828.582 4.080389022827148 -1.4604734194329758 1.7532346884356897 -1.8636614284911097 -1.570772949849264 2.5096800327301025 -1.0454819202423096 0.2740739583969116 -0.33798709511756897 0.058435264974832535 -4.0807285586197395e-06 -1.0495381355285645 1 True True
19828.631999999998 4.028017520904541 -1.446586975162365 1.7367351690875452 -1.8607551060118617 -1.5708172957049769 2.4572367668151855 -1.0486743450164795 0.2786136567592621 -0.33996522426605225 0.06321009248495102 -0.00010110434959642589 -1.0392918586730957 1 True True
19828.682 3.9755446910858154 -1.432648317222931 1.719903294240133 -1.858011861840719 -1.5707925001727503 2.4047298431396484 -1.0439996719360352 0.2729792892932892 -0.32879260182380676 0.04521387815475464 -9.457944866827988e-19 -1.0489938259124756 1 True True
19828.732 3.92321515083313 -1.4189592015794297 1.7033799330340784 -1.855237146417135 -1.5708254019366663 2.3526017665863037 -1.0492255687713623 0.2805182933807373 -0.3352217674255371 0.059370022267103195 -8.478981726511847e-06 -1.0484408140182495 1 True True
19828.782 3.871018648147583 -1.4048793774894257 1.6864808241473597 -1.8522511921324671 -1.5708087126361292 2.3001370429992676 -1.0537700653076172 0.2754586338996887 -0.33057817816734314 0.059564296156167984 -1.2879593948885046e-24 -1.0433552265167236 1 True True
19828.832 3.8185808658599854 -1.3911450666240235 1.66990834871401 -1.849551340142721 -1.5707686583148401 2.2475969791412354 -1.0447895526885986 0.2783769965171814 -0.34047725796699524 0.05275874584913254 -1.961817850054744e-43 -1.0493407249450684 1 True True
19828.881999999998 3.7662770748138428 -1.3773081761649628 1.653137509022848 -1.8467613659300746 -1.5707891623126429 2.1955699920654297 -1.0459232330322266 0.2764378488063812 -0.3338913917541504 0.06925797462463379 -0.0 -1.0486345291137695 1 True True
19828.932 3.713884115219116 -1.3633699876121064 1.6365564505206507 -1.8439465961852015 -1.570833985005514 2.143099069595337 -1.0504473447799683 0.2723807990550995 -0.33279335498809814 0.046339087188243866 -0.0 -1.0442421436309814 1 True True
19828.982 3.661449909210205 -1.3495645982078095 1.6197517553912562 -1.841123720208639 -1.570829216633932 2.09053897857666 -1.0437475442886353 0.2795318067073822 -0.3382958173751831 0.05597876384854317 -0.0 -1.05047607421875 1 True True
19829.032 3.609128952026367 -1.3355960261872788 1.6032336393939417 -1.8381816349425257 -1.5707891623126429 2.0383923053741455 -1.0446951389312744 0.27333447337150574 -0.3267485499382019 0.05555248633027077 -0.0 -1.052740216255188 1 True True
19829.082 3.5567731857299805 -1.3218829494765778 1.586478058491842 -1.8354979954161585 -1.5707967917071741 1.9859156608581543 -1.0511789321899414 0.28017523884773254 -0.33576685190200806 0.056892361491918564 -0.0 -1.0407390594482422 1 True True
19829.131999999998 3.504398822784424 -1.3077768844417115 1.569838825856344 -1.8326159916319789 -1.5707934538470667 1.933464527130127 -1.0456026792526245 0.27404314279556274 -0.3328842222690582 0.06256662309169769 -0.0 -1.050701379776001 1 True True
19829.182 3.45207142829895 -1.2941390734962006 1.552993122731344 -1.8298799000182093 -1.5707886854754847 1.8813915252685547 -1.046995759010315 0.2794966697692871 -0.3279403746128082 0.05516911670565605 -0.0 -1.0504666566848755 1 True True
19829.232 3.399714708328247 -1.2800571483424683 1.5363686720477503 -1.8270331821837367 -1.5708087126361292 1.8288756608963013 -1.0330256223678589 0.2720479965209961 -0.32901477813720703 0.060545407235622406 -0.0 -1.0352299213409424 1 True True
19829.282 3.349679708480835 -1.2668640178493042 1.5205023924456995 -1.8242465458311976 -1.5707486311541956 1.778651237487793 -0.9655759930610657 0.25561660528182983 -0.3021148443222046 0.04998292028903961 -0.0 -0.9690209031105042 1 True True
19829.332 3.302854061126709 -1.2545375686934968 1.5054829756366175 -1.8218895397581996 -1.5708211104022425 1.7320493459701538 -0.8986085057258606 0.23909012973308563 -0.2821970582008362 0.04874977096915245 -0.0 -0.8973224759101868 1 True True
19829.381999999998 3.2595949172973633 -1.242960975771286 1.4919450918780726 -1.8195120296873988 -1.5707772413836878 1.688876986503601 -0.8275690078735352 0.21835225820541382 -0.2584446966648102 0.04759625345468521 0.00015497875574510545 -0.8380438685417175 1 True True
19829.432 3.220036506652832 -1.2326328319362183 1.4791424910174769 -1.8173257313170375 -1.570813004170553 1.649148941040039 -0.7642537355422974 0.20194077491760254 -0.23607586324214935 0.03664720058441162 -4.850997499473899e-15 -0.7550037503242493 1 True True
19829.482 3.1837754249572754 -1.2229834359935303 1.4675734678851526 -1.815460821191305 -1.5708001295672815 1.6130582094192505 -0.6904507875442505 0.18612140417099 -0.22220708429813385 0.038933683186769485 -4.1920397052308545e-05 -0.6867125034332275 1 True True
19829.532 3.1510009765625 -1.2141987544349213 1.4572117964373987 -1.8137146435179652 -1.5708048979388636 1.5802732706069946 -0.6242003440856934 0.1619364470243454 -0.20172183215618134 0.03135472163558006 -2.913154775720638e-22 -0.6197238564491272 1 True True
19829.582 3.121744394302368 -1.206606702213623 1.4478815237628382 -1.8120233021178187 -1.5708168188678187 1.5510170459747314 -0.5544686913490295 0.14679624140262604 -0.17825128138065338 0.034406598657369614 7.157196250773268e-06 -0.5488932728767395 1 True True
19829.631999999998 3.0959668159484863 -1.199833021765091 1.4395559469806116 -1.8107081852354945 -1.5708449522601526 1.5252172946929932 -0.4842991232872009 0.12868723273277283 -0.15673017501831055 0.020487690344452858 1.0871793061525579e-24 -0.47727271914482117 1 True True
19829.682 3.07373309135437 -1.1937746864608307 1.432535473500387 -1.8095165691771449 -1.5707882086383265 1.5030587911605835 -0.41292518377304077 0.11232874542474747 -0.12836171686649323 0.022983450442552567 0.0001509086141595617 -0.4165732264518738 1 True True
19829.732 3.055264949798584 -1.1888213020614167 1.426594082509176 -1.8084632358946742 -1.570772949849264 1.4842503070831299 -0.3419717848300934 0.08821278810501099 -0.11272010952234268 0.017837513238191605 0.0010711306240409613 -0.344658225774765 1 True True
19829.782 3.039768695831299 -1.1847540003112336 1.421746079121725 -1.807645937005514 -1.5707805792437952 1.4689891338348389 -0.26815053820610046 0.0705036148428917 -0.0890771821141243 0.015877466648817062 2.0571150683114305e-16 -0.2720797061920166 1 True True
19829.832 3.027959108352661 -1.1817281407168885 1.4179523626910608 -1.807079931298727 -1.5708096663104456 1.4571709632873535 -0.2046625167131424 0.05120842903852463 -0.062203533947467804 0.0128562580794096 2.8699195797621257e-12 -0.20267373323440552 1 True True
19829.881999999998 3.0197436809539795 -1.1795021754554291 1.4154098669635218 -1.8066545925536097 -1.5708168188678187 1.448952317237854 -0.13352258503437042 0.034828491508960724 -0.046343814581632614 0.005472412332892418 4.359414369374779e-31 -0.13248024880886078 1 True True
19829.932 3.0149269104003906 -1.178231106405594 1.413781468068258 -1.80643953899526 -1.5707762877093714 1.4441404342651367 -0.06130633130669594 0.01737121492624283 -0.017849482595920563 0.004419945180416107 0.0 -0.06346581876277924 1 True True
19829.982 3.013575315475464 -1.1779369872859498 1.4134357611285608 -1.8063589535155238 -1.570784870778219 1.4428166151046753 0.0009495099657215178 0.005000014323741198 0.009597471915185452 3.89847882615868e-05 0.0 0.005013906862586737 1 True True
19830.032 3.013615608215332 -1.177092508678772 1.4147627989398401 -1.808329244653219 -1.5707691351519983 1.4428253173828125 -0.0011258064769208431 0.027409439906477928 0.05080380663275719 -0.07853808254003525 0.0 -0.0003836396790575236 1 True True
19830.082 3.013631820678711 -1.1752877992442627 1.4185341040240687 -1.8142749271788539 -1.5707410017596644 1.442780613899231 -0.0015127903316169977 0.048868343234062195 0.09883095324039459 -0.1464228630065918 0.0 -0.0005418292130343616 1 True True
19830.131999999998 3.0136611461639404 -1.1724285644343873 1.4248245398150843 -1.8234240017332972 -1.5708211104022425 1.4428263902664185 -0.000378512020688504 0.0735325813293457 0.14797887206077576 -0.21315331757068634 -8.080354746198282e-05 -0.0002860187669284642 1 True True
19830.182 3.01357102394104 -1.1683249932578583 1.4335125128375452 -1.8359633884825648 -1.5707605520831507 1.4427733421325684 -0.0002168041537515819 0.09515034407377243 0.19604088366031647 -0.284773051738739 -0.00022228402667678893 -0.0002059126563835889 1 True True
19830.232 3.0136003494262695 -1.163091556434967 1.4445908705340784 -1.8521400890746058 -1.570829216633932 1.4427571296691895 -0.00011449994781287387 0.11723268777132034 0.24640901386737823 -0.34620311856269836 -0.00010118899081135169 -7.081102376105264e-05 1 True True
19830.282 3.0135350227355957 -1.1566470128348847 1.4577019850360315 -1.871836324731344 -1.570801083241598 1.4428187608718872 -9.977538138628006e-05 0.13557803630828857 0.2904743254184723 -0.42794591188430786 5.169943362304252e-10 1.6236195733654313e-05 1 True True
19830.332 3.0135960578918457 -1.1491797131351014 1.4734824339496058 -1.8949786625304164 -1.570801083241598 1.442765712738037 -8.650417294120416e-05 0.15848764777183533 0.33875441551208496 -0.48926612734794617 7.853151478227734e-29 1.1189453289262019e-05 1 True True
19830.381999999998 3.013613224029541 -1.140681044464447 1.491267506276266 -1.921133657495016 -1.5707562605487269 1.4427992105484009 -3.775583172682673e-05 0.16799911856651306 0.35446897149086 -0.5202088952064514 0.0 5.091554750615002e-17 1 True True
19830.432 3.0135676860809326 -1.1330270332149048 1.507789436970846 -1.9458729229369105 -1.5708487669574183 1.4427285194396973 -3.8563728594454005e-05 0.14803795516490936 0.3105306029319763 -0.4628678560256958 0.0 7.734082716274624e-36 1 True True
19830.482 3.0135607719421387 -1.125951425438263 1.5221012274371546 -1.967051168481344 -1.570756737385885 1.4427893161773682 -2.1470695070384847e-41 0.12230674922466278 0.26017361879348755 -0.4068060517311096 0.0 0.0 1 True True
19830.532 3.0135555267333984 -1.1202539962581177 1.5341265837298792 -1.984504838983053 -1.5708492437945765 1.4427571296691895 0.0 0.1039951890707016 0.22254136204719543 -0.3121495842933655 0.0 0.0 1 True True
19830.582 3.013608932495117 -1.1158131223968049 1.5437172094928187 -1.9988037548460902 -1.5707767645465296 1.4428021907806396 0.0 0.07769843190908432 0.1627936065196991 -0.24106869101524353 0.0 0.0 1 True True
19830.631999999998 3.0135676860809326 -1.1123210054687043 1.5508225599872034 -2.0094157658019007 -1.5708330313311976 1.442765712738037 0.0 0.05922377109527588 0.12097973376512527 -0.18417346477508545 0.0 0.0 1 True True
19830.682 3.0136208534240723 -1.1099596482566376 1.5557130018817347 -2.0166341267027796 -1.5708048979388636 1.4428263902664185 0.0 0.03629341721534729 0.07548115402460098 -0.10363682359457016 0.0 0.0 1 True True
19830.732 3.0136165618896484 -1.1090687376311799 1.5578578154193323 -2.0206743679442347 -1.5708931128131312 1.442765712738037 0.0 0.01372949592769146 0.024081271141767502 -0.03765679895877838 -0.002016849350184202 0.0 1 True True
19830.782 3.0135838985443115 -1.1090298754027863 1.5581324736224573 -2.0211082897581996 -1.5707648436175745 1.4427733421325684 0.0 0.0011267091613262892 0.003952975384891033 0.0011899224482476711 -0.0001897571055451408 0.0 1 True True
19830.832 3.0135231018066406 -1.1088965696147461 1.558249298726217 -2.0211082897581996 -1.570853058491842 1.4427863359451294 0.0 0.004955995827913284 0.005584153812378645 0.002620504703372717 -8.185215847333893e-05 1.0318775833795257e-09 1 True True
19830.881999999998 3.013575315475464 -1.1079119604877015 1.5596745649920862 -2.019963880578512 -1.5707529226886194 1.4428058862686157 0.0008583043818362057 0.0075208451598882675 0.005028117448091507 0.009196564555168152 -4.5407010399942105e-14 2.3981685899343574e-06 1 True True
19830.932 3.0136241912841797 -1.1082880657962342 1.5590222517596644 -2.0206858120360316 -1.570772949849264 1.4426852464675903 3.2086678402265534e-05 -0.0008887838921509683 -0.0009552197298035026 -0.0003260929952375591 3.94077469536569e-05 -0.0013672283384948969 1 True False
19830.982 3.013575315475464 -1.1084820491126557 1.5588658491717737 -2.020809312860006 -1.5707972685443323 1.4427820444107056 5.158713382312448e-32 -0.005228961352258921 -0.005582855548709631 -0.005619756877422333 9.92462236254054e-15 4.037902456843767e-09 1 True False
19831.032 3.0135960578918457 -1.1085652869990845 1.5588119665728968 -2.0208169422545375 -1.5707967917071741 1.4427978992462158 0.0 -0.0035938015207648277 -0.0028939456678926945 -0.0026413719169795513 1.5075520358043982e-33 -4.22247831011191e-05 1 True False
19831.082 3.013538360595703 -1.1086172324470063 1.5587008635150355 -2.020860811273092 -1.5708168188678187 1.442696452140808 0.0 -9.091376705328003e-05 -0.0002800402289722115 -0.0002518279361538589 0.0 -9.271538681813397e-19 1 True False
19831.131999999998 3.013615608215332 -1.1086835128119965 1.5584657827960413 -2.0205985508360804 -1.5707767645465296 1.4427123069763184 0.0 -0.012546632438898087 -0.018694140017032623 0.023227564990520477 0.0 -1.4083487892624052e-37 1 True False
19831.182 3.013563394546509 -1.1098011595061799 1.556387726460592 -2.017426153222555 -1.5707610289203089 1.4427776336669922 0.0 -0.02691979706287384 -0.057411015033721924 0.0960322767496109 -5.198264625505544e-05 -0.0 1 True False
19831.232 3.0135676860809326 -1.1118619006923218 1.5518305937396448 -2.0107318363585414 -1.5707843939410608 1.4427036046981812 0.0 -0.05550597980618477 -0.12188779562711716 0.17277146875858307 -2.1505291981159367e-20 -0.0 1 True False
19831.282 3.0136125087738037 -1.1150470238975068 1.5451038519488733 -2.000572820703024 -1.5707486311541956 1.4427646398544312 0.0 -0.07440374046564102 -0.1604873687028885 0.23134654760360718 -8.609942597104236e-05 7.281527359737083e-05 1 True False
19831.332 3.0135631561279297 -1.119497225885727 1.5355890432940882 -1.9870225391783656 -1.570772949849264 1.4428263902664185 0.0 -0.09719953685998917 -0.20802214741706848 0.2947227954864502 -6.988795939832926e-05 4.349015944171697e-05 1 True False
19831.381999999998 3.0135793685913086 -1.1250626605800171 1.5242121855365198 -1.9698783359923304 -1.5708335081683558 1.4427690505981445 0.0 -0.12120558321475983 -0.25515562295913696 0.38222843408584595 -5.546432386180182e-14 3.100460162386298e-05 1 True False
19831.432 3.0135793685913086 -1.1317372781089325 1.5102179686175745 -1.9493333301939906 -1.570801083241598 1.4427199363708496 0.0 -0.1438654661178589 -0.3048311471939087 0.44120970368385315 5.1255319704068825e-05 1.2690189549946748e-21 1 True False
19831.482 3.0135631561279297 -1.1395068627646943 1.4938438574420374 -1.9251109562315882 -1.5707362333880823 1.4427849054336548 0.0 -0.16620557010173798 -0.35041677951812744 0.5158323049545288 2.114136441377923e-05 1.9276401805098616e-40 1 True False
19831.532 3.0135765075683594 -1.148093656902649 1.4758928457843226 -1.898708005944723 -1.570784870778219 1.4427452087402344 0.0 -0.16673380136489868 -0.34694913029670715 0.5177765488624573 1.3318935089046136e-05 0.0 1 True False
19831.582 3.0135765075683594 -1.1557081502727051 1.4599569479571741 -1.874998231927389 -1.5707886854754847 1.4427849054336548 0.0 -0.13915438950061798 -0.2943756878376007 0.43982285261154175 2.0173447978777403e-07 0.0 1 True False
19831.631999999998 3.0135509967803955 -1.1622102123549958 1.4464018980609339 -1.8549047909178675 -1.5707724730121058 1.4427571296691895 0.0 -0.12062425911426544 -0.2528204917907715 0.3638050854206085 3.064350832300024e-26 4.39232619392038e-15 1 True False
19831.682 3.0135838985443115 -1.1675641697696229 1.4349291960345667 -1.8381062946715296 -1.5708406607257288 1.4427776336669922 0.0 -0.09637851268053055 -0.20527762174606323 0.31180495023727417 4.203895392974451e-45 6.6719516516337585e-34 1 True False
19831.732 3.0136375427246094 -1.171747700577118 1.4261558691607874 -1.8250605068602503 -1.5708044211017054 1.4428383111953735 0.0 -0.07594510912895203 -0.1585993468761444 0.23233875632286072 0.0 0.0 1 True False
19831.782 3.0135092735290527 -1.174950585966446 1.4196184317218226 -1.8153211079039515 -1.5708048979388636 1.442780613899231 0.0 -0.052576467394828796 -0.10847117751836777 0.15578265488147736 0.0 0.0 1 True False
19831.832 3.0135765075683594 -1.1769760710052033 1.415384594594137 -1.8090769253172816 -1.5708087126361292 1.4427409172058105 0.0 -0.0286595169454813 -0.06264278292655945 0.08311647176742554 0.0 0.0 1 True False
19831.881999999998 3.0136168003082275 -1.1778117579272767 1.413400952016012 -1.8064786396422328 -1.5707805792437952 1.4428176879882812 0.0 -0.004784488584846258 -0.013710930943489075 0.019887633621692657 0.0 0.0 1 True False
19831.932 3.0135927200317383 -1.1778692168048401 1.4134023825274866 -1.8063751659789027 -1.5708048979388636 1.4427893161773682 0.0 7.903075311332941e-05 -2.756498999717182e-19 -0.00016152721946127713 0.0 0.0 1 False False
19831.982 3.0135960578918457 -1.1778119665435334 1.413405720387594 -1.8063951931395472 -1.570801083241598 1.4428349733352661 0.0 0.0 -8.042396802920848e-05 0.0006220705108717084 0.0 0.0 1 False False
19832.032 3.0135838985443115 -1.1778958600810547 1.4134100119220179 -1.806310316125387 -1.5707767645465296 1.4428021907806396 0.0 0.0 -9.35372881940566e-05 0.0016766852932050824 0.0 0.0 1 False False
19832.082 3.0135016441345215 -1.1777953964522858 1.4133699576007288 -1.8062917194762171 -1.570784870778219 1.4427528381347656 0.0 -0.00031012154067866504 -0.00013175421918276697 0.0011311192065477371 0.0 0.0 1 False False
19832.131999999998 3.0135927200317383 -1.1778101187995453 1.413391415272848 -1.8062874279417933 -1.5707805792437952 1.442780613899231 0.0 -0.00043334285146556795 -0.00022504878870677203 0.0002762368239928037 0.0 0.0 1 False False
19832.182 3.0135884284973145 -1.1778807801059266 1.41335374513735 -1.8062311611571253 -1.5708335081683558 1.4427409172058105 0.0 -0.0001538699580123648 -0.00012232740118633956 0.00018828925385605544 0.0 0.0 1 False False
19832.232 3.013580799102783 -1.17782814920459 1.413415257130758 -1.806234975854391 -1.5707929770099085 1.4427604675292969 0.0 -7.088530401233584e-05 -0.00010196270886808634 0.00010820989700732753 0.0 0.0 1 False False
19832.282 3.0135598182678223 -1.1778898698142548 1.4133828322040003 -1.8062669239439906 -1.5708211104022425 1.442821979522705 0.0 -7.143794209696352e-05 -8.025858551263809e-05 8.651601092424244e-05 0.0 0.0 1 False False
19832.332 3.0135586261749268 -1.1778927010348816 1.4133861700641077 -1.8062669239439906 -1.5708373228656214 1.44281005859375 0.0 -5.968720870441757e-05 -6.660980579908937e-05 2.2529066348075885e-18 0.0 0.0 1 False False
19832.381999999998 3.0136287212371826 -1.1778763693622132 1.4133871237384241 -1.8062588177123011 -1.5708168188678187 1.4427690505981445 0.0 -5.377387424232438e-05 -2.545839365688751e-23 3.4221708431980317e-37 0.0 0.0 1 False False
19832.432 3.0135507583618164 -1.177822009926178 1.4133623282061976 -1.806223054925436 -1.5707805792437952 1.4428383111953735 0.0 -3.1845908900245793e-41 -0.0 0.0 0.0 0.0 1 False False
19832.482 3.013597249984741 -1.1778927010348816 1.4133666197406214 -1.8062831364073695 -1.5707686583148401 1.4427893161773682 0.0 0.0 -0.0 0.0 0.0 0.0 1 False False
19832.532 3.0135884284973145 -1.1778927010348816 1.4133337179767054 -1.8062955341734828 -1.5707443396197718 1.4427452087402344 0.0 0.0 -0.0 0.0 0.0 0.0 1 False False
19832.582 3.0136048793792725 -1.1778175395778199 1.4133623282061976 -1.8062955341734828 -1.5707686583148401 1.4427893161773682 0.0 0.0 -0.0 0.0 0.0 0.0 1 False False
19832.631999999998 3.0135509967803955 -1.1778429013541718 1.4134038130389612 -1.8063317737975062 -1.5708168188678187 1.442823052406311 0.0 0.0 -0.0 0.0 0.0 0.0 1 False False
19832.682 3.0135509967803955 -1.1778340202621003 1.413400952016012 -1.80627503017568 -1.570784870778219 1.4428547620773315 0.0 0.0 -0.0 0.0 0.0 0.0 1 False False
19832.732 3.0136125087738037 -1.177897111778595 1.4133828322040003 -1.8062712154784144 -1.5707772413836878 1.4427971839904785 0.0 0.0 -0.0 0.0 0.0 0.0 1 False False
19832.782 3.0135300159454346 -1.1778971415809174 1.4133413473712366 -1.8062511883177699 -1.5707967917071741 1.4427971839904785 0.0 0.0 -0.0 0.0 0.0 0.0 1 False False
19832.832 3.0135765075683594 -1.1778473419002076 1.4133575598346155 -1.8062831364073695 -1.570801083241598 1.442757248878479 0.0 0.0 -0.0 0.0 0.0 0.0 1 True False
19832.881999999998 3.0135719776153564 -1.1779090625098725 1.4133504072772425 -1.806234975854391 -1.5707805792437952 1.4428143501281738 0.0 0.0 -0.0 0.0 0.0 0.0 1 True False
19832.932 3.0135838985443115 -1.1778236788562317 1.4133995215045374 -1.8062392673888148 -1.5708168188678187 1.4427934885025024 0.0 0.0 -0.0 0.0 0.0 0.0 1 True False
19832.982 3.0135838985443115 -1.1778473419002076 1.4133623282061976 -1.8062917194762171 -1.5708254019366663 1.4427690505981445 0.0 0.0 -0.0 2.7946360503516843e-11 0.0 0.0 1 True False
19833.032 3.013580799102783 -1.1778554779342194 1.413379971181051 -1.8062669239439906 -1.5707967917071741 1.4428064823150635 0.0 0.0 -0.0 4.245057670988931e-30 0.0 0.0 1 True False
19833.082 3.013603448867798 -1.17788381994281 1.4133666197406214 -1.806223054925436 -1.5708335081683558 1.442781925201416 0.0 0.0 -1.620275268121585e-11 0.0 0.0 -2.5335420945028316e-20 1 True False
19833.131999999998 3.0136168003082275 -1.1778927010348816 1.4133666197406214 -1.8062669239439906 -1.570784870778219 1.4428554773330688 0.0 -3.5032461608120427e-44 1.3857265912520234e-07 0.0 0.0 2.674314325545879e-09 1 True False
19833.182 3.0136005878448486 -1.1778926712325593 1.4133756796466272 -1.8062545261778773 -1.5708168188678187 1.4427862167358398 0.0 0.0 3.2607609903901905e-37 0.0 0.0 4.062288438945679e-28 1 True False
19833.232 3.0135719776153564 -1.1778643888286133 1.4133175055133265 -1.8062635860838832 -1.5707767645465296 1.4428143501281738 0.0 0.0 0.0 0.0 0.0 0.00026603075093589723 1 True False
19833.282 3.013580799102783 -1.177838460808136 1.4133456389056605 -1.8062316379942835 -1.5708487669574183 1.4428064823150635 0.0 0.0 0.0 0.0 0.0 -0.001979309832677245 1 True False
19833.332 3.0135302543640137 -1.1778853994658967 1.4133666197406214 -1.8063112697997035 -1.570813004170553 1.4427934885025024 0.0 0.0 0.0 0.0 9.77698200177457e-11 -0.00023708119988441467 1 True False
19833.381999999998 3.0136256217956543 -1.1778429013541718 1.4133828322040003 -1.806234975854391 -1.5708048979388636 1.4428304433822632 0.0 0.0 0.0 0.0 1.485126709834531e-29 -2.222178255974346e-22 1 True False
19833.432 3.014366626739502 -1.1779062908938904 1.4134066740619105 -1.8062788448729457 -1.570813004170553 1.443591833114624 0.04595774784684181 -0.003135536564514041 0.00234747352078557 0.0 0.0 0.04273281991481781 1 True False
19833.482 3.0183799266815186 -1.17816914737735 1.4138110319720667 -1.8063632450499476 -1.5707967917071741 1.4476548433303833 0.11675775051116943 -0.0094840032979846 0.01183890551328659 -0.003495112992823124 0.0 0.11681214720010757 1 True False
19833.532 3.0260260105133057 -1.1788214606097718 1.4144209066974085 -1.8066102466978968 -1.5707967917071741 1.4552522897720337 0.18281394243240356 -0.011632404290139675 0.01753498613834381 -0.005989887751638889 0.0 0.1858222931623459 1 True False
19833.582 3.0370612144470215 -1.1795615714839478 1.4155843893634241 -1.806913515130514 -1.5707805792437952 1.466308832168579 0.25494399666786194 -0.017128951847553253 0.02625938504934311 -0.009427975863218307 0.0 0.25501593947410583 1 True False
19833.631999999998 3.051626682281494 -1.1804736119559784 1.416961971913473 -1.8073364696898402 -1.5707686583148401 1.4808119535446167 0.3238662779331207 -0.021539734676480293 0.03363536670804024 -0.009545293636620045 0.0 0.33027106523513794 1 True False
19833.682 3.0696284770965576 -1.1816884738257905 1.4186270872699183 -1.80778231243276 -1.5708335081683558 1.4989081621170044 0.3976874053478241 -0.02764587290585041 0.03712131083011627 -0.009756253100931644 6.257055065361783e-05 0.3935573399066925 1 True False
19833.732 3.091306209564209 -1.183143602018692 1.420755688344137 -1.8083206615843714 -1.570784870778219 1.5204192399978638 0.46300819516181946 -0.03224613890051842 0.046352189034223557 -0.014743269421160221 9.315406751571727e-21 0.4649781286716461 1 True False
19833.782 3.1163570880889893 -1.1849845510772248 1.423180882130758 -1.808969636956686 -1.5707686583148401 1.54546058177948 0.5354339480400085 -0.03752067685127258 0.053533460944890976 -0.011337725445628166 1.4150115710966997e-39 0.5361577272415161 1 True False
19833.832 3.144672155380249 -1.1868722599795838 1.4258931318866175 -1.809786935845846 -1.5707643667804163 1.5739103555679321 0.6042144298553467 -0.04001174494624138 0.05738452821969986 -0.018698737025260925 1.0720972720701383e-11 0.6011987328529358 1 True False
19833.881999999998 3.1766984462738037 -1.1890916985324402 1.4289315382586878 -1.8107134304442347 -1.570857350026266 1.6059783697128296 0.6664836406707764 -0.04573487862944603 0.06628939509391785 -0.02016306482255459 1.5708534419900388e-06 0.6701574921607971 1 True False
19833.932 3.212362766265869 -1.1915653508952637 1.4323700110064905 -1.8116380176939906 -1.570801083241598 1.6414384841918945 0.7366079092025757 -0.04903571307659149 0.06522312015295029 -0.02456250973045826 1.2190749885121477e-06 0.7445133328437805 1 True False
19833.982 3.251249074935913 -1.1942650240710755 1.4361375013934534 -1.8126818142332972 -1.5707925001727503 1.6804554462432861 0.8158966898918152 -0.05474412441253662 0.08256421238183975 -0.02234542742371559 -5.240208702161908e-05 0.814872682094574 1 True False
19834.032 3.293738603591919 -1.197166160946228 1.4401963392840784 -1.8138514957823695 -1.5708211104022425 1.7230490446090698 0.8867087960243225 -0.06062784418463707 0.0849945992231369 -0.022112058475613594 -1.4911484281707247e-22 0.8813228607177734 1 True False
19834.082 3.339730739593506 -1.2004347306540986 1.444742504750387 -1.8149687252440394 -1.5707805792437952 1.7688164710998535 0.9482797980308533 -0.06483062356710434 0.08843686431646347 -0.026559898629784584 -2.2650588377346343e-41 0.9557864665985107 1 True False
19834.131999999998 3.389232635498047 -1.2037958067706604 1.4493282477008265 -1.816312929193014 -1.5707686583148401 1.818422555923462 1.0259653329849243 -0.07101529091596603 0.0958220586180687 -0.029119892045855522 -0.0 1.0205869674682617 1 True False
19834.182 3.441316843032837 -1.2073519986918946 1.4543069044696253 -1.8177324734129847 -1.570772949849264 1.8704729080200195 1.0467618703842163 -0.07249967008829117 0.1005404070019722 -0.026713697239756584 -0.0 1.04823637008667 1 True False
19834.232 3.4937360286712646 -1.211019442682602 1.459383789693014 -1.819183965722555 -1.570801083241598 1.9229259490966797 1.045174479484558 -0.07134592533111572 0.10152816772460938 -0.02748487889766693 -0.0001618974783923477 1.044528841972351 1 True False
19834.282 3.546032667160034 -1.2146370571902771 1.4643538633929651 -1.8205787144102992 -1.5707562605487269 1.9753257036209106 1.0528526306152344 -0.0714460164308548 0.10056740045547485 -0.027075355872511864 -0.00013655287330038846 1.0491455793380737 1 True False
19834.332 3.5984182357788086 -1.2182414096644898 1.4693430105792444 -1.8219663105406703 -1.5707724730121058 2.02752685546875 1.0466123819351196 -0.074472576379776 0.10320808738470078 -0.024785684421658516 -0.0001245999737875536 1.0584509372711182 1 True False
19834.381999999998 3.6507673263549805 -1.2218423944762726 1.474457089100973 -1.8233376942076625 -1.5708449522601526 2.0798728466033936 1.0440367460250854 -0.06965918838977814 0.09899413585662842 -0.02601446956396103 -8.791089203441516e-05 1.0459935665130615 1 True False
19834.432 3.7031381130218506 -1.225486920481064 1.4795101324664515 -1.8246814213194789 -1.5708048979388636 2.132453680038452 1.049686074256897 -0.0707564428448677 0.10093767940998077 -0.02747294493019581 4.1484232497168705e-05 1.044593334197998 1 True False
19834.482 3.7555394172668457 -1.2290088397315522 1.4844048658954065 -1.8261600933470667 -1.5708091894732874 2.1847176551818848 1.0473883152008057 -0.07207345217466354 0.10100545734167099 -0.027856051921844482 1.2107853691890046e-22 1.0483131408691406 1 True False
19834.532 3.807844877243042 -1.2326998275569458 1.4894231001483362 -1.8276320896544398 -1.570801083241598 2.237046718597412 1.0435998439788818 -0.07053209096193314 0.09914602339267731 -0.02625414729118347 1.8392042344263224e-41 1.0430136919021606 1 True False
19834.582 3.860261917114258 -1.2362505954555054 1.4945009390460413 -1.828838964501852 -1.5708091894732874 2.2895779609680176 1.0497554540634155 -0.07320291548967361 0.09950165450572968 -0.02836054190993309 0.0 1.0449039936065674 1 True False
19834.631999999998 3.912539005279541 -1.2398857933333893 1.4994033018695276 -1.8303262195982875 -1.570772949849264 2.3417232036590576 1.0536141395568848 -0.07298069447278976 0.10378078371286392 -0.024961858987808228 0.0 1.0568591356277466 1 True False
19834.682 3.964888334274292 -1.2434418362430115 1.504448715840475 -1.831738134423727 -1.5707925001727503 2.3940460681915283 1.040895938873291 -0.07238578796386719 0.09798792004585266 -0.02858360856771469 0.0 1.0438365936279297 1 True False
19834.732 4.017348289489746 -1.2470449668220063 1.5095832983600062 -1.8331767521300257 -1.5707805792437952 2.44657826423645 1.0468169450759888 -0.06990926712751389 0.0978819951415062 -0.034271061420440674 0.0 1.0396199226379395 1 True False
19834.782 4.069617748260498 -1.2507296961596985 1.5145610014544886 -1.834536691705221 -1.5708091894732874 2.4988670349121094 1.0507417917251587 -0.07148851454257965 0.09996853023767471 -0.023765990510582924 0.00016362588212359697 1.0513725280761719 1 True False
19834.832 4.122092247009277 -1.2543517810157319 1.519468132649557 -1.8360077343382777 -1.570853058491842 2.551130771636963 1.04228937625885 -0.07265310734510422 0.10422400385141373 -0.0290885828435421 3.8458902312815967e-17 1.0494366884231567 1 True False
19834.881999999998 4.1743903160095215 -1.257923201923706 1.5245607534991663 -1.837327619592184 -1.5707967917071741 2.6037051677703857 1.0510011911392212 -0.07048708200454712 0.09875692427158356 -0.032016195356845856 5.841915632872393e-36 1.0459133386611938 1 True False
19834.932 4.226673126220703 -1.2616204184344788 1.5294984022723597 -1.838731428185934 -1.5707486311541956 2.6559784412384033 1.0492812395095825 -0.07470987737178802 0.10064918547868729 -0.025918465107679367 0.0 1.0559338331222534 1 True False
19834.982 4.2791056632995605 -1.2651794713786622 1.5345771948443812 -1.8402773342528285 -1.5707925001727503 2.70804762840271 1.0445636510849 -0.0674329623579979 0.10380617529153824 -0.026581542566418648 0.0 1.0511868000030518 1 True False
19835.032 4.330329418182373 -1.2687123280814667 1.5395491758929651 -1.8416453800597132 -1.5707925001727503 2.7596497535705566 0.9920778870582581 -0.06723310053348541 0.0913248360157013 -0.026637526229023933 0.0 0.988180935382843 1 True False
19835.082 4.378180027008057 -1.2719766360572358 1.5441816488849085 -1.842846532861227 -1.5707691351519983 2.807351589202881 0.9246034622192383 -0.06645248085260391 0.08311615139245987 -0.029013732448220253 -8.83915854501538e-05 0.9312872290611267 1 True False
19835.131999999998 4.422658443450928 -1.2750927966884156 1.5483163038836878 -1.8440786800780238 -1.5707724730121058 2.8519668579101562 0.8578966856002808 -0.058288026601076126 0.08379589021205902 -0.02205849438905716 -4.6728231950510235e-08 0.8522546887397766 1 True False
19835.182 4.463489532470703 -1.2778826516917725 1.5521228949176233 -1.8451477489867152 -1.5708211104022425 2.892604112625122 0.7822808623313904 -0.05542714521288872 0.07657788693904877 -0.019869131967425346 -7.098025595246846e-27 0.7824121117591858 1 True False
19835.232 4.500939846038818 -1.28043486297641 1.5558674971209925 -1.8461376629271449 -1.5707929770099085 2.9300596714019775 0.7113555073738098 -0.051769934594631195 0.06654802709817886 -0.02185025066137314 -3.028877167721706e-19 0.7183688282966614 1 True False
19835.282 4.534872531890869 -1.2827924948981781 1.5589888731585901 -1.8470918140807093 -1.5707972685443323 2.964010238647461 0.6480597853660583 -0.04340288043022156 0.06351770460605621 -0.015557758510112762 -4.6008703559718e-38 0.6569470763206482 1 True False
19835.332 4.565317630767822 -1.2849294406226655 1.5619667212115687 -1.8478547535338343 -1.5707805792437952 2.9943723678588867 0.5777673125267029 -0.04131009429693222 0.05671168863773346 -0.013206918723881245 -0.00010325790208298713 0.5835397243499756 1 True False
19835.381999999998 4.592300891876221 -1.2867139738849183 1.5645530859576624 -1.8485461674132289 -1.5707686583148401 3.0211539268493652 0.5074400901794434 -0.03547274321317673 0.049515143036842346 -0.012447468936443329 -4.001821321337809e-23 0.5166276693344116 1 True False
19835.432 4.615522861480713 -1.2883807581714173 1.566843334828512 -1.8492185078062953 -1.5708487669574183 3.0447654724121094 0.437775194644928 -0.029629115015268326 0.04270453006029129 -0.009039311669766903 -0.00035535049391910434 0.43060731887817383 1 True False
19835.482 4.635406494140625 -1.2897317868522187 1.5687578360186976 -1.8497306309142054 -1.5708325544940394 3.064815044403076 0.36277681589126587 -0.024500830098986626 0.032017678022384644 -0.011725859716534615 -0.00023208558559417725 0.36229804158210754 1 True False
19835.532 4.652103900909424 -1.2908796531013031 1.570266071950094 -1.8501812420287074 -1.5707891623126429 3.081026792526245 0.2900021970272064 -0.02078295312821865 0.02670176699757576 -0.010271898470818996 0.00017135833331849426 0.3028174042701721 1 True False
19835.582 4.664930820465088 -1.2918110352805634 1.571564022694723 -1.8505031071104945 -1.570801083241598 3.0942258834838867 0.2279907464981079 -0.014923210255801678 0.021719064563512802 -0.006879583466798067 6.31409519197083e-22 0.22566662728786469 1 True False
19835.631999999998 4.674529552459717 -1.2923978728106995 1.5724523703204554 -1.8506928882994593 -1.570853058491842 3.103679656982422 0.15842372179031372 -0.011889934539794922 0.015592631883919239 -0.0036652476992458105 9.59118733907121e-41 0.15399472415447235 1 True False
19835.682 4.680483341217041 -1.2928494375995179 1.5730450789081019 -1.8509155712523402 -1.570772949849264 3.10961651802063 0.08445161581039429 -0.004022282548248768 0.0069313449785113335 -0.002141771372407675 0.0 0.08762897551059723 1 True False
19835.732 4.682928085327148 -1.292975441818573 1.5731609503375452 -1.851055761376852 -1.5708368460284632 3.112123966217041 0.01652219519019127 -0.0011653261026367545 0.0007831163820810616 -0.0011278846068307757 0.0 0.017432259395718575 1 True False
19835.782 4.6829400062561035 -1.292685942058899 1.5739887396441858 -1.8522120914854945 -1.570796314870016 3.1121630668640137 -0.00010389834642410278 0.013523601926863194 0.03416728600859642 -0.039820633828639984 -3.680384922061068e-14 5.970144775346853e-05 1 True False
19835.832 4.6829633712768555 -1.291292892103531 1.576867405568258 -1.8567258320250453 -1.5708006064044397 3.1121435165405273 0.00024193803255911916 0.044578637927770615 0.07636278122663498 -0.11288291960954666 -9.377160340254528e-19 0.000260204920778051 1 True False
19835.881999999998 4.6829915046691895 -1.288406566982605 1.5820444265948694 -1.8646217785277308 -1.5708087126361292 3.11221981048584 0.0003148054820485413 0.06962808966636658 0.12747740745544434 -0.18655402958393097 4.503115269471891e-05 0.0005145035684108734 1 True False
19835.932 4.682999134063721 -1.2842781108668824 1.589564625416891 -1.8760200939574183 -1.570784870778219 3.1122028827667236 0.0003406692703720182 0.09059536457061768 0.1734149307012558 -0.27257636189460754 6.513905100291595e-05 0.0002470019389875233 1 True False
19835.982 4.682966709136963 -1.27898661911998 1.5992558638202112 -1.8910328350462855 -1.5707686583148401 3.112211227416992 0.00019663336570374668 0.1170182004570961 0.2178254872560501 -0.3317182660102844 5.606239938060753e-05 0.0001601310505066067 1 True False
19836.032 4.683046817779541 -1.2724431616118927 1.611213509236471 -1.9094697437682093 -1.570784870778219 3.11224365234375 0.00013779036817140877 0.1395232379436493 0.2562899887561798 -0.3993875980377197 5.9800637245643884e-05 9.195233724312857e-05 1 True False
19836.082 4.683011054992676 -1.2647754114917298 1.6253765265094202 -1.9312602482237757 -1.5707443396197718 3.11224365234375 0.00010180787649005651 0.17027594149112701 0.3149767518043518 -0.4718180000782013 1.4804259164044598e-12 6.449526699725538e-05 1 True False
19836.131999999998 4.683022975921631 -1.2558111113360901 1.6419909636126917 -1.9568044147887171 -1.570801083241598 3.1122231483459473 7.644001743756235e-05 0.1932978630065918 0.35055363178253174 -0.5303802490234375 2.248770534083511e-31 7.102472592352346e-19 1 True False
19836.182 4.683032035827637 -1.2463711661151429 1.659182373677389 -1.983533044854635 -1.570772949849264 3.11221981048584 7.022212299763898e-15 0.17272533476352692 0.33058446645736694 -0.5112643241882324 0.0 1.0788673107473226e-37 1 True False
19836.232 4.683048248291016 -1.2381495994380494 1.6745336691485804 -2.007021566430563 -1.5707843939410608 3.112227439880371 6.23424057266675e-05 0.15338115394115448 0.27785006165504456 -0.44243863224983215 0.0 0.0 1 True False
19836.282 4.6830363273620605 -1.231140361433365 1.6874588171588343 -2.0270878277220667 -1.5708048979388636 3.1122243404388428 4.227997629854036e-18 0.13118520379066467 0.2410978525876999 -0.3594740331172943 0.0 0.0 1 True False
19836.332 4.683022975921631 -1.2253387135318299 1.6983268896686 -2.043687482873434 -1.5707967917071741 3.1122684478759766 0.0 0.10554559528827667 0.19367443025112152 -0.2950037717819214 0.0 0.0 1 True False
19836.381999999998 4.68297815322876 -1.2206956905177613 1.7065003553973597 -2.0567571125426234 -1.570784870778219 3.1122405529022217 0.0 0.07863028347492218 0.1498231291770935 -0.2333887666463852 0.0 5.342264824959031e-11 1 True False
19836.432 4.6830644607543945 -1.2173372370055695 1.7127888838397425 -2.0662957630553187 -1.570829216633932 3.11224365234375 0.0 0.051925551146268845 0.1049312949180603 -0.14750103652477264 0.0 8.114915600788617e-30 1 True False
19836.482 4.682957649230957 -1.2153121393970032 1.716635529194967 -2.0722300014891566 -1.570801083241598 3.112190008163452 0.0 0.03077765554189682 0.05816780775785446 -0.08550409972667694 0.0 0.0 1 True False
19836.532 4.683006286621094 -1.2143392723849793 1.7183721701251429 -2.0748120747008265 -1.5708697477923792 3.11221981048584 0.0 0.0036040302366018295 0.011994661763310432 -0.021484162658452988 0.0 0.0 1 True False
19836.582 4.683030605316162 -1.2143467527678986 1.718440357838766 -2.074918886224264 -1.5708254019366663 3.112227439880371 0.0 0.00031840865267440677 -2.893527228258787e-14 1.662557314041635e-09 0.0 0.0 1 True False
19836.631999999998 4.683030605316162 -1.2143876415542145 1.718452278767721 -2.0749150715269984 -1.5707648436175745 3.1122074127197266 0.0 0.00012468014028854668 0.000371414702385664 2.5254290841337198e-28 0.0 -1.6432395000265387e-08 1 True False
19836.682 4.683054447174072 -1.2143750351718445 1.7184808889972132 -2.0749269924559535 -1.5708373228656214 3.1121835708618164 0.0 0.00011026021820725873 0.00032743264455348253 0.0 0.0 -2.4960845562395664e-27 1 True False
19836.732 4.682969570159912 -1.2143094700625916 1.7184799353228968 -2.0749107799925746 -1.570801083241598 3.112215518951416 4.164092238770506e-36 0.00010113383177667856 0.00020050459716003388 -3.8017860788386315e-05 0.0 -0.0 1 True False
19836.782 4.683046817779541 -1.214322881107666 1.7184422651873987 -2.074923177758688 -1.5707767645465296 3.1122074127197266 0.0 0.00011524814181029797 0.00015175179578363895 -6.0748945543309674e-05 0.0 -0.0 1 True False
19836.832 4.68300199508667 -1.2143347722342988 1.7184675375567835 -2.07489075283193 -1.5708335081683558 3.112211227416992 0.0 0.0001113259932026267 8.126453030854464e-05 -0.00010947482951451093 0.0 -0.0 1 True False
19836.881999999998 4.682994842529297 -1.2143348318389435 1.7185214201556605 -2.0749627552428187 -1.5708454290973108 3.112231731414795 -5.0948059652000666e-05 9.82927595032379e-05 6.718363147228956e-05 -0.0001309539657086134 0.0 -0.0 1 True False
19836.932 4.6830153465271 -1.2143183809569855 1.7185290495501917 -2.074947496453756 -1.570784870778219 3.112170457839966 -6.980871625804573e-31 9.343178680865094e-05 1.9697671263283757e-22 -9.511120879324153e-05 0.0 -0.0 1 True False
19836.982 4.6830153465271 -1.2143392723849793 1.7184465567218226 -2.074902196923727 -1.570784870778219 3.1122641563415527 0.0 7.6090800575912e-05 0.0 -1.4099386135058012e-05 0.0 -0.0 1 True False
19837.032 4.683020114898682 -1.214339242582657 1.7184718290912073 -2.0749389133849085 -1.570813004170553 3.1121985912323 0.0 1.438386630780102e-39 0.0 -5.1418763177935034e-05 0.0 -0.0 1 True False
19837.082 4.68297815322876 -1.2144055229476471 1.7184866110431116 -2.0749908886351527 -1.5707967917071741 3.1122405529022217 0.0 0.0 0.0 -5.038659629751313e-21 0.0 -0.0 1 True False
19837.131999999998 4.683032035827637 -1.214318410759308 1.7185214201556605 -2.074906965295309 -1.5707805792437952 3.112215518951416 0.0 2.7082850490362957e-21 0.0 -7.653738069311075e-40 0.0 -0.0 1 True False
19837.182 4.683022975921631 -1.214349554186203 1.7184088865863245 -2.0750776729979457 -1.5708215872394007 3.1122448444366455 0.0 0.00017628785280976444 -1.5591373510418084e-17 -0.0005061287083663046 0.00017332672723568976 -6.857374130091482e-21 1 True False
19837.232 4.683030605316162 -1.2143467229655762 1.718363110219137 -2.075038095513815 -1.570801083241598 3.1121983528137207 0.0 0.0001622496492927894 0.00023118664103094488 -3.617675270461973e-09 8.868882287060842e-05 -1.0416369965758165e-39 1 True False
19837.282 4.683006286621094 -1.2144276660731812 1.7183077971087855 -2.074634691277975 -1.5708172957049769 3.1122360229492188 0.0 -0.006722463294863701 -0.01276845671236515 0.03340863436460495 5.488307942869142e-05 -0.0 1 True True
19837.332 4.683011054992676 -1.215165154342987 1.7168133894549769 -2.071715017358297 -1.570772949849264 3.1122610569000244 0.0 -0.03589316084980965 -0.06600449234247208 0.08511096984148026 1.9376839190954342e-05 -0.0 1 True True
19837.381999999998 4.683022975921631 -1.2176325482181092 1.712353531514303 -2.0650216541686 -1.57074481645693 3.1122512817382812 0.0 -0.05442972481250763 -0.10660084336996078 0.1654822826385498 2.9433465336018e-24 -0.0 1 True True
19837.432 4.68303918838501 -1.2213437122157593 1.7056587378131312 -2.0551582775511683 -1.5708463827716272 3.112211227416992 0.0 -0.08429770171642303 -0.15576021373271942 0.23076358437538147 4.4701421011961665e-43 -1.8480197615795926e-22 1 True True
19837.482 4.683020114898682 -1.2259356540492554 1.696984593068258 -2.041617532769674 -1.5707410017596644 3.1122729778289795 0.0 -0.10675515979528427 -0.197951540350914 0.2961690425872803 0.0 -7.464089867426082e-05 1 True True
19837.532 4.683006286621094 -1.2320473951152344 1.6857531706439417 -2.024684091607565 -1.5707610289203089 3.1122522354125977 0.0 -0.1308964192867279 -0.23730286955833435 0.38182559609413147 0.0 -4.8545465688221157e-05 1 True True
19837.582 4.683048248291016 -1.2391374868205567 1.6725629011737269 -2.0042692623534144 -1.5708048979388636 3.1122028827667236 0.0 -0.1600572168827057 -0.2821617126464844 0.4415742754936218 0.0 -4.349078153609298e-05 1 True True
19837.631999999998 4.683018684387207 -1.2476157409003754 1.656964127217428 -1.980255743066305 -1.5707767645465296 3.112247943878174 0.0 -0.17887970805168152 -0.33247965574264526 0.5104796290397644 0.0 -3.100456888205372e-05 1 True True
19837.682 4.683048248291016 -1.257151947622635 1.6395371595965784 -1.953242918054098 -1.5708330313311976 3.1121912002563477 0.0 -0.19035093486309052 -0.3504883348941803 0.5316751599311829 0.0 -1.2690057273750161e-21 1 True True
19837.732 4.683060169219971 -1.2658462685397645 1.6232860724078577 -1.9282828770079554 -1.5708368460284632 3.112149953842163 0.0 -0.164827361702919 -0.29678136110305786 0.4620351791381836 0.0 -1.9276261675252184e-40 1 True True
19837.782 4.68303918838501 -1.2733792525580903 1.6095269362079065 -1.9068018398680628 -1.5708125273333948 3.1122729778289795 0.0 -0.14215290546417236 -0.25423288345336914 0.4001854658126831 0.0 -0.0 1 True True
19837.832 4.683027744293213 -1.2797223192504426 1.5978558699237269 -1.8888098202147425 -1.5707929770099085 3.11221981048584 0.0 -0.1137034147977829 -0.20752114057540894 0.3117191791534424 0.0 -0.0 1 True True
19837.881999999998 4.682985782623291 -1.2848929923823853 1.5885418097125452 -1.8743287525572718 -1.5708006064044397 3.112231731414795 0.0 -0.09028174728155136 -0.16328929364681244 0.2534179091453552 0.0 -7.798026187417464e-16 1 True True
19837.932 4.683011054992676 -1.2888093751719971 1.5813029448138636 -1.8632976017394007 -1.5707886854754847 3.1122074127197266 0.0 -0.0648592934012413 -0.11987028270959854 0.18389859795570374 0.0 -1.1845222392720988e-34 1 True True
19837.982 4.683027744293213 -1.2912796598723908 1.5764792601214808 -1.8558722935118617 -1.5707810560809534 3.1121985912323 0.0 -0.040095776319503784 -0.0725695788860321 0.10824718326330185 0.0 -0.0 1 True True
19838.032 4.683011054992676 -1.2927544874003907 1.5738514105426233 -1.8517662487425746 -1.570768181477682 3.112231731414795 0.0 -0.016150670126080513 -0.03279675543308258 0.04187573492527008 0.0 -0.0 1 True True
19838.082 4.682922840118408 -1.2929301124862214 1.5733516852008265 -1.8510905704894007 -1.5707686583148401 3.1120445728302 -0.01646471582353115 -1.4813129212143394e-07 -1.4014340798951253e-08 -0.00016141847299877554 0.0 -0.023691272363066673 1 True True
19838.131999999998 4.681467533111572 -1.2929665011218567 1.573303524647848 -1.8510991535582484 -1.5707691351519983 3.1091091632843018 -0.046765074133872986 -0.0007481551147066057 5.9631001931848004e-05 0.0011249337112531066 0.0 -0.09339209645986557 1 True True
19838.182 4.678025722503662 -1.2931423348239441 1.573416535054342 -1.8510991535582484 -1.570801083241598 3.102539539337158 -0.08402559161186218 -0.004063260275870562 0.0029147155582904816 0.00028117088368162513 0.0 -0.16125933825969696 1 True True
19838.232 4.672877788543701 -1.293323503141739 1.5735357443438929 -1.8511320553221644 -1.5707805792437952 3.0926473140716553 -0.12084515392780304 -0.0052977055311203 0.0060456059873104095 4.095764961675741e-05 6.3174834252777146e-09 -0.23001748323440552 1 True True
19838.282 4.665960311889648 -1.293514297609665 1.5738557020770472 -1.851086755792135 -1.5707805792437952 3.079303026199341 -0.15644888579845428 -0.004418260417878628 0.006884352769702673 -0.0009351029875688255 9.59627431896492e-28 -0.3030436038970947 1 True True
19838.332 4.657160758972168 -1.2937903863242646 1.5742695967303675 -1.851217886010641 -1.5708254019366663 3.062168598175049 -0.1937306523323059 -0.006328975781798363 0.008890723809599876 -0.0020084241405129433 0.0 -0.3705015778541565 1 True True
19838.381999999998 4.646531105041504 -1.294102059011795 1.5746853987323206 -1.8513413868346156 -1.5707529226886194 3.041995048522949 -0.22731101512908936 -0.0074981688521802425 0.008527977392077446 -0.0035332594998180866 0.0 -0.4466327726840973 1 True True
19838.432 4.634362697601318 -1.294482634668686 1.5751665274249476 -1.8514205418028773 -1.5707967917071741 3.0180397033691406 -0.2659947872161865 -0.0074186790734529495 0.01106678880751133 -0.0014549129409715533 -0.00012226559920236468 -0.5161533355712891 1 True True
19838.482 4.620147705078125 -1.2949184042266388 1.5756290594684046 -1.8515120945372523 -1.5707319418536585 2.990549087524414 -0.3011418581008911 -0.010493321344256401 0.010590204037725925 -0.003404774237424135 5.555506707715888e-18 -0.576177179813385 1 True True
19838.532 4.6040730476379395 -1.2953718465617676 1.5762489477740687 -1.8517395458617152 -1.5707767645465296 2.9596853256225586 -0.3358313739299774 -0.011284020729362965 0.014536536298692226 -0.0037967110984027386 8.438833694777152e-37 -0.641940712928772 1 True True
19838.582 4.586301803588867 -1.2959240239909668 1.5769179503070276 -1.8518983326353968 -1.5707810560809534 2.9253013134002686 -0.37287044525146484 -0.011860901489853859 0.014456077478826046 -0.003083790885284543 0.0 -0.713726282119751 1 True True
19838.631999999998 4.566791534423828 -1.2964596909335633 1.577677075062887 -1.8519731960692347 -1.570784870778219 2.887566566467285 -0.408913791179657 -0.01162128895521164 0.016527095809578896 -0.004020356573164463 0.0 -0.7969459891319275 1 True True
19838.682 4.545072555541992 -1.297117368584015 1.5785749594317835 -1.8522917232909144 -1.570801083241598 2.8460376262664795 -0.44433581829071045 -0.013498160056769848 0.017222672700881958 -0.005540802143514156 0.0 -0.8677911162376404 1 True True
19838.732 4.522192001342773 -1.2978985768607636 1.5794342199908655 -1.8524142704405726 -1.570801083241598 2.801215648651123 -0.4858720302581787 -0.013218806125223637 0.018790772184729576 -0.004464855883270502 0.0 -0.9232807755470276 1 True True
19838.782 4.497272968292236 -1.298500732784607 1.5803945700274866 -1.8526379070677699 -1.5707925001727503 2.7529382705688477 -0.517838180065155 -0.017111197113990784 0.021098284050822258 -0.005188408307731152 0.0 -1.006448745727539 1 True True
19838.832 4.470328330993652 -1.299315409069397 1.5814889113055628 -1.8529273472227992 -1.5708087126361292 2.7013819217681885 -0.5380188226699829 -0.015346643514931202 0.02207043580710888 -0.004051319323480129 -0.0004258016124367714 -1.0421143770217896 1 True True
19838.881999999998 4.443134784698486 -1.3001318138888855 1.5825136343585413 -1.8532263241209925 -1.57082444826235 2.6487996578216553 -0.5448067784309387 -0.014586970210075378 0.01891387812793255 -0.007372439373284578 -0.0010157417273148894 -1.0380768775939941 1 True True
19838.932 4.416059970855713 -1.3009480994990845 1.5835660139666956 -1.8533607921996058 -1.570829216633932 2.5964691638946533 -0.5472041368484497 -0.014875596389174461 0.01835004985332489 -0.008648882620036602 -0.0021949547808617353 -1.053018569946289 1 True True
19838.982 4.389139652252197 -1.301820085649826 1.5846055189715784 -1.8535758457579554 -1.5707443396197718 2.5442426204681396 -0.5460783243179321 -0.013227904215455055 0.019687470048666 -0.006100944243371487 0.0004153041518293321 -1.0402824878692627 1 True True
19839.032 4.362299919128418 -1.3025466960719605 1.5856645742999476 -1.853830476800436 -1.570756737385885 2.4918105602264404 -0.5395391583442688 -0.017393477261066437 0.020081546157598495 -0.002814990933984518 0.0009454021346755326 -1.045174479484558 1 True True
19839.082 4.335109233856201 -1.3032891613296052 1.5866521040545862 -1.8540564976134242 -1.5706966559039515 2.4395699501037598 -0.5337591767311096 -0.01826012134552002 0.023131148889660835 -0.0010443361243233085 0.0018454559613019228 -1.0558351278305054 1 True True
19839.131999999998 4.307858467102051 -1.3041772109321137 1.5876715818988245 -1.854358812371725 -1.5707805792437952 2.3872125148773193 -0.5373519659042358 -0.017788683995604515 0.021226268261671066 -0.001919054426252842 0.002029545372352004 -1.0477908849716187 1 True True
19839.182 4.28057861328125 -1.30494977653537 1.5887258688556116 -1.8546654186644496 -1.5708168188678187 2.3347277641296387 -0.5420582294464111 -0.014536313712596893 0.02085166797041893 -0.004764243960380554 -0.00036422564880922437 -1.0413825511932373 1 True True
19839.232 4.253487586975098 -1.3057690125754853 1.5897510687457483 -1.8548833332457484 -1.5708368460284632 2.282382011413574 -0.5473924279212952 -0.014323730021715164 0.020036933943629265 -0.007906338199973106 -0.002010759199038148 -1.051679253578186 1 True True
19839.282 4.22642707824707 -1.3065484327128907 1.5907986799823206 -1.8550831280150355 -1.5708368460284632 2.230121612548828 -0.5445185899734497 -0.013709248043596745 0.017843980342149734 -0.008103459142148495 -0.0014996264362707734 -1.0480990409851074 1 True True
19839.332 4.1994099617004395 -1.3073452872088929 1.5918234030352991 -1.8552690945067347 -1.5707805792437952 2.177673578262329 -0.5447624921798706 -0.013414150103926659 0.021776359528303146 -0.0066358596086502075 8.127305045491084e-05 -1.0468062162399292 1 True True
19839.381999999998 4.172547340393066 -1.308221237068512 1.592912499104635 -1.8554679356017054 -1.5707486311541956 2.1253762245178223 -0.5406143069267273 -0.015814974904060364 0.021741356700658798 -0.005208171904087067 0.0007276844698935747 -1.0541648864746094 1 True True
19839.432 4.1454758644104 -1.3089488309672852 1.5939887205706995 -1.85577454189443 -1.5707085768329065 2.072997570037842 -0.5358164310455322 -0.017503395676612854 0.02299017459154129 -0.002268200507387519 0.001218802877701819 -1.0448310375213623 1 True True
19839.482 4.11832332611084 -1.3097908359817048 1.5950420538531702 -1.8559967480101527 -1.570784870778219 2.0205376148223877 -0.5364661812782288 -0.016870534047484398 0.02467992529273033 -0.001871694577857852 0.0022117330227047205 -1.0397861003875732 1 True True
19839.532 4.0910725593566895 -1.3105338376811524 1.5960248152362269 -1.8562871418394984 -1.5708168188678187 1.9681739807128906 -0.5385894179344177 -0.01774919591844082 0.019274316728115082 -0.0032163262367248535 -0.00039626244688406587 -1.0475965738296509 1 True True
19839.582 4.063876152038574 -1.3113870483687897 1.5970938841449183 -1.8565417728819789 -1.5709007422076624 1.9160022735595703 -0.5441146492958069 -0.013934648595750332 0.0186588317155838 -0.007235004100948572 -0.0008029385353438556 -1.0484626293182373 1 True True
19839.631999999998 4.0367631912231445 -1.312126414184906 1.5981319586383265 -1.856760164300436 -1.5708325544940394 1.8635493516921997 -0.5482016205787659 -0.014903873205184937 0.01925913244485855 -0.007528975605964661 -0.0016100798966363072 -1.0403242111206055 1 True True
19839.682 4.009807109832764 -1.3130110663226624 1.5991900602923792 -1.856915136376852 -1.5707281271563929 1.8112099170684814 -0.5492441058158875 -0.015652524307370186 0.019816018640995026 -0.00953584909439087 -0.0010797327850013971 -1.0589330196380615 1 True True
19839.732 3.982771158218384 -1.3138068181327363 1.6002996603595179 -1.8571421108641566 -1.5707486311541956 1.7589350938796997 -0.5391025543212891 -0.015363190323114395 0.021800536662340164 -0.0043093073181807995 0.0007392494007945061 -1.0502955913543701 1 True True
19839.782 3.9559249877929688 -1.3146155637553711 1.601309601460592 -1.8573962650694789 -1.570732895527975 1.7064006328582764 -0.539128839969635 -0.018074536696076393 0.020976051688194275 -0.0027019900735467672 0.0010865384247153997 -1.0421853065490723 1 True True
19839.832 3.9287071228027344 -1.315445141201355 1.6023786703692835 -1.8575779400267542 -1.5707209745990198 1.6540091037750244 -0.5346986651420593 -0.018482547253370285 0.022735552862286568 -0.0013044847873970866 0.002958025084808469 -1.047227144241333 1 True True
19839.881999999998 3.901475429534912 -1.316205696468689 1.6033628622638147 -1.857952734033102 -1.570813004170553 1.601714849472046 -0.5355105996131897 -0.01680964045226574 0.020484330132603645 -0.003178350394591689 -5.207741651247488e-06 -1.0511151552200317 1 True True
19839.932 3.874216318130493 -1.3169738215259095 1.6043790022479456 -1.8581911526122035 -1.5708368460284632 1.5493800640106201 -0.5418319702148438 -0.015215798281133175 0.018379049375653267 -0.00613339664414525 -0.0005593567038886249 -1.0435545444488525 1 True True
19839.982 3.8470678329467773 -1.3177326184562226 1.6053617636310022 -1.8583737812437953 -1.5708449522601526 1.4969830513000488 -0.5494773983955383 -0.013245685026049614 0.018969278782606125 -0.00643313629552722 -0.00027828203747048974 -1.0539051294326782 1 True True
19840.032 3.820094108581543 -1.3186259132674714 1.6064985434161585 -1.8585926494994105 -1.570813004170553 1.4447160959243774 -0.5482662916183472 -0.01527575496584177 0.018512126058340073 -0.010022209025919437 -0.0025540413334965706 -1.047753095626831 1 True True
19840.082 3.793086528778076 -1.3193967801383515 1.607525650654928 -1.8588196239867152 -1.5707810560809534 1.392252802848816 -0.5459814667701721 -0.014951404184103012 0.02021007239818573 -0.005486862268298864 0.0004994146293029189 -1.0452879667282104 1 True True
19840.131999999998 3.7661166191101074 -1.3202466529658814 1.6085575262652796 -1.8590098820128382 -1.5707204977618616 1.3398637771606445 -0.5401925444602966 -0.016431188210844994 0.021213319152593613 -0.003093630075454712 0.0008515712688677013 -1.044745683670044 1 True True
19840.182 3.7390637397766113 -1.3209937375834961 1.6096347014056605 -1.8593408070006312 -1.5707610289203089 1.2875885963439941 -0.5362443923950195 -0.018934305757284164 0.023373844102025032 -0.002260589273646474 0.001686871750280261 -1.0484224557876587 1 True True
19840.232 3.7118871212005615 -1.321781949406006 1.6106050650226038 -1.85955872158193 -1.5707967917071741 1.235184907913208 -0.5367065072059631 -0.018873976543545723 0.02327275462448597 -0.002404472092166543 -1.240744381902914e-06 -1.0448096990585327 1 True True
19840.282 3.6847293376922607 -1.3225811433843155 1.6116064230548304 -1.8599049053587855 -1.5708449522601526 1.1827616691589355 -0.5428155660629272 -0.016263263300061226 0.019426878541707993 -0.004496554844081402 -0.0004478206974454224 -1.046472430229187 1 True True
19840.332 3.65744948387146 -1.3234102886966248 1.6126707235919397 -1.8601271114745082 -1.5708368460284632 1.1306103467941284 -0.5426588654518127 -0.014729993417859077 0.020656853914260864 -0.007791145239025354 -0.0008821628289297223 -1.0467482805252075 1 True True
19840.381999999998 3.6304097175598145 -1.324175552730896 1.6136844793902796 -1.86033358196401 -1.5708211104022425 1.0781477689743042 -0.5492743253707886 -0.015739165246486664 0.021179188042879105 -0.008588043972849846 -0.001923220930621028 -1.0473382472991943 1 True True
19840.432 3.603435754776001 -1.3250201654485245 1.6148260275470179 -1.8605367145934046 -1.570772949849264 1.0258210897445679 -0.5472057461738586 -0.013710755854845047 0.02084437943994999 -0.008068708702921867 -0.00011791741417255253 -1.0474275350570679 1 True True
19840.482 3.5764353275299072 -1.3258079600385209 1.6158860365497034 -1.8607846699156703 -1.570772949849264 0.9733409881591797 -0.54119473695755 -0.017922595143318176 0.022614309564232826 -0.00440063513815403 0.0006850362406112254 -1.0482977628707886 1 True True
19840.532 3.5494186878204346 -1.3266447347453614 1.6169284025775355 -1.8609973392882289 -1.5707610289203089 0.9211198687553406 -0.5395861268043518 -0.01825885660946369 0.02128109522163868 -0.003477452788501978 0.0010951331350952387 -1.0486327409744263 1 True True
19840.582 3.5223262310028076 -1.3274444204619904 1.6179574171649378 -1.8612891636290492 -1.5707972685443323 0.8687347173690796 -0.5368829369544983 -0.01782570406794548 0.021057313308119774 -0.001816691248677671 0.0025044609792530537 -1.049830675125122 1 True True
19840.631999999998 3.495068311691284 -1.3282443893006821 1.6189125219928187 -1.8614665470519007 -1.5708335081683558 0.816475510597229 -0.5372092127799988 -0.016377298161387444 0.022254997864365578 -0.0014948563184589148 0.00027320548542775214 -1.049962043762207 1 True True
19840.682 3.4678916931152344 -1.3290427786162873 1.6199525038348597 -1.8618179760374964 -1.570813004170553 0.7639980912208557 -0.5437013506889343 -0.01616077683866024 0.02041403204202652 -0.00537228723987937 -0.00046600232599303126 -1.046872854232788 1 True True
19840.732 3.4406614303588867 -1.3298300069621583 1.6209877173053187 -1.8620687923827113 -1.5708368460284632 0.7116752862930298 -0.5424998998641968 -0.013608677312731743 0.019041433930397034 -0.006933999713510275 -0.0011833877069875598 -1.0505331754684448 1 True True
19840.782 3.4136838912963867 -1.3306215566447754 1.6220601240741175 -1.8622628651061 -1.5708254019366663 0.6591633558273315 -0.548937976360321 -0.014778255484998226 0.018803423270583153 -0.008938181214034557 -0.0006456987466663122 -1.0429731607437134 1 True True
19840.832 3.3867037296295166 -1.331489921813347 1.6231568495379847 -1.8623930416502894 -1.5707972685443323 0.6068443059921265 -0.5420148968696594 -0.015063096769154072 0.021717727184295654 -0.006488393060863018 0.0005650242674164474 -1.0513195991516113 1 True True
19840.881999999998 3.3597493171691895 -1.3322647523931046 1.6242206732379358 -1.862648149529928 -1.5707691351519983 0.554496705532074 -0.5399972200393677 -0.0176683459430933 0.02363477274775505 -0.0038889104034751654 0.0008960756240412593 -1.042802095413208 1 True True
19840.932 3.3326785564422607 -1.3330937635949631 1.6253097693072718 -1.8628860912718714 -1.5707648436175745 0.5022306442260742 -0.5387564897537231 -0.01707620732486248 0.021239910274744034 -0.0019276886014267802 0.0018003324512392282 -1.0498292446136475 1 True True
19840.982 3.305485963821411 -1.333815799360611 1.6262438933001917 -1.863168855706686 -1.5707805792437952 0.44994229078292847 -0.5368109345436096 -0.01617896370589733 0.023012643679976463 -0.0033671383280307055 -0.00021070263755973428 -1.0478408336639404 1 True True
19841.032 3.27828049659729 -1.3346279573491593 1.6272838751422327 -1.863467355767721 -1.5708254019366663 0.3974226117134094 -0.5438722372055054 -0.016339531168341637 0.020515035837888718 -0.003581058233976364 -0.00021123100304976106 -1.0481749773025513 1 True True
19841.082 3.251107692718506 -1.3353866946748276 1.6283238569842737 -1.8636976681151332 -1.5708611647235315 0.3451250195503235 -0.5431886315345764 -0.015020358376204967 0.01924748905003071 -0.004918614402413368 -0.001043606665916741 -1.0435402393341064 1 True True
19841.131999999998 3.2241344451904297 -1.3362633001855393 1.6294353644000452 -1.8639522991576136 -1.5708368460284632 0.2927058935165405 -0.5478709936141968 -0.014596042223274708 0.02128855139017105 -0.010387181304395199 -0.002677662530913949 -1.049667477607727 1 True True
19841.182 3.19699764251709 -1.3370507520488282 1.6304872671710413 -1.8641635380186976 -1.5707686583148401 0.24054798483848572 -0.5325113534927368 -0.016028305515646935 0.018816769123077393 -0.007069319952279329 0.0003499331069178879 -1.040742039680481 1 True True
19841.232 3.1713547706604004 -1.3378751289895554 1.6315282026873987 -1.864317079583639 -1.5707929770099085 0.19045084714889526 -0.5008001923561096 -0.01575828529894352 0.01931268349289894 -0.0033167689107358456 0.0004753326647914946 -0.9689138531684875 1 True True
19841.282 3.1473541259765625 -1.3386483949473877 1.6323836485492151 -1.8645760021605433 -1.570801083241598 0.14400513470172882 -0.4607371389865875 -0.015570536255836487 0.01859341189265251 -0.0018939448054879904 0.00094571866793558 -0.9017379879951477 1 True True
19841.332 3.124953269958496 -1.3391617101481934 1.633249584828512 -1.8647548160948695 -1.5708168188678187 0.10082903504371643 -0.4244004189968109 -0.013036825694143772 0.017697609961032867 -0.0028639344964176416 0.0003434810496401042 -0.8219678997993469 1 True True
19841.381999999998 3.1042749881744385 -1.339757264857628 1.6340144316302698 -1.8650056324400843 -1.570813004170553 0.061511967331171036 -0.3916160762310028 -0.010503233410418034 0.012606330215930939 -0.0030611942056566477 -0.00025110176648013294 -0.7503170967102051 1 True True
19841.432 3.085895299911499 -1.340341479783394 1.634726349507467 -1.8650967083373011 -1.5708335081683558 0.025466948747634888 -0.3600805401802063 -0.009871519170701504 0.013728432357311249 -0.006509978789836168 -0.00016585049161221832 -0.6909878253936768 1 True True
19841.482 3.068983316421509 -1.3408606511405488 1.635409180318014 -1.8652683697142542 -1.5707886854754847 -0.007000271474019826 -0.3162640929222107 -0.009508292190730572 0.012299182824790478 -0.004915026016533375 -7.441868365276605e-05 -0.6250160336494446 1 True True
