Andreas691667/Digital_Twin_UR/data_analysis/busters_stuff/robot_data/robot_output_heart.csv
timestamp actual_q_0 actual_q_1 actual_q_2 actual_q_3 actual_q_4 actual_q_5 actual_qd_0 actual_qd_1 actual_qd_2 actual_qd_3 actual_qd_4 actual_qd_5 safety_status output_bit_register_65 output_bit_register_66
21518.966 3.712094783782959 -0.8254949611476441 0.8429887930499476 -1.5882650814452113 -1.5707767645465296 2.141267776489258 0.0 0.0 0.0 -0.0 -0.0 -0.0 1 False False
21519.016 3.7120492458343506 -0.8254423898509522 0.8429225126849573 -1.5882774792113246 -1.570813004170553 2.14131760597229 0.0 0.0 0.0 -0.0 -0.0 -0.0 1 False False
21519.066 3.712106704711914 -0.825495795612671 0.8430050055133265 -1.5882650814452113 -1.5708006064044397 2.1413092613220215 0.0 0.0 0.0 -0.0 -0.0 -0.0 1 False False
21519.115999999998 3.7120819091796875 -0.8254587215236207 0.8430169264422815 -1.5882774792113246 -1.570801083241598 2.1412839889526367 0.0 0.0 0.0 -0.0 -0.0 -0.0 1 False False
21519.165999999997 3.7120742797851562 -0.8254882854274292 0.8429845015155237 -1.5882250271239222 -1.570784870778219 2.141296148300171 0.0 0.0 0.0 -0.0 -0.0 -0.0 1 False False
21519.216 3.7120537757873535 -0.8254543107799073 0.8430169264422815 -1.588252683679098 -1.5708168188678187 2.1412765979766846 0.0 0.0 0.0 -0.0 -0.0 -0.0 1 False False
21519.266 3.7120871543884277 -0.8254587215236207 0.8430007139789026 -1.5883251629271449 -1.570829216633932 2.141291618347168 0.0 0.0 0.0 -0.0 -0.0 -0.0 1 False False
21519.316 3.7120935916900635 -0.8255127233317872 0.8429878393756312 -1.588245531121725 -1.570784870778219 2.1412885189056396 0.0 0.0 0.0 -0.0 -0.0 -0.0 1 False False
21519.365999999998 3.7120699882507324 -0.8255202931216736 0.8429635206805628 -1.5882889233031214 -1.5708487669574183 2.141317367553711 0.0 0.0 0.0 -0.0 -0.0 -0.0 1 False False
21519.415999999997 3.7120132446289062 -0.825451211338379 0.8429878393756312 -1.5883218250670375 -1.570784870778219 2.1412723064422607 0.0 0.0 0.0 -0.0 -0.0 -0.0 1 False False
21519.466 3.71207857131958 -0.8254675430110474 0.8429759184466761 -1.5883170566954554 -1.5708654562579554 2.141258955001831 0.0 0.0 0.0 -0.0 -0.0 -0.0 1 False False
21519.516 3.7120296955108643 -0.8254379791072388 0.8430288473712366 -1.5883170566954554 -1.5707805792437952 2.141221761703491 0.0 0.0 0.0 -0.0 -0.0 -0.0 1 False False
21519.566 3.7121360301971436 -0.825454370384552 0.842959229146139 -1.5882331333556117 -1.5707886854754847 2.141296148300171 0.0 0.0 0.0 -0.0 -0.0 -0.0 1 False False
21519.615999999998 3.7120044231414795 -0.8254779738238831 0.8430450598346155 -1.5882607899107875 -1.5707324186908167 2.1413049697875977 0.0 0.0 0.0 -0.0 -0.0 -0.0 1 False False
21519.665999999997 3.7120981216430664 -0.8254468005946656 0.8429549376117151 -1.588285585443014 -1.5707805792437952 2.141254425048828 0.0 0.0 0.0 -0.0 -0.0 -0.0 1 False False
21519.716 3.71207857131958 -0.8254750531962891 0.8430007139789026 -1.5882374248900355 -1.5707605520831507 2.141324996948242 0.0 0.0 0.0 -0.0 -0.0 -0.0 1 False False
21519.766 3.7120742797851562 -0.8254451912692566 0.8429887930499476 -1.588320871392721 -1.570772949849264 2.141329288482666 0.0 0.0 0.0 -0.0 -0.0 -0.0 1 False False
21519.816 3.712111234664917 -0.8255127829364319 0.8430126349078577 -1.5883251629271449 -1.5708048979388636 2.141242504119873 0.0 0.0 0.0 -0.0 -0.0 -0.0 1 False False
21519.865999999998 3.712062358856201 -0.8254869741252442 0.8429845015155237 -1.588285585443014 -1.5707891623126429 2.1412782669067383 0.0 0.0 0.0 -0.0 -0.0 -0.0 1 False False
21519.915999999997 3.712062358856201 -0.825428919201233 0.8430007139789026 -1.5882774792113246 -1.570784870778219 2.141313076019287 0.0 0.0 0.0 -0.0 -0.0 -0.0 1 False False
21519.966 3.7120862007141113 -0.8254794639400025 0.8429887930499476 -1.5882607899107875 -1.5707243124591272 2.1412885189056396 0.0 0.0 0.0 -0.0 -0.0 -0.0 1 False False
21520.016 3.712066650390625 -0.8254587215236207 0.8430092970477503 -1.5883127651610316 -1.5707648436175745 2.141263246536255 0.0 0.0 0.0 -0.0 -0.0 -0.0 1 False False
21520.066 3.712062358856201 -0.8254543107799073 0.8429544607745569 -1.5883218250670375 -1.5707562605487269 2.141254425048828 0.0 0.0 0.0 -0.0 -0.0 -0.0 1 False False
21520.115999999998 3.712045907974243 -0.8254914444736023 0.8430007139789026 -1.588245531121725 -1.5707767645465296 2.141235113143921 0.0 0.0 0.0 -0.0 -0.0 -0.0 1 False False
21520.165999999997 3.712094783782959 -0.8255617779544373 0.8430126349078577 -1.5883370838561 -1.5707967917071741 2.141235113143921 0.0 0.0 0.0 -0.0 -0.0 -0.0 1 False False
21520.216 3.7120697498321533 -0.8254993122867127 0.8430054823504847 -1.5882650814452113 -1.5707486311541956 2.1412558555603027 0.0 0.0 0.0 -0.0 -0.0 -0.0 1 False False
21520.266 3.712029457092285 -0.825470582847931 0.8430174032794397 -1.5883175335326136 -1.5708254019366663 2.141258955001831 0.0 0.0 0.0 -0.0 -0.0 -0.0 1 False False
21520.316 3.712095022201538 -0.8254543107799073 0.8429606596576136 -1.5882817707457484 -1.570784870778219 2.1413092613220215 0.0 0.0 0.0 -0.0 -0.0 -0.0 1 False False
21520.365999999998 3.712062358856201 -0.8255083721927186 0.8430126349078577 -1.588252683679098 -1.570813004170553 2.1413004398345947 0.0 0.0 0.0 -0.0 -0.0 -0.0 1 False False
21520.415999999997 3.7120368480682373 -0.8255216640285035 0.8429802099810999 -1.5882817707457484 -1.5707805792437952 2.14123797416687 0.0 0.0 0.0 -0.0 -0.0 -0.0 1 False False
21520.466 3.712099552154541 -0.8254838746837159 0.8429845015155237 -1.5883094273009242 -1.57074481645693 2.1412765979766846 0.0 0.0 0.0 -0.0 -0.0 -0.0 1 False False
21520.516 3.712083101272583 -0.8254735630801697 0.842987362538473 -1.5882607899107875 -1.5707967917071741 2.1413040161132812 0.0 0.0 0.0 -0.0 -0.0 -0.0 1 False False
21520.566 3.712111473083496 -0.8254542511752625 0.8429754416095179 -1.5882498226561488 -1.570824925099508 2.141321897506714 0.0 0.0 0.0 -0.0 -0.0 -0.0 1 False False
21520.615999999998 3.712123394012451 -0.8255366247943421 0.842987362538473 -1.588269372979635 -1.5707481543170374 2.141242742538452 0.0 0.0 0.0 -0.0 -0.0 -0.0 1 False False
21520.665999999997 3.712062358856201 -0.825437919502594 0.8429802099810999 -1.5882817707457484 -1.5707891623126429 2.141317367553711 0.0 0.0 0.0 -0.0 -0.0 -0.0 1 False False
21520.716 3.7120578289031982 -0.8254304689219971 0.8429845015155237 -1.5882774792113246 -1.5707891623126429 2.141235113143921 1.5442309076859484e-42 0.0 0.0 -0.0 -0.0 -0.0 1 False False
21520.766 3.712062358856201 -0.8255291146091004 0.8429811636554163 -1.5882569752135218 -1.570813004170553 2.1413424015045166 0.0 0.0 0.0 -0.0 -0.0 -0.0 1 False False
21520.816 3.712062358856201 -0.8254750531962891 0.8430097738849085 -1.5882932148375453 -1.570784870778219 2.141279697418213 0.0 0.0 0.0 -0.0 -0.0 -0.0 1 False False
21520.865999999998 3.7121071815490723 -0.8255247634700318 0.8429563681231897 -1.5882846317686976 -1.5708048979388636 2.141235113143921 0.0 0.0 0.0 -0.0 -0.0 -0.0 1 False False
21520.915999999997 3.7120413780212402 -0.8255002659610291 0.8429515997516077 -1.588285585443014 -1.5708373228656214 2.141295909881592 0.0 0.0 0.0 -0.0 -0.0 -0.0 1 False False
21520.966 3.712050199508667 -0.8254675430110474 0.8429892698871058 -1.588320871392721 -1.5707762877093714 2.141247034072876 0.0 0.0 0.0 -0.0 -0.0 -0.0 1 False False
21521.016 3.712036609649658 -0.825470582847931 0.8429673353778284 -1.5883218250670375 -1.570784870778219 2.1412928104400635 0.0 0.0 0.0 -0.0 -0.0 -0.0 1 False False
21521.066 3.712111473083496 -0.825495795612671 0.8429754416095179 -1.5882607899107875 -1.5708168188678187 2.1413004398345947 0.0 0.0 0.0 -0.0 -0.0 -0.0 1 False False
21521.115999999998 3.712078809738159 -0.825488345032074 0.8429802099810999 -1.5882774792113246 -1.5708168188678187 2.1413381099700928 0.0 0.0 0.0 -0.0 -0.0 -0.0 1 False False
21521.165999999997 3.712078809738159 -0.8254794639400025 0.8429845015155237 -1.5882569752135218 -1.570829216633932 2.141275405883789 0.0 0.0 0.0 -0.0 -0.0 -0.0 1 False False
21521.216 3.7120490074157715 -0.8255002063563843 0.8429892698871058 -1.588292738000387 -1.5707686583148401 2.141275405883789 0.0 0.0 0.0 -0.0 -0.0 -0.0 1 False False
21521.266 3.7121071815490723 -0.8254543107799073 0.8429301420794886 -1.5883051357665003 -1.5707686583148401 2.141313076019287 0.0 0.0 0.0 -0.0 -0.0 -0.0 1 False False
21521.316 3.712066888809204 -0.8254675430110474 0.8429892698871058 -1.5882650814452113 -1.5707805792437952 2.14133358001709 0.0 0.0 0.0 -0.0 -0.0 -0.0 1 False False
21521.365999999998 3.7121145725250244 -0.8254869741252442 0.8429558912860315 -1.5882889233031214 -1.5708611647235315 2.1412839889526367 0.0 0.0 0.0 -0.0 -0.0 -0.0 1 False False
21521.415999999997 3.7120862007141113 -0.8254794639400025 0.8430245558368128 -1.5883094273009242 -1.5708254019366663 2.1413486003875732 0.0 0.0 0.0 -0.0 -0.0 -0.0 1 False False
21521.466 3.7120862007141113 -0.8254556816867371 0.8430216948138636 -1.588280817071432 -1.5707891623126429 2.141287088394165 0.0 0.0 0.0 -0.0 -0.0 -0.0 1 False False
21521.516 3.712042808532715 -0.8254913848689576 0.842992130910055 -1.5883132419981898 -1.570824925099508 2.141263484954834 0.0 0.0 0.0 -0.0 -0.0 -0.0 1 False False
21521.566 3.7119991779327393 -0.8254750531962891 0.8429892698871058 -1.5883494816222132 -1.5708487669574183 2.141291618347168 0.0 0.0 0.0 -0.0 -0.0 -0.0 1 False False
21521.615999999998 3.7120578289031982 -0.8254779738238831 0.8429587523089808 -1.5882774792113246 -1.5707882086383265 2.1412928104400635 0.0 0.0 0.0 -0.0 -0.0 -0.0 1 False False
21521.665999999997 3.7120532989501953 -0.8254719537547608 0.8429496924029749 -1.588292738000387 -1.57074481645693 2.1412501335144043 0.0 0.0 0.0 -0.0 -0.0 -0.0 1 False False
21521.716 3.712104082107544 -0.8255247634700318 0.8430174032794397 -1.5882817707457484 -1.5708048979388636 2.1412839889526367 0.0 0.0 0.0 -0.0 -0.0 -0.0 1 False False
21521.766 3.712116003036499 -0.8254497808269043 0.8429515997516077 -1.5882774792113246 -1.5707691351519983 2.141295909881592 0.0 0.0 0.0 -0.0 -0.0 -0.0 1 False False
21521.816 3.712120532989502 -0.8254949611476441 0.8429854551898401 -1.5883366070189417 -1.5707691351519983 2.1413004398345947 0.0 0.0 0.0 -0.0 -0.0 -0.0 1 False False
21521.865999999998 3.712036609649658 -0.825495795612671 0.8430007139789026 -1.5883051357665003 -1.5707686583148401 2.141254425048828 0.0 0.0 0.0 -0.0 -0.0 -0.0 1 False False
21521.915999999997 3.712008237838745 -0.8254587215236207 0.8430097738849085 -1.588273664514059 -1.5707648436175745 2.1413047313690186 0.0 0.0 0.0 -0.0 -0.0 -0.0 1 False False
21521.966 3.712095260620117 -0.825437919502594 0.8429887930499476 -1.5882774792113246 -1.5707891623126429 2.14125919342041 0.0 0.0 0.0 -0.0 -0.0 -0.0 1 False False
21522.016 3.712116003036499 -0.8254794639400025 0.8429763952838343 -1.5882932148375453 -1.570784870778219 2.1412839889526367 0.0 0.0 0.0 -0.0 -0.0 -0.0 1 False False
21522.066 3.712095260620117 -0.825437919502594 0.8430288473712366 -1.5882889233031214 -1.5707929770099085 2.1413040161132812 0.0 0.0 0.0 -0.0 -0.0 -0.0 1 False False
21522.115999999998 3.7120907306671143 -0.8254779738238831 0.8429473082171839 -1.588332315484518 -1.5707810560809534 2.141230821609497 0.0 0.0 0.0 -0.0 -0.0 -0.0 1 False False
21522.165999999997 3.7120532989501953 -0.8254587215236207 0.8429759184466761 -1.5883132419981898 -1.5707886854754847 2.1412293910980225 0.0 0.0 0.0 -0.0 -0.0 -0.0 1 False False
21522.216 3.71205472946167 -0.8254706424525757 0.8429678122149866 -1.5882612667479457 -1.5707767645465296 2.141247034072876 0.0 0.0 0.0 -0.0 -0.0 -0.0 1 False False
21522.266 3.7120490074157715 -0.8254497212222596 0.8430007139789026 -1.5882889233031214 -1.5707648436175745 2.141254425048828 0.0 0.0 0.0 -0.0 -0.0 -0.0 1 False False
21522.316 3.712095022201538 -0.8254497212222596 0.8430007139789026 -1.5882607899107875 -1.5708168188678187 2.1413004398345947 0.0 0.0 0.0 -0.0 -0.0 -0.0 1 False False
21522.365999999998 3.7120742797851562 -0.8255291146091004 0.8429887930499476 -1.5882932148375453 -1.5707529226886194 2.141291618347168 0.0 0.0 0.0 -0.0 -0.0 2.754511969197174e-16 1 False False
21522.415999999997 3.7120578289031982 -0.8255002063563843 0.8429964224444788 -1.5883456669249476 -1.5707929770099085 2.1413090229034424 0.0 0.0 0.0 -0.0 -0.0 4.1841098658061e-35 1 False False
21522.466 3.7120907306671143 -0.8254572314075013 0.8429759184466761 -1.5883127651610316 -1.5707529226886194 2.1412265300750732 0.0 0.0 0.0 -0.0 -0.0 1.2614510652320914e-23 1 False False
21522.516 3.712062358856201 -0.825495795612671 0.8429587523089808 -1.5882932148375453 -1.5708406607257288 2.141295909881592 0.0 0.0 0.0 -0.0 -0.0 1.915575000732025e-42 1 False False
21522.566 3.7120368480682373 -0.8254423898509522 0.842992130910055 -1.588320871392721 -1.5707529226886194 2.1412501335144043 0.0 0.0 0.0 -0.0 -0.0 0.0 1 False False
21522.615999999998 3.7121100425720215 -0.8254706424525757 0.8429678122149866 -1.5882412395873011 -1.5708006064044397 2.141258955001831 0.0 0.0 0.0 -0.0 -0.0 0.0 1 False False
21522.665999999997 3.712123394012451 -0.8254706424525757 0.8429887930499476 -1.5882288418211878 -1.5707572142230433 2.141267776489258 0.0 0.0 0.0 -0.0 -0.0 0.0 1 False False
21522.716 3.712071180343628 -0.8255127233317872 0.8429878393756312 -1.5882774792113246 -1.570801083241598 2.1412763595581055 0.0 0.0 0.0 -0.0 -0.0 0.0 1 False False
21522.766 3.712095022201538 -0.8255039614490052 0.8429845015155237 -1.5882932148375453 -1.5707562605487269 2.141279697418213 0.0 0.0 0.0 -0.0 -0.0 0.0 1 False False
21522.816 3.7120862007141113 -0.8255290550044556 0.8429721037494105 -1.5882889233031214 -1.5707691351519983 2.1413378715515137 0.0 0.0 0.0 -0.0 -0.0 0.0 1 False False
21522.865999999998 3.7121024131774902 -0.8254993718913575 0.8429678122149866 -1.5883013210692347 -1.57074481645693 2.141357421875 0.0 0.0 0.0 -0.0 -0.0 0.0 1 False False
21522.915999999997 3.712029457092285 -0.8254869741252442 0.8429887930499476 -1.5882846317686976 -1.5707967917071741 2.1412546634674072 0.0 0.0 0.0 -0.0 -0.0 0.0 1 False False
21522.966 3.712045907974243 -0.825463132267334 0.8429477850543421 -1.5883056126036585 -1.5707967917071741 2.141383409500122 0.0 0.0 0.0 -0.0 -0.0 0.0 1 False False
21523.016 3.71207857131958 -0.8254543107799073 0.8429887930499476 -1.5883056126036585 -1.5708168188678187 2.1412501335144043 0.0 0.0 0.0 -0.0 -0.0 0.0 1 False False
21523.066 3.7120935916900635 -0.8255202931216736 0.8430255095111292 -1.5882607899107875 -1.570732895527975 2.1412765979766846 0.0 0.0 0.0 -0.0 -0.0 0.0 1 False False
21523.115999999998 3.7120087146759033 -0.8254380387118836 0.8429563681231897 -1.588313718835348 -1.5708406607257288 2.141263484954834 0.0 0.0 0.0 -0.0 -0.0 0.0 1 False False
21523.165999999997 3.7120611667633057 -0.8254380387118836 0.8430374304400843 -1.5882488689818324 -1.5708211104022425 2.141263484954834 0.0 0.0 0.0 -0.0 -0.0 0.0 1 False False
21523.216 3.7120537757873535 -0.8254913848689576 0.842959229146139 -1.5882889233031214 -1.5707767645465296 2.1413047313690186 0.0 0.0 0.0 -0.0 -0.0 0.0 1 False False
21523.266 3.7120699882507324 -0.825454370384552 0.8429763952838343 -1.588245531121725 -1.5708168188678187 2.1413159370422363 0.0 0.0 0.0 -0.0 -0.0 0.0 1 False False
21523.316 3.712045907974243 -0.8254692715457459 0.8429716269122522 -1.5882889233031214 -1.5707767645465296 2.14125919342041 0.0 0.0 0.0 -0.0 -0.0 0.0 1 False False
21523.365999999998 3.712045907974243 -0.8254869741252442 0.8429802099810999 -1.5882374248900355 -1.5708006064044397 2.1413040161132812 0.0 0.0 0.0 -0.0 -0.0 0.0 1 False False
21523.415999999997 3.7120742797851562 -0.8255245846560975 0.8430007139789026 -1.5883251629271449 -1.5707886854754847 2.141270875930786 0.0 0.0 0.0 -0.0 -0.0 0.0 1 False False
21523.466 3.7121036052703857 -0.8254707020572205 0.8429716269122522 -1.5882569752135218 -1.5707810560809534 2.141324758529663 0.0 0.0 0.0 -0.0 -0.0 0.0 1 False False
21523.516 3.712094783782959 -0.8254913252643128 0.8429759184466761 -1.5883251629271449 -1.5707967917071741 2.1412601470947266 0.0 0.0 0.0 -0.0 -0.0 0.0 1 False False
21523.566 3.7120537757873535 -0.825454370384552 0.8429520765887659 -1.5883218250670375 -1.570772949849264 2.1413421630859375 0.0 0.0 0.0 -0.0 -0.0 0.0 1 False False
21523.615999999998 3.7120327949523926 -0.8254913252643128 0.8429759184466761 -1.588268896142477 -1.5708006064044397 2.1413090229034424 0.0 0.0 0.0 -0.0 -0.0 0.0 1 False False
21523.665999999997 3.7121024131774902 -0.8254957360080262 0.8430050055133265 -1.5882731876769007 -1.5707529226886194 2.1412458419799805 0.0 0.0 0.0 -0.0 -0.0 0.0 1 False False
21523.716 3.7120742797851562 -0.8254869741252442 0.8429887930499476 -1.5883251629271449 -1.5707767645465296 2.141275405883789 0.0 0.0 0.0 -0.0 -0.0 0.0 1 False False
21523.766 3.7121036052703857 -0.8254957360080262 0.8430374304400843 -1.588297029534811 -1.5708168188678187 2.141295909881592 0.0 0.0 0.0 -0.0 -0.0 0.0 1 False False
21523.816 3.7120742797851562 -0.8254913252643128 0.8430331389056605 -1.5882817707457484 -1.5707648436175745 2.1413090229034424 0.0 0.0 0.0 -0.0 -0.0 0.0 1 False False
21523.865999999998 3.712099313735962 -0.8254869741252442 0.8429845015155237 -1.5882932148375453 -1.570801083241598 2.1413214206695557 0.0 0.0 0.0 -0.0 -0.0 0.0 1 False False
21523.915999999997 3.712045907974243 -0.8255245250514527 0.8430007139789026 -1.5882774792113246 -1.570784870778219 2.141230821609497 0.0 0.0 0.0 -0.0 -0.0 0.0 1 False False
21523.966 3.7120871543884277 -0.8255039018443604 0.8429439703570765 -1.5882650814452113 -1.5707529226886194 2.1413216590881348 0.0 0.0 0.0 -0.0 -0.0 0.0 1 False False
21524.016 3.712099313735962 -0.8255156439593812 0.8429964224444788 -1.5882774792113246 -1.570756737385885 2.141279697418213 0.0 0.0 0.0 -0.0 -0.0 0.0 1 False False
21524.066 3.7120492458343506 -0.8254425090602417 0.8429887930499476 -1.588297029534811 -1.5707805792437952 2.141312837600708 0.0 0.0 0.0 -0.0 -0.0 0.0 1 False False
21524.115999999998 3.7120537757873535 -0.8254661124995728 0.8430259863482874 -1.5882846317686976 -1.570756737385885 2.141295909881592 0.0 0.0 0.0 -0.0 -0.0 0.0 1 False False
21524.165999999997 3.712094783782959 -0.825396792297699 0.8429964224444788 -1.588280817071432 -1.5708168188678187 2.141287088394165 0.0 0.0 0.0 -0.0 -0.0 0.0 1 False False
21524.216 3.7120981216430664 -0.825473741894104 0.8429978529559534 -1.5882650814452113 -1.5707362333880823 2.1412501335144043 0.0 0.0 0.0 -0.0 -0.0 0.0 1 False False
21524.266 3.7120699882507324 -0.8254587811282654 0.8429964224444788 -1.5883056126036585 -1.570784870778219 2.1412839889526367 0.0 0.0 0.0 -0.0 -0.0 0.0 1 False False
21524.316 3.712143898010254 -0.8254305881312867 0.8429845015155237 -1.5883094273009242 -1.5707891623126429 2.1413004398345947 0.0 0.0 0.0 -0.0 -0.0 0.0 1 False False
21524.365999999998 3.7120742797851562 -0.8254718345454712 0.8429964224444788 -1.5882498226561488 -1.5708211104022425 2.141279697418213 0.0 0.0 0.0 -0.0 -0.0 0.0 1 False False
21524.415999999997 3.712050199508667 -0.8254382175258179 0.8430054823504847 -1.5882731876769007 -1.5707805792437952 2.1412546634674072 0.0 0.0 0.0 -0.0 -0.0 0.0 1 False False
21524.466 3.712136745452881 -0.8254499000361939 0.8429845015155237 -1.5883332691588343 -1.570784870778219 2.141263484954834 0.0 0.0 0.0 -0.0 -0.0 0.0 1 False False
21524.516 3.712106943130493 -0.8255039018443604 0.8429935614215296 -1.588252683679098 -1.5707891623126429 2.141275405883789 0.0 0.0 0.0 -0.0 -0.0 0.0 1 False False
21524.566 3.7120862007141113 -0.8255043786815186 0.8430174032794397 -1.588313718835348 -1.5708211104022425 2.141324758529663 0.0 0.0 0.0 -0.0 -0.0 0.0 1 False False
21524.615999999998 3.712106943130493 -0.8255255979350586 0.8430007139789026 -1.588285585443014 -1.570784870778219 2.141282796859741 0.0 0.0 0.0 -0.0 -0.0 0.0 1 False False
21524.665999999997 3.712083101272583 -0.8254913252643128 0.8429630438434046 -1.5883094273009242 -1.5708087126361292 2.141270875930786 0.0 0.0 0.0 -0.0 -0.0 0.0 1 False False
21524.716 3.7120444774627686 -0.8254382175258179 0.842971150075094 -1.5882932148375453 -1.570756737385885 2.141275405883789 0.0 0.0 0.0 -0.0 -0.0 0.0 1 True False
21524.766 3.712075710296631 -0.8254499596408387 0.8429802099810999 -1.5882932148375453 -1.5707724730121058 2.141267776489258 0.0 0.0 0.0 -0.0 -0.0 0.0 1 True False
21524.816 3.7120490074157715 -0.8254780930331727 0.8429964224444788 -1.5882774792113246 -1.5707805792437952 2.1412839889526367 0.0 0.0 0.0 -0.0 -0.0 0.0 1 True False
21524.865999999998 3.712062358856201 -0.825463132267334 0.8430336157428187 -1.5882932148375453 -1.5707967917071741 2.141279697418213 0.0 0.0 0.0 -0.0 -0.0 0.0 1 True False
21524.915999999997 3.7120862007141113 -0.8254869741252442 0.8429892698871058 -1.5882607899107875 -1.570801083241598 2.141312837600708 0.0 0.0 0.0 -0.0 -0.0 0.0 1 True False
21524.966 3.7121145725250244 -0.8254587811282654 0.842992130910055 -1.588273664514059 -1.5707886854754847 2.1412839889526367 0.0 0.0 0.0 -0.0 -0.0 0.0 1 True False
21525.016 3.712106943130493 -0.8255081933787842 0.8430126349078577 -1.5882731876769007 -1.5707891623126429 2.141263484954834 0.0 0.0 0.0 -0.0 -0.0 0.0 1 True False
21525.066 3.7120862007141113 -0.8254587811282654 0.8429258505450647 -1.588268896142477 -1.5708006064044397 2.141267776489258 0.0 0.0 0.0 -0.0 -0.0 0.0 1 True False
21525.115999999998 3.7120532989501953 -0.8254382175258179 0.8429673353778284 -1.588269372979635 -1.5707967917071741 2.1412200927734375 0.0 0.0 0.0 -0.0 -0.0 0.00021600874606519938 1 True False
21525.165999999997 3.712062358856201 -0.8255039018443604 0.8430097738849085 -1.5882817707457484 -1.5707925001727503 2.1411843299865723 0.0 0.0 0.0 -0.0 -0.0 -7.372441177722067e-05 1 True False
21525.216 3.712066888809204 -0.825504259472229 0.8430054823504847 -1.588308950463766 -1.5707967917071741 2.141279697418213 -5.333777419735952e-09 0.0 0.0 -0.0 0.0007213637582026422 -2.2100340221070658e-12 1 True False
21525.266 3.712050199508667 -0.8255081933787842 0.8429630438434046 -1.588292738000387 -1.5708254019366663 2.1413002014160156 3.440478030825034e-05 0.0 0.0 -0.0 1.352913022856228e-05 -7.23033888281612e-16 1 True False
21525.316 3.712137222290039 -0.8255307835391541 0.8430369536029261 -1.5883337459959925 -1.5707805792437952 2.141173839569092 0.029713422060012817 -0.012512843124568462 0.017759816721081734 -0.0 2.0550779130550412e-24 -0.012293524108827114 1 True False
21525.365999999998 3.7145540714263916 -0.8271329563907166 0.8455904165851038 -1.5889512501158656 -1.570829216633932 2.1397783756256104 0.07555293291807175 -0.060530368238687515 0.08952738344669342 -0.02526692859828472 3.124895575444342e-43 -0.048837415874004364 1 True False
21525.415999999997 3.7200677394866943 -0.8316690486720582 0.8520177046405237 -1.5907656155028285 -1.5707925001727503 2.1362969875335693 0.13959920406341553 -0.11850529164075851 0.15976223349571228 -0.04700902849435806 0.0 -0.08886856585741043 1 True False
21525.466 3.728442907333374 -0.8388902705958863 0.8615854422198694 -1.5935331783690394 -1.5708087126361292 2.130899667739868 0.19715021550655365 -0.1659279316663742 0.23094987869262695 -0.05470570549368858 8.075486402958632e-05 -0.12419526278972626 1 True False
21525.516 3.7400875091552734 -0.8484025162509461 0.8749507109271448 -1.5970941982665003 -1.5707524458514612 2.123617172241211 0.2567901611328125 -0.213227778673172 0.293702632188797 -0.08136926591396332 0.0001148200681200251 -0.15966467559337616 1 True False
21525.566 3.7545206546783447 -0.860472635631897 0.891451660786764 -1.6018034420409144 -1.5708211104022425 2.1144912242889404 0.32099655270576477 -0.26443395018577576 0.36845844984054565 -0.10108859091997147 9.813925134949386e-05 -0.20072226226329803 1 True False
21525.615999999998 3.772242784500122 -0.8749169272235413 0.911814037953512 -1.6075006924071253 -1.5707967917071741 2.1033942699432373 0.38184747099876404 -0.3145506680011749 0.4334562420845032 -0.11569629609584808 4.6507848310284317e-05 -0.24406388401985168 1 True False
21525.665999999997 3.79274582862854 -0.8919587296298523 0.9353159109698694 -1.6141768894591273 -1.5708087126361292 2.090230703353882 0.4416348338127136 -0.36370986700057983 0.5069872736930847 -0.14348925650119781 2.2316202375805005e-05 -0.2747429311275482 1 True False
21525.716 3.816692590713501 -0.9115421336940308 0.9623606840716761 -1.6217323742308558 -1.5707653204547327 2.0752041339874268 0.507703959941864 -0.41612160205841064 0.5734573006629944 -0.15873819589614868 7.471677963621914e-05 -0.3181981146335602 1 True False
21525.766 3.8433735370635986 -0.9334391516498108 0.993056599293844 -1.630104204217428 -1.5708168188678187 2.0582871437072754 0.569175124168396 -0.4630992114543915 0.6457170248031616 -0.1768045723438263 -5.467138180392794e-05 -0.35325154662132263 1 True False
21525.816 3.873145818710327 -0.9582353395274659 1.0270817915545862 -1.639707704583639 -1.5708168188678187 2.039447546005249 0.6207011938095093 -0.5164331197738647 0.7179084420204163 -0.19634146988391876 1.1042884384693252e-09 -0.40298259258270264 1 True False
21525.865999999998 3.906129837036133 -0.985119954948761 1.0647152105914515 -1.6503592930235804 -1.5708211104022425 2.0186593532562256 0.6889082193374634 -0.5714226365089417 0.7829889059066772 -0.21969649195671082 3.04325239994796e-05 -0.4354034960269928 1 True False
21525.915999999997 3.9420526027679443 -1.0149066013148804 1.1057575384723108 -1.661736627618307 -1.570801083241598 1.9958686828613281 0.7510151863098145 -0.624215304851532 0.8530109524726868 -0.2431279867887497 3.9073034286799836e-19 -0.4657140374183655 1 True False
21525.966 3.98105525970459 -1.0469188255122681 1.150362793599264 -1.6740919552245082 -1.5707686583148401 1.9712166786193848 0.8135844469070435 -0.6685033440589905 0.9205946326255798 -0.2669943869113922 5.935203008764077e-38 -0.5113275647163391 1 True False
21526.016 4.023230075836182 -1.0815985959819336 1.1984708944903772 -1.687725683251852 -1.5707524458514612 1.9447628259658813 0.8656246066093445 -0.7184954285621643 0.9863824844360352 -0.28246009349823 0.0 -0.555946409702301 1 True False
21526.066 4.068113803863525 -1.118571327333786 1.249836270009176 -1.7019216022887171 -1.5707290808307093 1.9162954092025757 0.9136021733283997 -0.7557440996170044 1.0433067083358765 -0.2891883850097656 -0.00010929876589216292 -0.5785849690437317 1 True False
21526.115999999998 4.11398983001709 -1.1563883584788819 1.3021934668170374 -1.7164894543089808 -1.5707767645465296 1.8872860670089722 0.9167138934135437 -0.7488614916801453 1.053299069404602 -0.28089261054992676 -0.00023099056852515787 -0.5830998420715332 1 True False
21526.165999999997 4.159755706787109 -1.1941236418536683 1.3545978705035608 -1.7312618694701136 -1.5707653204547327 1.8582788705825806 0.9148814678192139 -0.7522538900375366 1.0448715686798096 -0.30847349762916565 -0.000655741838272661 -0.5822102427482605 1 True False
21526.216 4.205575942993164 -1.2318633657744904 1.4068954626666468 -1.745838304559225 -1.5707886854754847 1.829248309135437 0.9186215400695801 -0.7557885050773621 1.0510931015014648 -0.3055596351623535 -0.0001088485587388277 -0.5751264095306396 1 True False
21526.266 4.251514911651611 -1.2695693236640473 1.4592631498919886 -1.7605048618712367 -1.5707891623126429 1.8003596067428589 0.9131842851638794 -0.7556532025337219 1.0489856004714966 -0.28502124547958374 -8.583825270030179e-18 -0.5754590034484863 1 True False
21526.316 4.29731559753418 -1.3071911197951813 1.5115235487567347 -1.7753597698607386 -1.5707929770099085 1.7713552713394165 0.9202798008918762 -0.7561176419258118 1.0386593341827393 -0.3089454174041748 0.0021640132181346416 -0.5765285491943359 1 True False
21526.365999999998 4.343000888824463 -1.3448896420053025 1.5637901465045374 -1.7896210155882777 -1.5708006064044397 1.7425167560577393 0.8951071500778198 -0.7346957325935364 1.036120891571045 -0.2783963680267334 3.353237965075806e-10 -0.5642861723899841 1 True False
21526.415999999997 4.386334419250488 -1.3806503278068085 1.6135247389422815 -1.8034903011717738 -1.5707805792437952 1.7149183750152588 0.8473689556121826 -0.6909348368644714 0.9644862413406372 -0.24417637288570404 0.0003843872982542962 -0.5223382711410522 1 True False
21526.466 4.426826477050781 -1.4140110623887558 1.6596530119525355 -1.816509862939352 -1.5708368460284632 1.6894583702087402 0.7766559720039368 -0.6355893611907959 0.8962839245796204 -0.24683448672294617 -0.0022522825747728348 -0.4954370856285095 1 True False
21526.516 4.464158058166504 -1.4447569710067292 1.7025774160968226 -1.8284765682616175 -1.5708525816546839 1.6658978462219238 0.7129423022270203 -0.5933904647827148 0.8205546736717224 -0.2353222668170929 -0.0027119480073451996 -0.45647090673446655 1 True False
21526.566 4.498565196990967 -1.4730683502605935 1.7416966597186487 -1.8391620121397914 -1.5708649794207972 1.6440677642822266 0.6552477478981018 -0.5342069864273071 0.7549644112586975 -0.1952812671661377 -0.000979879405349493 -0.41452518105506897 1 True False
21526.615999999998 4.529866695404053 -1.4986863520792504 1.7771905104266565 -1.8494235477843226 -1.5708406607257288 1.6243809461593628 0.594893217086792 -0.4858061969280243 0.6881915330886841 -0.1962089091539383 0.000337268749717623 -0.3798290193080902 1 True False
21526.665999999997 4.558119773864746 -1.5218239811113854 1.80934983888735 -1.8584042988219203 -1.570772949849264 1.6065562963485718 0.5319976806640625 -0.44026055932044983 0.6102889180183411 -0.173002690076828 -8.169683133019134e-05 -0.33725762367248535 1 True False
21526.716 4.583144664764404 -1.542685368364193 1.8381508032428187 -1.8663703403868617 -1.570784870778219 1.5906282663345337 0.47636809945106506 -0.3879740238189697 0.542695164680481 -0.1471853405237198 0.00019655284995678812 -0.2957525849342346 1 True False
21526.766 4.605138778686523 -1.56074805491183 1.8636139074908655 -1.8732882938780726 -1.5708492437945765 1.5767589807510376 0.4146850109100342 -0.3384948670864105 0.47011661529541016 -0.12585385143756866 -0.0001425731461495161 -0.26217880845069885 1 True False
21526.816 4.624309539794922 -1.5765587292113246 1.885207478200094 -1.87949862102651 -1.5708449522601526 1.5645796060562134 0.3488675355911255 -0.2854207158088684 0.4025115966796875 -0.10591591149568558 8.99123988347128e-05 -0.22538027167320251 1 True False
21526.865999999998 4.640314102172852 -1.5898462734618128 1.9032095114337366 -1.884787221948141 -1.570801083241598 1.5545796155929565 0.2926100492477417 -0.24491091072559357 0.3236461281776428 -0.09303820878267288 -1.5935401235901338e-17 -0.18208098411560059 1 True False
21526.915999999997 4.653273105621338 -1.600260396996969 1.9185155073748987 -1.888686319390768 -1.5708211104022425 1.5463500022888184 0.22764340043067932 -0.18459707498550415 0.25799089670181274 -0.08601223677396774 -0.0001247758191311732 -0.14494091272354126 1 True False
21526.966 4.66305685043335 -1.608445783654684 1.9295013586627405 -1.8919631443419398 -1.5707562605487269 1.5401653051376343 0.17032411694526672 -0.13730540871620178 0.19605755805969238 -0.054014626890420914 3.891513915732503e-05 -0.10683508962392807 1 True False
21527.016 4.669949531555176 -1.6140552959837855 1.9372075239764612 -1.894078870812887 -1.5707686583148401 1.5358394384384155 0.10673045367002487 -0.09162656217813492 0.12012968957424164 -0.03436192125082016 1.86975667020306e-05 -0.06580198556184769 1 True False
21527.066 4.673686981201172 -1.6171194515623988 1.94165546098818 -1.895299573937887 -1.5708006064044397 1.5335441827774048 0.045008234679698944 -0.03802615404129028 0.05607837438583374 -0.0155335059389472 1.230577709065983e-05 -0.029927825555205345 1 True False
21527.115999999998 4.6744890213012695 -1.617742200891012 1.9426239172564905 -1.8957511387267054 -1.5707648436175745 1.5329723358154297 -0.0002533171500544995 0.010891097597777843 0.014568458311259747 -0.029755324125289917 1.4602059145163437e-11 0.00033546320628374815 1 True False
21527.165999999997 4.6744608879089355 -1.6168481312193812 1.9443367163287562 -1.898398061791891 -1.570756737385885 1.5329854488372803 0.000458233873359859 0.03133316710591316 0.05558483675122261 -0.08266875147819519 2.2180566534479377e-30 5.597033202712912e-15 1 True False
21527.216 4.6744890213012695 -1.6145183048644007 1.9482772986041468 -1.9046694240965785 -1.5708487669574183 1.5329442024230957 0.0004858765460085124 0.06148594617843628 0.09896563738584518 -0.156522735953331 0.0 -0.0002665738866198808 1 True False
21527.266 4.674495697021484 -1.6108080349364222 1.9540637175189417 -1.9142376385130824 -1.570813004170553 1.532951831817627 0.000615907134488225 0.0891336053609848 0.13557502627372742 -0.2200969159603119 0.0 -0.00037311468622647226 1 True False
21527.316 4.674495697021484 -1.6056200466551722 1.9621852079974573 -1.9273911915221156 -1.570829216633932 1.5329530239105225 0.0003229106077924371 0.1152825579047203 0.18822988867759705 -0.29741019010543823 0.0 -0.0001963810354936868 1 True False
21527.365999999998 4.674503326416016 -1.5992971859373988 1.9724395910846155 -1.9440180263915003 -1.570829216633932 1.532948613166809 0.00017256397404707968 0.1387433558702469 0.2265699952840805 -0.35726264119148254 0.0 -0.00011055600043619052 1 True False
21527.415999999997 4.67459774017334 -1.5914041004576625 1.9851058165179651 -1.9640966854491175 -1.5708211104022425 1.5329573154449463 7.172459299908951e-05 0.16580848395824432 0.2635897397994995 -0.4343213140964508 0.0 -6.323950947262347e-05 1 True False
21527.466 4.674527645111084 -1.5823890171446742 1.9993355909930628 -1.9876204929747523 -1.570801083241598 1.5328994989395142 2.5195140717920205e-27 0.19590170681476593 0.31545424461364746 -0.5091807246208191 0.0 -2.8043247723985587e-09 1 True False
21527.516 4.674540042877197 -1.5720693073668421 2.01621658006777 -2.014916559258932 -1.570784870778219 1.5329201221466064 0.0 0.22507287561893463 0.3523104786872864 -0.5790592432022095 0.0 -4.259776665820549e-28 1 True False
21527.566 4.674504280090332 -1.5606915338760992 2.0340641180621546 -2.044164320031637 -1.570756737385885 1.5329114198684692 0.0 0.21691414713859558 0.34453538060188293 -0.5689861178398132 0.0 -0.0 1 True False
21527.615999999998 4.674553394317627 -1.5506736536375065 2.050363365803854 -2.0704084835448207 -1.570829216633932 1.5329244136810303 0.0 0.18976344168186188 0.29901543259620667 -0.497700035572052 0.0 -0.0 1 True False
21527.665999999997 4.674540042877197 -1.5419619039497157 2.064296070729391 -2.0933391056456507 -1.570784870778219 1.5329158306121826 0.0 0.17016899585723877 0.26733827590942383 -0.42282596230506897 0.0 -6.3052658189574895e-24 1 True False
21527.716 4.674535751342773 -1.5344518919340153 2.076512161885397 -2.1125699482359828 -1.5707805792437952 1.532977819442749 0.0 0.13523216545581818 0.21534164249897003 -0.35613715648651123 0.0 -9.5708685113385e-43 1 True False
21527.766 4.6745076179504395 -1.5283678111485024 2.08600885072817 -2.1285325489439906 -1.5707925001727503 1.5329158306121826 0.0 0.10753747075796127 0.17535819113254547 -0.27666810154914856 0.0 -0.0 1 True False
21527.816 4.674556255340576 -1.5236376833966752 2.0936501661883753 -2.140881200829977 -1.5707605520831507 1.5329320430755615 0.0 0.08295104652643204 0.134592667222023 -0.2139689028263092 0.0 -0.0 1 True False
21527.865999999998 4.674495697021484 -1.5201276515475293 2.099159065877096 -2.1496931515135707 -1.5707562605487269 1.532952904701233 0.0 0.05501578748226166 0.08881953358650208 -0.13900193572044373 0.0 2.1372406990849413e-05 1 True False
21527.915999999997 4.674569129943848 -1.5180976514569302 2.1025379339801233 -2.1551982365050257 -1.5708254019366663 1.5329190492630005 0.0 0.02703966572880745 0.04387654364109039 -0.07507136464118958 0.0 -3.504702084100586e-11 1 True False
21527.966 4.674516201019287 -1.5174102832427998 2.1036537329303187 -2.1569420299925746 -1.5707967917071741 1.5328950881958008 0.0 3.0119078928692034e-06 0.00019864026398863643 -0.004248685669153929 0.0 -5.323651790693275e-30 1 True False
21528.016 4.674519062042236 -1.517447092836239 2.1036623159991663 -2.1569625339903773 -1.5708368460284632 1.5329363346099854 0.0 0.0002404271363047883 0.0002817389031406492 -0.0001527753338450566 0.0 -0.0 1 True False
21528.066 4.674499034881592 -1.5174471077374 2.10370380083193 -2.156962057153219 -1.570784870778219 1.5328580141067505 0.0 0.00019302150758448988 0.00010838357411557809 -0.0004472712753340602 0.0 -0.0 1 True False
21528.115999999998 4.674531936645508 -1.5174427603236218 2.1036670843707483 -2.1570426426329554 -1.5707805792437952 1.5329070091247559 0.0 0.000245551869738847 6.421670695999637e-05 -0.0009508116636425257 0.0 -0.0 1 True False
21528.165999999997 4.674475193023682 -1.5174146194807072 2.1036461035357874 -2.157070299188131 -1.570796314870016 1.5329406261444092 0.0 0.0002055506920441985 3.814988303929567e-05 -0.0008080780389718711 0.0 -0.0 1 True False
21528.216 4.674531936645508 -1.517406777744629 2.103638474141256 -2.157069822350973 -1.5707805792437952 1.5329320430755615 0.0 0.00013219880929682404 1.847742236993355e-10 -0.00021516854758374393 0.0 -0.0 1 True False
21528.266 4.674572467803955 -1.517411084180214 2.1036370436297815 -2.1570903263487757 -1.5708048979388636 1.5329244136810303 0.0 0.0001293198438361287 6.804757140344009e-05 -0.00011651544627966359 0.0 -0.0 1 True False
21528.316 4.674519062042236 -1.5174351719072838 2.1036461035357874 -2.15708651165151 -1.5707886854754847 1.5328996181488037 0.0 0.00010743108578026295 1.5224851267703343e-05 -7.96745516709052e-05 0.0 -0.0 1 True False
21528.365999999998 4.674503326416016 -1.5173786220005532 2.103666130696432 -2.1570221386351527 -1.5708211104022425 1.5329039096832275 0.0 7.081243529682979e-05 3.582566702984622e-35 -6.761450777048594e-07 0.0 -0.0 1 True False
21528.415999999997 4.6744914054870605 -1.5173546907356759 2.1036298910724085 -2.1570664844908656 -1.570784870778219 1.5328865051269531 0.0 5.4162477376567e-32 0.0 -1.0270658988293725e-25 0.0 -0.0 1 True False
21528.466 4.674519062042236 -1.517378607099392 2.1036909262286585 -2.15708651165151 -1.5708211104022425 1.5329288244247437 0.0 0.0 0.0 -1.5414283107572988e-44 0.0 -0.0 1 True False
21528.516 4.674551963806152 -1.5173871752670784 2.1036909262286585 -2.1570621929564417 -1.570813004170553 1.5329244136810303 0.0 0.0 0.0 -0.0 0.0 -0.0 1 True False
21528.566 4.674478530883789 -1.5174861338785668 2.1035922209369105 -2.1571623287596644 -1.5707805792437952 1.5330008268356323 0.0 -0.0012059146538376808 -0.00047448062105104327 -0.0017191655933856964 5.3519326748130425e-09 0.0010006217053160071 1 True False
21528.615999999998 4.674531936645508 -1.5175034527531643 2.1035922209369105 -2.15716614345693 -1.5708087126361292 1.5328940153121948 0.0 0.0003805144224315882 0.0002628968795761466 -0.00015930052904877812 8.129597777256376e-28 -6.854975072201341e-05 1 True False
21528.665999999997 4.6744914054870605 -1.5174427789500733 2.103558365498678 -2.1572028599181117 -1.570784870778219 1.5329363346099854 0.0 0.0004776249988935888 0.0005792243755422533 6.68412321829237e-05 0.0 -3.511228351271711e-05 1 True True
21528.716 4.674564838409424 -1.517393709426262 2.103536907826559 -2.157208105126852 -1.5708168188678187 1.5328865051269531 0.0 0.00021794285567011684 0.0005158405401743948 0.0006869494100101292 0.0 -3.5402514185989276e-05 1 True True
21528.766 4.674499988555908 -1.5178718243590374 2.102879826222555 -2.154853483239645 -1.5708492437945765 1.532949447631836 0.0 -0.025311820209026337 -0.038252092897892 0.06435471028089523 0.0 -1.569367736892896e-13 1 True True
21528.816 4.674556255340576 -1.5200992722860356 2.0992000738727015 -2.1494323215880335 -1.5708211104022425 1.5329276323318481 0.0 -0.057136185467243195 -0.09697261452674866 0.15819460153579712 0.0 -1.6727545926187304e-07 1 True True
21528.865999999998 4.674511909484863 -1.523746122871973 2.0934413115130823 -2.140501161614889 -1.5707529226886194 1.5328950881958008 0.0 -0.08510306477546692 -0.13448494672775269 0.2109365016222 1.4493757583000644e-10 -2.540918202377759e-26 1 True True
21528.915999999997 4.674551963806152 -1.5285629902831097 2.085834805165426 -2.128064294854635 -1.5707648436175745 1.5328996181488037 0.0 -0.10928157716989517 -0.17675815522670746 0.29586607217788696 2.2016051492143943e-29 1.0921309412381675e-09 1 True True
21528.966 4.6745147705078125 -1.5347353231957932 2.0759733358966272 -2.111943384210104 -1.570829216633932 1.5329320430755615 0.0 -0.13371184468269348 -0.21855776011943817 0.3513485789299011 0.0 1.658949229923392e-28 1 True True
21529.016 4.674499988555908 -1.5421866861036797 2.0637481848346155 -2.092595716516012 -1.5708087126361292 1.532948613166809 0.0 -0.16174978017807007 -0.26615309715270996 0.4289582073688507 0.0 0.0 1 True True
21529.066 4.674544811248779 -1.5509504557451983 2.0497401396380823 -2.069754262963766 -1.5707524458514612 1.5329363346099854 0.0 -0.1912820041179657 -0.3116140365600586 0.4850834906101227 0.0 0.0 1 True True
21529.115999999998 4.674527645111084 -1.5611757173067708 2.033497158681051 -2.0431114635863246 -1.570813004170553 1.5329573154449463 0.0 -0.21559105813503265 -0.3488212823867798 0.5703918933868408 0.0 0.0 1 True True
21529.165999999997 4.674558162689209 -1.5723701916136683 2.015477005635397 -2.0138727627196253 -1.5708449522601526 1.5329363346099854 0.0 -0.2202294021844864 -0.358670175075531 0.562849760055542 0.0 0.0 1 True True
21529.216 4.674520969390869 -1.5827847919859828 1.9987123648272913 -1.986873289147848 -1.5707925001727503 1.532935619354248 0.0 -0.19842468202114105 -0.3141884505748749 0.5069370865821838 0.0 0.0 1 True True
21529.266 4.674531936645508 -1.5917798481383265 1.9845870176898401 -1.963400503198141 -1.5707486311541956 1.5329244136810303 0.0 -0.16600587964057922 -0.26919791102409363 0.43272820115089417 0.0 0.0 1 True True
21529.316 4.674516201019287 -1.5995546780028285 1.9720404783831995 -1.9434148273863734 -1.5708087126361292 1.5329573154449463 0.0 -0.13805225491523743 -0.22392447292804718 0.3665180802345276 0.0 0.0 1 True True
21529.365999999998 4.674479007720947 -1.605823656121725 1.9619563261615198 -1.9268690548338832 -1.5707524458514612 1.5328865051269531 0.0 -0.11346776783466339 -0.18331748247146606 0.3033560514450073 0.0 0.0 1 True True
21529.415999999997 4.674466609954834 -1.610809942285055 1.9539664427386683 -1.9138246975340785 -1.5707805792437952 1.5329854488372803 0.0 -0.08905085921287537 -0.14442963898181915 0.2427426278591156 0.0 0.0 1 True True
21529.466 4.67452335357666 -1.61456360439443 1.948089901600973 -1.904250284234518 -1.5707762877093714 1.532908320426941 0.0 -0.061446115374565125 -0.0968538448214531 0.1602288782596588 0.0 0.0 1 True True
21529.516 4.674514293670654 -1.6168157062926234 1.9442718664752405 -1.898224493066305 -1.5707686583148401 1.5329399108886719 0.0 -0.03528266027569771 -0.05319259315729141 0.08007805049419403 0.0 0.0 1 True True
21529.566 4.674519062042236 -1.6178509197630824 1.9427831808673304 -1.8956581554808558 -1.570801083241598 1.5329735279083252 0.0 -0.004461807198822498 -0.009362547658383846 0.019956696778535843 0.0 0.0 1 True True
21529.615999999998 4.673470973968506 -1.6174098453917445 1.942305866871969 -1.8955995045103968 -1.570784870778219 1.5329276323318481 -0.054067932069301605 0.014317519962787628 -0.024754106998443604 0.0018292281311005354 0.0 0.0 1 True True
21529.665999999997 4.669193744659424 -1.6162225208678187 1.9406068960772913 -1.8950921497740687 -1.5707772413836878 1.5329071283340454 -0.12691400945186615 0.03576790541410446 -0.04810231178998947 0.009345854632556438 0.0 0.0 1 True True
21529.716 4.661256790161133 -1.6138884029784144 1.93750507036318 -1.8945771656432093 -1.570772949849264 1.5329680442810059 -0.1934719681739807 0.06159873679280281 -0.07195845246315002 0.013650876469910145 0.0 0.003007928840816021 1 True True
21529.766 4.649722576141357 -1.6102291546263636 1.9332898298846644 -1.8938189945616664 -1.5707529226886194 1.5330822467803955 -0.26323720812797546 0.08204682171344757 -0.10630466043949127 0.014839443378150463 0.0 0.0025991068687289953 1 True True
21529.816 4.634829521179199 -1.6056319675841273 1.9275992552386683 -1.8927608929076136 -1.5707605520831507 1.5332108736038208 -0.32794681191444397 0.10427325963973999 -0.12198624759912491 0.02428661473095417 1.1578628118513734e-06 0.0037425425834953785 1 True True
21529.865999999998 4.616456031799316 -1.5998898945250453 1.9205806891070765 -1.891611715356344 -1.570784870778219 1.5332818031311035 -0.40391775965690613 0.12493206560611725 -0.15123426914215088 0.031285036355257034 1.7587944774361258e-25 0.0026254067197442055 1 True True
21529.915999999997 4.594612121582031 -1.5931207142271937 1.9122374693499964 -1.890010496179098 -1.5707648436175745 1.5335230827331543 -0.4705214202404022 0.14233745634555817 -0.18367034196853638 0.031693533062934875 2.6624670822171524e-44 0.0032965445425361395 1 True True
21529.966 4.569187164306641 -1.585302015344137 1.9026711622821253 -1.8882228336729945 -1.570829216633932 1.533684492111206 -0.5351132750511169 0.1671033352613449 -0.20349963009357452 0.038090724498033524 0.0 0.005307462532073259 1 True True
21530.016 4.540168285369873 -1.576428075829977 1.8917887846576136 -1.8862225017943324 -1.5707691351519983 1.5339248180389404 -0.6078508496284485 0.1913374364376068 -0.2351638823747635 0.040295325219631195 -1.3722805193219687e-20 0.005816929042339325 1 True True
21530.066 4.507837295532227 -1.566237478317209 1.8794496695147913 -1.8839713535704554 -1.5708611647235315 1.5341805219650269 -0.6837552785873413 0.21134136617183685 -0.25642168521881104 0.04196063056588173 -0.0015894919633865356 0.007957558147609234 1 True True
21530.115999999998 4.472064971923828 -1.555260390309133 1.8658712545977991 -1.8814131222166957 -1.5708168188678187 1.5344613790512085 -0.7562216520309448 0.2340060919523239 -0.2777859568595886 0.051160018891096115 -0.0011922677513211966 0.0064312247559428215 1 True True
21530.165999999997 4.432762145996094 -1.5431803439608593 1.8509138266192835 -1.8786341152586878 -1.5708282629596155 1.5347315073013306 -0.8228414058685303 0.25811100006103516 -0.3099313974380493 0.051166780292987823 -0.0021134084090590477 0.006296372041106224 1 True True
21530.216 4.3900346755981445 -1.5297268715551873 1.8348549048053187 -1.8756596050658167 -1.5708048979388636 1.5350960493087769 -0.8887603878974915 0.27156347036361694 -0.3382243514060974 0.061457786709070206 0.0001654264924582094 0.007472292985767126 1 True True
21530.266 4.3437700271606445 -1.515614205305912 1.817049805318014 -1.8723632297911585 -1.5707529226886194 1.5354098081588745 -0.9646795392036438 0.2983453571796417 -0.35709860920906067 0.060646574944257736 1.0686056839404046e-06 0.009782418608665466 1 True True
21530.316 4.293865203857422 -1.5001006957939644 1.7983382383929651 -1.868852277795309 -1.5707772413836878 1.5358057022094727 -1.0256582498550415 0.31641557812690735 -0.38998836278915405 0.07447284460067749 0.00020591831707861274 0.008413617499172688 1 True True
21530.365999999998 4.241682052612305 -1.4841890794089814 1.778344456349508 -1.8652755222716273 -1.5707724730121058 1.5361847877502441 -1.0478451251983643 0.32297006249427795 -0.4038160443305969 0.06674777716398239 1.3801770116315987e-18 0.008248312398791313 1 True True
21530.415999999997 4.189271450042725 -1.467716709976532 1.758810822163717 -1.861621995965475 -1.570784870778219 1.536652684211731 -1.0460742712020874 0.32365378737449646 -0.39847731590270996 0.06969494372606277 0.00024888021289370954 0.009004045277833939 1 True True
21530.466 4.136839389801025 -1.451776885693409 1.7388251463519495 -1.8579479656615199 -1.5707529226886194 1.5370326042175293 -1.0411982536315918 0.3250146508216858 -0.3990457355976105 0.06579110026359558 2.179033456494242e-13 0.006668107118457556 1 True True
21530.516 4.084582805633545 -1.4353178304484864 1.7189000288592737 -1.8544579945006312 -1.570813004170553 1.53741455078125 -1.0510222911834717 0.3198125958442688 -0.39871662855148315 0.0749528780579567 3.3099566991718095e-32 0.00863715074956417 1 True True
21530.566 4.032198429107666 -1.4193756443313141 1.6993029753314417 -1.8507286510863246 -1.5707805792437952 1.5378752946853638 -1.0468828678131104 0.32745689153671265 -0.39288488030433655 0.07200594991445541 -0.0003221565275453031 0.0075212824158370495 1 True True
21530.615999999998 3.979710578918457 -1.402983934884407 1.6791637579547327 -1.846931596795553 -1.5708044211017054 1.538208246231079 -1.0449868440628052 0.3252635896205902 -0.382137268781662 0.08623170107603073 -3.260501762269996e-05 0.007337865419685841 1 True True
21530.665999999997 3.9275243282318115 -1.386976735000946 1.65934926668276 -1.843389173547262 -1.570784870778219 1.5386110544204712 -1.053645372390747 0.32398319244384766 -0.400961697101593 0.07328852266073227 6.233249587239698e-05 0.008917933329939842 1 True True
21530.716 3.8751516342163086 -1.3705817323974152 1.6397598425494593 -1.8395096264281214 -1.5707972685443323 1.539048433303833 -1.0483393669128418 0.3255828320980072 -0.3963783085346222 0.0785459578037262 1.561766653806649e-15 0.008475273847579956 1 True True
21530.766 3.822739601135254 -1.354702190761902 1.6195715109454554 -1.8360258541502894 -1.570813004170553 1.5394141674041748 -1.0457605123519897 0.3241572678089142 -0.40518397092819214 0.07600843906402588 2.4394812558892198e-11 0.008333785459399223 1 True True
21530.816 3.770469903945923 -1.3382115227035065 1.6000078360186976 -1.8322178326048792 -1.5707724730121058 1.5398213863372803 -1.0502352714538574 0.3163280189037323 -0.3998885154724121 0.07714005559682846 3.7055761055434546e-30 0.007241541985422373 1 True True
21530.865999999998 3.7180233001708984 -1.3222584140351792 1.5800402800189417 -1.8286954365172328 -1.5707605520831507 1.5401923656463623 -1.0497549772262573 0.32681071758270264 -0.39782223105430603 0.07558494806289673 0.0 0.008620928041636944 1 True True
21530.915999999997 3.6656808853149414 -1.305851237182953 1.5600665251361292 -1.8249789677061976 -1.5708449522601526 1.5406442880630493 -1.0446370840072632 0.31669777631759644 -0.3998977243900299 0.07836265116930008 0.0 0.005919291637837887 1 True True
21530.966 3.6133434772491455 -1.2898771327785035 1.5404236952411097 -1.8213492832579554 -1.5708168188678187 1.5410263538360596 -1.0480411052703857 0.3271249532699585 -0.38990911841392517 0.07560479640960693 6.567742821061984e-05 0.007672735955566168 1 True True
21531.016 3.5609569549560547 -1.2735800308040162 1.5205143133746546 -1.8175045452513636 -1.5707925001727503 1.541446566581726 -1.0464680194854736 0.32402586936950684 -0.39118170738220215 0.07898588478565216 4.6405039029195905e-05 0.008844020776450634 1 True True
21531.066 3.5085856914520264 -1.2576021713069458 1.5004952589618128 -1.8140484295287074 -1.5707481543170374 1.541804552078247 -1.045228362083435 0.32451534271240234 -0.40015047788619995 0.06922075152397156 2.8216854843776673e-05 0.00815831869840622 1 True True
21531.115999999998 3.4580938816070557 -1.2415580612472077 1.4816015402423304 -1.8102132282652796 -1.570813004170553 1.5421879291534424 -0.9815263152122498 0.2990542948246002 -0.3729177713394165 0.06324107944965363 -7.203572048759821e-14 0.007170385681092739 1 True True
21531.165999999997 3.4108598232269287 -1.2273970705321808 1.4634140173541468 -1.8072358570494593 -1.5708001295672815 1.5425546169281006 -0.9066876173019409 0.2818458080291748 -0.3425387442111969 0.06712383776903152 4.302117304177955e-05 0.008326624520123005 1 True True
21531.216 3.367091655731201 -1.2134809655002137 1.4471810499774378 -1.8039857349791468 -1.5708325544940394 1.5429431200027466 -0.8395304679870605 0.2552884817123413 -0.32474014163017273 0.05801402032375336 8.343024819623679e-05 0.006066351663321257 1 True True
21531.266 3.3270018100738525 -1.2014023226550599 1.4316356817828577 -1.80133118251943 -1.5708254019366663 1.5432054996490479 -0.7709531784057617 0.24159543216228485 -0.2859271168708801 0.05684938654303551 0.00010590089368633926 0.005295522045344114 1 True True
21531.316 3.2904903888702393 -1.189892278318741 1.4179371039019983 -1.798727651635641 -1.570784870778219 1.5434764623641968 -0.696471095085144 0.213255375623703 -0.26855096220970154 0.049637842923402786 -2.422264992751888e-11 0.005765443202108145 1 True True
21531.365999999998 3.257150173187256 -1.1795524817756196 1.4053776899920862 -1.79628386119985 -1.5708001295672815 1.5437366962432861 -0.6290308237075806 0.19232425093650818 -0.24018719792366028 0.042224906384944916 8.917081868276e-05 0.005491804331541061 1 True True
21531.415999999997 3.2274980545043945 -1.1706729394248505 1.3941205183612269 -1.7943693600096644 -1.5707891623126429 1.5439119338989258 -0.5631830096244812 0.17643305659294128 -0.21443331241607666 0.04141712561249733 -1.1546544700380956e-21 0.004991887602955103 1 True True
21531.466 3.2012999057769775 -1.1624428790858765 1.3841236273394983 -1.7924839458861292 -1.5707643667804163 1.5440831184387207 -0.4874396026134491 0.1529303789138794 -0.18861150741577148 0.036104533821344376 -1.753921209887514e-40 0.00309241795912385 1 True True
21531.516 3.1787185668945312 -1.1553456646255036 1.3755014578448694 -1.7907735309996546 -1.570801083241598 1.5443267822265625 -0.4182277023792267 0.12696024775505066 -0.15157443284988403 0.030564505606889725 -0.0 0.0026232500094920397 1 True True
21531.566 3.1592864990234375 -1.1494352680495759 1.368246857319967 -1.7896095714964808 -1.5708368460284632 1.5444626808166504 -0.34671178460121155 0.10511468350887299 -0.1283094584941864 0.025271760299801826 -0.0 0.002579356078058481 1 True True
21531.615999999998 3.1435370445251465 -1.1445973080447693 1.3622115294085901 -1.7885366878905238 -1.5707925001727503 1.5445411205291748 -0.28461796045303345 0.08578566461801529 -0.10740582644939423 0.019446048885583878 0.00010025666415458545 0.0015526696806773543 1 True True
21531.665999999997 3.131425619125366 -1.1407627922347565 1.3577025572406214 -1.7875524959959925 -1.5707643667804163 1.544654369354248 -0.2093466967344284 0.06454726308584213 -0.08453890681266785 0.01444836612790823 6.34017851552926e-05 0.0018858576659113169 1 True True
21531.716 3.1227097511291504 -1.1381426316550751 1.354424301777975 -1.7869469128050746 -1.5707805792437952 1.5447337627410889 -0.1423422247171402 0.042980242520570755 -0.052444618195295334 0.013260355219244957 -3.538640885381028e-05 0.0009213151643052697 1 True True
21531.766 3.117372989654541 -1.1364723902991791 1.3522909323321741 -1.786739011804098 -1.5707276503192347 1.5447981357574463 -0.0697840228676796 0.022882822901010513 -0.02983751893043518 0.006102387793362141 -2.372525523242075e-05 0.0007242631400004029 1 True True
21531.816 3.1155776977539062 -1.1359112423709412 1.351717774068014 -1.7865597210326136 -1.570763889943258 1.5447447299957275 -0.0003366592281963676 0.0004036978352814913 0.0005094547523185611 0.0006542599876411259 -2.486042784393544e-13 0.00040240015368908644 1 True True
21531.865999999998 3.1156911849975586 -1.135352448826172 1.3527253309832972 -1.787999769250387 -1.5707610289203089 1.5447807312011719 -0.0024216496385633945 0.02415107749402523 0.046241480857133865 -0.07406865805387497 -3.7763055771225446e-32 0.00019887377857230604 1 True True
21531.915999999997 3.1157000064849854 -1.1337981087020417 1.3561533133136194 -1.793478628198141 -1.5707405249225062 1.5448100566864014 -0.0023180388379842043 0.041876040399074554 0.09457852691411972 -0.13957229256629944 -0.0 8.317073661601171e-05 1 True True
21531.966 3.1156718730926514 -1.1310556691936036 1.3623054663287562 -1.8021990261473597 -1.5707524458514612 1.5448013544082642 -0.0004270343924872577 0.06862951070070267 0.14768727123737335 -0.20527513325214386 -0.0 5.6885073718149215e-05 1 True True
21532.016 3.11566424369812 -1.1272402566722413 1.370885197316305 -1.8144113026061 -1.570801083241598 1.544785976409912 -0.00027727987617254257 0.08285824954509735 0.19310931861400604 -0.2760629653930664 -7.392422412522137e-05 2.2238233813692528e-15 1 True True
21532.066 3.115647792816162 -1.1223788422397156 1.3817876021014612 -1.8300591907896937 -1.5707967917071741 1.5448187589645386 -0.00015423139848280698 0.10519297420978546 0.24210426211357117 -0.347659170627594 -1.0231193670051653e-10 9.855315348528126e-12 1 True True
21532.115999999998 3.115598440170288 -1.116427944307663 1.3949716726886194 -1.8493310413756312 -1.5707643667804163 1.5448381900787354 -8.46921611810103e-05 0.12452425807714462 0.28596869111061096 -0.4255077540874481 -6.582204514415935e-05 1.4970243113371697e-30 1 True True
21532.165999999997 3.115582227706909 -1.1094414752772828 1.4106338659869593 -1.8718639812865199 -1.5707886854754847 1.5447981357574463 -2.8307145839789882e-05 0.15256041288375854 0.34159231185913086 -0.48535215854644775 -3.3612850529607385e-05 0.0 1 True True
21532.216 3.1155953407287598 -1.1014662247947236 1.4285128752337855 -1.8979951343932093 -1.570784870778219 1.544785976409912 -3.046839265152812e-05 0.15712164342403412 0.3527035713195801 -0.5361893177032471 5.566739127971232e-05 0.0 1 True True
21532.266 3.115546226501465 -1.09374292314563 1.4457548300372522 -1.9225384197630824 -1.5707767645465296 1.5448262691497803 0.0 0.14249011874198914 0.3205251693725586 -0.4537282884120941 1.972492893191404e-23 0.0 1 True True
21532.316 3.115607261657715 -1.0872662228396912 1.4601171652423304 -1.9439989529051722 -1.570829216633932 1.5448143482208252 0.0 0.11621129512786865 0.2669689953327179 -0.38632625341415405 2.995976116726459e-42 0.0 1 True True
21532.365999999998 3.115640163421631 -1.0817318719676514 1.4725506941424769 -1.961675306359762 -1.5708006064044397 1.5448057651519775 0.0 0.09983708709478378 0.22568707168102264 -0.3233792781829834 0.0 0.0 1 True True
21532.415999999997 3.115579128265381 -1.077279345398285 1.4824565092669886 -1.9759088955321253 -1.5708211104022425 1.5448143482208252 0.0 0.07995162904262543 0.16935043036937714 -0.24886585772037506 0.0 0.0 1 True True
21532.466 3.115562677383423 -1.0740180772593995 1.4898017088519495 -1.9867545566954554 -1.5707529226886194 1.5448100566864014 0.0 0.05881429463624954 0.12861181795597076 -0.1996792107820511 0.0 0.0 1 True True
21532.516 3.1155953407287598 -1.0716128212264557 1.4949095884906214 -1.9940859280028285 -1.5707691351519983 1.5447447299957275 0.0 0.03615022823214531 0.07401435077190399 -0.11387666314840317 0.0 0.0 1 True True
21532.566 3.115631341934204 -1.0707120460322876 1.4971655050860804 -1.9979597530760707 -1.5708087126361292 1.5447938442230225 0.0 0.007357384078204632 0.0291699580848217 -0.06009573116898537 0.0 0.0 1 True True
21532.615999999998 3.1155617237091064 -1.0706221026233216 1.4974711577044886 -1.998697896996969 -1.570824925099508 1.5448068380355835 0.0 0.0004738947609439492 0.002093320246785879 0.0006935812416486442 -1.4771991556680206e-17 0.0 1 True True
21532.665999999997 3.1155953407287598 -1.0703139466098328 1.4980352560626429 -1.9984847507872523 -1.570784870778219 1.5448230504989624 0.0 0.013071706518530846 0.017633503302931786 0.014466170221567154 2.395916531838793e-08 0.0 1 True True
21532.716 3.1155953407287598 -1.0700537127307435 1.4982088247882288 -1.9981867275633753 -1.5707967917071741 1.5447585582733154 0.0 -0.005082172807306051 -0.009671980515122414 -0.007322300691157579 1.5200088455458172e-05 -0.0034459042362868786 1 True True
21532.766 3.115598440170288 -1.0700446528247376 1.4982360045062464 -1.998246809045309 -1.5707891623126429 1.5447728633880615 5.312867870088667e-05 -0.003555217059329152 -0.005095237400382757 -0.0003555505536496639 -1.1100237744901158e-21 0.00026331801200285554 1 True False
21532.816 3.115562915802002 -1.0701455634883423 1.4981401602374476 -1.9983588657774867 -1.5707810560809534 1.5448100566864014 -7.693380377205017e-10 -0.0019167636055499315 -0.001191380899399519 -0.0005078762187622488 -1.6861263901834794e-40 0.00012786332808900625 1 True False
21532.865999999998 3.1156530380249023 -1.0702627462199708 1.4980366865741175 -1.9984857044615687 -1.570784870778219 1.5448068380355835 0.0 -0.001201377366669476 -0.0007334580295719206 -0.0005937108653597534 -0.0 5.083145879325457e-05 1 True False
21532.915999999997 3.1156115531921387 -1.0703199070743104 1.4980109373675745 -1.9984899959959925 -1.5707529226886194 1.5447325706481934 0.0 -6.297812797129154e-05 -0.00023110320034902543 -0.00020207176567055285 -0.0 3.456305057625286e-05 1 True False
21532.966 3.1156530380249023 -1.0705335301211854 1.4975526968585413 -1.998059412042135 -1.570784870778219 1.5448435544967651 0.0 -0.015770630910992622 -0.02663220465183258 0.024230150505900383 -0.0 7.549802017554289e-15 1 True False
21533.016 3.1155834197998047 -1.0715840023807068 1.4952672163592737 -1.9944492779173792 -1.570784870778219 1.5448262691497803 0.0 -0.027195338159799576 -0.06748770922422409 0.10898911952972412 -0.0 1.1468166967660393e-33 1 True False
21533.066 3.115598678588867 -1.0736774069121857 1.4904134909259241 -1.9872690639891566 -1.5707929770099085 1.5448100566864014 0.0 -0.05584811046719551 -0.1283777952194214 0.16939881443977356 -0.0 0.0 1 True False
21533.115999999998 3.115631341934204 -1.0769676131061097 1.4829910437213343 -1.9767810306944789 -1.5707810560809534 1.5447981357574463 0.0 -0.07287020981311798 -0.171037957072258 0.25650104880332947 -0.0 2.9719152570877256e-15 1 True False
21533.165999999997 3.1156444549560547 -1.081297294502594 1.4731600920306605 -1.9627205334105433 -1.5707648436175745 1.5447938442230225 0.0 -0.09875107556581497 -0.21532370150089264 0.318333238363266 -0.0 4.514346923556316e-34 1 True False
21533.216 3.1155736446380615 -1.08676032841716 1.4611409346209925 -1.945146223107809 -1.5708048979388636 1.5448219776153564 0.0 -0.1184980720281601 -0.2634638845920563 0.3867277503013611 -0.0 0.0 1 True False
21533.266 3.1156115531921387 -1.0933540028384705 1.4466026465045374 -1.9240242443480433 -1.5707686583148401 1.5448057651519775 1.2816046535135683e-07 -0.1410847008228302 -0.3172924816608429 0.4575413167476654 -0.0 0.0 1 True False
21533.316 3.115558385848999 -1.1010170143893738 1.4295161406146448 -1.8995195827879847 -1.5707805792437952 1.544801115989685 0.0 -0.1648033857345581 -0.3521285951137543 0.5313820242881775 -6.073984332033433e-05 0.0 1 True False
21533.365999999998 3.1156115531921387 -1.1089795392802735 1.41148549715151 -1.8734713993468226 -1.570784870778219 1.5448176860809326 -1.9756635216694463e-10 -0.15259632468223572 -0.3380556106567383 0.4962038993835449 -1.3745533574208157e-12 0.0 1 True False
21533.415999999997 3.1155834197998047 -1.1160765451243897 1.3959248701678675 -1.8505970440306605 -1.5707967917071741 1.544793725013733 0.0 -0.13254709541797638 -0.28468671441078186 0.4346676766872406 -2.0879492711565524e-31 0.0 1 True False
21533.466 3.115591049194336 -1.122093753223755 1.3825262228595179 -1.8311416111388148 -1.5708048979388636 1.5448100566864014 0.0 -0.10755663365125656 -0.23888830840587616 0.35852888226509094 -0.0 0.0 1 True False
21533.516 3.115631341934204 -1.1270612341216584 1.3713892141925257 -1.8152319393553675 -1.5707529226886194 1.5448262691497803 0.0 -0.08662401139736176 -0.20048756897449493 0.2887227237224579 -0.0 0.0 1 True False
21533.566 3.115598678588867 -1.1307840210250397 1.362953011189596 -1.8027759991087855 -1.5708654562579554 1.544817566871643 0.0 -0.06532517075538635 -0.15333525836467743 0.2180182784795761 -0.0 0.0 1 True False
21533.615999999998 3.1156530380249023 -1.133649693136551 1.3568218390094202 -1.793882509271139 -1.5708449522601526 1.5447847843170166 0.0 -0.043840713798999786 -0.09895654022693634 0.138901948928833 -0.0 0.0 1 True False
21533.665999999997 3.115579128265381 -1.1352373522571106 1.3531048933612269 -1.7884570560851039 -1.5707767645465296 1.5448144674301147 0.0 -0.02367684617638588 -0.05583762004971504 0.06823385506868362 -0.0 0.0 1 True False
21533.716 3.1155333518981934 -1.1358863872340699 1.351605240498678 -1.786567827264303 -1.570772949849264 1.5448472499847412 0.0 0.0003240432997699827 -9.689738362794742e-05 0.00460158521309495 -0.0 0.0 1 True False
21533.766 3.115631341934204 -1.1358775359443207 1.3516252676593226 -1.7866116962828578 -1.5707891623126429 1.5448144674301147 0.0 0.00010422488412586972 -0.00032328732777386904 -0.0001217902172356844 -0.0 0.0 1 False False
21533.816 3.115607261657715 -1.1359234017184754 1.3516457716571253 -1.786539693871969 -1.5708168188678187 1.5447903871536255 0.0 -7.006492321624085e-45 -7.66883313190192e-05 0.0004447312676347792 -0.0 0.0 1 False False
21533.865999999998 3.1156656742095947 -1.135855035190918 1.3516414801227015 -1.7865282497801722 -1.570813004170553 1.5448338985443115 0.0 0.0 -0.00015422589785885066 0.0009850033093243837 -0.0 0.0 1 False False
21533.915999999997 3.11564040184021 -1.1358907979777833 1.3516624609576624 -1.7864638767638148 -1.5707967917071741 1.54478919506073 0.0 0.0 -0.00020970181503798813 0.0007708346820436418 -0.0 0.0 1 False False
21533.966 3.115640163421631 -1.1359040302089234 1.3515833059894007 -1.7864638767638148 -1.570784870778219 1.5448219776153564 0.0 0.0 -0.00015956109564285725 0.00016709748888388276 -0.0 0.0 1 False False
21534.016 3.115574359893799 -1.1359397929957886 1.3516038099872034 -1.7864886722960414 -1.570796314870016 1.5448263883590698 0.0 -0.0002445871941745281 -0.00011993241787422448 9.527440124657005e-05 -0.0 0.0 1 False False
21534.066 3.11564040184021 -1.1359159809402009 1.3516667524920862 -1.7864519558348597 -1.5707605520831507 1.5448354482650757 0.0 -0.0001331445964751765 -8.996700489660725e-05 6.611007847823203e-05 -0.0 0.0 1 False False
21534.115999999998 3.115598201751709 -1.1359146398356934 1.3516338507281702 -1.7865120373167933 -1.5707967917071741 1.5447814464569092 0.0 -0.00011402896052459255 -3.6936581571112015e-10 2.2756221724811522e-17 -0.0 0.0 1 False False
21534.165999999997 3.1156492233276367 -1.1358849567225953 1.3516796270953577 -1.7865282497801722 -1.570801083241598 1.5448428392410278 0.0 -8.376852929359302e-05 -2.9791395045331015e-11 3.456675519752549e-36 -0.0 0.0 1 False False
21534.216 3.1155998706817627 -1.135870025759079 1.3516457716571253 -1.7865363560118617 -1.5707891623126429 1.5448428392410278 0.0 -6.036019476596266e-05 -7.010275827477762e-41 0.0 -0.0 0.0 1 False False
21534.266 3.1156160831451416 -1.1358832877925416 1.3516424337970179 -1.7865201435484828 -1.5708048979388636 1.5448309183120728 0.0 -3.2687083148630336e-05 -0.0 0.0 -0.0 0.0 1 False False
21534.316 3.115644693374634 -1.1358700555614014 1.3516338507281702 -1.7864724598326625 -1.570784870778219 1.5448144674301147 0.0 -1.9602371853869855e-39 -0.0 0.0 -0.0 0.0 1 False False
21534.365999999998 3.1156206130981445 -1.1359278720668335 1.3516257444964808 -1.7864757976927699 -1.570784870778219 1.5448191165924072 0.0 0.0 -0.0 0.0 -0.0 0.0 1 False False
21534.415999999997 3.115664482116699 -1.1359642905047913 1.3515966574298304 -1.7865163288512171 -1.5707925001727503 1.5448070764541626 0.0 0.0 -0.0 0.0 -0.0 0.0 1 False False
21534.466 3.115631341934204 -1.1358493131450196 1.3516095320331019 -1.7864638767638148 -1.5708087126361292 1.5448100566864014 0.0 0.0 -0.0 0.0 -0.0 0.0 1 False False
21534.516 3.1155834197998047 -1.1359397333911438 1.351638142262594 -1.7865282497801722 -1.5707686583148401 1.5447847843170166 0.0 0.0 -0.0 0.0 -0.0 0.0 1 False False
21534.566 3.115593910217285 -1.1359145802310486 1.351617161427633 -1.7864600620665492 -1.5707529226886194 1.544805645942688 0.0 0.0 -0.0 0.0 -0.0 0.0 1 False False
21534.615999999998 3.115631341934204 -1.1359322232059021 1.3515966574298304 -1.7864681682982386 -1.5708087126361292 1.5447814464569092 -4.478524691683713e-29 -6.445972935894159e-44 -0.0 0.0 -0.0 0.0 1 False False
21534.665999999997 3.11564040184021 -1.1358359020999451 1.351593319569723 -1.7864920101561488 -1.5707967917071741 1.5447770357131958 0.0 0.0 -0.0 0.0 -0.0 0.0 1 False False
21534.716 3.11556077003479 -1.1359278720668335 1.351605240498678 -1.7864929638304652 -1.5707767645465296 1.544844388961792 0.0 0.0 -0.0 0.0 -0.0 0.0 1 True False
21534.766 3.115581750869751 -1.135898308163025 1.3516338507281702 -1.7864681682982386 -1.570824925099508 1.5448144674301147 0.0 0.0 -0.0 0.0 -0.0 0.0 1 True False
21534.816 3.1155953407287598 -1.1358907979777833 1.3516619841205042 -1.7864600620665492 -1.570813004170553 1.5448144674301147 0.0 0.0 -0.0 0.0 -0.0 0.0 1 True False
21534.865999999998 3.115644931793213 -1.1358938974193116 1.3515966574298304 -1.7864600620665492 -1.5708335081683558 1.5448472499847412 0.0 0.0 -0.0 0.0 -0.0 0.0 1 True False
21534.915999999997 3.115532398223877 -1.1359234315207978 1.3516619841205042 -1.7864638767638148 -1.5708416144000452 1.5448472499847412 0.0 0.0 -0.0 0.0 -0.0 0.0 1 True False
21534.966 3.115682363510132 -1.1358701449683686 1.3515847365008753 -1.7864886722960414 -1.5707805792437952 1.5447651147842407 0.0 0.0 -0.0 0.0 -0.0 0.0 1 True False
21535.016 3.115631341934204 -1.1358612340739747 1.351621452962057 -1.7864638767638148 -1.570853058491842 1.5448026657104492 0.0 0.0 -2.5585848106857156e-08 0.0 -0.0 0.0 1 True False
21535.066 3.115644931793213 -1.135890857582428 1.351605240498678 -1.786504407922262 -1.5707767645465296 1.5448293685913086 0.0 0.0 3.8456270979919485e-29 0.0 -0.0 0.0 1 True False
21535.115999999998 3.1155998706817627 -1.1359397929957886 1.3516457716571253 -1.7865001163878382 -1.5707929770099085 1.5447666645050049 0.0 0.0 0.0 0.0 -0.0 1.1481128240120597e-05 1 True False
21535.165999999997 3.115656852722168 -1.135911540394165 1.3515966574298304 -1.7864886722960414 -1.5708091894732874 1.5448191165924072 0.0 0.0 0.0 0.0 -0.0 -0.0013010422699153423 1 True False
21535.216 3.115577459335327 -1.135911540394165 1.3516338507281702 -1.7864724598326625 -1.5707648436175745 1.5448428392410278 0.0 0.0 0.0 0.0 -2.848678093414492e-07 0.0005854176124557853 1 True False
21535.266 3.115581750869751 -1.1359265607646485 1.3515804449664515 -1.786480566064352 -1.5707925001727503 1.5448144674301147 0.0 0.0 0.0 0.0 -1.6684974513125894e-09 5.881463535344579e-20 1 True False
21535.316 3.1156117916107178 -1.1359309715083619 1.3516619841205042 -1.786504407922262 -1.570772949849264 1.5448219776153564 0.0 0.0 0.0 0.0 -2.534451584440688e-28 8.933953135930513e-39 1 True False
21535.365999999998 3.116499662399292 -1.136335389023163 1.3519724051104944 -1.7865239582457484 -1.5708325544940394 1.5447756052017212 0.05197189003229141 -0.021944349631667137 0.021077977493405342 -0.002815530402585864 -0.00028860566089861095 -0.00611401442438364 1 True False
21535.415999999997 3.120844841003418 -1.1379846197417756 1.3538826147662562 -1.7868954143919886 -1.5708406607257288 1.5442380905151367 0.1269432157278061 -0.04469170421361923 0.05977841094136238 -0.009053856134414673 7.799309969414026e-05 -0.013876221142709255 1 True False
21535.466 3.1287477016448975 -1.140996442442276 1.357513729725973 -1.787400861779684 -1.5707967917071741 1.543337106704712 0.1919035017490387 -0.07617268711328506 0.09067149460315704 -0.015388911589980125 9.926626808010042e-05 -0.022615550085902214 1 True False
21535.516 3.1401619911193848 -1.1454236668399354 1.362830940877096 -1.7882424793639125 -1.5708087126361292 1.542022943496704 0.25992003083229065 -0.09991750866174698 0.12143344432115555 -0.018168194219470024 0.00010236753587378189 -0.029893483966588974 1 True False
21535.566 3.1550238132476807 -1.1512918037227173 1.3697007338153284 -1.789319177667135 -1.5708735624896448 1.540329098701477 0.3271898329257965 -0.12701578438282013 0.1474517434835434 -0.019095366820693016 0.00026761999470181763 -0.03832024708390236 1 True False
21535.615999999998 3.1733131408691406 -1.1582431656173249 1.378199879323141 -1.7907663784422816 -1.5707891623126429 1.5382169485092163 0.4009091258049011 -0.15174680948257446 0.18338382244110107 -0.03590177372097969 7.018498581601307e-05 -0.04585490748286247 1 True False
21535.665999999997 3.1949961185455322 -1.166587458258011 1.3883040587054651 -1.7923690281310023 -1.570813004170553 1.5357922315597534 0.4686664640903473 -0.17841479182243347 0.213223397731781 -0.037808895111083984 4.644864748115651e-05 -0.049616992473602295 1 True False
21535.716 3.220587968826294 -1.1764406126788636 1.3997891584979456 -1.7941161594786585 -1.5707362333880823 1.532888650894165 0.5371254086494446 -0.2151116281747818 0.24695239961147308 -0.03518758341670036 -2.1032758867889356e-12 -0.062005415558815 1 True False
21535.766 3.249330759048462 -1.187652902012207 1.4131477514850062 -1.7961846790709437 -1.570772949849264 1.5296199321746826 0.6154096722602844 -0.23864711821079254 0.2805246114730835 -0.03593277558684349 0.0018362831324338913 -0.06976059824228287 1 True False
21535.816 3.281578302383423 -1.1999907058528443 1.4278753439532679 -1.7987209759154261 -1.5707925001727503 1.5259666442871094 0.6851112246513367 -0.26324334740638733 0.31063076853752136 -0.05357639491558075 -0.00012318418885115534 -0.07909253239631653 1 True False
21535.865999999998 3.3172225952148438 -1.2138753694346924 1.444458309804098 -1.8012286625304164 -1.5707443396197718 1.5219565629959106 0.7504616975784302 -0.2895570993423462 0.3469598591327667 -0.04945337772369385 4.546664422377944e-05 -0.08837652951478958 1 True False
21535.915999999997 3.3565125465393066 -1.2291217011264344 1.4623578230487269 -1.8040510616698207 -1.570829216633932 1.5174514055252075 0.823028028011322 -0.3203311264514923 0.3737064003944397 -0.059964556246995926 4.9166705711478157e-17 -0.09450481832027435 1 True False
21535.966 3.3993725776672363 -1.245623843078949 1.4822052160846155 -1.807204385797018 -1.570813004170553 1.5126646757125854 0.88409823179245 -0.34187793731689453 0.4052405059337616 -0.06272334605455399 4.2657477024476975e-05 -0.09982975572347641 1 True False
21536.016 3.4456052780151367 -1.2635646325400849 1.503094498311178 -1.8106819591917933 -1.570829216633932 1.5073660612106323 0.963179886341095 -0.3720127046108246 0.44179248809814453 -0.0717846229672432 0.00010061043576570228 -0.10883519798517227 1 True False
21536.066 3.495326280593872 -1.2826909583858033 1.5261696020709437 -1.8143865070738734 -1.570853058491842 1.5017081499099731 1.025758147239685 -0.3980051279067993 0.46775326132774353 -0.07777570188045502 1.145548004294805e-16 -0.11743472516536713 1 True False
21536.115999999998 3.5475332736968994 -1.302756742840149 1.5503209272967737 -1.81785311321401 -1.5707362333880823 1.4957988262176514 1.0481584072113037 -0.3996024429798126 0.4868447184562683 -0.07434259355068207 -6.039569907049776e-17 -0.11683867871761322 1 True False
21536.165999999997 3.599956512451172 -1.323371322160103 1.5740693251239222 -1.8220106563963832 -1.5707610289203089 1.4898509979248047 1.0497652292251587 -0.40802961587905884 0.4804917871952057 -0.06125815585255623 -9.174119975752211e-36 -0.11926853656768799 1 True False
21536.216 3.6522116661071777 -1.3433121901801606 1.598274056111471 -1.825688978234762 -1.5707886854754847 1.483914852142334 1.0457075834274292 -0.4090018570423126 0.4731251299381256 -0.090668223798275 -0.00013930859859101474 -0.11771751940250397 1 True False
21536.266 3.7045812606811523 -1.363463283782341 1.6223886648761194 -1.8294741115965785 -1.5707886854754847 1.4780120849609375 1.049322247505188 -0.39926937222480774 0.48752450942993164 -0.07542822510004044 -8.973180229077116e-05 -0.1167556494474411 1 True False
21536.316 3.757063388824463 -1.3839240831187745 1.6463483015643519 -1.8333622417845667 -1.5707686583148401 1.4720045328140259 1.0476410388946533 -0.4019384980201721 0.4819916784763336 -0.08555005490779877 -1.7182521791636184e-15 -0.12015137076377869 1 True False
21536.365999999998 3.80948543548584 -1.4040024888566514 1.6706212202655237 -1.83715881923818 -1.5708282629596155 1.4660563468933105 1.0452319383621216 -0.4024064838886261 0.4823126792907715 -0.07392720878124237 -5.686820804839954e-05 -0.11665739119052887 1 True False
21536.415999999997 3.8617136478424072 -1.4243075114539643 1.694559399281637 -1.8412658176817835 -1.5707686583148401 1.4601963758468628 1.0522111654281616 -0.4055233895778656 0.4823188781738281 -0.08091206848621368 -4.395786135091839e-08 -0.117701955139637 1 True False
21536.466 3.913975477218628 -1.4446449887803574 1.7183902899371546 -1.8448454342284144 -1.5707886854754847 1.454243540763855 1.0514743328094482 -0.40796560049057007 0.476553738117218 -0.07357365638017654 -6.677207591282302e-27 -0.11722581833600998 1 True False
21536.516 3.966404676437378 -1.4645573657802125 1.7428835074054163 -1.848583837548727 -1.5708335081683558 1.4482519626617432 1.0435327291488647 -0.40043720602989197 0.48386627435684204 -0.08118024468421936 8.46518923935946e-06 -0.12160176783800125 1 True False
21536.566 4.018852233886719 -1.4850559917143364 1.7667511145221155 -1.8523723087706507 -1.570801083241598 1.4422526359558105 1.0463074445724487 -0.39924129843711853 0.4868859052658081 -0.06563355028629303 1.2858642789318508e-24 -0.11967288702726364 1 True False
21536.615999999998 4.071099758148193 -1.5055417281440278 1.790616814290182 -1.85650696376943 -1.570772949849264 1.4363349676132202 1.0525422096252441 -0.4080277979373932 0.4768652617931366 -0.07009302079677582 1.9478048654114957e-43 -0.11681937426328659 1 True False
21536.665999999997 4.123559951782227 -1.5253784519485016 1.81492787996401 -1.8599292240538539 -1.570853058491842 1.430467128753662 1.0406492948532104 -0.4117676019668579 0.47771498560905457 -0.08220823854207993 3.2325820029655006e-06 -0.11773115396499634 1 True False
21536.716 4.174745082855225 -1.5452842146954318 1.8385117689715784 -1.8637901745238246 -1.570801083241598 1.42464280128479 0.9890924096107483 -0.37551262974739075 0.4599848687648773 -0.07728645950555801 4.3760880430454563e-07 -0.11336721479892731 1 True False
21536.766 4.222522735595703 -1.5638309878161927 1.8604338804828089 -1.8672486744322718 -1.5707772413836878 1.4192161560058594 0.9203267693519592 -0.35584303736686707 0.4276981055736542 -0.06019971892237663 -0.0001791915128706023 -0.10597582161426544 1 True False
21536.816 4.266864776611328 -1.5809270344176234 1.8805883566485804 -1.8706227741637171 -1.5708377997027796 1.4141569137573242 0.8522904515266418 -0.3320907652378082 0.39065101742744446 -0.06420771032571793 -6.401653096510529e-10 -0.09817275404930115 1 True False
21536.865999999998 4.307692527770996 -1.596694131890768 1.899320427571432 -1.8735529385008753 -1.5708006064044397 1.4095453023910522 0.7779829502105713 -0.3011418581008911 0.3557567894458771 -0.05872533842921257 0.00011561640712898225 -0.08730418980121613 1 True False
21536.915999999997 4.344986915588379 -1.6110273800291957 1.9167912642108362 -1.8763047657408656 -1.570857350026266 1.4052799940109253 0.7121118903160095 -0.27880924940109253 0.3300139307975769 -0.04824557155370712 -0.00014187097258400172 -0.08010634779930115 1 True False
21536.966 4.378749370574951 -1.624263425866598 1.932093922291891 -1.8788148365416468 -1.5708416144000452 1.4014912843704224 0.6489121913909912 -0.2499130517244339 0.2918497622013092 -0.044892068952322006 0.0013308784691616893 -0.07469188421964645 1 True False
21537.016 4.409231662750244 -1.6359311542906703 1.9461186567889612 -1.8810435734190882 -1.5708335081683558 1.3979852199554443 0.5724954605102539 -0.22372019290924072 0.26271116733551025 -0.042731884866952896 -1.9580976839961295e-08 -0.0658637210726738 1 True False
21537.066 4.436190128326416 -1.6462799511351527 1.9584186712848108 -1.8829623661436976 -1.570784870778219 1.3949612379074097 0.5027105212211609 -0.19973702728748322 0.22915883362293243 -0.036138180643320084 -5.705380203835375e-07 -0.05748326703906059 1 True False
21537.115999999998 4.45947790145874 -1.655381818810934 1.969170395527975 -1.8845740757384242 -1.5707767645465296 1.392321228981018 0.4366329312324524 -0.1656614989042282 0.20784328877925873 -0.02878843992948532 0.0022232430055737495 -0.046844448894262314 1 True False
21537.165999999997 4.479135990142822 -1.663048883477682 1.9784439245807093 -1.886071344415182 -1.570784870778219 1.3900872468948364 0.36880478262901306 -0.1356930136680603 0.16728153824806213 -0.02120920456945896 -7.599730452056974e-05 -0.04353032261133194 1 True False
21537.216 4.495591640472412 -1.669356485406393 1.985892120991842 -1.8873373470702113 -1.5707486311541956 1.3882492780685425 0.2904816269874573 -0.1145845353603363 0.12920546531677246 -0.020936474204063416 -0.000394892122130841 -0.03355953097343445 1 True False
21537.266 4.508415699005127 -1.6742621860899867 1.9917357603656214 -1.8883191547789515 -1.570801083241598 1.3867483139038086 0.2265547513961792 -0.08775250613689423 0.10157355666160583 -0.01869325153529644 -7.906741666374728e-05 -0.027316007763147354 1 True False
21537.316 4.517920017242432 -1.6779338322081507 1.9960053602801722 -1.8890253506102503 -1.5707443396197718 1.385746717453003 0.15584148466587067 -0.05876999720931053 0.07495824992656708 -0.008771893568336964 -4.5645341742783785e-05 -0.01838165521621704 1 True False
21537.365999999998 4.523849010467529 -1.6802722416319789 1.9987476507769983 -1.8892961941161097 -1.5708087126361292 1.3850444555282593 0.08449569344520569 -0.03279322013258934 0.03824883699417114 -0.005708454642444849 -3.2084473787108436e-05 -0.009649369865655899 1 True False
21537.415999999997 4.5262908935546875 -1.681255956689352 1.9998939673053187 -1.8894926510252894 -1.5707967917071741 1.3848085403442383 0.015232116915285587 -0.0033460159320384264 0.005814199801534414 -0.0004995035124011338 -2.297959698954537e-19 -0.0006822799914516509 1 True False
21537.466 4.526261806488037 -1.6807543239989222 2.0006821791278284 -1.89079012493276 -1.5708048979388636 1.3847639560699463 -3.6295063229344426e-20 0.017732808366417885 0.03514529764652252 -0.039265524595975876 -2.6297423220007212e-15 -0.0030142366886138916 1 True False
21537.516 4.526307106018066 -1.6791726551451625 2.003551785145895 -1.8952847919859828 -1.5708006064044397 1.3847460746765137 0.0008822775562293828 0.04802330583333969 0.0789729431271553 -0.12697318196296692 -3.99458372924101e-34 -0.0005259382305666804 1 True False
21537.566 4.526269435882568 -1.6760913334288539 2.008625332509176 -1.9032966099181117 -1.5707925001727503 1.38473379611969 0.0005600839504040778 0.07735288143157959 0.11915669590234756 -0.2080739587545395 -0.0 -0.0001878690382000059 1 True False
21537.615999999998 4.526334762573242 -1.6716529331602992 2.0157111326800745 -1.9148403606810511 -1.5708611647235315 1.384713053703308 0.0006834935629740357 0.10545860230922699 0.15946120023727417 -0.26015138626098633 -0.0 -0.0001076228654710576 1 True False
21537.665999999997 4.526288986206055 -1.665753027001852 2.0249274412738245 -1.9298659763731898 -1.5708087126361292 1.3847788572311401 0.00017962156562134624 0.12807726860046387 0.2100442349910736 -0.32830333709716797 -0.0 -7.541405648225918e-05 1 True False
21537.716 4.526309490203857 -1.6585966549315394 2.0363033453570765 -1.9484406910338343 -1.5707524458514612 1.3847490549087524 0.00014384726819116622 0.15232956409454346 0.2526632845401764 -0.4059334993362427 4.997787982574664e-05 -2.6966723667455617e-13 1 True False
21537.766 4.526291847229004 -1.6502276859679164 2.0499752203570765 -1.970497270623678 -1.5707967917071741 1.384751558303833 0.00010104287503054366 0.178146094083786 0.290557861328125 -0.47226375341415405 1.167640988560657e-23 -4.096252511150118e-32 1 True False
21537.816 4.526309490203857 -1.640458723107809 2.065672222767965 -1.9958940945067347 -1.5707648436175745 1.3847382068634033 6.883889000164345e-05 0.2097528874874115 0.34069982171058655 -0.5465131998062134 1.7740438558352184e-42 -0.00010031180136138573 1 True False
21537.865999999998 4.526333332061768 -1.6291882000365199 2.0836289564715784 -2.0249272785582484 -1.5708335081683558 1.3847293853759766 1.3751714384563546e-30 0.2348746806383133 0.37663689255714417 -0.6088314056396484 0.0 -3.8989229359495047e-23 1 True False
21537.915999999997 4.526337623596191 -1.6183487377562464 2.1012571493731897 -2.053784509698385 -1.570801083241598 1.3847293853759766 1.6519212038577373e-20 0.2084401696920395 0.34023600816726685 -0.5350675582885742 1.0044957576837987e-07 -5.921887310236677e-42 1 True False
21537.966 4.526346206665039 -1.608682771722311 2.1168373266803187 -2.0791226826109828 -1.570813004170553 1.3847085237503052 -1.9938339391956106e-05 0.18405738472938538 0.28636816143989563 -0.4801529347896576 1.5258306325412228e-26 -0.0 1 True False
21538.016 4.526297569274902 -1.6001779041686 2.130439106618063 -2.1009699306883753 -1.5707891623126429 1.3846969604492188 0.0 0.15412259101867676 0.25246602296829224 -0.40814560651779175 -9.474240531690436e-18 -0.0 1 True False
21538.066 4.526305198669434 -1.5930992565550746 2.1418312231646937 -2.119378229180807 -1.570756737385885 1.384689450263977 0.0 0.12639611959457397 0.2061101347208023 -0.34055283665657043 -1.439139890361809e-36 4.518681816989556e-05 1 True False
21538.115999999998 4.5263671875 -1.58752503017568 2.150827232991354 -2.1342865429320277 -1.5707886854754847 1.3847203254699707 0.0 0.09855757653713226 0.16689571738243103 -0.26317039132118225 -0.0 4.247641481924802e-05 1 True False
21538.165999999997 4.526284694671631 -1.5831481419005335 2.15784198442568 -2.145684858361715 -1.5708168188678187 1.384713053703308 0.0 0.07450146228075027 0.12065162509679794 -0.20676544308662415 -0.0 8.364807722010233e-20 1 True False
21538.216 4.526378631591797 -1.5801035366454066 2.162837807332174 -2.153581758538717 -1.5707686583148401 1.3847490549087524 0.0 0.04996040090918541 0.0767906978726387 -0.12718802690505981 -0.0 1.9861376543417464e-08 1 True False
21538.266 4.526321887969971 -1.578405042687887 2.1655600706683558 -2.158013006249899 -1.5708211104022425 1.3847624063491821 0.0 0.02238718420267105 0.033163562417030334 -0.06251871585845947 -0.0 3.016947687467228e-27 1 True False
21538.316 4.526313781738281 -1.5780078373351039 2.166170899068014 -2.158970972100729 -1.5707805792437952 1.3847039937973022 0.0 0.00023125512234400958 -5.744242912442132e-07 0.0008700061589479446 -0.0 0.0 1 True False
21538.365999999998 4.5262932777404785 -1.5780540905394496 2.1660612265216272 -2.15895475963735 -1.5707362333880823 1.384766936302185 0.0 0.0 -1.351681288300004e-36 0.00010352051322115585 -0.0 0.0 1 True False
21538.415999999997 4.526309490203857 -1.5780827007689417 2.1660969893084925 -2.1589914760985316 -1.5707886854754847 1.3846760988235474 0.0 0.0002127080224454403 -0.0 -3.41798659064807e-05 -0.0 0.0 1 True False
21538.466 4.526309490203857 -1.5780188045897425 2.1661503950702112 -2.15895475963735 -1.570772949849264 1.3847039937973022 0.0 0.0005360881332308054 0.00032490253215655684 -3.0650240660179406e-05 -0.0 0.0 1 True False
21538.516 4.526317119598389 -1.577986856500143 2.1661861578570765 -2.1589142284789027 -1.5707767645465296 1.3847624063491821 0.0 0.00019098811026196927 0.00017769266560208052 -3.310848114779219e-05 -0.0 0.0 1 True False
21538.566 4.526275157928467 -1.577970644036764 2.16616136232485 -2.158942838708395 -1.570801083241598 1.3847382068634033 0.0 0.00012973122647963464 0.00016106753901112825 -3.4019569284282625e-05 -0.0 0.0 1 True False
21538.615999999998 4.526272296905518 -1.5779692135252894 2.166128937398092 -2.158966680566305 -1.5707805792437952 1.384750485420227 -2.2275464892779206e-12 7.49448809074238e-05 0.0001094476756406948 -8.650276857626851e-16 -0.0 0.0 1 True False
21538.665999999997 4.526339530944824 -1.5779572925963343 2.166157070790426 -2.1589304409422816 -1.5707805792437952 1.3847506046295166 -3.1898591259960085e-05 5.291400520945899e-05 8.474681089865044e-05 -7.498498396609399e-16 -0.0 0.0 1 True False
21538.716 4.526330471038818 -1.578019758264059 2.166157070790426 -2.1589347324767054 -1.5707767645465296 1.3847326040267944 -1.6912639694055542e-05 3.0828566215145976e-44 2.966995266213599e-15 -1.1390241794105452e-34 -0.0 0.0 1 True False
21538.766 4.5262837409973145 -1.5779410801329554 2.166205708180563 -2.158959051171774 -1.5707529226886194 1.3847460746765137 -1.1506831469887402e-05 0.0 7.006492321624085e-45 -0.0 -0.0 0.0 1 True False
21538.816 4.526297569274902 -1.5779901943602503 2.166149441395895 -2.158962389031881 -1.5708335081683558 1.3847382068634033 -7.291238339647662e-31 0.0 0.0 -0.0 -0.0 0.0 1 True False
21538.865999999998 4.526321887969971 -1.5779615841307582 2.166189495717184 -2.158983369866842 -1.5707967917071741 1.3847370147705078 0.0 0.0 0.0 -6.84393270137737e-14 -0.0 0.0 1 True False
21538.915999999997 4.526341915130615 -1.578078409234518 2.166077438985006 -2.159046789208883 -1.5708087126361292 1.384728193283081 0.0 -0.0017963106511160731 -0.00023763530771248043 -0.001609586295671761 -0.0 0.0007244603475555778 1 True False
21538.966 4.526374816894531 -1.5780602894225062 2.166114155446188 -2.1590548954405726 -1.5707967917071741 1.3847371339797974 0.0 0.00014196969277691096 -2.219721402327577e-20 -0.0002019728417508304 -0.0 1.3240145640286156e-15 1 True False
21539.016 4.526301860809326 -1.5780426464476527 2.166069809590475 -2.159022470513815 -1.5707967917071741 1.3847460746765137 0.0 0.0003496206772979349 0.000509997655171901 -5.710997720598243e-05 -0.0 2.0111810650594395e-34 1 True True
21539.066 4.526337623596191 -1.5783106289305628 2.165661636983053 -2.1575967274107875 -1.5707925001727503 1.3847084045410156 0.0 -0.018109513446688652 -0.028432093560695648 0.06459584832191467 -0.0 0.0 1 True True
21539.115999999998 4.526309490203857 -1.5800181827940882 2.162729088460104 -2.1532193622984828 -1.5708254019366663 1.3847788572311401 0.0 -0.05218607187271118 -0.08500990271568298 0.12851707637310028 -0.0 0.0 1 True True
21539.165999999997 4.526346683502197 -1.5832587681212367 2.157538715993063 -2.1449581585326136 -1.5708172957049769 1.3847490549087524 0.0 -0.07732012122869492 -0.12379352748394012 0.1863713413476944 -0.0 0.0 1 True True
21539.216 4.526318073272705 -1.5877834759154261 2.150343720112936 -2.1332627735533656 -1.5707686583148401 1.3847936391830444 0.0 -0.10194777697324753 -0.16374221444129944 0.2566594183444977 -0.0 0.0 1 True True
21539.266 4.526313781738281 -1.5936666927733363 2.141050640736715 -2.1181770763792933 -1.5708087126361292 1.384687900543213 0.0 -0.12864232063293457 -0.20764562487602234 0.335218220949173 -0.0 -6.390515509431934e-17 1 True True
21539.316 4.526285648345947 -1.6007467708983363 2.129313294087545 -2.0994931660094203 -1.5708611647235315 1.3847174644470215 0.0 -0.15349221229553223 -0.250697523355484 0.41320762038230896 -0.0 -9.707205659399379e-36 1 True True
21539.365999999998 4.526297569274902 -1.6092363796629847 2.1158750692950647 -2.077364584008688 -1.5708087126361292 1.3847862482070923 0.0 -0.18218994140625 -0.2914954125881195 0.4710172116756439 -0.0 -0.0 1 True True
21539.415999999997 4.5263261795043945 -1.6189762554564417 2.1000517050372522 -2.0516916714110316 -1.5708048979388636 1.3847174644470215 0.0 -0.2089870125055313 -0.32897910475730896 0.5457662343978882 -0.0 -0.0 1 True True
21539.466 4.52634859085083 -1.6302749119200648 2.0821054617511194 -2.0226575336852015 -1.5707925001727503 1.3847382068634033 0.0 -0.2331187129020691 -0.3788239061832428 0.6270403861999512 -0.0 -0.0 1 True True
21539.516 4.526339530944824 -1.6412259540953578 2.0642665068255823 -1.9939900837340296 -1.570824925099508 1.3847293853759766 0.0 -0.21081185340881348 -0.3327876925468445 0.5416983962059021 -0.0 -0.0 1 True True
21539.566 4.526313781738281 -1.6509067020811976 2.0488932768451136 -1.9687167606749476 -1.5708406607257288 1.3847295045852661 0.0 -0.18324370682239532 -0.29563266038894653 0.4770253896713257 6.522038285619049e-16 6.362093785128309e-08 1 True True
21539.615999999998 4.5263261795043945 -1.6592780552306117 2.0355032126056116 -1.9469825230040492 -1.5707767645465296 1.3847953081130981 0.0 -0.15243764221668243 -0.24994410574436188 0.40662240982055664 -1.327867081630965e-16 9.664036045535247e-27 1 True True
21539.665999999997 4.526368141174316 -1.666208883325094 2.0242579619037073 -1.928697248498434 -1.5707691351519983 1.3847174644470215 0.0 -0.12567123770713806 -0.19921527802944183 0.32673379778862 -2.017033511640848e-35 1.401298464324817e-45 1 True True
21539.716 4.5263590812683105 -1.6718460522093714 2.0151103178607386 -1.9138738117613734 -1.5708649794207972 1.384713053703308 0.0 -0.10154382884502411 -0.16415122151374817 0.2834590971469879 -0.0 0.0 1 True True
21539.766 4.526322841644287 -1.6761065922179164 2.0081027189837855 -1.90263094524526 -1.5707967917071741 1.3847743272781372 0.0 -0.07397425919771194 -0.12089535593986511 0.18654929101467133 -0.0 0.0 1 True True
21539.816 4.52629280090332 -1.6791092358031214 2.0032475630389612 -1.8948551617064417 -1.570784870778219 1.3847506046295166 0.0 -0.046825114637613297 -0.07393644750118256 0.13010001182556152 -0.0 0.0 1 True True
21539.865999999998 4.526317119598389 -1.6808320484557093 2.000519577656881 -1.890597482720846 -1.5708487669574183 1.3847712278366089 0.0 -0.020342528820037842 -0.0335007943212986 0.05701969563961029 -0.0 0.0 1 True True
21539.915999999997 4.526222229003906 -1.6811000309386195 2.0000556151019495 -1.8896156750121058 -1.57074481645693 1.384728193283081 -0.02604428306221962 0.002958989702165127 -0.0021477416157722473 -0.0004367735527921468 -0.0 0.0 1 True True
21539.966 4.523619174957275 -1.6806222401061 1.99937612215151 -1.8896194897093714 -1.5707610289203089 1.3847578763961792 -0.08542385697364807 0.016314750537276268 -0.019864827394485474 0.0020705305505543947 -0.0 0.0016932061407715082 1 True True
21540.016 4.517366409301758 -1.6793576679625453 1.9979823271380823 -1.8894287548460902 -1.5708048979388636 1.3849353790283203 -0.15649235248565674 0.03509273752570152 -0.03550386801362038 0.002640679944306612 -0.0 0.005770552903413773 1 True True
21540.066 4.507714748382568 -1.6772228680052699 1.9956300894366663 -1.8892799816527308 -1.570824925099508 1.3852837085723877 -0.22690080106258392 0.04913134500384331 -0.059260737150907516 0.002689615124836564 -0.0 0.006132127251476049 1 True True
21540.115999999998 4.494580268859863 -1.6742564640440882 1.9924710432635706 -1.8890730343260707 -1.5707853476153772 1.385628581047058 -0.3001132607460022 0.06993238627910614 -0.07044611126184464 0.004824177362024784 -6.860822031740099e-05 0.007090299390256405 1 True True
21540.165999999997 4.477862358093262 -1.6705013714232386 1.9885161558734339 -1.8887855015196742 -1.570801083241598 1.3861361742019653 -0.3602878153324127 0.08226874470710754 -0.09242311120033264 0.004769676830619574 -5.791897274320945e-05 0.009634250774979591 1 True True
21540.216 4.4577789306640625 -1.6660610638060511 1.9838107267962855 -1.8885132275023402 -1.5708335081683558 1.3866454362869263 -0.43818649649620056 0.09674622118473053 -0.09978125989437103 0.006417250260710716 -3.777311576413922e-05 0.012462330050766468 1 True True
21540.266 4.434280872344971 -1.660816331902975 1.978121582661764 -1.8881389103331507 -1.5708091894732874 1.3873100280761719 -0.5074668526649475 0.11200888454914093 -0.11654818058013916 0.008796768262982368 -6.254579056985676e-05 0.01313983928412199 1 True True
21540.316 4.40705680847168 -1.6547266445555628 1.971616570149557 -1.8876639805235804 -1.5707605520831507 1.3881492614746094 -0.5773813128471375 0.12401505559682846 -0.13711442053318024 0.007634557317942381 -2.3589867851114832e-05 0.016554947942495346 1 True True
21540.365999999998 4.376435279846191 -1.647928854028219 1.9644401709186 -1.8871685467162074 -1.5707767645465296 1.3890047073364258 -0.6424928307533264 0.1408422887325287 -0.15344451367855072 0.0073431264609098434 -0.0005086905439384282 0.01903735101222992 1 True True
21540.415999999997 4.34230375289917 -1.6405002079405726 1.9564135710345667 -1.8868104420103968 -1.5708325544940394 1.3899586200714111 -0.7150930166244507 0.15934981405735016 -0.16546092927455902 0.009891355410218239 -0.000471028353786096 0.020316647365689278 1 True True
21540.466 4.3047404289245605 -1.632064004937643 1.9475558439837855 -1.886207719842428 -1.5707967917071741 1.3909895420074463 -0.7842807769775391 0.1712951809167862 -0.18223461508750916 0.016445381566882133 -0.00011994305532425642 0.022381864488124847 1 True True
21540.516 4.263734817504883 -1.6230360470213832 1.9377167860614222 -1.8854919872679652 -1.5708168188678187 1.3921196460723877 -0.8510720133781433 0.18830326199531555 -0.20267629623413086 0.018111756071448326 0.0003985287621617317 0.025560718029737473 1 True True
21540.566 4.219142913818359 -1.6132189236082972 1.9271724859820765 -1.8848492107787074 -1.5707967917071741 1.3934111595153809 -0.9264156818389893 0.20788449048995972 -0.2230035811662674 0.011777391657233238 5.665283970301971e-05 0.026683563366532326 1 True True
21540.615999999998 4.171078205108643 -1.602544446984762 1.9157961050616663 -1.88401522258901 -1.5707605520831507 1.3947927951812744 -0.9927634596824646 0.22356677055358887 -0.23081600666046143 0.01746816746890545 -7.96505410107784e-05 0.026317134499549866 1 True True
21540.665999999997 4.119747638702393 -1.5910541019835414 1.9035165945636194 -1.883340974847311 -1.5708492437945765 1.396308183670044 -1.0482418537139893 0.22882398962974548 -0.2475704550743103 0.018464220687747 1.4897575056238566e-05 0.031048808246850967 1 True True
21540.716 4.067350387573242 -1.5796429119505824 1.8912995497332972 -1.8825227222838343 -1.5707648436175745 1.39780592918396 -1.046022891998291 0.23273876309394836 -0.25415006279945374 0.014057520776987076 0.0003163132059853524 0.028223302215337753 1 True True
21540.766 4.014959812164307 -1.5679943058970203 1.8787921110736292 -1.8816286526122035 -1.5707891623126429 1.3992009162902832 -1.04385244846344 0.23018382489681244 -0.24675199389457703 0.017504429444670677 0.000184318792889826 0.028127141296863556 1 True True
21540.816 3.9626598358154297 -1.5563719498789688 1.8664901892291468 -1.8807751140990199 -1.5708125273333948 1.400745153427124 -1.0509543418884277 0.2301659882068634 -0.24115994572639465 0.014444313012063503 1.1421941962908022e-05 0.02950005978345871 1 True True
21540.865999999998 3.910236358642578 -1.5449089736542483 1.8540356794940394 -1.879967828790182 -1.5707605520831507 1.4021964073181152 -1.0443495512008667 0.23749664425849915 -0.24351716041564941 0.016849780455231667 4.190370600554161e-05 0.028391309082508087 1 True True
21540.915999999997 3.8578169345855713 -1.5331695538810273 1.8415816465960901 -1.8792416057982386 -1.5707686583148401 1.4036071300506592 -1.0448448657989502 0.2288278192281723 -0.25287753343582153 0.020386189222335815 -0.0001672053331276402 0.03106008656322956 1 True True
21540.966 3.805604934692383 -1.5215636242977162 1.8292678038226526 -1.8785120449461878 -1.5708087126361292 1.4051815271377563 -1.0512300729751587 0.22638601064682007 -0.25609296560287476 0.015023925341665745 -5.5451142543461174e-05 0.03020521253347397 1 True True
21541.016 3.753175973892212 -1.510008954708912 1.8167789618121546 -1.87754549602651 -1.5707648436175745 1.4065748453140259 -1.046457290649414 0.23578453063964844 -0.24699686467647552 0.008952836506068707 -6.414418995959181e-11 0.027177590876817703 1 True True
21541.066 3.7007534503936768 -1.4983167883804818 1.8044312636004847 -1.8767315349974574 -1.5707891623126429 1.408084511756897 -1.045974612236023 0.23097379505634308 -0.2396160215139389 0.01850886084139347 -9.743514311366998e-30 0.028881032019853592 1 True True
21541.115999999998 3.648503541946411 -1.4869093534401436 1.792004410420553 -1.8760138950743617 -1.570784870778219 1.4095888137817383 -1.0493170022964478 0.23254439234733582 -0.24924245476722717 0.01970667578279972 -5.805283283168844e-14 0.030140627175569534 1 True True
21541.165999999997 3.596156120300293 -1.4752435249141236 1.779534165059225 -1.8752309284605921 -1.5708087126361292 1.4110615253448486 -1.0467427968978882 0.23572957515716553 -0.2525596022605896 0.018741611391305923 -8.818239032342171e-33 0.02834436297416687 1 True True
