Andreas691667/Digital_Twin_UR/data_analysis/busters_stuff/robot_data/robot_output_wgo5.csv
timestamp actual_q_0 actual_q_1 actual_q_2 actual_q_3 actual_q_4 actual_q_5 actual_qd_0 actual_qd_1 actual_qd_2 actual_qd_3 actual_qd_4 actual_qd_5 safety_status output_bit_register_65 output_bit_register_66
19317.654 3.7120819091796875 -0.825463132267334 0.8430007139789026 -1.5882488689818324 -1.570813004170553 2.141239643096924 0.0 0.0 0.0 -0.0 0.0 -0.0 1 False False
19317.703999999998 3.7120580673217773 -0.825491265659668 0.8429964224444788 -1.588297029534811 -1.570756737385885 2.1413216590881348 0.0 0.0 0.0 -0.0 0.0 -0.0 1 False False
19317.754 3.712045669555664 -0.8254869741252442 0.8429520765887659 -1.5883094273009242 -1.5707805792437952 2.1413424015045166 0.0 0.0 0.0 -0.0 0.0 -0.0 1 False False
19317.804 3.712111234664917 -0.8254546088031312 0.842959229146139 -1.5882607899107875 -1.5707767645465296 2.1412839889526367 0.0 0.0 0.0 -0.0 0.0 -0.0 1 False False
19317.854 3.712106943130493 -0.825463132267334 0.8429802099810999 -1.5882374248900355 -1.5707767645465296 2.1412928104400635 0.0 0.0 0.0 -0.0 0.0 -0.0 1 False False
19317.904 3.7120416164398193 -0.8254707616618653 0.8430126349078577 -1.588292738000387 -1.570801083241598 2.141263484954834 0.0 0.0 0.0 -0.0 0.0 -0.0 1 False False
19317.953999999998 3.712090492248535 -0.8255479496768494 0.8430007139789026 -1.588320871392721 -1.5707686583148401 2.141267776489258 0.0 0.0 0.0 -0.0 0.0 -0.0 1 False False
19318.004 3.712111234664917 -0.8254760664752503 0.8430331389056605 -1.588245531121725 -1.5707929770099085 2.141267776489258 0.0 0.0 0.0 -0.0 0.0 -0.0 1 False False
19318.054 3.712066650390625 -0.8254546088031312 0.8429802099810999 -1.5882212124266566 -1.570772949849264 2.141263484954834 0.0 0.0 0.0 -0.0 0.0 -0.0 1 False False
19318.104 3.7120370864868164 -0.8254426878741761 0.8429878393756312 -1.5882731876769007 -1.5707686583148401 2.141275405883789 0.0 0.0 0.0 -0.0 0.0 -0.0 1 False False
19318.154 3.7120776176452637 -0.8255524200252076 0.8429845015155237 -1.5882379017271937 -1.5707772413836878 2.1412339210510254 0.0 0.0 0.0 -0.0 0.0 -0.0 1 False False
19318.203999999998 3.712071180343628 -0.8254469198039551 0.8429721037494105 -1.588292738000387 -1.5707967917071741 2.14133358001709 0.0 0.0 0.0 -0.0 0.0 -0.0 1 False False
19318.254 3.7120819091796875 -0.8254708212665101 0.842992130910055 -1.5882531605162562 -1.570756737385885 2.1412501335144043 0.0 0.0 0.0 -0.0 0.0 -0.0 1 False False
19318.304 3.712062358856201 -0.8254094284823914 0.8429396788226526 -1.5882889233031214 -1.5707891623126429 2.141263484954834 0.0 0.0 0.0 -0.0 0.0 -0.0 1 False False
19318.354 3.7120580673217773 -0.8254793447307129 0.842992130910055 -1.588297029534811 -1.570801083241598 2.141279697418213 0.0 0.0 0.0 -0.0 0.0 -0.0 1 False False
19318.404 3.712062358856201 -0.8255037826350708 0.8430097738849085 -1.588273664514059 -1.5707967917071741 2.1413047313690186 0.0 0.0 0.0 -0.0 0.0 -0.0 1 False False
19318.453999999998 3.712050199508667 -0.8255112928203125 0.8429935614215296 -1.5882774792113246 -1.5708492437945765 2.1412839889526367 0.0 0.0 0.0 -0.0 0.0 -0.0 1 False False
19318.504 3.712050199508667 -0.825512246494629 0.8429587523089808 -1.5883051357665003 -1.570801083241598 2.141258955001831 0.0 0.0 0.0 -0.0 0.0 -0.0 1 False False
19318.554 3.7120742797851562 -0.8254416745952149 0.8429802099810999 -1.588269372979635 -1.570801083241598 2.141266345977783 0.0 0.0 0.0 -0.0 0.0 -0.0 1 False False
19318.604 3.7120580673217773 -0.8254708212665101 0.8429964224444788 -1.5882569752135218 -1.5707925001727503 2.141279697418213 0.0 0.0 0.0 -0.0 0.0 -0.0 1 False False
19318.654 3.7120494842529297 -0.8254869741252442 0.8430097738849085 -1.588280817071432 -1.570824925099508 2.141312837600708 0.0 0.0 0.0 -0.0 0.0 -0.0 1 False False
19318.703999999998 3.712066650390625 -0.8254912060550232 0.8429802099810999 -1.5883051357665003 -1.5708087126361292 2.141282796859741 0.0 0.0 0.0 -0.0 0.0 -0.0 1 False False
19318.754 3.712090492248535 -0.8254663509181519 0.8430007139789026 -1.5882488689818324 -1.570756737385885 2.141267776489258 0.0 0.0 0.0 -0.0 0.0 -0.0 1 False False
19318.804 3.712038278579712 -0.8254663509181519 0.8429563681231897 -1.5882331333556117 -1.5708044211017054 2.1412839889526367 0.0 0.0 0.0 -0.0 0.0 -0.0 1 False False
19318.854 3.7121036052703857 -0.8255037826350708 0.8429935614215296 -1.5882650814452113 -1.5707967917071741 2.1412665843963623 0.0 0.0 0.0 -0.0 0.0 -0.0 1 False False
19318.904 3.712090492248535 -0.8254707616618653 0.8430174032794397 -1.5882650814452113 -1.5707805792437952 2.141251564025879 3.470225055934861e-05 0.0 0.0 -0.0 0.0 -0.0 1 False False
19318.953999999998 3.7120819091796875 -0.8255038422397156 0.8429558912860315 -1.5882607899107875 -1.570801083241598 2.1412558555603027 1.7669528460828587e-05 0.0 0.0 -0.0 0.0 -0.0 1 False False
19319.004 3.7120699882507324 -0.825491265659668 0.8429349104510706 -1.588292738000387 -1.5707529226886194 2.141287088394165 1.1852248462673742e-05 0.0 0.0 -0.0 0.0 -0.0 1 False False
19319.054 3.7120537757873535 -0.8254954379848023 0.8429935614215296 -1.5882774792113246 -1.570813004170553 2.141267776489258 2.4377985205514222e-26 0.0 0.0 -0.0 0.0 -0.0 1 False False
19319.104 3.712062358856201 -0.8254674238017579 0.8429964224444788 -1.5882731876769007 -1.5708087126361292 2.141317129135132 0.0 0.0 0.0 -0.0 0.0 -0.0 1 False False
19319.154 3.712066650390625 -0.8254997295192261 0.8429802099810999 -1.5882607899107875 -1.5708335081683558 2.1412763595581055 0.0 0.0 0.0 -0.0 0.0 -0.0 1 False False
19319.203999999998 3.712090492248535 -0.8255403202823182 0.8429563681231897 -1.5882817707457484 -1.570801083241598 2.141247272491455 0.0 0.0 0.0 -0.0 0.0 -0.0 1 False False
19319.254 3.712066650390625 -0.8254825633815308 0.8429425398456019 -1.5883013210692347 -1.5707443396197718 2.141312837600708 0.0 0.0 0.0 -0.0 0.0 -0.0 1 False False
19319.304 3.7120254039764404 -0.8254869741252442 0.8429802099810999 -1.5883013210692347 -1.5707724730121058 2.141295909881592 0.0 0.0 0.0 -0.0 0.0 -0.0 1 False False
19319.354 3.712106704711914 -0.8255039614490052 0.8429673353778284 -1.5882607899107875 -1.5707891623126429 2.141312837600708 0.0 0.0 0.0 -0.0 0.0 -0.0 1 False False
19319.404 3.712094783782959 -0.8254223626903077 0.8429845015155237 -1.5882817707457484 -1.5708168188678187 2.1412839889526367 0.0 0.0 0.0 -0.0 0.0 -0.0 1 False False
19319.453999999998 3.71207857131958 -0.8254912060550232 0.8430126349078577 -1.5882774792113246 -1.5707967917071741 2.1413090229034424 0.0 0.0 0.0 -0.0 0.0 -1.5699326718195812e-25 1 False False
19319.504 3.712045907974243 -0.8254094284823914 0.8430145422564905 -1.588269372979635 -1.5708487669574183 2.1412546634674072 0.0 0.0 0.0 -0.0 0.0 -2.382207389352189e-44 1 False False
19319.554 3.7120580673217773 -0.8254951399615784 0.8429964224444788 -1.588280817071432 -1.570801083241598 2.141263484954834 0.0 0.0 0.0 -0.0 0.0 -0.0 1 False False
19319.604 3.7121198177337646 -0.8255284589580079 0.8430383841144007 -1.5882774792113246 -1.570801083241598 2.141247272491455 0.0 0.0 0.0 -0.0 0.0 1.2623989310497907e-13 1 False False
19319.654 3.7120776176452637 -0.8254664105227967 0.8430007139789026 -1.5882889233031214 -1.570772949849264 2.141275405883789 0.0 0.0 0.0 -0.0 0.0 1.9175867262954808e-32 1 False False
19319.703999999998 3.7120699882507324 -0.8255165380290528 0.8429763952838343 -1.588313718835348 -1.5708368460284632 2.1413044929504395 0.0 0.0 0.0 -0.0 0.0 0.0 1 False False
19319.754 3.712050199508667 -0.8254716557315369 0.8429802099810999 -1.588252683679098 -1.570801083241598 2.1413044929504395 0.0 0.0 0.0 -0.0 0.0 0.0 1 False False
19319.804 3.712095022201538 -0.825463132267334 0.8429678122149866 -1.5883175335326136 -1.5707562605487269 2.1412546634674072 0.0 0.0 0.0 -0.0 0.0 0.0 1 False False
19319.854 3.712111473083496 -0.825457291012146 0.8429673353778284 -1.5882412395873011 -1.5708168188678187 2.14125919342041 0.0 0.0 0.0 -0.0 0.0 0.0 1 False False
19319.904 3.7120532989501953 -0.8254706424525757 0.8430083433734339 -1.5882288418211878 -1.570801083241598 2.1412925720214844 0.0 0.0 0.0 -0.0 0.0 0.0 1 True False
19319.953999999998 3.7120907306671143 -0.8254794639400025 0.8430007139789026 -1.588269372979635 -1.570857350026266 2.1412384510040283 0.0 0.0 0.0 -0.0 0.0 0.0 1 True False
19320.004 3.7120490074157715 -0.8255247634700318 0.8430126349078577 -1.5882402859129847 -1.570829216633932 2.141312837600708 0.0 0.0 0.0 -0.0 0.0 0.0 1 True False
19320.054 3.7120862007141113 -0.8254869741252442 0.8429678122149866 -1.5882412395873011 -1.5708211104022425 2.1413333415985107 0.0 0.0 0.0 -0.0 0.0 0.0 1 True False
19320.104 3.7121071815490723 -0.825445370083191 0.8430169264422815 -1.5883127651610316 -1.5707767645465296 2.1412806510925293 0.0 0.0 0.0 -0.0 0.0 0.0 1 True False
19320.154 3.7120773792266846 -0.8254423898509522 0.8430126349078577 -1.5882650814452113 -1.570813004170553 2.141275405883789 0.0 0.0 0.0 -0.0 0.0 0.0 1 True False
19320.203999999998 3.7120697498321533 -0.8254838746837159 0.8429964224444788 -1.5882536373534144 -1.5707929770099085 2.1412997245788574 0.0 0.0 0.0 -0.0 0.0 0.0 1 True False
19320.254 3.7121026515960693 -0.8254869741252442 0.8429845015155237 -1.5883056126036585 -1.5708044211017054 2.1412060260772705 7.308359914768326e-18 0.0 0.0 -0.0 0.0 0.0 1 True False
19320.304 3.7120862007141113 -0.8255155843547364 0.8429845015155237 -1.5882650814452113 -1.5708211104022425 2.1413040161132812 0.0 0.0 0.0 -0.0 0.0 0.0 1 True False
19320.354 3.7121312618255615 -0.825454370384552 0.8430097738849085 -1.5882932148375453 -1.5708006064044397 2.1413040161132812 0.0 0.0 0.0 -0.0 0.0 0.0004239592526573688 1 True False
19320.404 3.7120862007141113 -0.8254706424525757 0.8429716269122522 -1.5882607899107875 -1.5708048979388636 2.1411995887756348 0.0 0.0 0.0 -0.0 0.0 3.742971673066493e-21 1 True False
19320.453999999998 3.7120578289031982 -0.8254823845675965 0.8430007139789026 -1.5882889233031214 -1.570829216633932 2.141275405883789 0.0 0.0 0.0 -0.0 0.0 2.2494071645081217e-15 1 True False
19320.504 3.7120609283447266 -0.8254261177829285 0.8430216948138636 -1.5882774792113246 -1.5707724730121058 2.1412384510040283 0.0 0.0 0.0 -0.0 0.0 3.4168544289282605e-34 1 True False
19320.554 3.7120907306671143 -0.825463132267334 0.8430379072772425 -1.5882374248900355 -1.570772949849264 2.141263484954834 0.0 0.0 0.0 -0.0 0.0 0.0 1 True False
19320.604 3.7137978076934814 -0.8266903919032593 0.8447120825396937 -1.5887800655760707 -1.5708449522601526 2.143007755279541 0.06783044338226318 -0.050492335110902786 0.0741291493177414 -0.014712244272232056 1.8768350855680183e-05 0.06425067037343979 1 True False
19320.654 3.7187016010284424 -0.8305992049029847 0.8503645102130335 -1.5903507671751917 -1.5708211104022425 2.1478114128112793 0.12893350422382355 -0.1045348271727562 0.1488681435585022 -0.03871253877878189 1.2396968486427795e-05 0.12286581099033356 1 True False
19320.703999999998 3.7265255451202393 -0.837341920738556 0.8594391981707972 -1.592966695825094 -1.5708654562579554 2.155747652053833 0.1861867606639862 -0.15742869675159454 0.21306969225406647 -0.05339948832988739 1.389935527784658e-10 0.18184024095535278 1 True False
19320.754 3.7374982833862305 -0.8462948364070435 0.8719971815692347 -1.596384187737936 -1.5707686583148401 2.1665947437286377 0.24768665432929993 -0.19962133467197418 0.28437209129333496 -0.08100932836532593 9.234386379830539e-05 0.24670138955116272 1 True False
19320.804 3.7514076232910156 -0.8578383487514039 0.8878758589373987 -1.6008817158141078 -1.5707810560809534 2.1805837154388428 0.30520132184028625 -0.2558749318122864 0.350237101316452 -0.09326709061861038 0.00012610761041287333 0.30617985129356384 1 True False
19320.854 3.768436908721924 -0.871823863392212 0.9074953238116663 -1.6062642536559046 -1.5707805792437952 2.1975619792938232 0.3717658221721649 -0.30206161737442017 0.4218394458293915 -0.12823240458965302 2.751741158135701e-05 0.3665657937526703 1 True False
19320.904 3.788378953933716 -0.8883583706668396 0.9302914778338831 -1.6126767597594203 -1.5707805792437952 2.217634677886963 0.4310000538825989 -0.3545951843261719 0.48967865109443665 -0.1516433209180832 3.111559271928854e-05 0.42892715334892273 1 True False
19320.953999999998 3.811767339706421 -0.9073639673045655 0.9567855040179651 -1.6200124226012171 -1.5708091894732874 2.240713357925415 0.49288374185562134 -0.3977678418159485 0.5595598816871643 -0.17039991915225983 3.154118167003617e-05 0.4943253993988037 1 True False
19321.004 3.8376474380493164 -0.9288788598826905 0.9865739981280726 -1.62852205852651 -1.5707886854754847 2.266817092895508 0.5515880584716797 -0.4537387788295746 0.63117516040802 -0.17173659801483154 8.421366902433558e-14 0.554680585861206 1 True False
19321.054 3.8670458793640137 -0.953153983955719 1.019930664693014 -1.637813230554098 -1.5707967917071741 2.2961385250091553 0.6069753170013428 -0.5077635049819946 0.6978310942649841 -0.19201728701591492 5.309710104484111e-05 0.6118938326835632 1 True False
19321.104 3.8993101119995117 -0.9795423907092591 1.056948486958639 -1.6480499706664027 -1.570784870778219 2.3283987045288086 0.67106693983078 -0.5569301843643188 0.7678209543228149 -0.23600584268569946 -4.6855926484568045e-05 0.6751751899719238 1 True False
19321.154 3.934601306915283 -1.0087117117694397 1.0971787611590784 -1.6594230137267054 -1.570829216633932 2.3637773990631104 0.7326747179031372 -0.6055177450180054 0.8374930024147034 -0.23087871074676514 -3.1577146728523076e-05 0.7423234581947327 1 True False
19321.203999999998 3.9729676246643066 -1.0402899545482178 1.1413286367999476 -1.671441217462057 -1.5707891623126429 2.402130603790283 0.801024317741394 -0.6594447493553162 0.911024808883667 -0.2415904849767685 -3.761599873541854e-05 0.8076803088188171 1 True False
19321.254 4.014549255371094 -1.074483947162964 1.188498322163717 -1.6848060093321742 -1.5707925001727503 2.443828821182251 0.8584664463996887 -0.7056130170822144 0.9817801117897034 -0.2824460566043854 -2.3583235815749504e-05 0.8536860942840576 1 True False
19321.304 4.059065341949463 -1.1110569101623078 1.239349667225973 -1.6990648708739222 -1.5708087126361292 2.4881646633148193 0.9136889576911926 -0.7612196207046509 1.0516921281814575 -0.28179410099983215 -1.0138386712186392e-13 0.918052613735199 1 True False
19321.354 4.104740619659424 -1.1488311451724549 1.2916930357562464 -1.7138329945006312 -1.570716683064596 2.5340254306793213 0.9215989708900452 -0.7544569969177246 1.0377193689346313 -0.3092986047267914 0.00023825961397960782 0.9133610725402832 1 True False
19321.404 4.150639057159424 -1.1864638787559052 1.3440406958209437 -1.7282682857909144 -1.570772949849264 2.5797042846679688 0.9119647741317749 -0.7520893216133118 1.050168752670288 -0.2818230986595154 3.928182223944532e-08 0.9099322557449341 1 True False
19321.453999999998 4.19647216796875 -1.2243347328952332 1.3965476194964808 -1.7428165874876917 -1.5708087126361292 2.6257483959198 0.9191806316375732 -0.7508038878440857 1.050004243850708 -0.2614833414554596 -6.286504650176994e-09 0.9175611734390259 1 True False
19321.504 4.242376327514648 -1.2620910567096253 1.448913876210348 -1.7575208149352015 -1.570772949849264 2.671539545059204 0.9145264625549316 -0.7535918354988098 1.0382951498031616 -0.3080180287361145 -9.549216146703763e-28 0.9069611430168152 1 True False
19321.703999999998 4.418960094451904 -1.4076064240983506 1.6507518927203577 -1.8139716587462367 -1.570784870778219 2.848341226577759 0.7911483645439148 -0.6458004713058472 0.909610390663147 -0.24978192150592804 -9.345127117730365e-23 0.7901328802108765 1 True False
19321.754 4.457027912139893 -1.4387347412160416 1.6941693464862269 -1.8260799847044886 -1.5707843939410608 2.8863515853881836 0.7270761132240295 -0.5962851643562317 0.8361302018165588 -0.23155127465724945 0.00015925402112770826 0.7219732999801636 1 True False
19321.804 4.492031574249268 -1.4675403174808999 1.7340744177447718 -1.8372951946654261 -1.5708168188678187 2.92128586769104 0.6623899340629578 -0.5507202744483948 0.7669129371643066 -0.19956251978874207 1.779357035047724e-07 0.6602096557617188 1 True False
19321.854 4.523805141448975 -1.4938178595951577 1.7703216711627405 -1.8473965130248011 -1.5708730856524866 2.952972173690796 0.6041327714920044 -0.5028128027915955 0.7030515670776367 -0.1823481023311615 -0.00021648993424605578 0.6072181463241577 1 True False
19321.904 4.552622318267822 -1.5174659428051491 1.8031628767596644 -1.8566671810545863 -1.570813004170553 2.981881856918335 0.5464041829109192 -0.4486374855041504 0.6226516366004944 -0.17062751948833466 -0.0004589641757775098 0.5384102463722229 1 True False
19321.953999999998 4.578258514404297 -1.538857416515686 1.8328021208392542 -1.8648840389647425 -1.5708406607257288 3.0076792240142822 0.48832905292510986 -0.39041605591773987 0.5530527830123901 -0.15209972858428955 -0.000886374618858099 0.48513883352279663 1 True False
19322.004 4.601015567779541 -1.557320052092411 1.8588178793536585 -1.8720675907530726 -1.570829216633932 3.0303571224212646 0.4213084280490875 -0.35159212350845337 0.48839521408081055 -0.12438880652189255 0.00012489079381339252 0.42451712489128113 1 True False
19322.054 4.6208696365356445 -1.573672433892721 1.8810113112079065 -1.8784972629942835 -1.5707891623126429 3.049844264984131 0.3592895567417145 -0.2995090186595917 0.41472554206848145 -0.11379702389240265 7.689223275519907e-05 0.3683246672153473 1 True False
19322.104 4.637274742126465 -1.5871812305846156 1.9000232855426233 -1.8838383160033167 -1.5707925001727503 3.066601037979126 0.30631759762763977 -0.2534562945365906 0.3437921106815338 -0.09729039669036865 7.862650605936298e-22 0.2972840368747711 1 True False
19322.154 4.650923728942871 -1.5983802280821742 1.915839974080221 -1.8879248104491175 -1.5707686583148401 3.080021381378174 0.23703467845916748 -0.19372333586215973 0.28290867805480957 -0.07974094152450562 7.160742825362831e-05 0.24521759152412415 1 True False
19322.203999999998 4.661332130432129 -1.6070319614806117 1.927410904561178 -1.891444822350973 -1.5708168188678187 3.090620279312134 0.1804952770471573 -0.1476314663887024 0.20706875622272491 -0.0577491819858551 2.6937269933727892e-21 0.1783304661512375 1 True False
19322.254 4.668832778930664 -1.6130444012083949 1.93604022661318 -1.893691202203268 -1.5708168188678187 3.0980653762817383 0.11904127895832062 -0.10043153911828995 0.13852982223033905 -0.041224405169487 4.091777502843823e-40 0.12118467688560486 1 True False
19322.304 4.6732401847839355 -1.6167332134642542 1.9410308043109339 -1.895151754418844 -1.5708373228656214 3.102414131164551 0.05666441470384598 -0.0489225871860981 0.07227170467376709 -0.018769318237900734 0.0 0.05624077096581459 1 True False
19322.354 4.674492359161377 -1.61785950283193 1.9425833860980433 -1.8955069981017054 -1.5708048979388636 3.1036829948425293 -0.009771915152668953 0.005990847945213318 -0.004498170223087072 -0.00012949213851243258 0.0 -0.0059956395998597145 1 True False
19322.404 4.674411773681641 -1.61704744915151 1.9438231627093714 -1.8975473843016566 -1.5707724730121058 3.103653907775879 0.0007765756454318762 0.02563019096851349 0.04661627858877182 -0.06827293336391449 -1.9181170866043595e-13 0.0004897616454400122 1 True False
19322.453999999998 4.674426555633545 -1.615152975121969 1.9472644964801233 -1.9030848942198695 -1.5707805792437952 3.103710174560547 0.0005477822269313037 0.05748056620359421 0.08935386687517166 -0.15370053052902222 -2.9136243789862777e-32 0.0007447843672707677 1 True False
19322.504 4.6744914054870605 -1.6116382084288539 1.952808682118551 -1.9120179615416468 -1.5707724730121058 3.103722095489502 0.0012629878474399447 0.08473861962556839 0.12959739565849304 -0.2175116389989853 -0.0 0.00031043728813529015 1 True False
19322.554 4.67453670501709 -1.6067153416075648 1.9604452292071741 -1.924300333062643 -1.570829216633932 3.103713274002075 0.0002750237472355366 0.11415576934814453 0.17725716531276703 -0.29485392570495605 -0.0 0.00015484122559428215 1 True False
19322.604 4.674527645111084 -1.600600381890768 1.9702118078814905 -1.9405542812743128 -1.5708168188678187 3.103717565536499 0.0001952658494701609 0.13557720184326172 0.22244225442409515 -0.3539455533027649 -0.0 9.018761193146929e-05 1 True False
19322.654 4.674519062042236 -1.5930620632567347 1.9825099150287073 -1.9597546062865199 -1.5708211104022425 3.1037344932556152 0.00011239283776376396 0.16007719933986664 0.25565269589424133 -0.4241551458835602 6.0033780755475163e-05 2.8542051950353198e-05 1 True False
19322.703999999998 4.67452335357666 -1.5843240223326625 1.9962299505816858 -1.9827915630736292 -1.5707805792437952 3.1037302017211914 7.392665429506451e-05 0.18679501116275787 0.30486321449279785 -0.486415833234787 2.737240772585081e-12 1.0244142686133273e-05 1 True False
19322.754 4.674572944641113 -1.5743590794005335 2.012686077748434 -2.0091525516905726 -1.5707686583148401 3.1037464141845703 4.957586155418956e-20 0.2165207862854004 0.3401896357536316 -0.5712593793869019 4.1578758629262975e-31 7.476739724884434e-23 1 True False
19322.804 4.674540042877197 -1.5629455244964738 2.030597988759176 -2.0384961567320765 -1.570772949849264 3.1036808490753174 0.0 0.21836134791374207 0.35494548082351685 -0.5734367966651917 0.0 1.1357524053352642e-41 1 True False
19322.854 4.674519062042236 -1.552610545685031 2.0473998228656214 -2.065502782861227 -1.5707529226886194 3.103743314743042 0.0 0.19442588090896606 0.3100179433822632 -0.5045271515846252 0.0 0.0 1 True False
19322.904 4.674495697021484 -1.5436436042985697 2.0615981260882776 -2.089034219781393 -1.5707925001727503 3.103766918182373 0.0 0.1719370186328888 0.26754844188690186 -0.4303712248802185 0.0 -2.134735586878378e-05 1 True False
19322.953999999998 4.674514293670654 -1.5358067017844697 2.0741966406451624 -2.109037538568014 -1.5707648436175745 3.103747606277466 0.0 0.14070022106170654 0.22477999329566956 -0.3578990399837494 0.0 -9.942015614184965e-20 1 True False
19323.004 4.674487113952637 -1.5294427026859303 2.08423358598818 -2.125711580316061 -1.5708006064044397 3.1037187576293945 0.0 0.11040005832910538 0.18196827173233032 -0.3096977472305298 0.0 -1.5101943488964236e-38 1 True False
19323.054 4.67452335357666 -1.5244121749750157 2.092346970235006 -2.138674398461813 -1.5707925001727503 3.103750705718994 0.0 0.08687829226255417 0.13814198970794678 -0.2367926836013794 0.0 -0.0 1 True False
19323.104 4.674487113952637 -1.5207775396159668 2.098208729420797 -2.1482440433897914 -1.570813004170553 3.1037089824676514 1.1932170587444444e-32 0.06386642903089523 0.09924867004156113 -0.1510523408651352 0.0 -4.794452335143973e-11 1 True False
19323.154 4.674535751342773 -1.5184478101185341 2.1020548979388636 -2.1543756924071253 -1.5707886854754847 3.1037344932556152 -2.781689555561908e-40 0.0335766077041626 0.05125010013580322 -0.08687397092580795 0.0 -7.282779200180501e-30 1 True False
19323.203999999998 4.674514293670654 -1.517411195938923 2.1036399046527308 -2.1569587192931117 -1.5707891623126429 3.103743314743042 0.0 0.006016597151756287 0.010195877403020859 -0.019732272252440453 0.0 -0.0 1 True False
19323.254 4.674536228179932 -1.5174919080785294 2.1036298910724085 -2.156978269616598 -1.5708044211017054 3.103726387023926 0.0 0.00016565130499657243 0.00015525732305832207 5.307966421241872e-05 0.0 -0.0 1 True False
19323.304 4.674527645111084 -1.5174383086017151 2.1036623159991663 -2.156938215295309 -1.570801083241598 3.103705883026123 0.0 0.000154702749568969 8.770382555667311e-05 -0.0004171995387878269 0.0 -1.7795278792918643e-17 1 True False
19323.354 4.674561023712158 -1.5174235080233593 2.103671375905172 -2.1569906673827113 -1.5708044211017054 3.103717565536499 0.0 0.00027246688841842115 4.7731416998431087e-05 -0.000829207943752408 0.0 -2.7031080559573357e-36 1 True False
19323.404 4.674563884735107 -1.5174144443920632 2.1036952177630823 -2.157006403008932 -1.5708254019366663 3.1037302017211914 0.0 0.00018914674001280218 6.165273225633428e-05 -0.0008575129904784262 0.0 -0.0 1 True False
19323.453999999998 4.674585819244385 -1.5174681109241028 2.103666130696432 -2.157069822350973 -1.5708048979388636 3.103705883026123 0.0 0.0001291180233238265 8.693950803717598e-05 -0.0004413735878188163 0.0 -0.0 1 True False
19323.504 4.674519062042236 -1.517357924287655 2.103633228932516 -2.1570941410460414 -1.5708254019366663 3.103682041168213 0.0 0.0001722203887766227 7.037086470518261e-05 -0.00018326687859371305 0.0 -0.0 1 True False
19323.554 4.67452335357666 -1.5173813563636322 2.1036818663226526 -2.1570340595641078 -1.5707643667804163 3.1036689281463623 0.0 0.0001170046380138956 3.2359069816599865e-18 -0.00011199274013051763 0.0 -0.0 1 True False
19323.604 4.67452335357666 -1.5173829358867188 2.1037076155291956 -2.1570540867247523 -1.570801083241598 3.103677749633789 0.0 8.321021596202627e-05 4.204964876788843e-25 -8.063531277002767e-05 0.0 -0.0 1 True False
19323.654 4.6745076179504395 -1.517426350419857 2.1036818663226526 -2.157042165795797 -1.5707686583148401 3.1037306785583496 0.0 8.03766306489706e-05 0.0 -6.854636441962454e-23 0.0 -0.0 1 True False
19323.703999999998 4.6745147705078125 -1.5173203323832531 2.1036375204669397 -2.1570455036559046 -1.5707805792437952 3.103743314743042 0.0 2.486239463905804e-05 0.0 -1.0411647589933391e-41 0.0 -0.0 1 True False
19323.754 4.674503326416016 -1.5174189370921631 2.103640381489889 -2.1570664844908656 -1.570784870778219 3.10370135307312 0.0 1.4706100046169013e-05 0.0 -0.0 0.0 -1.3323559592047187e-16 1 True False
19323.804 4.674508571624756 -1.517526463871338 2.103516403828756 -2.1571465931334437 -1.570801083241598 3.1037421226501465 -6.4835766370666e-17 -0.0008605360635556281 0.00044583939597941935 -0.0033327005803585052 1.3798223631386608e-12 0.0012349309399724007 1 True False
19323.854 4.6745076179504395 -1.5174636182240029 2.103574577962057 -2.157149930993551 -1.5707805792437952 3.1037757396698 0.0 0.00026324912323616445 3.481137990541908e-33 -0.0002785575052257627 2.0959536823890417e-31 -4.000447370344773e-05 1 True False
19323.904 4.6745147705078125 -1.5174710874310513 2.1035788694964808 -2.1571742496886195 -1.5707882086383265 3.103708505630493 0.0 0.0003311736509203911 0.0005293325521051884 -9.330918692285195e-05 0.0 -3.789061520365067e-05 1 True True
19323.953999999998 4.67452335357666 -1.5175425235978146 2.1034424940692347 -2.1565991840758265 -1.5707677046405237 3.1036832332611084 0.0 -0.010994686745107174 -0.017371313646435738 0.03714831918478012 0.0 -3.7237750802887604e-05 1 True True
19324.004 4.67452335357666 -1.5187717874399205 2.1015446821795862 -2.1530925236144007 -1.5708254019366663 3.103713274002075 0.0 -0.04523723945021629 -0.0676741674542427 0.10028309375047684 0.0 -1.7436556731809105e-07 1 True True
19324.054 4.6744914054870605 -1.5214834746769448 2.0969508329974573 -2.1459528408446253 -1.5707719961749476 3.103752613067627 0.0 -0.06975343078374863 -0.11186422407627106 0.16658563911914825 0.0 -2.6486165130166844e-26 1 True True
19324.104 4.674536228179932 -1.525626042192318 2.0904362837420862 -2.1353827915587367 -1.5707529226886194 3.1037256717681885 0.0 -0.0904085710644722 -0.15341682732105255 0.2517000734806061 0.0 -4.203895392974451e-45 1 True True
19324.154 4.674511909484863 -1.5310915683260937 2.0816872755633753 -2.1215154133238734 -1.5707925001727503 3.1037583351135254 0.0 -0.11838731914758682 -0.19481594860553741 0.32353639602661133 0.0 -0.0 1 True True
19324.203999999998 4.674536228179932 -1.5378385682455082 2.070817295704977 -2.10388245205068 -1.570813004170553 3.103776454925537 0.0 -0.1477733701467514 -0.2409159541130066 0.37903302907943726 0.0 -8.469912245345768e-06 1 True True
19324.254 4.674504280090332 -1.545844356795289 2.0579403082477015 -2.082799097100729 -1.5707762877093714 3.103693723678589 0.0 -0.17226934432983398 -0.2781403660774231 0.4500735402107239 0.0 -1.2865817479251493e-24 1 True True
19324.304 4.674478530883789 -1.5553016329980274 2.042943779622213 -2.05838741878652 -1.5707805792437952 3.103776454925537 0.0 -0.20348165929317474 -0.32404863834381104 0.524371325969696 0.0 -1.9478048654114957e-43 1 True True
19324.354 4.67452335357666 -1.566126609021314 2.025632683430807 -2.0304275951781214 -1.5707891623126429 3.103717565536499 0.0 -0.22561807930469513 -0.3636389672756195 0.6040899157524109 0.0 -0.0 1 True True
19324.404 4.674503326416016 -1.5770656071104945 2.0079386870013636 -2.001554151574606 -1.5707891623126429 3.103739023208618 0.0 -0.2081446647644043 -0.3344085216522217 0.5559366345405579 0.0 -0.0 1 True True
19324.453999999998 4.674564838409424 -1.5869528255858363 1.9923184553729456 -1.9761139355101527 -1.5707762877093714 3.1036758422851562 0.0 -0.1811821460723877 -0.29184696078300476 0.4875788688659668 4.387381569159743e-10 -0.0 1 True True
19324.504 4.674487113952637 -1.595360895196432 1.9788630644427698 -1.9541193447508753 -1.570784870778219 3.10371470451355 0.0 -0.15314188599586487 -0.2511155307292938 0.40934768319129944 6.664440433162089e-29 1.420041802521219e-17 1 True True
19324.554 4.674556255340576 -1.6024419269957484 1.9673994223224085 -1.9357506237425746 -1.5708087126361292 3.103797197341919 0.0 -0.12783043086528778 -0.20914065837860107 0.334717333316803 0.0 2.1570464830551723e-36 1 True True
19324.604 4.674495697021484 -1.6081396541991175 1.958188835774557 -1.9206630192198695 -1.5707719961749476 3.1037256717681885 0.0 -0.10182317346334457 -0.16584838926792145 0.2772168815135956 0.0 0.0 1 True True
19324.654 4.674519062042236 -1.6126228771605433 1.9511683622943323 -1.909231802026266 -1.5707925001727503 3.1037299633026123 0.0 -0.07650750875473022 -0.12039109319448471 0.19555093348026276 0.0 0.0 1 True True
19324.703999999998 4.67453145980835 -1.6157151661314906 1.9461444059955042 -1.901154180566305 -1.5708335081683558 3.103755474090576 0.0 -0.04726908355951309 -0.08025356382131577 0.13737571239471436 0.0 0.0 1 True True
19324.754 4.674487113952637 -1.6174184284605921 1.9433248678790491 -1.8967558346190394 -1.5707967917071741 3.103680372238159 0.0 -0.023435620591044426 -0.03301900625228882 0.05588879808783531 0.0 0.0 1 True True
19324.804 4.674442768096924 -1.6177665195860804 1.9427145163165491 -1.895635267297262 -1.5707772413836878 3.1036460399627686 -0.027680255472660065 0.005066115874797106 -0.00590240815654397 -0.0012676495825871825 0.0 -0.019390851259231567 1 True True
19324.854 4.672058582305908 -1.6171161137022914 1.9418295065509241 -1.895442625085348 -1.570772949849264 3.10117769241333 -0.0831674188375473 0.018972355872392654 -0.027188295498490334 0.010597406886518002 0.0 -0.08017483353614807 1 True True
19324.904 4.66597843170166 -1.615669389764303 1.9399007002459925 -1.895036359826559 -1.5707724730121058 3.095170259475708 -0.15640223026275635 0.041096657514572144 -0.05337720736861229 0.006677687168121338 0.0 -0.15115608274936676 1 True True
19324.953999999998 4.656548500061035 -1.613171716729635 1.9369686285602015 -1.8945008716978968 -1.570784870778219 3.085784673690796 -0.22484993934631348 0.06034022942185402 -0.068410724401474 0.0109293507412076 0.0 -0.2200363129377365 1 True True
19325.004 4.643543720245361 -1.6097241840758265 1.932767693196432 -1.8938986263670863 -1.5707762877093714 3.072850227355957 -0.2883402705192566 0.08071684092283249 -0.09693750739097595 0.014973791316151619 0.0 -0.2951428294181824 1 True True
19325.054 4.6272172927856445 -1.605323930779928 1.9275839964496058 -1.8929878673949183 -1.5707891623126429 3.0563526153564453 -0.3651003837585449 0.09951169788837433 -0.11382533609867096 0.020809300243854523 -7.85619534921303e-14 -0.35914403200149536 1 True True
19325.104 4.6071929931640625 -1.5999804935851039 1.9211323896991175 -1.8920589886107386 -1.5707810560809534 3.0364606380462646 -0.43099647760391235 0.11594275385141373 -0.13575926423072815 0.022781377658247948 -1.1933583384717338e-32 -0.43256711959838867 1 True True
19325.154 4.5837812423706055 -1.5938712559142054 1.9136841932879847 -1.890745302239889 -1.5708053747760218 3.013155460357666 -0.5040088295936584 0.12845450639724731 -0.16080886125564575 0.023548921570181847 -5.375530236051418e-05 -0.5077845454216003 1 True True
19325.203999999998 4.5570549964904785 -1.5867458782591761 1.9050868193255823 -1.8892480335631312 -1.5708048979388636 2.986173629760742 -0.57308429479599 0.15121199190616608 -0.1847859025001526 0.03406260162591934 -8.858613148587935e-11 -0.5708514451980591 1 True True
19325.254 4.526622772216797 -1.5787221393980921 1.8955028692828577 -1.8875109157957972 -1.570784870778219 2.955803871154785 -0.6394308805465698 0.1684156358242035 -0.20724457502365112 0.0367741733789444 8.560819696867839e-05 -0.6383006572723389 1 True True
19325.304 4.4927825927734375 -1.5696592966890712 1.8847292105304163 -1.8857633076109828 -1.5707610289203089 2.921895980834961 -0.7082220315933228 0.19006508588790894 -0.2235824316740036 0.04154263064265251 0.0028075608424842358 -0.7084664702415466 1 True True
19325.354 4.455317974090576 -1.5597760298154135 1.872739617024557 -1.8837954006590785 -1.5707443396197718 2.884598731994629 -0.7741673588752747 0.20362582802772522 -0.2425532191991806 0.043941691517829895 0.0019685772713273764 -0.7922618389129639 1 True True
19325.404 4.414402008056641 -1.5490552943995972 1.8597124258624476 -1.8816210232176722 -1.5708254019366663 2.8434994220733643 -0.8454458117485046 0.22424080967903137 -0.2692992687225342 0.05292022228240967 -0.0002556497056502849 -0.8527783155441284 1 True True
19325.453999999998 4.3700852394104 -1.5371422481587906 1.8455212751971644 -1.8791853390135707 -1.5708325544940394 2.799266815185547 -0.9225286841392517 0.24429835379123688 -0.28950825333595276 0.04514507204294205 -0.0010066514369100332 -0.9156889319419861 1 True True
19325.504 4.322165489196777 -1.524439712320902 1.8304665724383753 -1.8766466579832972 -1.5707686583148401 2.751350164413452 -0.9886358976364136 0.25773078203201294 -0.3142556846141815 0.04733244702219963 0.00021334552729967982 -0.9941380023956299 1 True True
19325.554 4.270935535430908 -1.5110107001713295 1.813843075429098 -1.87382235149526 -1.5707886854754847 2.700277805328369 -1.0418490171432495 0.2754162549972534 -0.33764365315437317 0.06366444379091263 1.1698423804773483e-05 -1.0444355010986328 1 True True
19325.604 4.218609809875488 -1.4969149318388482 1.7974041144000452 -1.8710714779295863 -1.5708368460284632 2.647815465927124 -1.0492769479751587 0.2777184545993805 -0.33000555634498596 0.0551450289785862 1.7769928082662825e-24 -1.0373297929763794 1 True True
19325.654 4.166190147399902 -1.4833455768278618 1.7805255095111292 -1.8683678112425746 -1.5708168188678187 2.59539794921875 -1.044003963470459 0.2770402729511261 -0.3382009267807007 0.0555562861263752 0.0009591678972356021 -1.0516031980514526 1 True True
19325.703999999998 4.113912105560303 -1.4692878809622307 1.7640741507159632 -1.8653060398497523 -1.5708044211017054 2.543095350265503 -1.0493824481964111 0.27538540959358215 -0.3338591456413269 0.055820681154727936 0.00012695339682977647 -1.0424712896347046 1 True True
19325.754 4.061607837677002 -1.455504947607853 1.7472332159625452 -1.8626796207823695 -1.5707810560809534 2.490696430206299 -1.050146222114563 0.2750990688800812 -0.3379008173942566 0.05254335701465607 -1.3744919265257227e-11 -1.0434231758117676 1 True True
19325.804 4.009215354919434 -1.4415491086295624 1.7306750456439417 -1.8597055874266566 -1.5708330313311976 2.4384491443634033 -1.0426255464553833 0.2752705514431 -0.3372705280780792 0.05964556708931923 4.979277623898271e-13 -1.0545365810394287 1 True True
19325.854 3.9568543434143066 -1.4277389657548447 1.7139938513385218 -1.8570853672423304 -1.5708087126361292 2.3861067295074463 -1.0482362508773804 0.2741169333457947 -0.32804378867149353 0.060469090938568115 7.563532084511404e-32 -1.0483001470565796 1 True True
19325.904 3.9043681621551514 -1.413865865474083 1.6973393599139612 -1.8542357883849085 -1.5707925001727503 2.3336288928985596 -1.050304651260376 0.2807474136352539 -0.33911556005477905 0.05487194284796715 1.7024494878073448e-14 -1.0425375699996948 1 True True
19325.953999999998 3.8519952297210693 -1.3999618303826828 1.680476490651266 -1.8513571224608363 -1.5708211104022425 2.281212091445923 -1.0453978776931763 0.27387112379074097 -0.3304065763950348 0.054136503487825394 7.12447332032462e-12 -1.0544474124908447 1 True True
19326.004 3.799767255783081 -1.38618557274852 1.6639025847064417 -1.8485857448973597 -1.5707648436175745 2.2290232181549072 -1.0486294031143188 0.2773786187171936 -0.3284636437892914 0.05061164125800133 4.610924122516735e-07 -1.0469661951065063 1 True True
19326.054 3.747307538986206 -1.3722098928740998 1.6472108999835413 -1.8455683193602503 -1.5708368460284632 2.176502227783203 -1.0500534772872925 0.27900922298431396 -0.3344174325466156 0.061912596225738525 3.49329347955063e-05 -1.0436660051345825 1 True True
19326.104 3.694999933242798 -1.3584922415069123 1.630340878163473 -1.8429247341551722 -1.5708335081683558 2.124134063720703 -1.0449074506759644 0.27814239263534546 -0.3271334171295166 0.05493409186601639 8.105481903412573e-24 -1.0546982288360596 1 True True
19326.154 3.6426215171813965 -1.3443809163621445 1.6139143149005335 -1.8400422535338343 -1.5707929770099085 2.071927070617676 -1.0463029146194458 0.27758628129959106 -0.33751511573791504 0.05540355667471886 1.2317413501415142e-42 -1.0441445112228394 1 True True
19326.203999999998 3.5903711318969727 -1.3306441617063065 1.5971162954913538 -1.837283273736471 -1.5708168188678187 2.0194950103759766 -1.0513770580291748 0.27501291036605835 -0.33392974734306335 0.0556274838745594 0.0 -1.0421289205551147 1 True True
19326.254 3.537909746170044 -1.3167836231044312 1.5805514494525355 -1.8344842396178187 -1.570801083241598 1.9669889211654663 -1.0427004098892212 0.28170984983444214 -0.3361150920391083 0.05023680999875069 0.0 -1.0473061800003052 1 True True
19326.304 3.4854896068573 -1.3028789919665833 1.5636871496783655 -1.8315140209593714 -1.570784870778219 1.914779782295227 -1.0449844598770142 0.2722949683666229 -0.33540698885917664 0.057276900857686996 0.0 -1.049603819847107 1 True True
19326.354 3.43320631980896 -1.289080486898758 1.5471175352679651 -1.8289147816100062 -1.570813004170553 1.8624267578125 -1.0522314310073853 0.27998390793800354 -0.33148518204689026 0.055869702249765396 0.0 -1.0415658950805664 1 True True
19326.404 3.3812010288238525 -1.2751996380141755 1.5304887930499476 -1.8261081180968226 -1.570813004170553 1.810472846031189 -1.0114967823028564 0.2638322710990906 -0.32919296622276306 0.05772985890507698 0.0 -1.0245789289474487 1 True True
19326.453999999998 3.332369327545166 -1.2623554331115265 1.5150311628924769 -1.8234087429442347 -1.5707805792437952 1.761677861213684 -0.9476765394210815 0.2540978789329529 -0.3006282448768616 0.048875123262405396 0.0 -0.9479947090148926 1 True True
19326.504 3.287001848220825 -1.2501716774753113 1.5004060904132288 -1.821015020410055 -1.5707486311541956 1.7159883975982666 -0.8724053502082825 0.23090170323848724 -0.2762887477874756 0.046214595437049866 0.00015198858454823494 -0.8733412027359009 1 True True
19326.554 3.245041847229004 -1.2391706568053742 1.4872148672686976 -1.8186341724791468 -1.57082444826235 1.674231767654419 -0.8072606921195984 0.20994332432746887 -0.25743988156318665 0.048859644681215286 3.1928149837767705e-05 -0.8001589775085449 1 True True
19326.604 3.2064931392669678 -1.2290982168963929 1.474863354359762 -1.8166104755797328 -1.5707686583148401 1.6357831954956055 -0.7349034547805786 0.19748139381408691 -0.23455195128917694 0.04708124324679375 -0.00013587245484814048 -0.7368990182876587 1 True True
19326.654 3.17165207862854 -1.2197471123984833 1.4637482802020472 -1.8147980175414027 -1.570772949849264 1.6008051633834839 -0.6632212400436401 0.17773163318634033 -0.20788851380348206 0.03542199358344078 -7.146935488981632e-20 -0.6690568327903748 1 True True
19326.703999999998 3.140206813812256 -1.2114174526980896 1.4538252989398401 -1.8131128750243128 -1.5707891623126429 1.5693926811218262 -0.5937475562095642 0.15413722395896912 -0.19443216919898987 0.034119486808776855 -1.0856209527740439e-38 -0.5986769795417786 1 True True
19326.754 3.112177848815918 -1.2040064495852967 1.4447720686541956 -1.811470171014303 -1.5707891623126429 1.5413930416107178 -0.5231383442878723 0.13851891458034515 -0.1591547429561615 0.03126158192753792 -0.0 -0.5284535884857178 1 True True
19326.804 3.0876553058624268 -1.197560266857483 1.4368017355548304 -1.8102981052794398 -1.570829216633932 1.5168980360031128 -0.4567300081253052 0.11918552964925766 -0.1445678323507309 0.026882823556661606 3.288855805294588e-05 -0.4587561786174774 1 True True
19326.854 3.066537857055664 -1.1918320220759888 1.4303506056415003 -1.809197565118307 -1.570768181477682 1.4957877397537231 -0.3872736692428589 0.10315430164337158 -0.12440509349107742 0.020283227786421776 -9.16082426556386e-05 -0.38458776473999023 1 True True
19326.904 3.049164295196533 -1.1872694057277222 1.4247077147113245 -1.8082128963866175 -1.570784870778219 1.4783661365509033 -0.3209209144115448 0.07982427626848221 -0.10187512636184692 0.0162240918725729 0.00024969642981886864 -0.318087637424469 1 True True
19326.953999999998 3.0352234840393066 -1.1835007232478638 1.4203279654132288 -1.8074761829771937 -1.5707686583148401 1.4643393754959106 -0.24528679251670837 0.06329047679901123 -0.08122501522302628 0.011365857906639576 -2.6818838705366943e-07 -0.2475801259279251 1 True True
19327.004 3.024651288986206 -1.1808512669852753 1.4169910589801233 -1.8068214855589808 -1.5708373228656214 1.4538346529006958 -0.1764625757932663 0.04601947218179703 -0.05320347845554352 0.011517861858010292 -4.073787415530937e-26 -0.1771475374698639 1 True True
19327.054 3.0175678730010986 -1.1789712768844147 1.4146159330951136 -1.8066102466978968 -1.5707686583148401 1.4468119144439697 -0.1084209680557251 0.026649829000234604 -0.03660832345485687 0.005536121781915426 -5.605193857299268e-45 -0.10599620640277863 1 True True
19327.104 3.014047384262085 -1.1779749554446717 1.4135878721820276 -1.8063789806761683 -1.5708254019366663 1.4432255029678345 -0.0341215543448925 0.011453344486653805 -0.01142532005906105 0.002360513899475336 -0.0 -0.03831356763839722 1 True True
19327.154 3.0137081146240234 -1.177847520714142 1.4136388937579554 -1.8066145382323207 -1.5707686583148401 1.4428623914718628 0.0025112598668783903 0.015199467539787292 0.019308622926473618 -0.02288050763309002 -0.0 3.103400425530367e-09 1 True True
19327.203999999998 3.013664722442627 -1.1765455466559906 1.415839974080221 -1.8100158176817835 -1.570784870778219 1.4427838325500488 -0.0004585414717439562 0.030179066583514214 0.0689614787697792 -0.1001022458076477 -0.0 -0.0004943166859447956 1 True True
19327.254 3.0136613845825195 -1.1743635398200531 1.420481030141012 -1.8170939884581507 -1.5708168188678187 1.4427776336669922 -0.0006934546981938183 0.054453156888484955 0.1203179880976677 -0.16169962286949158 -0.0 -0.0004032694560009986 1 True True
19327.304 3.0135631561279297 -1.1710453194430848 1.4276931921588343 -1.8275066814818324 -1.5707767645465296 1.4428178071975708 -0.0007115958142094314 0.0792369619011879 0.16761337220668793 -0.2491294890642166 -8.688071102369577e-05 -0.00018841626297216862 1 True True
19327.354 3.013558864593506 -1.166554943924286 1.4371188322650355 -1.841421743432516 -1.5707605520831507 1.442798137664795 -0.0003751147596631199 0.10018917173147202 0.21176216006278992 -0.3305734694004059 -8.379610517295077e-05 -0.0001453305158065632 1 True True
19327.404 3.013592481613159 -1.160841093664505 1.4491718451129358 -1.8586880169310511 -1.5707805792437952 1.4427893161773682 -0.00015260862710420042 0.12556588649749756 0.2593989372253418 -0.3752906620502472 -8.327452815137804e-05 -9.040869190357625e-05 1 True True
19327.453999999998 3.013591766357422 -1.1542267364314576 1.46307880083193 -1.87976135830068 -1.570801083241598 1.4427893161773682 -0.00011923610145458952 0.14065790176391602 0.3047342002391815 -0.44316011667251587 -6.83188991388306e-05 -2.1580348402494565e-05 1 True True
19327.504 3.0135467052459717 -1.1463113886168976 1.4797652403460901 -1.9040938816466273 -1.5707886854754847 1.442798137664795 -6.125482468632981e-05 0.16598767042160034 0.35444891452789307 -0.5239348411560059 -2.6705786274207983e-15 -3.0687139027790744e-13 1 True True
19327.554 3.0135881900787354 -1.1377884608558197 1.4974730650531214 -1.930390020410055 -1.5707925001727503 1.442814826965332 -2.7568683435674757e-05 0.16008849442005157 0.3419327437877655 -0.4990535378456116 -3.919609525837586e-07 -4.661384056872204e-32 1 True True
19327.604 3.0135436058044434 -1.1302760702422638 1.5133979956256312 -1.953785081902975 -1.5708449522601526 1.442793607711792 -4.610271947628648e-43 0.14368270337581635 0.2963223457336426 -0.4332682490348816 1.30804148140709e-16 -0.0 1 True True
19327.654 3.013563394546509 -1.123839185839035 1.5266216436969202 -1.9738499126830042 -1.570813004170553 1.4427893161773682 0.0 0.11359305679798126 0.24930836260318756 -0.36559462547302246 1.986918069577313e-35 -0.0 1 True True
19327.703999999998 3.0135555267333984 -1.118477688436844 1.5379346052752894 -1.9900952778258265 -1.5708168188678187 1.442793607711792 0.0 0.09274207055568695 0.19700807332992554 -0.29092755913734436 0.0 -0.0 1 True True
19327.754 3.0136284828186035 -1.1143889290145417 1.5465729872332972 -2.003106733361715 -1.5707891623126429 1.4427714347839355 0.0 0.07310712337493896 0.15011368691921234 -0.2200651466846466 0.0 -0.0 1 True True
19327.804 3.0136165618896484 -1.1113732022098084 1.552830998097555 -2.0124150715269984 -1.570829216633932 1.442786455154419 0.0 0.04832432046532631 0.1091974675655365 -0.15257656574249268 0.0 -0.0 1 True True
19327.854 3.013563394546509 -1.1094368559173127 1.5569794813739222 -2.0182539425291957 -1.5707724730121058 1.442752480506897 0.0 0.02806221880018711 0.05709950625896454 -0.08350513875484467 0.0 -0.0 1 True True
19327.904 3.013613224029541 -1.1090329748443146 1.558084789906637 -2.0210725269713343 -1.5708325544940394 1.4427733421325684 0.0 0.0016935253515839577 0.013305768370628357 -0.014530261047184467 -9.907336284697976e-09 -0.0 1 True True
19327.953999999998 3.0135676860809326 -1.108992413883545 1.558234993611471 -2.021116872827047 -1.570897404347555 1.4427776336669922 0.0 0.005158564075827599 0.004374364856630564 0.0007583497208543122 -1.5049269548515332e-27 -0.0 1 True True
19328.004 3.013564109802246 -1.1086955827525635 1.5585082213031214 -2.021001001397604 -1.5708006064044397 1.442710518836975 0.0 0.010564961470663548 0.008999898098409176 0.007570757530629635 1.803377926989924e-05 -0.0 1 True True
19328.054 3.0135796070098877 -1.1081847113421937 1.5592053572284144 -2.020403047601217 -1.570772949849264 1.4427136182785034 6.08150330663193e-05 -0.011008638888597488 -0.018602566793560982 -0.021548625081777573 3.556957892669743e-07 -0.00202038767747581 1 True True
19328.104 3.0135881900787354 -1.1082160633853455 1.5590742270099085 -2.0206858120360316 -1.570784870778219 1.4428014755249023 2.2612881366512738e-05 -0.004218646325170994 -0.0022643432021141052 0.0002767618279904127 5.403026052696911e-26 0.00024149555247277021 1 True False
19328.154 3.0135838985443115 -1.1084239941886445 1.5588825384723108 -2.020769258538717 -1.5707810560809534 1.4427847862243652 2.7734218747355044e-05 -0.0015243887901306152 -0.0008443750557489693 -0.0005114772939123213 8.407790785948902e-45 1.7261169923954434e-11 1 True False
19328.203999999998 3.0135838985443115 -1.1086453956416626 1.5586937109576624 -2.0208293400206507 -1.5707686583148401 1.442793607711792 2.0044542907271534e-05 -0.000777894165366888 -0.0010585945565253496 -0.0008029777673073113 0.0 2.621975508379185e-30 1 True False
19328.254 3.0136165618896484 -1.1086410743049164 1.5586860815631312 -2.020836969415182 -1.5707772413836878 1.4428070783615112 0.0 -0.00020625581964850426 -0.0009849906200543046 -0.00011311671551084146 0.0 0.0 1 True False
19328.304 3.0135838985443115 -1.1094872516444703 1.5572040716754358 -2.0188948116698207 -1.5707529226886194 1.4427776336669922 0.0 -0.02470090426504612 -0.04950325936079025 0.07969474047422409 -9.792271157493815e-05 0.0 1 True False
19328.354 3.0136046409606934 -1.1109255117229004 1.5537250677691858 -2.0133258304991664 -1.5707605520831507 1.4427613019943237 0.0 -0.04650982841849327 -0.10051853954792023 0.13864240050315857 -0.00013463784125633538 5.7085617299890146e-06 1 True False
19328.404 3.0135598182678223 -1.1139768821052094 1.5474665800677698 -2.0043465099730433 -1.570784870778219 1.442798137664795 0.0 -0.07014153897762299 -0.14185960590839386 0.23174908757209778 -0.00010294314415659755 8.42651425045915e-05 1 True False
19328.453999999998 3.0135762691497803 -1.1180415314487 1.5389607588397425 -1.991784235040182 -1.570829216633932 1.4427688121795654 0.0 -0.09333279728889465 -0.19792288541793823 0.28171539306640625 -7.450729026459157e-05 4.7330417146440595e-05 1 True False
19328.504 3.013514518737793 -1.1231925052455445 1.5280731360064905 -1.9757925472655238 -1.5707805792437952 1.4427688121795654 0.0 -0.11001031845808029 -0.23660221695899963 0.3643893003463745 -7.2071525210049e-05 3.290798485977575e-05 1 True False
19328.554 3.013563394546509 -1.1294228595546265 1.5149410406695765 -1.9562207661070765 -1.5707967917071741 1.4427523612976074 0.0 -0.13475850224494934 -0.2878951132297516 0.4249022901058197 7.898169618325568e-11 7.367611689226112e-18 1 True False
19328.604 3.013625144958496 -1.1368519228747864 1.4992387930499476 -1.9332062206664027 -1.570829216633932 1.4428060054779053 0.0 -0.1611739993095398 -0.3284827768802643 0.4935893416404724 1.199733533341893e-29 1.1191417048092384e-36 1 True False
19328.654 3.0135719776153564 -1.1453292828849335 1.4815505186664026 -1.9070946178831996 -1.5708487669574183 1.4427326917648315 0.0 -0.16832615435123444 -0.3595689535140991 0.5352451801300049 0.0 0.0 1 True False
19328.703999999998 3.013641357421875 -1.153379575615265 1.4648106733905237 -1.8822232685484828 -1.5707724730121058 1.4427882432937622 0.0 -0.14846356213092804 -0.3045768439769745 0.4550808370113373 0.0 0.0 1 True False
19328.754 3.01357102394104 -1.160227046614029 1.4505427519427698 -1.860974451104635 -1.5707686583148401 1.442786455154419 0.0 -0.12302681058645248 -0.2666037976741791 0.38372769951820374 0.0 0.0 1 True False
19328.804 3.013546943664551 -1.1659560066512604 1.4382227102862757 -1.843112131158346 -1.5708335081683558 1.4427406787872314 0.0 -0.10481137782335281 -0.21793755888938904 0.32492125034332275 0.0 0.0 1 True False
19328.854 3.0135676860809326 -1.1706069868854065 1.4287884871112269 -1.828822752038473 -1.570813004170553 1.442842960357666 0.0 -0.08102341741323471 -0.1702936440706253 0.2536005675792694 0.0 0.0 1 True False
19328.904 3.013608932495117 -1.1740971964648743 1.4214022795306605 -1.8180695972838343 -1.570756737385885 1.4428191184997559 0.0 -0.06220794469118118 -0.12852264940738678 0.1965899020433426 0.0 0.0 1 True False
19328.953999999998 3.0135838985443115 -1.1763834220222016 1.4165237585650843 -1.8106628857054652 -1.5708048979388636 1.442753791809082 0.0 -0.038500189781188965 -0.07777585834264755 0.12405209243297577 0.0 0.0 1 True False
19329.004 3.0135838985443115 -1.177674190407135 1.4137514273272913 -1.806984087029928 -1.5707362333880823 1.442740559577942 0.0 -0.015391159802675247 -0.02914625033736229 0.044404011219739914 0.0 0.0 1 True False
19329.054 3.0135676860809326 -1.177751825456955 1.4134295622455042 -1.8063870869078578 -1.5707929770099085 1.4427893161773682 0.0 0.0012749799061566591 -1.4625616273633568e-09 -4.6999315372886485e-07 0.0 0.0 1 False False
19329.104 3.0135512351989746 -1.1777880650809784 1.4134309927569788 -1.8063436947264613 -1.5708492437945765 1.4427449703216553 0.0 -0.0002028621092904359 -0.0001417091698385775 -7.139204750796965e-26 0.0 0.0 1 False False
19329.154 3.013563394546509 -1.1777751308730622 1.4134023825274866 -1.8062778911986292 -1.570784870778219 1.4427642822265625 0.0 -0.00041954685002565384 -0.00010994106560247019 0.00021619554900098592 0.0 0.0 1 False False
19329.203999999998 3.013608932495117 -1.177803323870041 1.4133814016925257 -1.8063155613341273 -1.5707805792437952 1.4428014755249023 0.0 -0.0007487190887331963 -0.00012815398804377764 0.00037340831477195024 0.0 0.0 1 False False
19329.254 3.0135796070098877 -1.1778312784484406 1.4133904615985315 -1.8062707386412562 -1.570829216633932 1.4427980184555054 0.0 -0.0006287470459938049 -0.00019250762125011533 0.00036057576653547585 0.0 0.0 1 False False
19329.304 3.0135676860809326 -1.1778600972941895 1.4133876005755823 -1.8062917194762171 -1.5707805792437952 1.4427733421325684 0.0 -0.00016994697216432542 -0.0002453537308610976 0.00017511285841464996 0.0 0.0 1 False False
19329.354 3.0135960578918457 -1.1778882306865235 1.4133294264422815 -1.8062430820860804 -1.5708168188678187 1.4427688121795654 0.0 -0.00012238018098287284 -0.0001596299116499722 0.00010859726171474904 0.0 0.0 1 False False
19329.404 3.0135881900787354 -1.1779056054404755 1.4133742491351526 -1.806296011010641 -1.5707805792437952 1.4427613019943237 0.0 -8.18362896097824e-05 -0.00011168479250045493 9.635120659368113e-05 0.0 0.0 1 False False
19329.453999999998 3.0135393142700195 -1.1778882306865235 1.4133623282061976 -1.8062430820860804 -1.570801083241598 1.4427759647369385 0.0 -5.624119148706086e-05 -6.0831029259134084e-05 6.344706343952566e-05 0.0 0.0 1 False False
19329.504 3.0135838985443115 -1.1778806012919922 1.4133589903460901 -1.8062588177123011 -1.5708168188678187 1.4428178071975708 0.0 -1.3242806197321992e-33 -4.195559593240259e-15 1.3248441455004922e-08 0.0 0.0 1 False False
19329.554 3.0135509967803955 -1.177897111778595 1.4133904615985315 -1.8062664471068324 -1.5707605520831507 1.4427733421325684 0.0 0.0 -9.80908925027372e-45 2.0124402137801828e-27 0.0 0.0 1 False False
19329.604 3.0135838985443115 -1.1778674286654969 1.4133995215045374 -1.8062273464598597 -1.570784870778219 1.4427449703216553 0.0 0.0 -0.0 0.0 0.0 0.0 1 False False
19329.654 3.0136048793792725 -1.1778987807086487 1.413384739552633 -1.8062955341734828 -1.5708168188678187 1.4427701234817505 0.0 0.0 -0.0 0.0 0.0 0.0 1 False False
19329.703999999998 3.0136168003082275 -1.1778971415809174 1.4133575598346155 -1.8062669239439906 -1.5707805792437952 1.4427119493484497 0.0 0.0 -0.0 0.0 0.0 0.0 1 False False
19329.754 3.0135884284973145 -1.1779090625098725 1.4133546988116663 -1.8062831364073695 -1.5707805792437952 1.44284188747406 0.0 0.0 -0.0 0.0 0.0 0.0 1 False False
19329.804 3.0135960578918457 -1.1778599482825776 1.4133756796466272 -1.8062473736205042 -1.5707843939410608 1.442810297012329 0.0 0.0 -0.0 0.0 0.0 0.0 1 False False
19329.854 3.013597249984741 -1.1778897804072876 1.4133709112750452 -1.8062874279417933 -1.5707805792437952 1.4427980184555054 0.0 0.0 -0.0 0.0 0.0 0.0 1 False False
19329.904 3.0135631561279297 -1.1778690379909058 1.413441006337301 -1.806315084496969 -1.5707767645465296 1.4428266286849976 2.8799721306034215e-23 0.0 -0.0 0.0 0.0 0.0 1 False False
19329.953999999998 3.013587236404419 -1.1778971713832398 1.4133666197406214 -1.8062430820860804 -1.5708254019366663 1.442765712738037 0.0 0.0 -0.0 0.0 0.0 0.0 1 False False
19330.004 3.0136139392852783 -1.1778971415809174 1.4133413473712366 -1.8062831364073695 -1.570801083241598 1.4427613019943237 0.0 0.0 -0.0 0.0 0.0 0.0 1 True False
19330.054 3.0135421752929688 -1.1778057676604767 1.4133918921100062 -1.8062473736205042 -1.570801083241598 1.4427847862243652 0.0 0.0 -0.0 0.0 0.0 3.7109010244566313e-19 1 True False
19330.104 3.0135881900787354 -1.1778763097575684 1.4133709112750452 -1.8062712154784144 -1.570784870778219 1.4427881240844727 0.0 0.0 -0.0 0.0 0.0 5.636864323631781e-38 1 True False
19330.154 3.0135598182678223 -1.1778340500644227 1.4133337179767054 -1.8062712154784144 -1.570813004170553 1.4427030086517334 0.0 0.0 -0.0 0.0 0.0 0.0 1 True False
19330.203999999998 3.0135509967803955 -1.1778690379909058 1.4133456389056605 -1.8062464199461878 -1.570784870778219 1.4427493810653687 0.0 0.0 -0.0 0.0 0.0 0.0 1 True False
19330.254 3.0135884284973145 -1.1778309804252167 1.4133265654193323 -1.806223054925436 -1.5708087126361292 1.4428192377090454 0.0 0.0 -0.0 0.0 0.0 0.0 1 True False
19330.304 3.0135419368743896 -1.1778554779342194 1.4133995215045374 -1.8062669239439906 -1.570784870778219 1.4427847862243652 0.0 4.6403388808324494e-14 -0.0 0.0 0.0 0.0 1 True False
19330.354 3.0135586261749268 -1.1778428715518494 1.4133995215045374 -1.80627503017568 -1.5707767645465296 1.4427480697631836 0.0 0.0 -0.0 0.0 0.0 0.0 1 True False
19330.404 3.013597249984741 -1.1778943103602906 1.4133785406695765 -1.8062550030150355 -1.5707967917071741 1.4427746534347534 0.0 0.0 -1.8671510024132982e-33 0.0 1.4088969990666556e-08 6.573385326191783e-05 1 True False
19330.453999999998 3.0135750770568848 -1.1778355699828644 1.4133337179767054 -1.8062588177123011 -1.5708168188678187 1.4426805973052979 0.0 0.0 -0.0 0.0 2.140118198699379e-27 -5.302921234690472e-16 1 True False
19330.504 3.013564348220825 -1.1778927010348816 1.4133575598346155 -1.8062554798521937 -1.570813004170553 1.4427953958511353 0.0 0.0 -0.0 0.0 -0.0001761656894814223 1.8164008963594824e-07 1 True False
19330.554 3.0135674476623535 -1.1778599184802552 1.4133995215045374 -1.8062793217101039 -1.5707486311541956 1.4427838325500488 0.0 0.0 -0.0 0.0 -3.739331957202225e-23 7.82701334300917e-11 1 True False
19330.604 3.01361083984375 -1.177855448131897 1.4133370558368128 -1.8062588177123011 -1.5708335081683558 1.4428744316101074 0.03045094758272171 0.0 -0.0 0.0 -5.6794626759084836e-42 0.014773087576031685 1 True False
19330.654 3.0160043239593506 -1.1781138938716431 1.4135597387896937 -1.8063308201231898 -1.5707967917071741 1.4452154636383057 0.08138597011566162 -0.00847833976149559 0.00931899156421423 -0.0009228814160451293 -0.0 0.07856623083353043 1 True False
19330.703999999998 3.022017478942871 -1.1785449844649811 1.4141228834735315 -1.806450983087057 -1.5708087126361292 1.4511666297912598 0.15191982686519623 -0.012903222814202309 0.013569182716310024 -0.005548702087253332 2.244891584268771e-05 0.15405519306659698 1 True False
19330.754 3.0312740802764893 -1.1791538161090394 1.4150298277484339 -1.8067175350584925 -1.5707643667804163 1.4605212211608887 0.22424104809761047 -0.01389018353074789 0.022597922012209892 -0.004470245447009802 2.3597689400904566e-16 0.21929293870925903 1 True False
19330.804 3.044241428375244 -1.1800028842738648 1.4162476698504847 -1.8071485958495082 -1.5707967917071741 1.473462462425232 0.29117703437805176 -0.02009858749806881 0.027851760387420654 -0.008717929944396019 9.485997725278139e-05 0.2884392738342285 1 True False
19330.854 3.060600757598877 -1.181033418779709 1.4178555647479456 -1.8075233898558558 -1.570829216633932 1.4898662567138672 0.36080116033554077 -0.025102199986577034 0.0324256494641304 -0.008575037121772766 7.701855793129653e-05 0.3595425486564636 1 True False
19330.904 3.080549478530884 -1.1825079184821625 1.4197052160846155 -1.808077951470846 -1.5707605520831507 1.509635329246521 0.4315013587474823 -0.028821973130106926 0.0417819581925869 -0.011456047184765339 2.651477491829732e-17 0.42909497022628784 1 True False
19330.953999999998 3.103731155395508 -1.184023068552353 1.421953026448385 -1.8087274036803187 -1.5708254019366663 1.5330963134765625 0.5022478103637695 -0.03434459865093231 0.046511538326740265 -0.016146818175911903 5.733675789088011e-05 0.5022453665733337 1 True False
19331.004 3.1306471824645996 -1.1860002440265198 1.4246037642108362 -1.809373518029684 -1.5708168188678187 1.5598019361495972 0.5663660764694214 -0.03821418434381485 0.053746894001960754 -0.018043413758277893 0.00010354023106629029 0.5676641464233398 1 True False
19331.054 3.161076068878174 -1.188110278253891 1.4275262991534632 -1.8101746044554652 -1.5707290808307093 1.5902233123779297 0.646941065788269 -0.04464319348335266 0.06333690136671066 -0.018098607659339905 -6.119049711372782e-10 0.6389960646629333 1 True False
19331.104 3.1948225498199463 -1.1904278856566926 1.4307544867144983 -1.8110233745970667 -1.5707767645465296 1.6240252256393433 0.7164473533630371 -0.04922264441847801 0.06987173110246658 -0.017262592911720276 -1.7486944159372797e-07 0.7090165019035339 1 True False
19331.154 3.2320332527160645 -1.1929936569980164 1.4342144171344202 -1.8120833835997523 -1.570829216633932 1.6614049673080444 0.7827342748641968 -0.05403750389814377 0.0760137066245079 -0.020102962851524353 -6.705975101795048e-05 0.7753114104270935 1 True False
19331.203999999998 3.272961378097534 -1.1957744818976899 1.438300911580221 -1.8132525883116664 -1.5707843939410608 1.7021063566207886 0.8463926911354065 -0.05539338290691376 0.08335736393928528 -0.026149023324251175 -4.173790875938721e-05 0.8465512990951538 1 True False
19331.254 3.3172085285186768 -1.1988293391517182 1.4424851576434534 -1.8144399128355921 -1.570784870778219 1.7464181184768677 0.9227631688117981 -0.06480042636394501 0.09015657752752304 -0.023780107498168945 -3.376811582711525e-05 0.9140980243682861 1 True False
19331.304 3.365030288696289 -1.202078477745392 1.4471457640277308 -1.815676828423971 -1.5708335081683558 1.794252872467041 0.9881057739257812 -0.06629426777362823 0.09176080673933029 -0.029518647119402885 -3.0017015888006426e-05 0.9842439293861389 1 True False
19331.354 3.4162142276763916 -1.2056939464858552 1.451954189931051 -1.817029138604635 -1.5707562605487269 1.8454358577728271 1.0402206182479858 -0.07230193167924881 0.1021253913640976 -0.027807453647255898 1.823557103930451e-11 1.0486700534820557 1 True False
19331.404 3.468549966812134 -1.2092937690070649 1.45689565340151 -1.8184195957579554 -1.570801083241598 1.897715449333191 1.0446889400482178 -0.07420112192630768 0.10357951372861862 -0.031456172466278076 2.769987174266363e-30 1.0495452880859375 1 True False
19331.453999999998 3.52093768119812 -1.2128679317286988 1.4619420210467737 -1.8198987446227015 -1.5707686583148401 1.9502105712890625 1.0452337265014648 -0.07115422189235687 0.10016890615224838 -0.032430361956357956 0.0 1.0382894277572632 1 True False
19331.504 3.5733070373535156 -1.2164798837951203 1.4669378439532679 -1.8212548695006312 -1.5707972685443323 2.0025761127471924 1.0529277324676514 -0.07139138132333755 0.09916067868471146 -0.025635426864027977 -0.00011393003660487011 1.0469149351119995 1 True False
19331.554 3.6256585121154785 -1.2201107305339356 1.472025219594137 -1.822641511956686 -1.570784870778219 2.0548338890075684 1.0425505638122559 -0.07081136107444763 0.10273079574108124 -0.027666615322232246 -9.754839265951887e-05 1.051314115524292 1 True False
19331.604 3.678089141845703 -1.223680005674698 1.4770234266864222 -1.8240415058531703 -1.5707967917071741 2.1072440147399902 1.044585943222046 -0.07290978729724884 0.09831594675779343 -0.027638182044029236 -3.706365168909542e-05 1.0411335229873657 1 True False
19331.654 3.730377674102783 -1.2273266476443787 1.482032601033346 -1.8254968128600062 -1.5707891623126429 2.159555435180664 1.050987958908081 -0.07252298295497894 0.09782838076353073 -0.030979227274656296 -1.8495389667805284e-05 1.0493303537368774 1 True False
19331.703999999998 3.7827181816101074 -1.2309219402125855 1.4870193640338343 -1.826912065545553 -1.5708211104022425 2.211845874786377 1.0452864170074463 -0.07207166403532028 0.09999216347932816 -0.02356935665011406 -5.6496195611543953e-05 1.0570112466812134 1 True False
19331.754 3.8350954055786133 -1.234506533747055 1.4920132795916956 -1.8282314739623011 -1.5708492437945765 2.264268398284912 1.04655921459198 -0.07481913268566132 0.10286231338977814 -0.028921660035848618 -1.5890478607616387e-05 1.0396133661270142 1 True False
19331.804 3.8874683380126953 -1.238172249203064 1.4969647566424769 -1.8296786747374476 -1.5707648436175745 2.31673526763916 1.0505623817443848 -0.07407593727111816 0.10150280594825745 -0.03186771646142006 -2.8729250090009373e-08 1.049497365951538 1 True False
19331.854 3.939861536026001 -1.2417615217021485 1.502042595540182 -1.831006189385885 -1.5707648436175745 2.368990898132324 1.0448464155197144 -0.07200852036476135 0.10298362374305725 -0.02744886465370655 -7.814017590135336e-05 1.047835111618042 1 True False
19331.904 3.992267370223999 -1.2454117399505158 1.5071113745318812 -1.8324853382506312 -1.570813004170553 2.421408176422119 1.0461513996124268 -0.07016100734472275 0.10157541930675507 -0.027859870344400406 2.4016610041144304e-05 1.042173147201538 1 True False
19331.953999999998 4.044488906860352 -1.248975769882538 1.512120548878805 -1.8339406452574671 -1.5707443396197718 2.4738094806671143 1.0520838499069214 -0.07213632017374039 0.09932219982147217 -0.026011349633336067 6.228220716941735e-11 1.0488557815551758 1 True False
19332.004 4.096805572509766 -1.2525491279414673 1.5170143286334437 -1.8352800808348597 -1.5708406607257288 2.5260462760925293 1.0484745502471924 -0.0731135755777359 0.09912408888339996 -0.02566494047641754 9.460683975869888e-30 1.0559742450714111 1 True False
19332.054 4.149271011352539 -1.2561780971339722 1.5221594015704554 -1.8366433582701625 -1.570768181477682 2.5784261226654053 1.041566014289856 -0.07026505470275879 0.10002642124891281 -0.02700868993997574 5.693294951925054e-05 1.0357028245925903 1 True False
19332.104 4.201583385467529 -1.2598423522761841 1.5270965735064905 -1.8380714855589808 -1.570772949849264 2.6308906078338623 1.0501439571380615 -0.07234121859073639 0.10145451873540878 -0.02941766194999218 3.189978689137175e-23 1.0462911128997803 1 True False
19332.154 4.253959655761719 -1.2635186177543183 1.5321157614337366 -1.83958162883901 -1.5707967917071741 2.6831161975860596 1.04543936252594 -0.07453715056180954 0.10082750767469406 -0.030418774113059044 4.8456900896352174e-42 1.0498582124710083 1 True False
19332.203999999998 4.306223392486572 -1.2669745248607178 1.53729755083193 -1.8408814869322718 -1.5707486311541956 2.7354397773742676 1.0219892263412476 -0.07075005769729614 0.09654911607503891 -0.02738790772855282 0.0 1.0180507898330688 1 True False
19332.254 4.355731010437012 -1.2705358427814026 1.5420096556292933 -1.8422137699522914 -1.5707605520831507 2.78497314453125 0.9647722244262695 -0.06549417227506638 0.09281307458877563 -0.02052481658756733 -0.00015340573736466467 0.9589326977729797 1 True False
19332.304 4.401762008666992 -1.2736137372306366 1.5462587515460413 -1.8434936008849085 -1.5708044211017054 2.8307976722717285 0.8833691477775574 -0.061210278421640396 0.08429176360368729 -0.020609185099601746 -7.379459566436708e-05 0.8851362466812134 1 True False
19332.354 4.444315433502197 -1.2765558522990723 1.5503700415240687 -1.8445593319334925 -1.5708168188678187 2.87357497215271 0.8190615773200989 -0.05584898218512535 0.07751680165529251 -0.02180502749979496 -0.000425623613409698 0.8239904642105103 1 True False
19332.404 4.483400821685791 -1.2792346340468903 1.5540912787066858 -1.8456641636290492 -1.570772949849264 2.912714719772339 0.749751627445221 -0.05072012171149254 0.07465582340955734 -0.019969383254647255 6.202224176377058e-05 0.7488347291946411 1 True False
19332.453999999998 4.518897533416748 -1.2817284029773255 1.557488266621725 -1.8466984234251917 -1.5708449522601526 2.948274850845337 0.680402398109436 -0.047377604991197586 0.06382527947425842 -0.018816759809851646 2.211164619556325e-17 0.6721652150154114 1 True False
19332.504 4.551029682159424 -1.2838869553855439 1.5605838934527796 -1.847513814965719 -1.5707886854754847 2.9803593158721924 0.6062848567962646 -0.041401829570531845 0.06368887424468994 -0.016894031316041946 3.358764172819449e-36 0.6031203866004944 1 True False
19332.554 4.57960844039917 -1.2858939927867432 1.563382927571432 -1.8483172855772914 -1.5708535353290003 3.008970260620117 0.5364384055137634 -0.034620314836502075 0.05036551505327225 -0.015920527279376984 0.0 0.5350686311721802 1 True False
19332.604 4.604743003845215 -1.2876753372005005 1.565760914479391 -1.8489090404906214 -1.5707805792437952 3.034032106399536 0.464255154132843 -0.03164799511432648 0.04504655301570892 -0.01504837442189455 0.00010856303561013192 0.46842753887176514 1 True False
19332.654 4.626540660858154 -1.2891794008067627 1.5679715315448206 -1.8494740925230921 -1.5707977453814905 3.0555694103240967 0.39888298511505127 -0.02806107886135578 0.03860103338956833 -0.012581586837768555 -2.4553492919410225e-11 0.40746068954467773 1 True False
19332.703999999998 4.644641399383545 -1.2904032927802582 1.5696433226214808 -1.8498813114561976 -1.570772949849264 3.0737144947052 0.335477739572525 -0.023670602589845657 0.029602820053696632 -0.004347056150436401 -5.594981848844327e-05 0.3262200951576233 1 True False
19332.754 4.659152984619141 -1.2913710933974762 1.570935074483053 -1.8504201374449671 -1.5707891623126429 3.0883829593658447 0.258141428232193 -0.01840730756521225 0.023993369191884995 -0.006772719323635101 -0.0001583826233400032 0.26028725504875183 1 True False
19332.804 4.6702728271484375 -1.2921563547900696 1.5720847288714808 -1.8506981335081996 -1.5708087126361292 3.099579334259033 0.192389115691185 -0.013327010907232761 0.017189037054777145 -0.007262664847075939 -7.785960042383522e-05 0.1888069361448288 1 True False
19332.854 4.677989959716797 -1.292672024374344 1.5728033224688929 -1.8508569202818812 -1.5708053747760218 3.107211112976074 0.11766387522220612 -0.005920366384088993 0.01121001411229372 -0.0031819473952054977 2.0780797058250755e-05 0.1222977340221405 1 True False
19332.904 4.682240009307861 -1.292891488676407 1.5731318632708948 -1.8509561024107875 -1.5708454290973108 3.1113712787628174 0.048079315572977066 -0.0026981765404343605 0.002670466201379895 -0.002835792489349842 1.3174954801797867e-05 0.0517452210187912 1 True False
19332.953999999998 4.682979583740234 -1.2929091912559052 1.5733407179461878 -1.8513738117613734 -1.570836369191305 3.1121227741241455 -0.004760469309985638 0.0015082027530297637 0.024448314681649208 -0.04450404644012451 1.0822403595511787e-07 0.0006670454167760909 1 True False
19333.004 4.682983875274658 -1.292188511495926 1.5753195921527308 -1.854046484033102 -1.5707839171039026 3.112098217010498 0.0005276142619550228 0.03086886927485466 0.05971574783325195 -0.09852147847414017 1.643925267094346e-26 0.000654658186249435 1 True False
19333.054 4.683012008666992 -1.290028141146042 1.579254452382223 -1.8602825603880824 -1.5708335081683558 3.1121835708618164 0.0007381643517874181 0.06126460060477257 0.10189090669155121 -0.16108585894107819 2.802596928649634e-45 0.0005886238068342209 1 True False
19333.104 4.682999134063721 -1.286414698963501 1.5856741110431116 -1.870105882684225 -1.5707967917071741 3.1121864318847656 0.000703699653968215 0.08630144596099854 0.15037694573402405 -0.232908234000206 7.565993291791528e-05 0.0002459054521750659 1 True False
19333.154 4.6830034255981445 -1.2816369992545624 1.59422475496401 -1.8833257160582484 -1.570841137562887 3.112227439880371 0.00020707468502223492 0.10361921787261963 0.19553706049919128 -0.3152042329311371 7.457596802851185e-05 0.0001341352181043476 1 True False
19333.203999999998 4.682966709136963 -1.2757111352733155 1.605346981679098 -1.9002558193602503 -1.5707805792437952 3.1122288703918457 0.00016226833395194262 0.12809430062770844 0.23754414916038513 -0.3581339120864868 7.35865905880928e-05 8.753732254263014e-05 1 True False
19333.254 4.6830315589904785 -1.2687138479999085 1.6181791464435022 -1.9205166302123011 -1.5708296934710901 3.1122894287109375 0.00012354513455647975 0.1554376184940338 0.2896960377693176 -0.4391937255859375 5.223244443186559e-05 5.795068314107255e-10 1 True False
19333.304 4.682999134063721 -1.260363833313324 1.6337955633746546 -1.9442488155760707 -1.5708053747760218 3.1121912002563477 9.870991198113188e-05 0.17646731436252594 0.3228793144226074 -0.5089329481124878 1.1959697990337752e-20 7.95109248561183e-18 1 True False
19333.354 4.682999134063721 -1.2506465774825593 1.651257340108053 -1.9711986980833949 -1.570813004170553 3.11224365234375 0.00010716894030338153 0.18558207154273987 0.34917670488357544 -0.5299087166786194 1.8166811642092296e-39 1.207772734059787e-36 1 True False
19333.404 4.682982921600342 -1.2420121294311066 1.6675522963153284 -1.996326585809225 -1.570813004170553 3.1121985912323 9.404464071849361e-05 0.1646987497806549 0.3041677176952362 -0.4696320593357086 0.0 0.0 1 True False
19333.453999999998 4.682999134063721 -1.2344090801528473 1.6814454237567347 -2.01806177715444 -1.5707972685443323 3.112231731414795 2.1288931861818128e-07 0.13828511536121368 0.25585800409317017 -0.4002520740032196 0.0 0.0 1 True False
19333.504 4.683006763458252 -1.2280162137797852 1.6934173742877405 -2.0362497768797816 -1.5708377997027796 3.112264394760132 0.0 0.1169559583067894 0.21667549014091492 -0.34071341156959534 0.0 0.0 1 True False
19333.554 4.683022975921631 -1.2227572065642853 1.7029832045184534 -2.0509077511229457 -1.5708254019366663 3.112264394760132 0.0 0.09327685832977295 0.16757774353027344 -0.26124307513237 0.0 0.0 1 True False
19333.604 4.683027744293213 -1.2188012462905427 1.7100303808795374 -2.062129636804098 -1.5708087126361292 3.112215518951416 0.0 0.06722000986337662 0.12572206556797028 -0.19600968062877655 0.0 0.0 1 True False
19333.654 4.6830644607543945 -1.2160797280124207 1.7150896231280726 -2.0698276958861292 -1.5707967917071741 3.1122162342071533 -3.67263602668652e-31 0.04108484089374542 0.07603094726800919 -0.12796279788017273 0.0 0.0 1 True False
19333.703999999998 4.683028697967529 -1.2146293085864563 1.7178285757647913 -2.073944231072897 -1.5707643667804163 3.1122360229492188 0.0 0.01875300519168377 0.03692326322197914 -0.051939211785793304 0.0 0.0 1 True False
19333.754 4.683048248291016 -1.2143948835185547 1.7183507124530237 -2.0749269924559535 -1.5707605520831507 3.1122360229492188 0.0 -1.279485458555163e-11 -0.0003632844309322536 1.17995941764093e-05 0.0 0.0 1 True False
19333.804 4.683013916015625 -1.2143795055202027 1.7183721701251429 -2.0749107799925746 -1.570784870778219 3.112194061279297 0.0 8.826413250062615e-05 0.00035743098123930395 1.7923608047761194e-24 0.0 0.0 1 True False
19333.854 4.682978630065918 -1.2143614453128357 1.7184317747699183 -2.074942728082174 -1.5707562605487269 3.1121954917907715 0.0 9.444603347219527e-05 0.0006848970660939813 -3.295016481885682e-10 0.0 -3.498616235484378e-18 1 True False
19333.904 4.683011054992676 -1.2143720549396058 1.7185047308551233 -2.074895044366354 -1.5708091894732874 3.1121866703033447 0.0 8.140593126881868e-05 0.0004226544697303325 -5.99879895162303e-05 0.0 -5.31440357463072e-37 1 True False
19333.953999999998 4.683027744293213 -1.2143705648234864 1.7184627691852015 -2.074951311151022 -1.570772949849264 3.11221981048584 0.0 0.0001052792213158682 0.000190565682714805 -4.908128539682366e-05 0.0 -0.0 1 True False
19334.004 4.683069229125977 -1.214417354469635 1.7184389273272913 -2.074923177758688 -1.5708006064044397 3.1122570037841797 -1.106004584187139e-24 9.705724369268864e-05 9.510101517662406e-05 -4.4993095798417926e-05 0.0 -0.0 1 True False
19334.054 4.683022975921631 -1.2143422824195405 1.7185047308551233 -2.074947019616598 -1.5707929770099085 3.1122374534606934 0.0 8.943874126998708e-05 7.703431765548885e-05 -4.270228964742273e-05 0.0 -0.0 1 True False
19334.104 4.683013916015625 -1.214380995636322 1.7185090223895472 -2.0749107799925746 -1.570801083241598 3.11221981048584 0.0 8.429987065028399e-05 3.8380098578615064e-24 -1.9890409566374539e-19 0.0 -0.0 1 True False
19334.154 4.683022975921631 -1.214322881107666 1.718466583882467 -2.0749227009215296 -1.5707810560809534 3.1122186183929443 -4.25871585321147e-05 8.64667454152368e-05 0.0 -6.22930601821281e-05 0.0 -0.0 1 True False
19334.203999999998 4.6830153465271 -1.2143601042083283 1.7185199896441858 -2.0749789677061976 -1.570740048085348 3.112182378768921 -2.876899920012192e-20 7.204005669336766e-05 0.0 -2.6831872834698345e-10 0.0 -0.0 1 True False
19334.254 4.683032035827637 -1.2143139404109498 1.7184799353228968 -2.074906965295309 -1.570784870778219 3.1122806072235107 0.0 0.0 0.0 -4.0757669994761627e-29 0.0 -0.0 1 True False
19334.304 4.683030605316162 -1.214318410759308 1.7185333410846155 -2.074951311151022 -1.570784870778219 3.1122028827667236 0.0 1.3627602584165288e-06 0.0 -0.0 0.0 -0.0 1 True False
19334.354 4.682994842529297 -1.2143482130816956 1.7185285727130335 -2.074942728082174 -1.5708006064044397 3.112247943878174 0.0 0.0 0.0 -0.0 4.501143555102338e-11 -1.0855366085193996e-11 1 True False
19334.404 4.682982921600342 -1.2144597929767151 1.718367878590719 -2.075134416619772 -1.5707967917071741 3.1122522354125977 0.0 0.0003050024388357997 -1.2228345269704732e-07 -0.0008496787631884217 -0.00017929941532202065 1.5362907390681357e-07 1 True False
19334.453999999998 4.683027744293213 -1.2144321960261841 1.7183435598956507 -2.0751096210875453 -1.5708287397967737 3.1122772693634033 0.0 0.0003431035438552499 0.0003210567228961736 0.0004932247684337199 -6.737672811141238e-05 2.3336294380169876e-26 1 True False
19334.504 4.6830735206604 -1.214356319313385 1.718360726033346 -2.074918886224264 -1.5707967917071741 3.1121585369110107 0.0 -0.003545440034940839 -0.008056595921516418 0.03202236443758011 -4.149002052145079e-05 4.203895392974451e-45 1 True True
19334.554 4.683027744293213 -1.214935378437378 1.717236344014303 -2.0721575222411097 -1.570829216633932 3.1122612953186035 0.0 -0.027818607166409492 -0.05604921653866768 0.07574165612459183 -2.9974482458783314e-05 -2.3699401936028153e-05 1 True True
19334.604 4.682969093322754 -1.2172818940928956 1.7129891554461878 -2.066057344476217 -1.5707486311541956 3.112215518951416 -0.0 -0.055511474609375 -0.10524190962314606 0.16925936937332153 -7.003092964576902e-24 -5.914932172529364e-13 1 True True
19334.654 4.6830153465271 -1.2207393807223816 1.7065718809710901 -2.056528707543844 -1.5707767645465296 3.112231731414795 0.0 -0.08873642981052399 -0.1504681408405304 0.21515217423439026 -1.0635855344225362e-42 -8.98479174123751e-32 1 True True
19334.703999999998 4.683034896850586 -1.225380854015686 1.6981785933123987 -2.0433699093260707 -1.5708048979388636 3.1122612953186035 0.0 -0.1042257621884346 -0.19388625025749207 0.29475221037864685 -0.0 -0.0 1 True True
19334.754 4.683011054992676 -1.231206403379776 1.6871169249164026 -2.02694096187734 -1.5708168188678187 3.1122448444366455 0.0 -0.12808546423912048 -0.2338915467262268 0.3569643497467041 -3.014916094556952e-11 -0.0 1 True True
19334.804 4.683011054992676 -1.238263027077057 1.674309555684225 -2.0068088970580042 -1.570829216633932 3.1121912002563477 0.0 -0.15676383674144745 -0.2852593660354614 0.42831552028656006 -4.5796635485437165e-30 -0.0 1 True True
19334.854 4.683006286621094 -1.2465759676745911 1.6590107123004358 -1.983255525628561 -1.5707691351519983 3.112215518951416 0.0 -0.17321862280368805 -0.3203677833080292 0.5075290203094482 -0.0 -0.0 1 True True
19334.904 4.6830363273620605 -1.2560111445239563 1.641599480305807 -1.956470628777975 -1.5707967917071741 3.112178087234497 0.0 -0.1835203766822815 -0.35601556301116943 0.5332985520362854 -0.0 -0.0 1 True True
19334.953999999998 4.683022975921631 -1.2648214560798188 1.6250789801227015 -1.9310065708556117 -1.57082444826235 3.1122803688049316 0.0 -0.1675807237625122 -0.30858391523361206 0.47022882103919983 -0.0 -0.0 1 True True
19335.004 4.6830153465271 -1.272573636179306 1.6110385099994105 -1.9092141590514125 -1.5708406607257288 3.1122286319732666 0.0 -0.14084194600582123 -0.26329588890075684 0.40213197469711304 -0.0 -0.0 1 True True
19335.054 4.682999134063721 -1.2790554028800507 1.5991042296039026 -1.8906456432738246 -1.5707810560809534 3.1122405529022217 0.0 -0.11559248715639114 -0.22217701375484467 0.33149418234825134 -0.0 -0.0 1 True True
19335.104 4.683018684387207 -1.2842584413341065 1.589440647755758 -1.8758756122984828 -1.5708616415606897 3.112182378768921 0.0 -0.09252958744764328 -0.16693441569805145 0.259033203125 -0.0 -0.0 1 True True
19335.154 4.682969570159912 -1.288283036356308 1.5820396582232874 -1.8644191227354945 -1.5708254019366663 3.1121954917907715 5.880041245576173e-12 -0.07170399278402328 -0.129667267203331 0.19642171263694763 -0.0 -0.0 1 True True
19335.203999999998 4.682990074157715 -1.2910004717162629 1.5769427458392542 -1.8564802608885707 -1.5708087126361292 3.1122074127197266 0.0 -0.04520637169480324 -0.07689578831195831 0.12101169675588608 -0.0 -0.0 1 True True
19335.254 4.68303918838501 -1.2926964920810242 1.574064079915182 -1.8519894085326136 -1.5708254019366663 3.1122729778289795 0.0 -0.021176064386963844 -0.03860984742641449 0.05582115426659584 -0.0 -0.0 1 True True
19335.304 4.682966232299805 -1.2930155855468293 1.5732992331134241 -1.8511387310423792 -1.570801083241598 3.1121554374694824 -0.013977834954857826 -2.86094600596698e-05 -9.198983752867207e-05 -0.0015061591984704137 -0.0 -0.01921912282705307 1 True True
19335.354 4.681753635406494 -1.2930257779410859 1.5732958952533167 -1.8510905704894007 -1.5707686583148401 3.109700918197632 -0.041906606405973434 -0.0006005262839607894 -4.878402251051739e-05 -2.2530535902288745e-21 -0.0 -0.08640319854021072 1 True True
19335.404 4.678579330444336 -1.2931229335120697 1.5733392874347132 -1.8510948620238246 -1.5707810560809534 3.1035168170928955 -0.08020445704460144 -0.004340497311204672 0.001962513430044055 0.0002938940597232431 -4.395509449750534e-07 -0.15569539368152618 1 True True
19335.453999999998 4.673625946044922 -1.2932620209506531 1.5735400358783167 -1.8511110744872035 -1.5708449522601526 3.094001531600952 -0.11749086529016495 -0.005742804612964392 0.005119629204273224 0.00010372288670623675 -6.676788046703217e-26 -0.21984408795833588 1 True True
19335.504 4.666914463043213 -1.2935037475875397 1.5738323370562952 -1.8510667286314906 -1.5707767645465296 3.0811121463775635 -0.14992812275886536 -0.00461902329698205 0.006212069187313318 -0.0009573135175742209 -9.80908925027372e-45 -0.3011881709098816 1 True True
19335.554 4.658403396606445 -1.2937256854823609 1.5741804281817835 -1.8512217007079066 -1.5708254019366663 3.0644102096557617 -0.19128994643688202 -0.005605364218354225 0.009121326729655266 -0.00201459601521492 -0.0 -0.3634691834449768 1 True True
19335.604 4.647927284240723 -1.2941124600223084 1.5746162573443812 -1.851309438745016 -1.570801083241598 3.0446054935455322 -0.22452855110168457 -0.007160436362028122 0.00864681601524353 -0.002620788523927331 -0.0 -0.4359673857688904 1 True True
19335.654 4.635871887207031 -1.294493929748871 1.5750883261310022 -1.8514286480345667 -1.5707967917071741 3.0211057662963867 -0.2573346495628357 -0.00834826473146677 0.01077441405504942 -0.0025328476913273335 -9.65191671704023e-15 -0.49813759326934814 1 True True
19335.703999999998 4.621923923492432 -1.2948470276645203 1.5755932966815394 -1.851560731927389 -1.5707929770099085 2.9940221309661865 -0.2994385063648224 -0.009659173898398876 0.011326891370117664 -0.003446520771831274 -1.4661287169073747e-33 -0.5693685412406921 1 True True
19335.754 4.6060895919799805 -1.2953078311732789 1.5761664549456995 -1.8517075977721156 -1.5707925001727503 2.9634664058685303 -0.3309834599494934 -0.010298906825482845 0.014009043574333191 -0.002018450293689966 -0.0 -0.6361680030822754 1 True True
19335.804 4.588484287261963 -1.2958229345134278 1.5768087545977991 -1.851842542687887 -1.5708087126361292 2.929501533508301 -0.370044469833374 -0.011320507153868675 0.013914458453655243 -0.005005796439945698 -0.0 -0.7063522338867188 1 True True
19335.854 4.569208145141602 -1.2963723701289673 1.5775826613055628 -1.8520060978331507 -1.5708168188678187 2.8923428058624268 -0.40162527561187744 -0.011484957300126553 0.016440318897366524 -0.0035590059123933315 -0.0 -0.7837022542953491 1 True True
19335.904 4.547872543334961 -1.2970288556865235 1.5784557501422327 -1.852203985253805 -1.5708087126361292 2.851367235183716 -0.4406314790248871 -0.012732959352433681 0.016958829015493393 -0.003253004979342222 -2.0227868081926838e-17 -0.8572662472724915 1 True True
19335.953999999998 4.525125026702881 -1.2977756422809144 1.5793221632586878 -1.8524071178831996 -1.5707486311541956 2.806765556335449 -0.481746107339859 -0.013840238563716412 0.019416404888033867 -0.005687036085873842 6.727068102918565e-05 -0.920372486114502 1 True True
19336.004 4.500219345092773 -1.2984331411174317 1.5802372137652796 -1.852649827996725 -1.5707843939410608 2.7589523792266846 -0.5106571316719055 -0.016417885199189186 0.020468607544898987 -0.0037178450729697943 1.7847930757966665e-15 -0.9953030943870544 1 True True
19336.054 4.473470687866211 -1.2991858285716553 1.581308666859762 -1.8528715572752894 -1.5708368460284632 2.7075419425964355 -0.5371187925338745 -0.015325652435421944 0.021517984569072723 -0.005569111090153456 -0.0004165680438745767 -1.0353676080703735 1 True True
19336.104 4.446388244628906 -1.299944357281067 1.5823724905597132 -1.8531586132445277 -1.57082444826235 2.655116558074951 -0.5490244626998901 -0.014692490920424461 0.01909535937011242 -0.0069996025413274765 -0.002183924661949277 -1.0455892086029053 1 True True
19336.154 4.419416904449463 -1.3009333175471802 1.5834487120257776 -1.853321214715475 -1.5707805792437952 2.6029021739959717 -0.5448082089424133 -0.013824611902236938 0.020048735663294792 -0.007026710081845522 0.00018636410823091865 -1.0472654104232788 1 True True
19336.203999999998 4.392536163330078 -1.3016459506801148 1.5844438711749476 -1.8535472355284632 -1.5707810560809534 2.5504276752471924 -0.5414782762527466 -0.015421979129314423 0.020662778988480568 -0.003318697214126587 0.0007869651890359819 -1.040235996246338 1 True True
19336.254 4.365557670593262 -1.3024518650821229 1.5855615774737757 -1.8537856541075648 -1.5707610289203089 2.4980673789978027 -0.5383208394050598 -0.018159382045269012 0.021302057430148125 -0.0017265649512410164 0.0013255069497972727 -1.0525970458984375 1 True True
19336.304 4.338259220123291 -1.3032348913005372 1.5864980856524866 -1.8541370830931605 -1.5708048979388636 2.4458885192871094 -0.5351116061210632 -0.018673541024327278 0.021633535623550415 -0.0023030140437185764 0.0038924936670809984 -1.0513176918029785 1 True True
19336.354 4.310987949371338 -1.3039859694293519 1.5875094572650355 -1.8543101749815882 -1.5708048979388636 2.3934829235076904 -0.5435130596160889 -0.016376595944166183 0.021999496966600418 -0.004014640115201473 -0.00036097204429097474 -1.0429288148880005 1 True True
19336.404 4.283809661865234 -1.304864452486374 1.5886300245868128 -1.854593416253561 -1.5708282629596155 2.341031312942505 -0.5437504053115845 -0.014257392846047878 0.01975126750767231 -0.007487852592021227 -0.0009476966806687415 -1.0505722761154175 1 True True
19336.453999999998 4.256783962249756 -1.3056481045535584 1.5896833578692835 -1.8548361263670863 -1.5708406607257288 2.288780450820923 -0.5465059280395508 -0.014202315360307693 0.018893098458647728 -0.008913540281355381 -0.0011380062205716968 -1.0517146587371826 1 True True
19336.504 4.229789733886719 -1.3064690989306946 1.5906861464129847 -1.854978700677389 -1.5707967917071741 2.23633074760437 -0.5457105040550232 -0.015041042119264603 0.018698154017329216 -0.0076331389136612415 -0.0006768492748960853 -1.0413906574249268 1 True True
19336.554 4.202816009521484 -1.3072772187045594 1.5917065779315394 -1.8552185497679652 -1.570772949849264 2.1838622093200684 -0.5431854128837585 -0.0151252755895257 0.021848531439900398 -0.0043680365197360516 0.0005782490479759872 -1.054932713508606 1 True True
19336.604 4.175847053527832 -1.308086172943451 1.5927642027484339 -1.8554359875121058 -1.5707247892962855 2.1317100524902344 -0.5377129316329956 -0.017065798863768578 0.022569963708519936 -0.002917228965088725 0.0009381663403473794 -1.0515623092651367 1 True True
19336.654 4.148688316345215 -1.3088742953589936 1.5938399473773401 -1.855699201623434 -1.5707042852984827 2.0793211460113525 -0.5347779989242554 -0.017539208754897118 0.022656593471765518 -0.0014390426222234964 0.0027224302757531404 -1.0408693552017212 1 True True
19336.703999999998 4.121402263641357 -1.3097025615027924 1.5948575178729456 -1.8560086689391078 -1.5707843939410608 2.026836633682251 -0.5373361706733704 -0.017031917348504066 0.02316838875412941 -0.002072676317766309 -0.0002681454934645444 -1.0450698137283325 1 True True
19336.754 4.094202995300293 -1.3104868692210694 1.5958884398089808 -1.8562280140318812 -1.5708449522601526 1.9745748043060303 -0.5406309962272644 -0.015322133898735046 0.019523145630955696 -0.006337765604257584 -0.0006380390841513872 -1.0497978925704956 1 True True
19336.804 4.067108631134033 -1.3112750214389344 1.596978012715475 -1.8564816914000453 -1.5708368460284632 1.9222053289413452 -0.5480408072471619 -0.013128056190907955 0.018574140965938568 -0.006945028901100159 -0.001482703723013401 -1.0401415824890137 1 True True
19336.854 4.04005765914917 -1.3121076387218018 1.5980146566974085 -1.856668611566061 -1.5708087126361292 1.8697378635406494 -0.5505574345588684 -0.01352387573570013 0.018475918099284172 -0.00968161877244711 -0.0032988060265779495 -1.0487440824508667 1 True True
19336.904 4.013111591339111 -1.3128869992545624 1.5990951696978968 -1.8568674526610316 -1.5707414785968226 1.8175932168960571 -0.5451156497001648 -0.015899740159511566 0.020301710814237595 -0.0058392067439854145 0.0006307947915047407 -1.051449179649353 1 True True
19336.953999999998 3.986104965209961 -1.313719169502594 1.6001103560077112 -1.8571659527220667 -1.5707486311541956 1.7652206420898438 -0.5358469486236572 -0.0159983579069376 0.022652463987469673 -0.0022826953791081905 0.0010178530355915427 -1.0449920892715454 1 True True
19337.004 3.9591190814971924 -1.3144878310016175 1.601142708455221 -1.8573681316771449 -1.5707610289203089 1.7126588821411133 -0.5384445190429688 -0.019044257700443268 0.022012323141098022 -0.0025764470919966698 0.0017999258125200868 -1.040566325187683 1 True True
19337.054 3.9319093227386475 -1.3153041762164612 1.6021912733661097 -1.857615133325094 -1.5707891623126429 1.6604278087615967 -0.5380059480667114 -0.019556691870093346 0.023126166313886642 -0.0019656550139188766 0.001629534875974059 -1.0494457483291626 1 True True
19337.104 3.90458345413208 -1.3160886627486725 1.6032236258136194 -1.8579007587828578 -1.5708611647235315 1.608041524887085 -0.5405705571174622 -0.014224295504391193 0.018946971744298935 -0.004678572993725538 -0.00039752430166117847 -1.0462249517440796 1 True True
19337.154 3.877476215362549 -1.3168605130961915 1.6042874495135706 -1.8581963978209437 -1.5708892981158655 1.5555973052978516 -0.5448941588401794 -0.01392098143696785 0.016648193821310997 -0.008451636880636215 -0.001130601391196251 -1.049008846282959 1 True True
19337.203999999998 3.8503339290618896 -1.317688749437668 1.6052950064288538 -1.8583818874754847 -1.5708211104022425 1.5034059286117554 -0.5482515096664429 -0.013664502650499344 0.019877705723047256 -0.00810202956199646 -0.0026951886247843504 -1.0501400232315063 1 True True
19337.254 3.8235082626342773 -1.3185333174518128 1.606325928364889 -1.858565469781393 -1.5707805792437952 1.4509953260421753 -0.5484975576400757 -0.01516540814191103 0.018572332337498665 -0.00716170109808445 0.00013118826609570533 -1.0464550256729126 1 True True
19337.304 3.796464681625366 -1.319366530781128 1.607415024434225 -1.8587318859496058 -1.5707691351519983 1.3985480070114136 -0.5372657179832458 -0.017473861575126648 0.02318595163524151 -0.003535268595442176 0.0008345858659595251 -1.0456812381744385 1 True True
19337.354 3.7694225311279297 -1.3201628786376496 1.608401123677389 -1.8590218029417933 -1.5707443396197718 1.346211552619934 -0.5369449853897095 -0.01642073504626751 0.023102978244423866 -0.0011602611048147082 0.0013938230695202947 -1.044043779373169 1 True True
19337.404 3.7421987056732178 -1.320890263920166 1.609429184590475 -1.8593198261656703 -1.5707772413836878 1.293847918510437 -0.534835934638977 -0.018065163865685463 0.022849099710583687 -0.0025916637387126684 0.0019950191490352154 -1.0506192445755005 1 True True
19337.453999999998 3.715005874633789 -1.3216737073710938 1.6104453245746058 -1.8596145115294398 -1.5708368460284632 1.2413777112960815 -0.5396223068237305 -0.01665480248630047 0.023125549778342247 -0.00260198675096035 -0.00032661756267771125 -1.0455083847045898 1 True True
19337.504 3.6878511905670166 -1.3224614423564454 1.6114957968341272 -1.8598610363402308 -1.5708325544940394 1.1892338991165161 -0.5474420785903931 -0.016153007745742798 0.01949238032102585 -0.008820364251732826 -0.0004145135753788054 -1.049843668937683 1 True True
19337.554 3.6607096195220947 -1.3233049672893067 1.6125267187701624 -1.860119958917135 -1.5708006064044397 1.1367641687393188 -0.5448117256164551 -0.014616149477660656 0.019727949053049088 -0.008609791286289692 -0.0015931309899315238 -1.0415065288543701 1 True True
19337.604 3.633765697479248 -1.3241165292314072 1.613589111958639 -1.860298296014303 -1.5707805792437952 1.084389567375183 -0.5479111671447754 -0.016038618981838226 0.021914463490247726 -0.009415882639586926 -0.0013008546084165573 -1.0433382987976074 1 True True
19337.654 3.606776237487793 -1.3249724817327042 1.6146886984454554 -1.8605133495726527 -1.5707443396197718 1.0320656299591064 -0.5410640239715576 -0.014935807324945927 0.0206404160708189 -0.004541909322142601 0.0006874496466480196 -1.046310305595398 1 True True
19337.703999999998 3.579745292663574 -1.3257528406432648 1.6157568136798304 -1.8607078991331996 -1.5707810560809534 0.979707658290863 -0.5382329821586609 -0.018021775409579277 0.02339133620262146 -0.0040540071204304695 0.0011036999057978392 -1.0529910326004028 1 True True
19337.754 3.55264949798584 -1.326503650551178 1.616814438496725 -1.8610340557494105 -1.5707529226886194 0.9272934198379517 -0.5347540974617004 -0.017890846356749535 0.02182963863015175 -0.0014570072526112199 0.002269696444272995 -1.0453684329986572 1 True True
19337.804 3.5254647731781006 -1.327287034397461 1.6177929083453577 -1.8612562618651332 -1.5707724730121058 0.8750852346420288 -0.5383759140968323 -0.017092671245336533 0.02101948671042919 -0.0016636813525110483 0.00018082749738823622 -1.054541826248169 1 True True
19337.854 3.4982051849365234 -1.3281113666347046 1.6187451521502894 -1.8615185223021449 -1.570813004170553 0.8226591944694519 -0.5426385998725891 -0.01580631732940674 0.020428553223609924 -0.00402395986020565 -0.0005147588672116399 -1.0470689535140991 1 True True
19337.904 3.4710750579833984 -1.328946904545166 1.6198013464557093 -1.8617531261839808 -1.570813004170553 0.7702043652534485 -0.5474825501441956 -0.015550697222352028 0.019495977088809013 -0.007657237350940704 -0.001043621450662613 -1.0494378805160522 1 True True
19337.953999999998 3.443956136703491 -1.3298235100558777 1.6208637396441858 -1.86200012783193 -1.5709055105792444 0.7179411053657532 -0.5471127033233643 -0.014776977710425854 0.02005024626851082 -0.009771378710865974 -0.0028558464255183935 -1.043677806854248 1 True True
19338.004 3.417081356048584 -1.3305495393327256 1.621988598500387 -1.8621560535826625 -1.5707610289203089 0.6655668616294861 -0.5440992116928101 -0.015814093872904778 0.01885327696800232 -0.008177032694220543 0.0001269042695639655 -1.0481717586517334 1 True True
19338.054 3.3901207447052 -1.3314192754081269 1.623044792805807 -1.8623930416502894 -1.5707362333880823 0.6131986975669861 -0.540808916091919 -0.016763707622885704 0.02190719172358513 -0.002246001036837697 0.0007935524336062372 -1.0494812726974487 1 True True
19338.104 3.362928628921509 -1.3321245175651093 1.6241262594806116 -1.862596174279684 -1.5708096663104456 0.5608689785003662 -0.5347166657447815 -0.019775381311774254 0.023877205327153206 -0.0015116941649466753 0.0020300212781876326 -1.0452989339828491 1 True True
19338.154 3.3358609676361084 -1.3329290014556427 1.625080410634176 -1.8629104099669398 -1.5707486311541956 0.5084646940231323 -0.5382620692253113 -0.017764335498213768 0.02240515872836113 -0.002294933656230569 0.0003018160059582442 -1.0459312200546265 1 True True
19338.203999999998 3.308621406555176 -1.3337040555528183 1.6260679403888147 -1.8631965122618617 -1.5708282629596155 0.45613688230514526 -0.5393749475479126 -0.016119688749313354 0.022194450721144676 -0.003631798317655921 -0.0005942583084106445 -1.0467464923858643 1 True True
19338.254 3.281501293182373 -1.3345734190991898 1.6271608511554163 -1.863415380517477 -1.570853058491842 0.40375787019729614 -0.5432583093643188 -0.015189825557172298 0.020598897710442543 -0.006680749356746674 -0.0009663441451266408 -1.039468765258789 1 True True
19338.304 3.254403591156006 -1.3353019219687958 1.6282041708575647 -1.863661905328268 -1.570829216633932 0.35132527351379395 -0.5452910661697388 -0.014744735322892666 0.019092364236712456 -0.009882171638309956 -0.002056450815871358 -1.0475980043411255 1 True True
19338.354 3.2274484634399414 -1.336212159400322 1.6292889753924769 -1.863856931725973 -1.570784870778219 0.29905954003334045 -0.5490410923957825 -0.015923308208584785 0.020436234772205353 -0.007903116755187511 6.692650640616193e-05 -1.0520302057266235 1 True True
19338.404 3.2003226280212402 -1.337020219569542 1.630416218434469 -1.8640791378416957 -1.570756737385885 0.24676468968391418 -0.5363650321960449 -0.01664668321609497 0.020858807489275932 -0.004088263027369976 0.0005371756851673126 -1.0458285808563232 1 True True
19338.453999999998 3.174365997314453 -1.3377954971841355 1.6313794294940394 -1.8642975292601527 -1.5707810560809534 0.19634650647640228 -0.5014868378639221 -0.015794718638062477 0.020132815465331078 -0.00345244980417192 0.0008063540444709361 -0.9756892919540405 1 True True
19338.504 3.1500821113586426 -1.3384628307870408 1.6322639624225062 -1.8645769558348597 -1.5708168188678187 0.14945736527442932 -0.46351510286331177 -0.014257604256272316 0.018212050199508667 -0.0019589781295508146 0.002293429570272565 -0.9080525040626526 1 True True
19338.554 3.1273932456970215 -1.3391344559243699 1.6330602804767054 -1.864814897576803 -1.5708044211017054 0.10590289533138275 -0.42881661653518677 -0.012767057865858078 0.017173217609524727 -0.0038945982232689857 -0.00042138079879805446 -0.8355919718742371 1 True True
19338.604 3.1067075729370117 -1.33977463961158 1.6339262167560022 -1.864917894402975 -1.5707925001727503 0.06600876152515411 -0.3989852964878082 -0.009751667268574238 0.013496302999556065 -0.006368475500494242 -0.00011242745677009225 -0.7606046199798584 1 True True
19338.654 3.0880703926086426 -1.3404035431197663 1.634704891835348 -1.8650967083373011 -1.570756737385885 0.029625751078128815 -0.366184800863266 -0.009972305968403816 0.01293839793652296 -0.0035360490437597036 -1.6961267256692704e-15 -0.6928303837776184 1 True True
19338.703999999998 3.0709469318389893 -1.3407808107188721 1.635373894368307 -1.8652245006956996 -1.5708087126361292 -0.003266636525289357 -0.3213607966899872 -0.00964366551488638 0.011144597083330154 -0.003455652156844735 -2.6894173061009496e-05 -0.6239174604415894 1 True True
19338.754 3.055767297744751 -1.3412488412908097 1.6358855406390589 -1.8653713665404261 -1.570857350026266 -0.032811943684713185 -0.28947198390960693 -0.00804009847342968 0.011286021210253239 -0.0016603849362581968 -2.777910998003708e-21 -0.5543950796127319 1 True True
19338.804 3.0422322750091553 -1.341619373565056 1.6364529768573206 -1.865486284295553 -1.5707925001727503 -0.058767143880025685 -0.25118330121040344 -0.007550304289907217 0.009723205119371414 -0.0018442057771608233 -4.219645987713462e-40 -0.4829789698123932 1 True True
